ncols        302
nrows        148
xllcorner    650417.000000000000
yllcorner    274952.000000000000
cellsize     5.000000000000
NODATA_value -9999
12.957182884216308594 13.003622055053710938 13.049975395202636719 13.096426010131835938 13.142466545104980469 13.188715934753417969 13.23476409912109375 13.281102180480957031 13.327456474304199219 13.374254226684570312 13.421319961547851562 13.468988418579101562 13.517337799072265625 13.567474365234375 13.619578361511230469 13.673705101013183594 13.729859352111816406 13.787991523742675781 13.848252296447753906 13.910506248474121094 13.974964141845703125 14.041242599487304688 14.109892845153808594 14.1805572509765625 14.254297256469726562 14.331104278564453125 14.412154197692871094 14.497591018676757812 14.590561866760253906 14.698345184326171875 14.8323974609375 14.988470077514648438 15.179846763610839844 15.405787467956542969 15.654002189636230469 15.907848358154296875 16.169424057006835938 16.43096160888671875 16.697978973388671875 16.963407516479492188 17.2339935302734375 17.502439498901367188 17.776025772094726562 18.046527862548828125 18.322141647338867188 18.59432220458984375 18.871961593627929688 19.1459197998046875 19.425807952880859375 19.701679229736328125 19.983135223388671875 20.25959014892578125 20.541978836059570312 20.819383621215820312 21.10355377197265625 21.382694244384765625 21.42804718017578125 21.794086456298828125 22.03754425048828125 22.328960418701171875 22.511981964111328125 23.15802764892578125 23.866718292236328125 23.538476943969726562 23.5450439453125 23.608228683471679688 23.673564910888671875 23.737897872924804688 23.805067062377929688 23.871450424194335938 23.941005706787109375 24.009717941284179688 24.081653594970703125 24.150909423828125 24.2174224853515625 24.273550033569335938 24.253814697265625 23.974884033203125 23.661375045776367188 23.347318649291992188 23.167985916137695312 23.001401901245117188 22.811553955078125 22.595050811767578125 22.327777862548828125 22.049146652221679688 21.749847412109375 21.458271026611328125 21.154558181762695312 20.863370895385742188 20.56208038330078125 20.27483367919921875 19.9791717529296875 19.701944351196289062 19.420507431030273438 19.1578369140625 18.89057159423828125 18.641145706176757812 18.386892318725585938 18.149633407592773438 17.90793609619140625 17.683902740478515625 17.456834793090820312 17.247999191284179688 17.036985397338867188 16.843145370483398438 16.647336959838867188 16.46825408935546875 16.287954330444335938 16.12450408935546875 15.961703300476074219 15.816427230834960938 15.674056053161621094 15.549555778503417969 15.431260108947753906 15.334196090698242188 15.245076179504394531 15.167757034301757812 15.090541839599609375 15.020539283752441406 14.94979095458984375 14.886151313781738281 14.822418212890625 14.765443801879882812 14.706760406494140625 14.652573585510253906 14.596323966979980469 14.544543266296386719 14.491467475891113281 14.443269729614257812 14.392995834350585938 14.346550941467285156 14.298065185546875 14.2534637451171875 14.207015037536621094 14.164513587951660156 14.120444297790527344 14.079861640930175781 14.037279129028320312 14.000551223754882812 13.970761299133300781 13.960470199584960938 13.957488059997558594 13.954108238220214844 13.949576377868652344 13.945095062255859375 13.940172195434570312 13.935436248779296875 13.930156707763671875 13.9250640869140625 13.920260429382324219 13.919129371643066406 13.920969009399414062 13.924422264099121094 13.929274559020996094 13.934438705444335938 13.940426826477050781 13.946206092834472656 13.952557563781738281 13.958463668823242188 13.964796066284179688 13.970514297485351562 13.976078987121582031 13.980450630187988281 13.984338760375976562 13.987230300903320312 13.989684104919433594 13.991373062133789062 13.992572784423828125 13.99298858642578125 13.992685317993164062 13.991730690002441406 13.989986419677734375 13.987721443176269531 13.984563827514648438 13.98084259033203125 13.975896835327148438 13.970431327819824219 13.963592529296875 13.956336021423339844 13.947484016418457031 13.938116073608398438 13.9267578125 13.914994239807128906 13.901134490966796875 13.887061119079589844 13.870588302612304688 13.853878974914550781 13.833253860473632812 13.809766769409179688 13.779231071472167969 13.74530029296875 13.7059326171875 13.668148994445800781 13.627162933349609375 13.588428497314453125 13.547119140625 13.509044647216796875 13.469919204711914062 13.434275627136230469 13.397775650024414062 13.365391731262207031 13.3323516845703125 13.302021026611328125 13.270462989807128906 13.241659164428710938 13.212438583374023438 13.18602752685546875 13.159153938293457031 13.134716987609863281 13.109766960144042969 13.086976051330566406 13.063666343688964844 13.042249679565429688 13.020215034484863281 12.999856948852539062 12.978901863098144531 12.959502220153808594 12.939540863037109375 12.921033859252929688 12.902009010314941406 12.884318351745605469 12.866013526916503906 12.848858833312988281 12.831116676330566406 12.814488410949707031 12.797327995300292969 12.781231880187988281 12.764597892761230469 12.748946189880371094 12.732791900634765625 12.71758270263671875 12.701912879943847656 12.68715667724609375 12.671982765197753906 12.657695770263671875 12.64304351806640625 12.629343032836914062 12.6154937744140625 12.602623939514160156 12.589659690856933594 12.577630043029785156 12.565563201904296875 12.5543975830078125 12.5432586669921875 12.532996177673339844 12.522837638854980469 12.513541221618652344 12.504384994506835938 12.495888710021972656 12.487274169921875 12.479104995727539062 12.470795631408691406 12.462895393371582031 12.454847335815429688 12.447160720825195312 12.439432144165039062 12.432370185852050781 12.425560951232910156 12.419416427612304688 12.413571357727050781 12.408372879028320312 12.403555870056152344 12.399766921997070312 12.396527290344238281 12.392745018005371094 12.389585494995117188 12.388406753540039062 12.389370918273925781 12.392526626586914062 12.398146629333496094 12.405589103698730469 12.414606094360351562 12.190652847290039062 11.80507659912109375 12.207128524780273438 12.080411911010742188 11.962938308715820312 11.853546142578125 11.760028839111328125 11.680895805358886719 11.616334915161132812 11.558928489685058594 11.505568504333496094 11.44908905029296875 11.386799812316894531 11.315340042114257812 11.239985466003417969 11.162023544311523438 11.087421417236328125 11.017713546752929688 10.957270622253417969 10.904173851013183594 10.858052253723144531 10.816088676452636719 10.777515411376953125 10.739888191223144531 10.703395843505859375 10.667669296264648438 10.633910179138183594 10.602046966552734375 10.573101997375488281 
12.935015678405761719 12.982661247253417969 13.029295921325683594 13.075845718383789062 13.1219024658203125 13.168040275573730469 13.213899612426757812 13.260020256042480469 13.306132316589355469 13.352648735046386719 13.399382591247558594 13.446646690368652344 13.494423866271972656 13.543656349182128906 13.594696044921875 13.647583961486816406 13.702302932739257812 13.758810043334960938 13.817265510559082031 13.877551078796386719 13.939894676208496094 14.003980636596679688 14.070356369018554688 14.138676643371582031 14.209812164306640625 14.283748626708984375 14.361781120300292969 14.443673133850097656 14.532033920288085938 14.629118919372558594 14.752356529235839844 14.906638145446777344 15.10364532470703125 15.337468147277832031 15.5910797119140625 15.848192214965820312 16.111288070678710938 16.373682022094726562 16.641214370727539062 16.906923294067382812 17.177642822265625 17.446010589599609375 17.719255447387695312 17.989315032958984375 18.264375686645507812 18.535854339599609375 18.812597274780273438 19.085489273071289062 19.364076614379882812 19.638401031494140625 19.918121337890625 20.192693710327148438 20.4727630615234375 20.747373580932617188 21.0280609130859375 21.303430557250976562 21.555864334106445312 21.754772186279296875 22.014430999755859375 22.371912002563476562 22.454462051391601562 22.763031005859375 23.519031524658203125 23.46076202392578125 23.459674835205078125 23.528354644775390625 23.599367141723632812 23.669336318969726562 23.742464065551757812 23.814828872680664062 23.8907623291015625 23.965921401977539062 24.044834136962890625 24.1222991943359375 24.19826507568359375 24.214086532592773438 24.115823745727539062 23.8177337646484375 23.397489547729492188 22.846065521240234375 23.096990585327148438 22.916601181030273438 22.722272872924804688 22.503429412841796875 22.243688583374023438 21.9762420654296875 21.688665390014648438 21.407070159912109375 21.112283706665039062 20.82825469970703125 20.532962799072265625 20.250257492065429688 19.9585723876953125 19.684505462646484375 19.405673980712890625 19.144969940185546875 18.879331588745117188 18.631137847900390625 18.377992630004882812 18.141782760620117188 17.901033401489257812 17.677747726440429688 17.451204299926757812 17.242633819580078125 17.0318603515625 16.838239669799804688 16.642557144165039062 16.46347808837890625 16.283050537109375 16.11917877197265625 15.955747604370117188 15.809690475463867188 15.666393280029296875 15.540958404541015625 15.421254158020019531 15.322711944580078125 15.233367919921875 15.156502723693847656 15.080132484436035156 15.010979652404785156 14.941149711608886719 14.878405570983886719 14.81566619873046875 14.7598114013671875 14.702466964721679688 14.649549484252929688 14.594635009765625 14.544110298156738281 14.492402076721191406 14.445377349853515625 14.396314620971679688 14.351026535034179688 14.303791999816894531 14.260388374328613281 14.215244293212890625 14.173986434936523438 14.131119728088378906 14.091546058654785156 14.049782752990722656 14.011511802673339844 13.982462882995605469 13.976749420166015625 13.9720611572265625 13.967530250549316406 13.962404251098632812 13.957444190979003906 13.951997756958007812 13.946719169616699219 13.940855026245117188 13.935308456420898438 13.931078910827636719 13.9299468994140625 13.930833816528320312 13.933000564575195312 13.936326026916503906 13.940053939819335938 13.944551467895507812 13.949013710021972656 13.953983306884765625 13.958640098571777344 13.963650703430175781 13.968172073364257812 13.972558975219726562 13.976010322570800781 13.979065895080566406 13.9813079833984375 13.983155250549316406 13.984356880187988281 13.985104560852050781 13.985177040100097656 13.984567642211914062 13.983380317687988281 13.981431007385253906 13.979012489318847656 13.975731849670410156 13.971965789794921875 13.967022895812988281 13.96160125732421875 13.954850196838378906 13.947709083557128906 13.939061164855957031 13.930058479309082031 13.919220924377441406 13.9079437255859375 13.894571304321289062 13.880928993225097656 13.864882469177246094 13.848566055297851562 13.829637527465820312 13.809107780456542969 13.781894683837890625 13.750818252563476562 13.7126922607421875 13.675398826599121094 13.634869575500488281 13.59653472900390625 13.555658340454101562 13.517939567565917969 13.479143142700195312 13.444057464599609375 13.408938407897949219 13.377491950988769531 13.345076560974121094 13.315210342407226562 13.28427886962890625 13.256277084350585938 13.227776527404785156 13.201913833618164062 13.175499916076660156 13.151399612426757812 13.12671661376953125 13.104104995727539062 13.080912590026855469 13.059537887573242188 13.037499427795410156 13.017101287841796875 12.996067047119140625 12.976560592651367188 12.956456184387207031 12.937786102294921875 12.918557167053222656 12.900612831115722656 12.882014274597167969 12.864573478698730469 12.846523284912109375 12.829593658447265625 12.812108039855957031 12.795694351196289062 12.778725624084472656 12.762751579284667969 12.746258735656738281 12.730725288391113281 12.71471405029296875 12.699628829956054688 12.684112548828125 12.669492721557617188 12.654499053955078125 12.640481948852539062 12.62628936767578125 12.61307525634765625 12.599737167358398438 12.58733367919921875 12.574860572814941406 12.563287734985351562 12.551709175109863281 12.541004180908203125 12.530364990234375 12.520582199096679688 12.510895729064941406 12.501917839050292969 12.492871284484863281 12.48430633544921875 12.475612640380859375 12.467365264892578125 12.458988189697265625 12.451014518737792969 12.443032264709472656 12.435739517211914062 12.428706169128417969 12.422358512878417969 12.416318893432617188 12.410952568054199219 12.405961990356445312 12.401700019836425781 12.398430824279785156 12.395547866821289062 12.3922576904296875 12.390492439270019531 12.390851020812988281 12.393431663513183594 12.398500442504882812 12.405675888061523438 12.414656639099121094 12.189182281494140625 11.997713088989257812 12.198225021362304688 12.067777633666992188 11.946268081665039062 11.832712173461914062 11.735399246215820312 11.652952194213867188 11.585683822631835938 11.525960922241210938 11.470627784729003906 11.412321090698242188 11.348306655883789062 11.275159835815429688 11.19834136962890625 11.1192474365234375 11.044023513793945312 10.974353790283203125 10.914685249328613281 10.863068580627441406 10.818961143493652344 10.779476165771484375 10.743650436401367188 10.708971023559570312 10.675426483154296875 10.642549514770507812 10.611330986022949219 10.581583976745605469 10.554152488708496094 
12.912611007690429688 12.961283683776855469 13.008399009704589844 13.055088043212890625 13.101037979125976562 13.146985054016113281 13.192620277404785156 13.238451004028320312 13.284205436706542969 13.330289840698242188 13.376526832580566406 13.423237800598144531 13.470376014709472656 13.518666267395019531 13.568577766418457031 13.6201629638671875 13.673415184020996094 13.728298187255859375 13.784979820251464844 13.843338966369628906 13.903596878051757812 13.965496063232421875 14.029604911804199219 14.09563446044921875 14.164368629455566406 14.235535621643066406 14.310551643371582031 14.389123916625976562 14.473329544067382812 14.564074516296386719 14.672929763793945312 14.82262420654296875 15.026945114135742188 15.270020484924316406 15.528117179870605469 15.787087440490722656 16.051382064819335938 16.314603805541992188 16.582620620727539062 16.84864044189453125 17.119524002075195312 17.3877716064453125 17.660602569580078125 17.929718017578125 18.203004837036132812 18.471956253051757812 18.74565887451171875 19.01552581787109375 19.291440963745117188 19.563837051391601562 19.84270477294921875 20.117549896240234375 20.39858245849609375 20.673799514770507812 20.95330047607421875 21.225286483764648438 21.36444854736328125 21.628583908081054688 21.886636734008789062 22.211208343505859375 22.389268875122070312 22.507785797119140625 23.068593978881835938 23.428392410278320312 23.371236801147460938 23.44548797607421875 23.52225494384765625 23.597967147827148438 23.6772003173828125 23.755727767944335938 23.838268280029296875 23.920148849487304688 24.006387710571289062 24.091798782348632812 24.17993927001953125 24.049615859985351562 23.932149887084960938 23.621732711791992188 22.813333511352539062 23.05755615234375 23.023357391357421875 22.83702850341796875 22.637472152709960938 22.418025970458984375 22.164276123046875 21.905248641967773438 21.627170562744140625 21.354028701782226562 21.067129135131835938 20.78986358642578125 20.50081634521484375 20.223241806030273438 19.935749053955078125 19.664594650268554688 19.388017654418945312 19.128992080688476562 18.864749908447265625 18.617626190185546875 18.365381240844726562 18.129938125610351562 17.889970779418945312 17.66736602783203125 17.441308975219726562 17.232957839965820312 17.022327423095703125 16.828950881958007812 16.633504867553710938 16.454559326171875 16.274190902709960938 16.110208511352539062 15.946443557739257812 15.799917221069335938 15.656031608581542969 15.530048370361328125 15.409549713134765625 15.310032844543457031 15.220594406127929688 15.1443023681640625 15.068765640258789062 15.000472068786621094 14.931605339050292969 14.86983489990234375 14.808218002319335938 14.753477096557617188 14.697432518005371094 14.645796775817871094 14.592222213745117188 14.542983055114746094 14.492685317993164062 14.446774482727050781 14.398850440979003906 14.354636192321777344 14.308539390563964844 14.266187667846679688 14.222131729125976562 14.181824684143066406 14.139750480651855469 14.100816726684570312 14.06084442138671875 14.027769088745117188 14.009073257446289062 14.003470420837402344 13.997488975524902344 13.991545677185058594 13.984857559204101562 13.978387832641601562 13.97126007080078125 13.964489936828613281 13.957143783569335938 13.950671195983886719 13.946028709411621094 13.943838119506835938 13.943093299865722656 13.943508148193359375 13.944843292236328125 13.946726799011230469 13.949301719665527344 13.952101707458496094 13.955492019653320312 13.958895683288574219 13.962750434875488281 13.966334342956542969 13.969834327697753906 13.972558021545410156 13.974915504455566406 13.976583480834960938 13.977884292602539062 13.978641510009765625 13.978976249694824219 13.978739738464355469 13.977853775024414062 13.976456642150878906 13.974325180053710938 13.971769332885742188 13.968378067016601562 13.964579582214355469 13.959656715393066406 13.95429229736328125 13.947642326354980469 13.9406280517578125 13.932153701782226562 13.923357963562011719 13.912876129150390625 13.902054786682128906 13.889176368713378906 13.8759765625 13.860423088073730469 13.844489097595214844 13.825998306274414062 13.807312965393066406 13.783453941345214844 13.755481719970703125 13.719491958618164062 13.682719230651855469 13.642602920532226562 13.604620933532714844 13.564139366149902344 13.526796340942382812 13.488491058349609375 13.454639434814453125 13.420711517333984375 13.389926910400390625 13.35803985595703125 13.32863616943359375 13.298447608947753906 13.271114349365234375 13.243191719055175781 13.217767715454101562 13.191716194152832031 13.167878150939941406 13.143397331237792969 13.120916366577148438 13.097791671752929688 13.076419830322265625 13.054347038269042969 13.033883094787597656 13.01274871826171875 12.993120193481445312 12.972859382629394531 12.95401763916015625 12.934573173522949219 12.916377067565917969 12.897500991821289062 12.879790306091308594 12.861449241638183594 12.844236373901367188 12.826446533203125 12.809734344482421875 12.792449951171875 12.776171684265136719 12.759359359741210938 12.743518829345703125 12.727186203002929688 12.711793899536132812 12.695951461791992188 12.681020736694335938 12.665706634521484375 12.651385307312011719 12.636861801147460938 12.623318672180175781 12.609622955322265625 12.596863746643066406 12.58400726318359375 12.572051048278808594 12.560059547424316406 12.548941612243652344 12.537855148315429688 12.527623176574707031 12.517451286315917969 12.5080108642578125 12.498544692993164062 12.489603042602539062 12.480541229248046875 12.471960067749023438 12.46326446533203125 12.455010414123535156 12.446761131286621094 12.439221382141113281 12.431940078735351562 12.425364494323730469 12.419102668762207031 12.413534164428710938 12.408352851867675781 12.403873443603515625 12.400028228759765625 12.397459983825683594 12.394719123840332031 12.392481803894042969 12.392249107360839844 12.394278526306152344 12.398824691772460938 12.405640602111816406 12.414560317993164062 12.187952995300292969 11.993220329284667969 12.191603660583496094 12.058323860168457031 11.933688163757324219 11.816867828369140625 11.71656036376953125 11.631485939025878906 11.562025070190429688 11.500321388244628906 11.443137168884277344 11.382891654968261719 11.3167877197265625 11.241356849670410156 11.162340164184570312 11.081313133239746094 11.004711151123046875 10.93442535400390625 10.87506103515625 10.824620246887207031 10.782350540161132812 10.745241165161132812 10.712096214294433594 10.680294036865234375 10.64958953857421875 10.619415283203125 10.590555191040039062 10.562697410583496094 10.536508560180664062 
12.890641212463378906 12.939887046813964844 12.987395286560058594 13.034173011779785156 13.080072402954101562 13.125834465026855469 13.171154022216796875 13.216571807861328125 13.261849403381347656 13.307409286499023438 13.353081703186035156 13.399206161499023438 13.445733070373535156 13.493094444274902344 13.541805267333984375 13.592031478881835938 13.643780708312988281 13.697023391723632812 13.7519378662109375 13.8083953857421875 13.866623878479003906 13.926407814025878906 13.988294601440429688 14.052031517028808594 14.118432998657226562 14.18714141845703125 14.2592926025390625 14.334756851196289062 14.415213584899902344 14.501068115234375 14.598215103149414062 14.737621307373046875 14.95233917236328125 15.204277992248535156 15.465055465698242188 15.725539207458496094 15.990917205810546875 16.25478363037109375 16.523242950439453125 16.78955078125 17.060253143310546875 17.3269805908203125 17.596235275268554688 17.859979629516601562 18.1268310546875 18.389308929443359375 18.65677642822265625 18.921072006225585938 19.191936492919921875 19.460107803344726562 19.735807418823242188 20.0091552734375 20.291070938110351562 20.570535659790039062 20.85839080810546875 21.140001296997070312 21.42191314697265625 21.657243728637695312 21.789501190185546875 22.042509078979492188 22.35459136962890625 22.40659332275390625 22.72451019287109375 23.1639251708984375 23.280286788940429688 23.35977935791015625 23.441997528076171875 23.570852279663085938 23.721866607666015625 23.82025146484375 24.3055572509765625 24.541608810424804688 24.46547698974609375 24.524305343627929688 24.230279922485351562 23.977396011352539062 23.747522354125976562 23.4665069580078125 23.07756805419921875 23.149211883544921875 22.949697494506835938 22.759267807006835938 22.556360244750976562 22.337982177734375 22.089586257934570312 21.8372039794921875 21.566808700561523438 21.300825119018554688 21.020723342895507812 20.7493743896484375 20.465915679931640625 20.1932220458984375 19.910125732421875 19.642169952392578125 19.367815017700195312 19.110242843627929688 18.8471527099609375 18.600912094116210938 18.349416732788085938 18.114564895629882812 17.875062942504882812 17.652975082397460938 17.427370071411132812 17.219188690185546875 17.008668899536132812 16.81548309326171875 16.620336532592773438 16.441629409790039062 16.261455535888671875 16.09758758544921875 15.933767318725585938 15.787080764770507812 15.642931938171386719 15.516765594482421875 15.39605712890625 15.296129226684570312 15.206911087036132812 15.131313323974609375 15.056603431701660156 14.989170074462890625 14.921304702758789062 14.860594749450683594 14.80025482177734375 14.746692657470703125 14.691817283630371094 14.641404151916503906 14.589151382446289062 14.541238784790039062 14.492329597473144531 14.447440147399902344 14.40056610107421875 14.357318878173828125 14.312209129333496094 14.270715713500976562 14.227442741394042969 14.187920570373535156 14.147942543029785156 14.113770484924316406 14.081987380981445312 14.061078071594238281 14.048069000244140625 14.038440704345703125 14.02878570556640625 14.020001411437988281 14.010725021362304688 14.002150535583496094 13.993046760559082031 13.984655380249023438 13.975803375244140625 13.968556404113769531 13.963037490844726562 13.959601402282714844 13.957264900207519531 13.956071853637695312 13.955608367919921875 13.955794334411621094 13.956530570983886719 13.957630157470703125 13.959192276000976562 13.960941314697265625 13.96311187744140625 13.965323448181152344 13.967683792114257812 13.969702720642089844 13.971552848815917969 13.972842216491699219 13.973742485046386719 13.974127769470214844 13.974088668823242188 13.973573684692382812 13.972439765930175781 13.970854759216308594 13.96855926513671875 13.965883255004882812 13.962393760681152344 13.958563804626464844 13.953671455383300781 13.948372840881347656 13.941831588745117188 13.934950828552246094 13.926652908325195312 13.918058395385742188 13.9078216552734375 13.897317886352539062 13.884897232055664062 13.872134208679199219 13.857091903686523438 13.841619491577148438 13.823506355285644531 13.805257797241210938 13.783852577209472656 13.75911712646484375 13.7259521484375 13.690033912658691406 13.65029144287109375 13.612620353698730469 13.572500228881835938 13.535571098327636719 13.498338699340820312 13.465830802917480469 13.432717323303222656 13.402485847473144531 13.371056556701660156 13.342199325561523438 13.312696456909179688 13.285895347595214844 13.258434295654296875 13.233357429504394531 13.207589149475097656 13.183950424194335938 13.159619331359863281 13.137224197387695312 13.1141204833984375 13.092721939086914062 13.070590019226074219 13.050042152404785156 13.028791427612304688 13.009029388427734375 12.988605499267578125 12.969587326049804688 12.949919700622558594 12.931482315063476562 12.91234588623046875 12.894382476806640625 12.875769615173339844 12.8582916259765625 12.840216636657714844 12.823224067687988281 12.805642127990722656 12.789079666137695312 12.771967887878417969 12.755840301513671875 12.739205360412597656 12.723523139953613281 12.707377433776855469 12.692155838012695312 12.676540374755859375 12.661927223205566406 12.647089004516601562 12.633231163024902344 12.619196891784667969 12.60610198974609375 12.592884063720703125 12.580569267272949219 12.568190574645996094 12.556688308715820312 12.545187950134277344 12.534542083740234375 12.523931503295898438 12.51406097412109375 12.504189491271972656 12.494892120361328125 12.48548126220703125 12.476582527160644531 12.46758270263671875 12.459057807922363281 12.45053863525390625 12.442739486694335938 12.435197830200195312 12.428378105163574219 12.421875953674316406 12.416085243225097656 12.410687446594238281 12.406010627746582031 12.401841163635253906 12.398761749267578125 12.396599769592285156 12.394346237182617188 12.393537521362304688 12.395031929016113281 12.399086952209472656 12.405523300170898438 12.414338111877441406 12.186771392822265625 12.240177154541015625 12.186672210693359375 12.051515579223632812 11.924723625183105469 11.805606842041015625 11.703184127807617188 11.616245269775390625 11.545191764831542969 11.481938362121582031 11.4231414794921875 11.360988616943359375 11.292606353759765625 11.214498519897460938 11.132754325866699219 11.049175262451171875 10.970567703247070312 10.899081230163574219 10.839536666870117188 10.789875984191894531 10.749126434326171875 10.714124679565429688 10.683424949645996094 10.654268264770507812 10.626173973083496094 10.598460197448730469 10.571702003479003906 10.545456886291503906 10.520212173461914062 
12.869669914245605469 12.918994903564453125 12.966433525085449219 13.013157844543457031 13.05889129638671875 13.104346275329589844 13.149279594421386719 13.194255828857421875 13.239039421081542969 13.284051895141601562 13.329140663146972656 13.374637603759765625 13.420481681823730469 13.466949462890625 13.514405250549316406 13.563221931457519531 13.613433837890625 13.665013313293457031 13.718137741088867188 13.772649765014648438 13.828817367553710938 13.886477470397949219 13.946171760559082031 14.007647514343261719 14.071688652038574219 14.138009071350097656 14.207638740539550781 14.2802276611328125 14.357434272766113281 14.439128875732421875 14.528413772583007812 14.652758598327636719 14.881386756896972656 15.139017105102539062 15.40178680419921875 15.66349029541015625 15.929622650146484375 16.194002151489257812 16.462749481201171875 16.728054046630859375 16.994634628295898438 17.254262924194335938 17.514995574951171875 17.770414352416992188 18.029340744018554688 18.284570693969726562 18.545162200927734375 18.803125381469726562 19.067853927612304688 19.330392837524414062 19.600858688354492188 19.869642257690429688 20.147653579711914062 20.424444198608398438 20.71187591552734375 20.998613357543945312 21.297277450561523438 21.450891494750976562 21.543371200561523438 22.047147750854492188 22.40985870361328125 22.388265609741210938 22.483015060424804688 22.807611465454101562 23.11391448974609375 23.541589736938476562 23.861345291137695312 24.267984390258789062 24.679136276245117188 24.994848251342773438 25.2110137939453125 25.253274917602539062 24.930875778198242188 24.3734283447265625 23.640838623046875 23.355611801147460938 23.182691574096679688 23.131887435913085938 23.28490447998046875 23.082454681396484375 22.878154754638671875 22.6828460693359375 22.476932525634765625 22.260372161865234375 22.0172119140625 21.770904541015625 21.507062911987304688 21.247381210327148438 20.973297119140625 20.707233428955078125 20.428812026977539062 20.160552978515625 19.881427764892578125 19.616586685180664062 19.344747543334960938 19.088701248168945312 18.826608657836914062 18.58106231689453125 18.330158233642578125 18.095777511596679688 17.856580734252929688 17.634687423706054688 17.40946197509765625 17.201425552368164062 16.991014480590820312 16.797948837280273438 16.603105545043945312 16.424713134765625 16.244840621948242188 16.08123779296875 15.917589187622070312 15.771018028259277344 15.626919746398925781 15.500902175903320312 15.380549430847167969 15.280856132507324219 15.192271232604980469 15.117482185363769531 15.043596267700195312 14.977033615112304688 14.9102325439453125 14.850707054138183594 14.791849136352539062 14.739550590515136719 14.685845375061035156 14.636523246765136719 14.58550262451171875 14.538996696472167969 14.491380691528320312 14.447439193725585938 14.401540756225585938 14.359158515930175781 14.314871788024902344 14.274473190307617188 14.233997344970703125 14.199244499206542969 14.165314674377441406 14.136373519897460938 14.1116790771484375 14.095224380493164062 14.081132888793945312 14.069196701049804688 14.057131767272949219 14.046303749084472656 14.035069465637207031 14.024868965148925781 14.014210700988769531 14.004526138305664062 13.9945220947265625 13.98664093017578125 13.980152130126953125 13.975551605224609375 13.971804618835449219 13.969217300415039062 13.967207908630371094 13.965938568115234375 13.9651031494140625 13.964749336242675781 13.964750289916992188 13.965060234069824219 13.965685844421386719 13.966485977172851562 13.967402458190917969 13.968209266662597656 13.969013214111328125 13.969676017761230469 13.970220565795898438 13.970418930053710938 13.970171928405761719 13.969453811645507812 13.968103408813476562 13.966345787048339844 13.963901519775390625 13.961116790771484375 13.957538604736328125 13.953668594360351562 13.948810577392578125 13.943583488464355469 13.937154769897460938 13.930409431457519531 13.922289848327636719 13.913895606994628906 13.903909683227539062 13.893659591674804688 13.88158416748046875 13.869235992431640625 13.854685783386230469 13.839722633361816406 13.822093009948730469 13.804159164428710938 13.78354644775390625 13.761731147766113281 13.731835365295410156 13.697398185729980469 13.658020973205566406 13.620627403259277344 13.580854415893554688 13.544628143310546875 13.508980751037597656 13.47743988037109375 13.444983482360839844 13.415231704711914062 13.384251594543457031 13.355988502502441406 13.327053070068359375 13.300689697265625 13.2736053466796875 13.248805046081542969 13.22325897216796875 13.199771881103515625 13.175546646118164062 13.153199195861816406 13.130078315734863281 13.108631134033203125 13.08641815185546875 13.065770149230957031 13.044391632080078125 13.024487495422363281 13.003892898559570312 12.984692573547363281 12.9647979736328125 12.94612884521484375 12.926744461059570312 12.908539772033691406 12.889666557312011719 12.871936798095703125 12.853590011596679688 12.836329460144042969 12.818463325500488281 12.801630020141601562 12.784231185913085938 12.76782989501953125 12.75090789794921875 12.734949111938476562 12.718516349792480469 12.703016281127929688 12.687111854553222656 12.672215461730957031 12.657071113586425781 12.642910957336425781 12.628550529479980469 12.615133285522460938 12.601569175720214844 12.588912010192871094 12.576167106628417969 12.564300537109375 12.552409172058105469 12.541375160217285156 12.530355453491210938 12.520089149475097656 12.509823799133300781 12.500184059143066406 12.490438461303710938 12.481234550476074219 12.471940040588378906 12.463152885437011719 12.454360008239746094 12.446292877197265625 12.438481330871582031 12.431406021118164062 12.424649238586425781 12.418619155883789062 12.41298675537109375 12.408092498779296875 12.403700828552246094 12.400135040283203125 12.397802352905273438 12.395986557006835938 12.394728660583496094 12.395691871643066406 12.399272918701171875 12.405337333679199219 12.414008140563964844 12.185565948486328125 12.266515731811523438 12.182598114013671875 12.046093940734863281 11.917693138122558594 11.796841621398925781 11.692822456359863281 11.604508399963378906 11.532279014587402344 11.467847824096679688 11.407748222351074219 11.343949317932128906 11.27349090576171875 11.192847251892089844 11.108447074890136719 11.022311210632324219 10.94161224365234375 10.868743896484375 10.808753013610839844 10.759520530700683594 10.719887733459472656 10.686553001403808594 10.657849311828613281 10.630891799926757812 10.604981422424316406 10.579313278198242188 10.554266929626464844 10.52925872802734375 10.504604339599609375 
12.850012779235839844 12.899074554443359375 12.946278572082519531 12.992662429809570312 13.037993431091308594 13.083040237426757812 13.127529144287109375 13.171995162963867188 13.216212272644042969 13.260605812072753906 13.305029869079589844 13.349809646606445312 13.394880294799804688 13.440482139587402344 13.486738204956054688 13.534105300903320312 13.5827484130859375 13.632651329040527344 13.683972358703613281 13.736539840698242188 13.790658950805664062 13.846179008483886719 13.903642654418945312 13.962851524353027344 14.024563789367675781 14.08847808837890625 14.155641555786132812 14.225744247436523438 14.300191879272460938 14.37880706787109375 14.463651657104492188 14.577698707580566406 14.815278053283691406 15.075163841247558594 15.339070320129394531 15.60147857666015625 15.868112564086914062 16.132532119750976562 16.3987579345703125 16.6570587158203125 16.914007186889648438 17.16411590576171875 17.415895462036132812 17.663118362426757812 17.914247512817382812 18.162240982055664062 18.41584014892578125 18.667177200317382812 18.92534637451171875 19.18170166015625 19.4460906982421875 19.709087371826171875 19.981313705444335938 20.252473831176757812 20.534069061279296875 20.814746856689453125 21.106313705444335938 21.382562637329101562 21.49539947509765625 21.850858688354492188 22.106786727905273438 22.135141372680664062 21.74568939208984375 22.084331512451171875 22.750677108764648438 23.378843307495117188 23.840719223022460938 24.117124557495117188 24.415502548217773438 25.0126953125 25.289075851440429688 25.265171051025390625 24.8509063720703125 24.34435272216796875 23.920927047729492188 23.342563629150390625 23.04135894775390625 23.399105072021484375 23.23409271240234375 23.024713516235351562 22.813905715942382812 22.612661361694335938 22.402540206909179688 22.18636322021484375 21.94675445556640625 21.70555877685546875 21.447643280029296875 21.193773269653320312 20.925365447998046875 20.664087295532226562 20.390193939208984375 20.125951766967773438 19.85040283203125 19.5882110595703125 19.318685531616210938 19.06435394287109375 18.803295135498046875 18.558284759521484375 18.307783126831054688 18.073726654052734375 17.834768295288085938 17.612796783447265625 17.387731552124023438 17.179874420166015625 16.969530105590820312 16.776538848876953125 16.581935882568359375 16.403902053833007812 16.224409103393554688 16.0611724853515625 15.897879600524902344 15.751646995544433594 15.607931137084960938 15.482396125793457031 15.362936019897460938 15.264348983764648438 15.176873207092285156 15.102969169616699219 15.029871940612792969 14.964186668395996094 14.898530006408691406 14.840364456176757812 14.783233642578125 14.732236862182617188 14.679752349853515625 14.631518363952636719 14.581674575805664062 14.536520004272460938 14.489957809448242188 14.446911811828613281 14.401936531066894531 14.360724449157714844 14.319309234619140625 14.283399581909179688 14.247997283935546875 14.2170257568359375 14.186282157897949219 14.161501884460449219 14.140654563903808594 14.124541282653808594 14.10910797119140625 14.095633506774902344 14.081940650939941406 14.0696868896484375 14.057046890258789062 14.045651435852050781 14.033827781677246094 14.023150444030761719 14.012332916259765625 14.003863334655761719 13.996462821960449219 13.990841865539550781 13.985887527465820312 13.982117652893066406 13.978801727294921875 13.976304054260253906 13.974141120910644531 13.97255706787109375 13.971239089965820312 13.970334053039550781 13.969655036926269531 13.969263076782226562 13.968954086303710938 13.968676567077636719 13.968361854553222656 13.96804046630859375 13.967671394348144531 13.967310905456542969 13.96681976318359375 13.966070175170898438 13.964695930480957031 13.96285247802734375 13.960283279418945312 13.957402229309082031 13.953744888305664062 13.949828147888183594 13.944991111755371094 13.939837455749511719 13.933521270751953125 13.926910400390625 13.918967247009277344 13.910765647888183594 13.901027679443359375 13.891033172607421875 13.879254341125488281 13.867238044738769531 13.853129386901855469 13.838670730590820312 13.821591377258300781 13.804095268249511719 13.783782958984375 13.7633514404296875 13.736916542053222656 13.704659461975097656 13.665747642517089844 13.628603935241699219 13.58924102783203125 13.554356575012207031 13.520104408264160156 13.489275932312011719 13.457392692565917969 13.428042411804199219 13.397559165954589844 13.369829177856445312 13.341357231140136719 13.315352439880371094 13.288568496704101562 13.263985633850097656 13.23860931396484375 13.21523284912109375 13.191075325012207031 13.168730735778808594 13.145565986633300781 13.124051094055175781 13.101742744445800781 13.080984115600585938 13.059466361999511719 13.0394134521484375 13.018644332885742188 12.999258995056152344 12.979140281677246094 12.960249900817871094 12.940627098083496094 12.922191619873046875 12.903071403503417969 12.885100364685058594 12.866495132446289062 12.848978042602539062 12.830842971801757812 12.813750267028808594 12.796079635620117188 12.779417037963867188 12.762221336364746094 12.746001243591308594 12.7292938232421875 12.713531494140625 12.697348594665527344 12.682177543640136719 12.666738510131835938 12.652285575866699219 12.637614250183105469 12.623888015747070312 12.609993934631347656 12.597011566162109375 12.583918571472167969 12.571706771850585938 12.5594482421875 12.548048973083496094 12.536650657653808594 12.526018142700195312 12.515377044677734375 12.505411148071289062 12.495345115661621094 12.485849380493164062 12.476271629333496094 12.467230796813964844 12.458171844482421875 12.449831962585449219 12.441743850708007812 12.434407234191894531 12.427387237548828125 12.421110153198242188 12.415230751037597656 12.410103797912597656 12.405482292175292969 12.401661872863769531 12.398715972900390625 12.397160530090332031 12.395810127258300781 12.396246910095214844 12.399363517761230469 12.40508270263671875 12.4135894775390625 12.298693656921386719 12.288367271423339844 12.17864990234375 12.040889739990234375 11.910988807678222656 11.78853607177734375 11.683085441589355469 11.593596458435058594 11.520444869995117188 11.455169677734375 11.394186973571777344 11.329283714294433594 11.257418632507324219 11.175019264221191406 11.088753700256347656 11.000784873962402344 10.918543815612792969 10.844586372375488281 10.784128189086914062 10.735016822814941406 10.695984840393066406 10.663645744323730469 10.636204719543457031 10.610699653625488281 10.586271286010742188 10.561993598937988281 10.538069725036621094 10.513775825500488281 10.489276885986328125 
12.831668853759765625 12.880185127258300781 12.926876068115234375 12.972746849060058594 13.017591476440429688 13.062102317810058594 13.106005668640136719 13.149849891662597656 13.193419456481933594 13.237125396728515625 13.280812263488769531 13.324793815612792969 13.369006156921386719 13.4136810302734375 13.458861351013183594 13.504803657531738281 13.551837921142578125 13.600017547607421875 13.649460792541503906 13.700039863586425781 13.752088546752929688 13.805469512939453125 13.860699653625488281 13.917584419250488281 13.976899147033691406 14.038390159606933594 14.103024482727050781 14.1705474853515625 14.2423553466796875 14.31810760498046875 14.399428367614746094 14.515272140502929688 14.750736236572265625 15.011712074279785156 15.276208877563476562 15.539046287536621094 15.805479049682617188 16.066043853759765625 16.323041915893554688 16.570672988891601562 16.8175048828125 17.058416366577148438 17.301511764526367188 17.54071807861328125 17.784151077270507812 18.024932861328125 18.271459579467773438 18.5160064697265625 18.767461776733398438 19.017381668090820312 19.275316238403320312 19.531995773315429688 19.797687530517578125 20.06218719482421875 20.336427688598632812 20.608739852905273438 20.888818740844726562 21.150934219360351562 21.382320404052734375 21.64987945556640625 21.96990203857421875 22.129236221313476562 21.620883941650390625 21.774932861328125 22.098329544067382812 22.469547271728515625 23.083829879760742188 23.555353164672851562 23.9673919677734375 24.653095245361328125 25.124464035034179688 24.802671432495117188 24.499546051025390625 24.242954254150390625 24.01076507568359375 23.800966262817382812 23.505924224853515625 23.387807846069335938 23.174409866333007812 22.9651641845703125 22.75135040283203125 22.54563140869140625 22.331937789916992188 22.1161346435546875 21.879022598266601562 21.64130401611328125 21.387973785400390625 21.139194488525390625 20.876209259033203125 20.619779586791992188 20.350152969360351562 20.089582443237304688 19.81735992431640625 19.557447433471679688 19.289813995361328125 19.037034988403320312 18.7771148681640625 18.532604217529296875 18.282316207885742188 18.048410415649414062 17.80959320068359375 17.587497711181640625 17.36229705810546875 17.15460968017578125 16.944276809692382812 16.751300811767578125 16.556859970092773438 16.379194259643554688 16.200122833251953125 16.037321090698242188 15.874516487121582031 15.728796958923339844 15.58575439453125 15.461060523986816406 15.343026161193847656 15.246580123901367188 15.160824775695800781 15.087802886962890625 15.015424728393554688 14.950631141662597656 14.886250495910644531 14.829733848571777344 14.774568557739257812 14.724889755249023438 14.673689842224121094 14.626580238342285156 14.578165054321289062 14.534235954284667969 14.488593101501464844 14.446603775024414062 14.404043197631835938 14.36679840087890625 14.32984161376953125 14.297282218933105469 14.264601707458496094 14.235683441162109375 14.207864761352539062 14.18613433837890625 14.166303634643554688 14.149704933166503906 14.133205413818359375 14.118638038635253906 14.103791236877441406 14.090512275695800781 14.076845169067382812 14.0645599365234375 14.051851272583007812 14.040411949157714844 14.029018402099609375 14.019978523254394531 14.011758804321289062 14.005252838134765625 13.999262809753417969 13.994485855102539062 13.990056037902832031 13.986512184143066406 13.983217239379882812 13.980584144592285156 13.978139877319335938 13.976198196411132812 13.974406242370605469 13.972995758056640625 13.97164154052734375 13.970439910888671875 13.969170570373535156 13.968004226684570312 13.966742515563964844 13.965580940246582031 13.964328765869140625 13.963165283203125 13.961737632751464844 13.960003852844238281 13.957510948181152344 13.954602241516113281 13.950881004333496094 13.946920394897460938 13.942078590393066406 13.936990737915039062 13.930785179138183594 13.924306869506835938 13.916535377502441406 13.908520698547363281 13.899017333984375 13.889278411865234375 13.877798080444335938 13.866077423095703125 13.8523406982421875 13.838319778442382812 13.821817398071289062 13.804842948913574219 13.784971237182617188 13.764871597290039062 13.741071701049804688 13.711705207824707031 13.673517227172851562 13.63660430908203125 13.598031044006347656 13.56482696533203125 13.53157806396484375 13.501358985900878906 13.46996307373046875 13.440978050231933594 13.411012649536132812 13.383727073669433594 13.355642318725585938 13.329930305480957031 13.303386688232421875 13.278973579406738281 13.253726005554199219 13.230425834655761719 13.206294059753417969 13.183917045593261719 13.160687446594238281 13.13909149169921875 13.116673469543457031 13.095792770385742188 13.074130058288574219 13.053921699523925781 13.032972335815429688 13.013400077819824219 12.993060111999511719 12.973956108093261719 12.954103469848632812 12.935444831848144531 12.916086196899414062 12.897884368896484375 12.879026412963867188 12.861263275146484375 12.842867851257324219 12.825526237487792969 12.80759429931640625 12.790680885314941406 12.773222923278808594 12.756750106811523438 12.739779472351074219 12.723764419555664062 12.707312583923339844 12.691873550415039062 12.676146507263183594 12.661411285400390625 12.646436691284179688 12.632411956787109375 12.618201255798339844 12.604905128479003906 12.591478347778320312 12.578938484191894531 12.566329002380371094 12.554582595825195312 12.542824745178222656 12.531849861145019531 12.520854949951171875 12.510571479797363281 12.500197410583496094 12.490419387817382812 12.48056793212890625 12.471282005310058594 12.461966514587402344 12.453351020812988281 12.444981575012207031 12.437378883361816406 12.430089950561523438 12.423557281494140625 12.417423248291015625 12.412055015563964844 12.407191276550292969 12.403139114379882812 12.399777412414550781 12.397845268249511719 12.396733283996582031 12.396701812744140625 12.399354934692382812 12.404748916625976562 12.413097381591796875 12.412714958190917969 12.310135841369628906 12.174040794372558594 12.034650802612304688 11.902895927429199219 11.778532981872558594 11.671427726745605469 11.580659866333007812 11.506642341613769531 11.440786361694335938 11.379422187805175781 11.314213752746582031 11.242033004760742188 11.159253120422363281 11.07257080078125 10.984172821044921875 10.901536941528320312 10.827239990234375 10.766536712646484375 10.717291831970214844 10.678253173828125 10.646054267883300781 10.61890411376953125 10.593858718872070312 10.569982528686523438 10.546239852905273438 10.522686004638671875 10.49846649169921875 10.473615646362304688 
12.815006256103515625 12.862496376037597656 12.908405303955078125 12.95362091064453125 12.997803688049316406 13.041644096374511719 13.0848846435546875 13.128039360046386719 13.170868873596191406 13.213755607604980469 13.256551742553710938 13.299577713012695312 13.342790603637695312 13.386426925659179688 13.430525779724121094 13.475238800048828125 13.520761489868164062 13.567241668701171875 13.614837646484375 13.663449287414550781 13.713402748107910156 13.764591217041015625 13.817545890808105469 13.872099876403808594 13.9289703369140625 13.987933158874511719 14.049983024597167969 14.11480712890625 14.183745384216308594 14.256231307983398438 14.334756851196289062 14.458814620971679688 14.684373855590820312 14.947307586669921875 15.212594032287597656 15.475400924682617188 15.737368583679199219 15.987407684326171875 16.23287200927734375 16.470066070556640625 16.707164764404296875 16.939174652099609375 17.173816680908203125 17.405168533325195312 17.641010284423828125 17.874603271484375 18.114019393920898438 18.351770401000976562 18.596464157104492188 18.839834213256835938 19.0911102294921875 19.341180801391601562 19.59992218017578125 19.85720062255859375 20.123304367065429688 20.386203765869140625 20.653362274169921875 20.878276824951171875 20.371198654174804688 20.604452133178710938 21.146566390991210938 21.4748992919921875 21.315929412841796875 21.613943099975585938 22.222217559814453125 22.823612213134765625 22.735380172729492188 23.006361007690429688 23.520978927612304688 24.415163040161132812 24.636615753173828125 24.474233627319335938 24.27289581298828125 24.069118499755859375 23.866109848022460938 23.675464630126953125 23.480754852294921875 23.290208816528320312 23.087978363037109375 22.887796401977539062 22.680040359497070312 22.476886749267578125 22.262798309326171875 22.047967910766601562 21.813337326049804688 21.57871246337890625 21.32894134521484375 21.084070205688476562 20.825765609741210938 20.573942184448242188 20.308746337890625 20.051668167114257812 19.782594680786132812 19.524723052978515625 19.25856781005859375 19.006961822509765625 18.74805450439453125 18.504037857055664062 18.253824234008789062 18.019865036010742188 17.781045913696289062 17.558931350708007812 17.333385467529296875 17.125659942626953125 16.915327072143554688 16.722284317016601562 16.527925491333007812 16.35059356689453125 16.171953201293945312 16.009618759155273438 15.847390174865722656 15.702327728271484375 15.560192108154296875 15.436724662780761719 15.320756912231445312 15.227508544921875 15.144289016723632812 15.072121620178222656 15.000332832336425781 14.936450004577636719 14.87357330322265625 14.819188117980957031 14.766074180603027344 14.717751502990722656 14.66788482666015625 14.6220703125 14.575329780578613281 14.532578468322753906 14.488782882690429688 14.4500274658203125 14.411438941955566406 14.377228736877441406 14.342759132385253906 14.31204986572265625 14.280973434448242188 14.253828048706054688 14.22863006591796875 14.208048820495605469 14.188264846801757812 14.171094894409179688 14.1538238525390625 14.138495445251464844 14.122850418090820312 14.108858108520507812 14.094468116760253906 14.081546783447265625 14.068198204040527344 14.05620574951171875 14.044375419616699219 14.034814834594726562 14.025879859924316406 14.018614768981933594 14.011743545532226562 14.006110191345214844 14.000734329223632812 13.996301651000976562 13.992044448852539062 13.988518714904785156 13.985116004943847656 13.982291221618652344 13.979552268981933594 13.977273941040039062 13.975025177001953125 13.973039627075195312 13.97095489501953125 13.969073295593261719 13.967059135437011719 13.965219497680664062 13.963245391845703125 13.961431503295898438 13.959451675415039062 13.957526206970214844 13.955163955688476562 13.952462196350097656 13.94886016845703125 13.944896697998046875 13.940037727355957031 13.934986114501953125 13.928883552551269531 13.922532081604003906 13.914927482604980469 13.907094001770019531 13.8978118896484375 13.888312339782714844 13.877125740051269531 13.86569976806640625 13.852301597595214844 13.838644027709960938 13.82263946533203125 13.806227684020996094 13.786922454833984375 13.7671966552734375 13.744413375854492188 13.718337059020996094 13.681313514709472656 13.64466094970703125 13.607617378234863281 13.575807571411132812 13.5433349609375 13.513637542724609375 13.482626914978027344 13.454020500183105469 13.424527168273925781 13.397612571716308594 13.369846343994140625 13.344369888305664062 13.318014144897460938 13.293729782104492188 13.268570899963378906 13.245309829711914062 13.221155166625976562 13.198724746704101562 13.1754150390625 13.153723716735839844 13.13118743896484375 13.110177040100097656 13.088360786437988281 13.0679931640625 13.046862602233886719 13.027099609375 13.0065460205078125 12.987234115600585938 12.967158317565917969 12.948284149169921875 12.928694725036621094 12.910267829895019531 12.891165733337402344 12.873165130615234375 12.854518890380859375 12.83693695068359375 12.818753242492675781 12.801598548889160156 12.783886909484863281 12.767172813415527344 12.749947547912597656 12.733689308166503906 12.716979026794433594 12.7012786865234375 12.685271263122558594 12.670260429382324219 12.654992103576660156 12.640680313110351562 12.626162528991699219 12.612565994262695312 12.598818778991699219 12.585963249206542969 12.573019981384277344 12.560943603515625 12.548841476440429688 12.537545204162597656 12.526217460632324219 12.515626907348632812 12.504957199096679688 12.494905471801757812 12.484788894653320312 12.475264549255371094 12.465707778930664062 12.456822395324707031 12.448170661926269531 12.440298080444335938 12.432737350463867188 12.425946235656738281 12.419550895690917969 12.413934707641601562 12.408822059631347656 12.404531478881835938 12.400905609130859375 12.39838409423828125 12.397344589233398438 12.397060394287109375 12.399242401123046875 12.404324531555175781 12.412542343139648438 12.415501594543457031 12.305926322937011719 12.167998313903808594 12.026154518127441406 11.891740798950195312 11.764719009399414062 11.655361175537109375 11.562918663024902344 11.487916946411132812 11.421693801879882812 11.360544204711914062 11.296105384826660156 11.225160598754882812 11.144001960754394531 11.059065818786621094 10.9723663330078125 10.891112327575683594 10.817696571350097656 10.757220268249511719 10.707634925842285156 10.667877197265625 10.634740829467773438 10.606641769409179688 10.580778121948242188 10.556268692016601562 10.531972885131835938 10.507848739624023438 10.482922554016113281 10.457139015197753906 
12.799996376037597656 12.846131324768066406 12.891025543212890625 12.935335159301757812 12.978715896606445312 13.021796226501464844 13.064236640930175781 13.106477737426757812 13.1483001708984375 13.190129280090332031 13.231854438781738281 13.273794174194335938 13.315903663635253906 13.358410835266113281 13.401349067687988281 13.444858551025390625 13.48903656005859375 13.533915519714355469 13.57976531982421875 13.626559257507324219 13.67458343505859375 13.723674774169921875 13.7743377685546875 13.826475143432617188 13.880848884582519531 13.937223434448242188 13.996546745300292969 14.058565139770507812 14.124326705932617188 14.192859649658203125 14.271241188049316406 14.401592254638671875 14.617615699768066406 14.881222724914550781 15.147701263427734375 15.406858444213867188 15.657640457153320312 15.895554542541503906 16.129827499389648438 16.356916427612304688 16.584558486938476562 16.807882308959960938 17.034236907958984375 17.257844924926757812 17.48614501953125 17.712572097778320312 17.944929122924804688 18.175905227661132812 18.41381072998046875 18.65055084228515625 18.89501953125 19.138256072998046875 19.389719009399414062 19.639331817626953125 19.896688461303710938 20.149333953857421875 20.402679443359375 20.637159347534179688 20.51273345947265625 19.73464202880859375 20.051586151123046875 20.729190826416015625 20.845033645629882812 20.985918045043945312 21.58887481689453125 22.466228485107421875 22.774721145629882812 23.120059967041015625 23.930303573608398438 24.273054122924804688 24.222188949584960938 24.13138580322265625 24.008165359497070312 23.861673355102539062 23.691898345947265625 23.522829055786132812 23.346094131469726562 23.170396804809570312 22.981744766235351562 22.792675018310546875 22.59375762939453125 22.397541046142578125 22.189210891723632812 21.979562759399414062 21.748439788818359375 21.51685333251953125 21.27042388916015625 21.0289154052734375 20.774372100830078125 20.526641845703125 20.265710830688476562 20.012287139892578125 19.74622344970703125 19.490352630615234375 19.225336074829101562 18.974506378173828125 18.716264724731445312 18.472654342651367188 18.222429275512695312 17.988245010375976562 17.74924468994140625 17.527040481567382812 17.301212310791015625 17.09316253662109375 16.882734298706054688 16.6895904541015625 16.495227813720703125 16.318162918090820312 16.139913558959960938 15.978041648864746094 15.816431045532226562 15.672135353088378906 15.531118392944335938 15.409268379211425781 15.296181678771972656 15.207135200500488281 15.126885414123535156 15.055953025817871094 14.984655380249023438 14.92171478271484375 14.860798835754394531 14.809160232543945312 14.75797271728515625 14.711089134216308594 14.662653923034667969 14.618684768676757812 14.573804855346679688 14.533452987670898438 14.493094444274902344 14.457118988037109375 14.420736312866210938 14.388175010681152344 14.355174064636230469 14.325650215148925781 14.2958984375 14.270716667175292969 14.246935844421386719 14.22674560546875 14.206752777099609375 14.189169883728027344 14.171372413635253906 14.155529975891113281 14.13934326171875 14.124861717224121094 14.109972953796386719 14.096613883972167969 14.082820892333984375 14.070461273193359375 14.058309555053710938 14.048323631286621094 14.038806915283203125 14.030912399291992188 14.023302078247070312 14.016940116882324219 14.0107574462890625 14.005563735961914062 14.000482559204101562 13.996193885803222656 13.991970062255859375 13.988389968872070312 13.984841346740722656 13.98181915283203125 13.978794097900390625 13.976138114929199219 13.973357200622558594 13.970859527587890625 13.968207359313964844 13.965796470642089844 13.963217735290527344 13.960854530334472656 13.95830535888671875 13.955910682678222656 13.953228950500488281 13.950585365295410156 13.947278022766113281 13.943564414978027344 13.938803672790527344 13.933766365051269531 13.927735328674316406 13.921502113342285156 13.914055824279785156 13.906395912170410156 13.897327423095703125 13.888051033020019531 13.877138137817382812 13.866002082824707031 13.852937698364257812 13.839612960815429688 13.824014663696289062 13.80808258056640625 13.789402961730957031 13.770224571228027344 13.747867584228515625 13.724299430847167969 13.689141273498535156 13.653116226196289062 13.61800384521484375 13.587192535400390625 13.555362701416015625 13.526062965393066406 13.495383262634277344 13.467166900634765625 13.438078880310058594 13.411474227905273438 13.383965492248535156 13.358673095703125 13.332460403442382812 13.308268547058105469 13.283159255981445312 13.259886741638183594 13.235682487487792969 13.213183403015136719 13.189782142639160156 13.167984962463378906 13.145319938659667969 13.124174118041992188 13.102199554443359375 13.081668853759765625 13.060353279113769531 13.040402412414550781 13.019639015197753906 13.000123023986816406 12.979830741882324219 12.96074676513671875 12.940932273864746094 12.9222869873046875 12.902944564819335938 12.884714126586914062 12.865824699401855469 12.848010063171386719 12.82958221435546875 12.812193870544433594 12.794237136840820312 12.777288436889648438 12.759817123413085938 12.74332427978515625 12.7263641357421875 12.710408210754394531 12.694127082824707031 12.6788482666015625 12.663294792175292969 12.648702621459960938 12.63388824462890625 12.619999885559082031 12.605944633483886719 12.592786788940429688 12.579522132873535156 12.567129135131835938 12.554696083068847656 12.543091773986816406 12.531447410583496094 12.520562171936035156 12.50960540771484375 12.499289512634277344 12.488916397094726562 12.479158401489257812 12.4693756103515625 12.460232734680175781 12.451298713684082031 12.443155288696289062 12.435319900512695312 12.4282684326171875 12.421608924865722656 12.415742874145507812 12.410375595092773438 12.405841827392578125 12.401965141296386719 12.399044990539550781 12.397604942321777344 12.397314071655273438 12.399029731750488281 12.403809547424316406 12.4119110107421875 12.417390823364257812 12.300536155700683594 12.159829139709472656 12.014486312866210938 11.8763885498046875 11.7457427978515625 11.633347511291503906 11.538674354553222656 11.462447166442871094 11.396012306213378906 11.33568572998046875 11.273177146911621094 11.205188751220703125 11.127904891967773438 11.047163009643554688 10.964596748352050781 10.886786460876464844 10.815703392028808594 10.756074905395507812 10.706011772155761719 10.664835929870605469 10.62966156005859375 10.599324226379394531 10.571313858032226562 10.544938087463378906 10.518971443176269531 10.493319511413574219 10.466908454895019531 10.439626693725585938 
12.786336898803710938 12.831144332885742188 12.874767303466796875 12.918020248413085938 12.960435867309570312 13.002453804016113281 13.043726921081542969 13.084778785705566406 13.125435829162597656 13.166105270385742188 13.206670761108398438 13.247439384460449219 13.288364410400390625 13.329661369323730469 13.371356010437011719 13.413554191589355469 13.456343650817871094 13.499758720397949219 13.54400634765625 13.589049339294433594 13.635217666625976562 13.682379722595214844 13.730970382690429688 13.780786514282226562 13.832569122314453125 13.886232376098632812 13.942670822143554688 14.001496315002441406 14.063568115234375 14.127864837646484375 14.207964897155761719 14.341677665710449219 14.550584793090820312 14.813262939453125 15.078419685363769531 15.327052116394042969 15.564891815185546875 15.791097640991210938 16.014513015747070312 16.231748580932617188 16.450128555297851562 16.664913177490234375 16.883089065551757812 17.099035263061523438 17.319879531860351562 17.53922271728515625 17.764560699462890625 17.98876190185546875 18.219831466674804688 18.449842453002929688 18.687347412109375 18.923519134521484375 19.1673736572265625 19.408885955810546875 19.656888961791992188 19.898481369018554688 20.138490676879882812 20.365985870361328125 20.327913284301757812 19.69185638427734375 19.950374603271484375 20.296716690063476562 20.811212539672851562 20.93135833740234375 21.301343917846679688 21.781337738037109375 22.360616683959960938 23.17742156982421875 23.896984100341796875 23.91857147216796875 23.891824722290039062 23.835763931274414062 23.748632431030273438 23.63823699951171875 23.503595352172851562 23.357488632202148438 23.198320388793945312 23.037515640258789062 22.862791061401367188 22.685420989990234375 22.49629974365234375 22.308069229125976562 22.106815338134765625 21.905237197875976562 21.682239532470703125 21.454916000366210938 21.2117767333984375 20.973474502563476562 20.72229766845703125 20.477994918823242188 20.2209930419921875 19.971239089965820312 19.708341598510742188 19.454591751098632812 19.190517425537109375 18.940061569213867188 18.68206787109375 18.438592910766601562 18.188190460205078125 17.953548431396484375 17.714076995849609375 17.491552352905273438 17.265523910522460938 17.057157516479492188 16.846414566040039062 16.65309906005859375 16.45868682861328125 16.281789779663085938 16.103845596313476562 15.942376136779785156 15.781376838684082031 15.637925148010253906 15.498253822326660156 15.3785400390625 15.269560813903808594 15.185492515563964844 15.10785675048828125 15.038355827331542969 14.968219757080078125 14.906491279602050781 14.848620414733886719 14.799986839294433594 14.75064849853515625 14.705328941345214844 14.659184455871582031 14.617390632629394531 14.574990272521972656 14.536981582641601562 14.498529434204101562 14.464055061340332031 14.429137229919433594 14.397831916809082031 14.366048812866210938 14.337613105773925781 14.309481620788574219 14.285757064819335938 14.262669563293457031 14.242581367492675781 14.222434043884277344 14.204587936401367188 14.186445236206054688 14.170255661010742188 14.153691291809082031 14.138857841491699219 14.123606681823730469 14.109923362731933594 14.095808029174804688 14.083188056945800781 14.070774078369140625 14.060436248779296875 14.050449371337890625 14.042056083679199219 14.033860206604003906 14.02691650390625 14.02007293701171875 14.014239311218261719 14.008454322814941406 14.003511428833007812 13.998583793640136719 13.994356155395507812 13.990114212036132812 13.986456871032714844 13.982759475708007812 13.979525566101074219 13.976146697998046875 13.973120689392089844 13.969925880432128906 13.967030525207519531 13.963945388793945312 13.961125373840332031 13.958094596862792969 13.955288887023925781 13.952200889587402344 13.949246406555175781 13.945912361145019531 13.942492485046386719 13.938120841979980469 13.933293342590332031 13.927327156066894531 13.921179771423339844 13.91387939453125 13.906382560729980469 13.897518157958984375 13.888456344604492188 13.877799034118652344 13.866930961608886719 13.854189872741699219 13.841191291809082031 13.825969696044921875 13.810416221618652344 13.792238235473632812 13.773674964904785156 13.751934051513671875 13.729619979858398438 13.697046279907226562 13.662465095520019531 13.629073143005371094 13.598992347717285156 13.567623138427734375 13.538634300231933594 13.508270263671875 13.480426788330078125 13.4516754150390625 13.425317764282226562 13.398011207580566406 13.372859954833984375 13.346750259399414062 13.322606086730957031 13.297489166259765625 13.274176597595214844 13.249906539916992188 13.227327346801757812 13.203821182250976562 13.181909561157226562 13.159108161926269531 13.137820243835449219 13.115683555603027344 13.0949859619140625 13.073484420776367188 13.053343772888183594 13.032374382019042969 13.012660026550292969 12.992155075073242188 12.972864151000976562 12.952831268310546875 12.93396759033203125 12.914391517639160156 12.895936012268066406 12.876811027526855469 12.858770370483398438 12.840104103088378906 12.822488784790039062 12.804293632507324219 12.787116050720214844 12.769407272338867188 12.752685546875 12.735483169555664062 12.719277381896972656 12.702729225158691406 12.68718719482421875 12.671354293823242188 12.656489372253417969 12.641386032104492188 12.627215385437011719 12.612860679626464844 12.599409103393554688 12.585834503173828125 12.573138236999511719 12.560383796691894531 12.548479080200195312 12.536535263061523438 12.525365829467773438 12.514129638671875 12.503557205200195312 12.492931365966796875 12.482946395874023438 12.4729461669921875 12.463573455810546875 12.454358100891113281 12.445942878723144531 12.437832832336425781 12.430518150329589844 12.423593521118164062 12.417474746704101562 12.411851882934570312 12.407071113586425781 12.402939796447753906 12.399755477905273438 12.397722244262695312 12.397397994995117188 12.398715019226074219 12.403199195861816406 12.412099838256835938 12.415249824523925781 12.2930908203125 12.148862838745117188 11.99922943115234375 11.856700897216796875 11.721736907958984375 11.605732917785644531 11.508409500122070312 11.430771827697753906 11.364230155944824219 11.305181503295898438 11.245496749877929688 11.181820869445800781 11.110204696655273438 11.035626411437988281 10.95915985107421875 10.886478424072265625 10.818939208984375 10.760724067687988281 10.710155487060546875 10.667087554931640625 10.629091262817382812 10.595590591430664062 10.564479827880859375 10.53536224365234375 10.506937026977539062 10.47910308837890625 10.450685501098632812 10.421549797058105469 
12.773577690124511719 12.817202568054199219 12.859685897827148438 12.901701927185058594 12.942728996276855469 12.983334541320800781 13.023273468017578125 13.0630340576171875 13.102434158325195312 13.141862869262695312 13.1811981201171875 13.220729827880859375 13.260401725769042969 13.300405502319335938 13.340744972229003906 13.38153076171875 13.422862052917480469 13.464771270751953125 13.507451057434082031 13.550853729248046875 13.595273017883300781 13.640569686889648438 13.687160491943359375 13.734832763671875 13.784152030944824219 13.834912300109863281 13.888115882873535156 13.94342803955078125 14.001610755920410156 14.061918258666992188 14.143776893615722656 14.278757095336914062 14.483563423156738281 14.743330955505371094 15.000024795532226562 15.235096931457519531 15.460275650024414062 15.675133705139160156 15.88803863525390625 16.095697402954101562 16.305088043212890625 16.511735916137695312 16.722269058227539062 16.931060791015625 17.14481353759765625 17.357212066650390625 17.575452804565429688 17.792613983154296875 18.01647186279296875 18.23937225341796875 18.469594955444335938 18.698451995849609375 18.934408187866210938 19.167423248291015625 19.405498504638671875 19.6356658935546875 19.86529541015625 20.08827972412109375 20.316095352172851562 19.777118682861328125 19.958021163940429688 20.537548065185546875 20.347433090209960938 20.883852005004882812 21.358366012573242188 21.868570327758789062 22.285993576049804688 23.023767471313476562 23.591436386108398438 23.615550994873046875 23.606372833251953125 23.571865081787109375 23.507022857666015625 23.419368743896484375 23.309804916381835938 23.186754226684570312 23.04473876953125 22.898105621337890625 22.736858367919921875 22.57105255126953125 22.39185333251953125 22.211996078491210938 22.018270492553710938 21.824174880981445312 21.611034393310546875 21.391666412353515625 21.152820587158203125 20.917627334594726562 20.669675827026367188 20.4284515380859375 20.17487335205078125 19.928569793701171875 19.668989181518554688 19.417554855346679688 19.154680252075195312 18.904270172119140625 18.64604949951171875 18.402280807495117188 18.151386260986328125 17.915998458862304688 17.67571258544921875 17.452579498291015625 17.22615814208984375 17.0177001953125 16.806737899780273438 16.613065719604492188 16.418544769287109375 16.241733551025390625 16.063938140869140625 15.902741432189941406 15.742285728454589844 15.599713325500488281 15.4616546630859375 15.344872474670410156 15.241838455200195312 15.162656784057617188 15.086642265319824219 15.017853736877441406 14.949206352233886719 14.890563011169433594 14.838027000427246094 14.792065620422363281 14.744808197021484375 14.701533317565917969 14.656951904296875 14.616681098937988281 14.576107978820800781 14.539770126342773438 14.502999305725097656 14.469966888427734375 14.436411857604980469 14.406260490417480469 14.375607490539550781 14.348339080810546875 14.321711540222167969 14.29880523681640625 14.276071548461914062 14.256052970886230469 14.235833168029785156 14.21783447265625 14.199482917785644531 14.183074951171875 14.166259765625 14.151185989379882812 14.135675430297851562 14.121752738952636719 14.107387542724609375 14.094552993774414062 14.08188629150390625 14.071229934692382812 14.060840606689453125 14.052031517028808594 14.043352127075195312 14.035935401916503906 14.028563499450683594 14.022225379943847656 14.015875816345214844 14.010386466979980469 14.00485992431640625 14.000077247619628906 13.995241165161132812 13.991041183471679688 13.986764907836914062 13.983025550842285156 13.979138374328613281 13.975659370422363281 13.971997261047363281 13.968694686889648438 13.965184211730957031 13.961984634399414062 13.958558082580566406 13.955400466918945312 13.951973915100097656 13.948735237121582031 13.94512939453125 13.941647529602050781 13.937586784362792969 13.933201789855957031 13.927588462829589844 13.921550750732421875 13.914350509643554688 13.907000541687011719 13.898327827453613281 13.889469146728515625 13.879056930541992188 13.868440628051757812 13.855997085571289062 13.8433074951171875 13.828447341918945312 13.813259124755859375 13.795484542846679688 13.7773590087890625 13.756268501281738281 13.734700202941894531 13.705285072326660156 13.672974586486816406 13.640694618225097656 13.611069679260253906 13.580039024353027344 13.551318168640136719 13.521262168884277344 13.493734359741210938 13.465249061584472656 13.439085006713867188 13.411930084228515625 13.386874198913574219 13.360809326171875 13.336661338806152344 13.311509132385253906 13.288140296936035156 13.263792991638183594 13.241121292114257812 13.217502593994140625 13.195468902587890625 13.172526359558105469 13.151090621948242188 13.128786087036132812 13.107921600341796875 13.086232185363769531 13.065903663635253906 13.044733047485351562 13.024822235107421875 13.004108428955078125 12.984616279602050781 12.964365959167480469 12.945287704467773438 12.925482749938964844 12.906809806823730469 12.887454032897949219 12.869193077087402344 12.8502960205078125 12.832459449768066406 12.814031600952148438 12.796631813049316406 12.778691291809082031 12.761747360229492188 12.744311332702636719 12.727864265441894531 12.711052894592285156 12.695254325866699219 12.679150581359863281 12.664019584655761719 12.648634910583496094 12.634188652038574219 12.619544029235839844 12.605809211730957031 12.591935157775878906 12.578945159912109375 12.565881729125976562 12.553681373596191406 12.541448593139648438 12.530004501342773438 12.518498420715332031 12.507676124572753906 12.496804237365722656 12.48659515380859375 12.476381301879882812 12.466809272766113281 12.457329750061035156 12.448644638061523438 12.440259933471679688 12.432683944702148438 12.425493240356445312 12.41912078857421875 12.413242340087890625 12.408214569091796875 12.403829574584960938 12.400392532348632812 12.397913932800292969 12.397258758544921875 12.398308753967285156 12.402498245239257812 12.419185638427734375 12.425822257995605469 12.282685279846191406 12.134611129760742188 11.9804229736328125 11.833246231079101562 11.693779945373535156 11.574016571044921875 11.473920822143554688 11.394814491271972656 11.328220367431640625 11.270667076110839844 11.214249610900878906 11.155571937561035156 11.090559959411621094 11.023189544677734375 10.953893661499023438 10.887279510498046875 10.823993682861328125 10.767577171325683594 10.7165985107421875 10.671514511108398438 10.630423545837402344 10.593417167663574219 10.558857917785644531 10.526692390441894531 10.495557785034179688 10.465352058410644531 10.434807777404785156 10.403780937194824219 
12.7615966796875 12.803973197937011719 12.845191001892089844 12.885691642761230469 12.925184249877929688 12.964295387268066406 13.002803802490234375 13.04119110107421875 13.079264640808105469 13.117381095886230469 13.155405998229980469 13.193606376647949219 13.231915473937988281 13.270516395568847656 13.309419631958007812 13.348731040954589844 13.388541221618652344 13.428874015808105469 13.469912528991699219 13.511603355407714844 13.554225921630859375 13.597636222839355469 13.642207145690917969 13.687689781188964844 13.734576225280761719 13.782567024230957031 13.832447052001953125 13.884091377258300781 13.938290596008300781 13.994862556457519531 14.077051162719726562 14.212190628051757812 14.415307998657226562 14.668172836303710938 14.909877777099609375 15.1310272216796875 15.343640327453613281 15.547300338745117188 15.750040054321289062 15.949097633361816406 16.151031494140625 16.350893020629882812 16.55463409423828125 16.756656646728515625 16.963392257690429688 17.168727874755859375 17.379610061645507812 17.589321136474609375 17.805337905883789062 18.0202484130859375 18.242036819458007812 18.462419509887695312 18.68959808349609375 18.91352081298828125 19.1412200927734375 19.361001968383789062 19.584157943725585938 19.802886962890625 20.027082443237304688 20.184017181396484375 20.416498184204101562 20.674539566040039062 20.2440185546875 20.409299850463867188 21.336345672607421875 21.860004425048828125 22.561437606811523438 23.192068099975585938 23.313816070556640625 23.34386444091796875 23.347627639770507812 23.327678680419921875 23.279094696044921875 23.2084503173828125 23.11717987060546875 23.012725830078125 22.887716293334960938 22.754467010498046875 22.606145858764648438 22.451770782470703125 22.28253173828125 22.111114501953125 21.92513275146484375 21.737884521484375 21.533952713012695312 21.32391357421875 21.092449188232421875 20.860784530639648438 20.615985870361328125 20.377727508544921875 20.127202987670898438 19.884050369262695312 19.627664566040039062 19.37871551513671875 19.117479324340820312 18.867250442504882812 18.608350753784179688 18.36376190185546875 18.111906051635742188 17.8753814697265625 17.63385772705078125 17.40975189208984375 17.182638168334960938 16.97396087646484375 16.763141632080078125 16.569383621215820312 16.374681472778320312 16.19779205322265625 16.019931793212890625 15.858789443969726562 15.698727607727050781 15.557033538818359375 15.421037673950195312 15.308775901794433594 15.213778495788574219 15.13796234130859375 15.062112808227539062 14.992978096008300781 14.925142288208007812 14.872717857360839844 14.826100349426269531 14.784117698669433594 14.738460540771484375 14.69634246826171875 14.65399169921875 14.616046905517578125 14.577606201171875 14.542951583862304688 14.507679939270019531 14.475846290588378906 14.443398475646972656 14.414171218872070312 14.384436607360839844 14.3582611083984375 14.332531929016113281 14.310053825378417969 14.287528038024902344 14.267574310302734375 14.247335433959960938 14.229266166687011719 14.210803985595703125 14.194270133972167969 14.177302360534667969 14.162075996398925781 14.146395683288574219 14.132313728332519531 14.117775917053222656 14.104784011840820312 14.091888427734375 14.08094024658203125 14.070176124572753906 14.060986518859863281 14.051883697509765625 14.0440673828125 14.036256790161132812 14.02950286865234375 14.022700309753417969 14.01678466796875 14.010782241821289062 14.005537986755371094 14.000193595886230469 13.995524406433105469 13.990747451782226562 13.986558914184570312 13.982227325439453125 13.978362083435058594 13.974299430847167969 13.970646858215332031 13.966779708862304688 13.963265419006347656 13.959513664245605469 13.956067085266113281 13.952350616455078125 13.948882102966308594 13.94506072998046875 13.941399574279785156 13.937283515930175781 13.933190345764160156 13.928120613098144531 13.922528266906738281 13.915515899658203125 13.908266067504882812 13.899746894836425781 13.89107513427734375 13.880893707275390625 13.870519638061523438 13.858363151550292969 13.845967292785644531 13.831451416015625 13.816618919372558594 13.79925537109375 13.781525611877441406 13.760893821716308594 13.740029335021972656 13.714792251586914062 13.684675216674804688 13.652844429016113281 13.623503684997558594 13.592729568481445312 13.564218521118164062 13.534434318542480469 13.507152557373046875 13.4788665771484375 13.452836990356445312 13.425768852233886719 13.400747299194335938 13.374682426452636719 13.350507736206054688 13.325304031372070312 13.301867485046386719 13.277428627014160156 13.254655838012695312 13.230914115905761719 13.208752632141113281 13.18566131591796875 13.164073944091796875 13.141598701477050781 13.120562553405761719 13.098683357238769531 13.078168869018554688 13.056796073913574219 13.036692619323730469 13.015772819519042969 12.996081352233886719 12.975611686706542969 12.956320762634277344 12.936292648315429688 12.9174041748046875 12.897823333740234375 12.879345893859863281 12.860220909118652344 12.842166900634765625 12.823511123657226562 12.805893898010253906 12.787724494934082031 12.770562171936035156 12.752897262573242188 12.736219406127929688 12.719148635864257812 12.703097343444824219 12.686725616455078125 12.671334266662597656 12.655673027038574219 12.640957832336425781 12.62602996826171875 12.612018585205078125 12.597852706909179688 12.584578514099121094 12.571213722229003906 12.558721542358398438 12.546200752258300781 12.534491539001464844 12.522719383239746094 12.511651992797851562 12.500538825988769531 12.490108489990234375 12.47968292236328125 12.469921112060546875 12.4602203369140625 12.451268196105957031 12.442608833312988281 12.434770584106445312 12.42731475830078125 12.420688629150390625 12.414552688598632812 12.409277915954589844 12.404639244079589844 12.40094757080078125 12.398154258728027344 12.39696502685546875 12.397805213928222656 12.401702880859375 12.421652793884277344 12.41442108154296875 12.268206596374511719 12.1163482666015625 11.957808494567871094 11.806261062622070312 11.66259002685546875 11.539307594299316406 11.43658447265625 11.356062889099121094 11.289426803588867188 11.233361244201660156 11.180233001708984375 11.126636505126953125 11.068384170532226562 11.008433341979980469 10.946558952331542969 10.886270523071289062 10.827502250671386719 10.773121833801269531 10.721954345703125 10.675061225891113281 10.631081581115722656 10.590775489807128906 10.5529937744140625 10.518018722534179688 10.484431266784667969 10.45211029052734375 10.419705390930175781 10.387043952941894531 
12.750548362731933594 12.7913970947265625 12.830903053283691406 12.8697509765625 12.907690048217773438 12.945321083068847656 12.982412338256835938 13.01940155029296875 13.056088447570800781 13.092814445495605469 13.129446029663085938 13.166237831115722656 13.203122138977050781 13.240274429321289062 13.277700424194335938 13.315494537353515625 13.353743553161621094 13.392466545104980469 13.43183135986328125 13.471776008605957031 13.512554168701171875 13.55401611328125 13.5965118408203125 13.639777183532714844 13.684231758117675781 13.729512214660644531 13.776249885559082031 13.824187278747558594 13.874338150024414062 13.927113533020019531 14.007794380187988281 14.142516136169433594 14.344997406005859375 14.585412025451660156 14.809947013854980469 15.016459465026855469 15.216592788696289062 15.410188674926757812 15.605226516723632812 15.797777175903320312 15.993136405944824219 16.186349868774414062 16.38318634033203125 16.578264236450195312 16.777801513671875 16.97589111328125 17.179216384887695312 17.381275177001953125 17.589223861694335938 17.795862197875976562 18.008769989013671875 18.219844818115234375 18.436803817749023438 18.65020751953125 18.86762237548828125 19.080232620239257812 19.298406600952148438 19.512691497802734375 19.732782363891601562 19.948606491088867188 20.17102813720703125 20.39693450927734375 20.503871917724609375 20.365230560302734375 21.027505874633789062 21.423910140991210938 22.38396453857421875 22.990003585815429688 23.058864593505859375 23.094789505004882812 23.108461380004882812 23.099407196044921875 23.063684463500976562 23.006725311279296875 22.929973602294921875 22.840213775634765625 22.73046112060546875 22.609849929809570312 22.473752975463867188 22.330472946166992188 22.171152114868164062 22.008159637451171875 21.830003738403320312 21.649316787719726562 21.453008651733398438 21.2520751953125 21.029428482055664062 20.803157806396484375 20.561534881591796875 20.326150894165039062 20.07849884033203125 19.83814239501953125 19.584697723388671875 19.338222503662109375 19.078649520874023438 18.829317092895507812 18.569734573364257812 18.323795318603515625 18.070384979248046875 17.83221435546875 17.58895111083984375 17.3634490966796875 17.135286331176757812 16.926160812377929688 16.71532440185546875 16.521894454956054688 16.32769012451171875 16.150747299194335938 15.972522735595703125 15.81111907958984375 15.651170730590820312 15.5103302001953125 15.377345085144042969 15.272782325744628906 15.185733795166015625 15.110446929931640625 15.032779693603515625 14.961232185363769531 14.898809432983398438 14.857181549072265625 14.817257881164550781 14.777646064758300781 14.734957695007324219 14.69598388671875 14.656128883361816406 14.619858741760253906 14.582763671875 14.549094200134277344 14.514677047729492188 14.483523368835449219 14.451702117919921875 14.42298126220703125 14.393841743469238281 14.368307113647460938 14.342907905578613281 14.320501327514648438 14.297906875610351562 14.277812957763671875 14.2574005126953125 14.239183425903320312 14.220594406127929688 14.203969955444335938 14.186915397644042969 14.171603202819824219 14.155823707580566406 14.141644477844238281 14.126999855041503906 14.113895416259765625 14.1008148193359375 14.089632034301757812 14.0785675048828125 14.069064140319824219 14.059597969055175781 14.051431655883789062 14.043249130249023438 14.036156654357910156 14.028985977172851562 14.022725105285644531 14.016345977783203125 14.010746955871582031 14.005000114440917969 13.999937057495117188 13.994723320007324219 13.990132331848144531 13.985385894775390625 13.981166839599609375 13.976740837097167969 13.972772598266601562 13.968592643737792969 13.964815139770507812 13.960799217224121094 13.957122802734375 13.953173637390136719 13.949511528015136719 13.945520401000976562 13.941736221313476562 13.937514305114746094 13.933412551879882812 13.928682327270507812 13.923658370971679688 13.917222976684570312 13.9102020263671875 13.901807785034179688 13.893276214599609375 13.883288383483886719 13.87313079833984375 13.861242294311523438 13.849129676818847656 13.834955215454101562 13.82048797607421875 13.80356597900390625 13.7863311767578125 13.766528129577636719 13.747816085815429688 13.725768089294433594 13.696819305419921875 13.665278434753417969 13.636137008666992188 13.605541229248046875 13.577184677124023438 13.547616004943847656 13.520503044128417969 13.492342948913574219 13.466386795043945312 13.439357757568359375 13.414343833923339844 13.388258934020996094 13.364042282104492188 13.338774681091308594 13.315259933471679688 13.290720939636230469 13.267838478088378906 13.243968009948730469 13.221673011779785156 13.198428153991699219 13.176687240600585938 13.154039382934570312 13.132829666137695312 13.110760688781738281 13.090059280395507812 13.068490028381347656 13.048195838928222656 13.027070999145507812 13.007180213928222656 12.986494064331054688 12.966996192932128906 12.946748733520507812 12.92765045166015625 12.907848358154296875 12.889159202575683594 12.869812965393066406 12.851545333862304688 12.832667350769042969 12.814836502075195312 12.796444892883300781 12.7790679931640625 12.761180877685546875 12.744283676147460938 12.726961135864257812 12.710661888122558594 12.694027900695800781 12.678380966186523438 12.662450790405273438 12.647474288940429688 12.632269859313964844 12.617989540100097656 12.603540420532226562 12.589990615844726562 12.576335906982421875 12.56356048583984375 12.550748825073242188 12.53878021240234375 12.526749610900878906 12.515440940856933594 12.504091262817382812 12.493443489074707031 12.482808113098144531 12.472859382629394531 12.46297454833984375 12.453787803649902344 12.444856643676757812 12.436758041381835938 12.429040908813476562 12.422163009643554688 12.415772438049316406 12.410253524780273438 12.405364036560058594 12.401422500610351562 12.398354530334472656 12.396647453308105469 12.397198677062988281 12.40082550048828125 12.455414772033691406 12.39798736572265625 12.248875617980957031 12.093724250793457031 11.931563377380371094 11.776462554931640625 11.62940216064453125 11.503268241882324219 11.398364067077636719 11.316618919372558594 11.249898910522460938 11.195076942443847656 11.144796371459960938 11.095685958862304688 11.043478012084960938 10.990218162536621094 10.935093879699707031 10.880632400512695312 10.826127052307128906 10.773836135864257812 10.722818374633789062 10.674666404724121094 10.628511428833007812 10.58570098876953125 10.545526504516601562 10.508556365966796875 10.473297119140625 10.439588546752929688 10.40598297119140625 10.372257232666015625 
12.740207672119140625 12.779015541076660156 12.816638946533203125 12.853754997253417969 12.890109062194824219 12.926218986511230469 12.961828231811523438 12.997346878051757812 13.032588005065917969 13.067872047424316406 13.103068351745605469 13.138410568237304688 13.173830032348632812 13.209484100341796875 13.2453765869140625 13.281594276428222656 13.318217277526855469 13.355260848999023438 13.392885208129882812 13.431025505065917969 13.469915390014648438 13.509388923645019531 13.549752235412597656 13.590727806091308594 13.632710456848144531 13.67529296875 13.718939781188964844 13.76326751708984375 13.809247970581054688 13.857768058776855469 13.934963226318359375 14.068935394287109375 14.269345283508300781 14.493434906005859375 14.6999969482421875 14.891210556030273438 15.080463409423828125 15.267144203186035156 15.455729484558105469 15.641659736633300781 15.830119132995605469 16.016374588012695312 16.206020355224609375 16.393877029418945312 16.585935592651367188 16.77649688720703125 16.971971511840820312 17.16606903076171875 17.3656158447265625 17.563617706298828125 17.767232894897460938 17.968547821044921875 18.174886703491210938 18.377651214599609375 18.585924148559570312 18.792293548583984375 19.005346298217773438 19.2149810791015625 19.430561065673828125 19.642309188842773438 19.861188888549804688 20.084066390991210938 20.322967529296875 20.550294876098632812 20.722011566162109375 20.78383636474609375 20.821025848388671875 20.910951614379882812 21.44704437255859375 22.144914627075195312 22.633373260498046875 22.847352981567382812 22.85695648193359375 22.811380386352539062 22.74680328369140625 22.66933441162109375 22.572834014892578125 22.46414947509765625 22.33968353271484375 22.2071990966796875 22.057897567749023438 21.903354644775390625 21.733175277709960938 21.559209823608398438 21.369266510009765625 21.176298141479492188 20.962493896484375 20.743410110473632812 20.505657196044921875 20.27310943603515625 20.028249740600585938 19.790447235107421875 19.5396728515625 19.295480728149414062 19.037454605102539062 18.789098739624023438 18.529827117919921875 18.2824859619140625 18.026828765869140625 17.786312103271484375 17.540639877319335938 17.313188552856445312 17.083539962768554688 16.873699188232421875 16.662519454956054688 16.469297409057617188 16.2759246826171875 16.099437713623046875 15.921285629272460938 15.759675979614257812 15.599713325500488281 15.460108757019042969 15.333431243896484375 15.240947723388671875 15.157837867736816406 15.081022262573242188 15.002340316772460938 14.942718505859375 14.902573585510253906 14.86502838134765625 14.822614669799804688 14.781869888305664062 14.739893913269042969 14.70154571533203125 14.662276268005371094 14.626523017883300781 14.589944839477539062 14.556732177734375 14.522768974304199219 14.492010116577148438 14.460567474365234375 14.432176589965820312 14.403552055358886719 14.378367424011230469 14.353094100952148438 14.330652236938476562 14.307917594909667969 14.287625312805175781 14.266954421997070312 14.248469352722167969 14.22959136962890625 14.212712287902832031 14.195441246032714844 14.18000030517578125 14.164141654968261719 14.149915695190429688 14.13523101806640625 14.122082710266113281 14.10888671875 14.097538948059082031 14.086251258850097656 14.076502799987792969 14.066742897033691406 14.058283805847167969 14.049767494201660156 14.042360305786132812 14.034864425659179688 14.028315544128417969 14.021625518798828125 14.015737533569335938 14.009676933288574219 14.004317283630371094 13.998762130737304688 13.993836402893066406 13.988724708557128906 13.984187126159667969 13.979433059692382812 13.975168228149414062 13.970675468444824219 13.966627120971679688 13.962349891662597656 13.958470344543457031 13.954336166381835938 13.950525283813476562 13.946396827697753906 13.9425201416015625 13.93824005126953125 13.934117317199707031 13.92945098876953125 13.924792289733886719 13.91904449462890625 13.91265869140625 13.904572486877441406 13.896185874938964844 13.886377334594726562 13.8764190673828125 13.864786148071289062 13.85295867919921875 13.839156150817871094 13.825116157531738281 13.808787345886230469 13.792353630065917969 13.774169921875 13.757958412170410156 13.736825942993164062 13.708980560302734375 13.677742958068847656 13.648815155029296875 13.618391990661621094 13.590183258056640625 13.560795783996582031 13.533810615539550781 13.505741119384765625 13.479834556579589844 13.452824592590332031 13.427800178527832031 13.401679039001464844 13.377408027648925781 13.352063179016113281 13.328458786010742188 13.30381011962890625 13.280810356140136719 13.256804466247558594 13.234368324279785156 13.210965156555175781 13.189064979553222656 13.166240692138671875 13.144856452941894531 13.122594833374023438 13.10170745849609375 13.079938888549804688 13.059454917907714844 13.038125038146972656 13.018030166625976562 12.997130393981933594 12.977426528930664062 12.95696258544921875 12.937656402587890625 12.917634963989257812 12.898736953735351562 12.879170417785644531 12.860692977905273438 12.841594696044921875 12.823552131652832031 12.80493927001953125 12.787351608276367188 12.769244194030761719 12.752133369445800781 12.734568595886230469 12.718024253845214844 12.701129913330078125 12.685230255126953125 12.669034957885742188 12.653800010681152344 12.638323783874511719 12.623778343200683594 12.609051704406738281 12.595231056213378906 12.581292152404785156 12.568239212036132812 12.55513763427734375 12.542901039123535156 12.530613899230957031 12.519066810607910156 12.507480621337890625 12.496616363525390625 12.485770225524902344 12.475632667541503906 12.465570449829101562 12.456206321716308594 12.447023391723632812 12.438665390014648438 12.430684089660644531 12.423556327819824219 12.416912078857421875 12.411149978637695312 12.406010627746582031 12.401823043823242188 12.398485183715820312 12.396368026733398438 12.396465301513671875 12.399861335754394531 12.443720817565917969 12.37511444091796875 12.223540306091308594 12.065954208374023438 11.901356697082519531 11.743984222412109375 11.594799041748046875 11.466839790344238281 11.360445976257324219 11.277770042419433594 11.210869789123535156 11.156833648681640625 11.108569145202636719 11.062793731689453125 11.015210151672363281 10.967164993286132812 10.917388916015625 10.867651939392089844 10.816750526428222656 10.766469001770019531 10.716053009033203125 10.667490005493164062 10.620302200317382812 10.576277732849121094 10.535058975219726562 10.497387886047363281 10.461694717407226562 10.427723884582519531 10.3939208984375 10.359965324401855469 
12.7303619384765625 12.766934394836425781 12.802623748779296875 12.838003158569335938 12.872724533081054688 12.907251358032226562 12.941333770751953125 12.975363731384277344 13.009145736694335938 13.042975425720214844 13.076714515686035156 13.110583305358886719 13.144510269165039062 13.17864227294921875 13.212977409362792969 13.247595787048339844 13.282566070556640625 13.317897796630859375 13.353735923767089844 13.390011787414550781 13.426951408386230469 13.464395523071289062 13.502614021301269531 13.541308403015136719 13.580810546875 13.620706558227539062 13.661357879638671875 13.702218055725097656 13.744038581848144531 13.787770271301269531 13.859395027160644531 13.99233245849609375 14.187565803527832031 14.393601417541503906 14.582167625427246094 14.761602401733398438 14.942906379699707031 15.122241020202636719 15.303706169128417969 15.482674598693847656 15.663975715637207031 15.843050003051757812 16.02529144287109375 16.205728530883789062 16.390106201171875 16.57293701171875 16.760343551635742188 16.946249008178710938 17.137134552001953125 17.326223373413085938 17.52030181884765625 17.711902618408203125 17.90839385986328125 18.102630615234375 18.303289413452148438 18.50246429443359375 18.70914459228515625 18.913831710815429688 19.124650955200195312 19.33231353759765625 19.549121856689453125 19.765462875366210938 19.98778533935546875 20.194593429565429688 20.363189697265625 20.455171585083007812 20.5105133056640625 20.527223587036132812 20.503053665161132812 20.463098526000976562 20.4182281494140625 20.960599899291992188 21.633983612060546875 22.239717483520507812 22.570707321166992188 22.503080368041992188 22.41786956787109375 22.32013702392578125 22.206567764282226562 22.084430694580078125 21.945142745971679688 21.799022674560546875 21.636798858642578125 21.469783782958984375 21.285928726196289062 21.09893798828125 20.893199920654296875 20.68161773681640625 20.448993682861328125 20.21927642822265625 19.977113723754882812 19.74167633056640625 19.493255615234375 19.251018524169921875 18.994298934936523438 18.746517181396484375 18.487728118896484375 18.240182876586914062 17.98246002197265625 17.738870620727539062 17.490003585815429688 17.259960174560546875 17.028356552124023438 16.817485809326171875 16.605579376220703125 16.412469863891601562 16.219652175903320312 16.043127059936523438 15.864878654479980469 15.703311920166015625 15.54401397705078125 15.408600807189941406 15.298146247863769531 15.217083930969238281 15.136430740356445312 15.066336631774902344 15.008776664733886719 14.964364051818847656 14.917806625366210938 14.874068260192871094 14.828759193420410156 14.787543296813964844 14.745568275451660156 14.70738983154296875 14.668402671813964844 14.632969856262207031 14.596757888793945312 14.563899993896484375 14.530310630798339844 14.499891281127929688 14.468791007995605469 14.440769195556640625 14.4126129150390625 14.387682914733886719 14.362516403198242188 14.340062141418457031 14.317223548889160156 14.296772003173828125 14.275885581970214844 14.257173538208007812 14.238035202026367188 14.2209014892578125 14.203351020812988281 14.18766021728515625 14.171591758728027344 14.157259941101074219 14.142554283142089844 14.129411697387695312 14.116143226623535156 14.104674339294433594 14.093211174011230469 14.083269119262695312 14.073275566101074219 14.064578056335449219 14.055788993835449219 14.048117637634277344 14.040329933166503906 14.033514022827148438 14.026556968688964844 14.020434379577636719 14.014122962951660156 14.008528709411621094 14.002721786499023438 13.99755096435546875 13.992151260375976562 13.987341880798339844 13.982313156127929688 13.977807044982910156 13.973055839538574219 13.968771934509277344 13.964241981506347656 13.960137367248535156 13.955786705017089844 13.951822280883789062 13.947585105895996094 13.943645477294921875 13.939332008361816406 13.935217857360839844 13.930607795715332031 13.926081657409667969 13.920810699462890625 13.915146827697753906 13.907818794250488281 13.899746894836425781 13.890133857727050781 13.880392074584960938 13.869038581848144531 13.8575286865234375 13.844148635864257812 13.830625534057617188 13.815095901489257812 13.799813270568847656 13.783452987670898438 13.768762588500976562 13.747870445251464844 13.72100067138671875 13.690052986145019531 13.661325454711914062 13.631071090698242188 13.603009223937988281 13.573779106140136719 13.546895980834960938 13.518892288208007812 13.493014335632324219 13.466004371643066406 13.440955162048339844 13.414785385131835938 13.39044952392578125 13.365016937255859375 13.341314315795898438 13.316548347473144531 13.293427467346191406 13.26927947998046875 13.246700286865234375 13.223135948181152344 13.201074600219726562 13.178071975708007812 13.156512260437011719 13.134057044982910156 13.11298370361328125 13.091020584106445312 13.070344924926757812 13.048808097839355469 13.028514862060546875 13.007404327392578125 12.987498283386230469 12.966820716857910156 12.9473114013671875 12.927076339721679688 12.907972335815429688 12.888190269470214844 12.869505882263183594 12.850192070007324219 12.831942558288574219 12.813113212585449219 12.795317649841308594 12.776993751525878906 12.759675979614257812 12.741884231567382812 12.725099563598632812 12.707951545715332031 12.691805839538574219 12.675350189208984375 12.659862518310546875 12.644120216369628906 12.629317283630371094 12.614320755004882812 12.600235939025878906 12.586022377014160156 12.57270050048828125 12.559317588806152344 12.546807289123535156 12.534256935119628906 12.522475242614746094 12.510656356811523438 12.499577522277832031 12.488521575927734375 12.478194236755371094 12.467953681945800781 12.458434104919433594 12.449067115783691406 12.440466880798339844 12.432227134704589844 12.424851417541503906 12.417959213256835938 12.411957740783691406 12.406575202941894531 12.402147293090820312 12.398548126220703125 12.396123886108398438 12.395641326904296875 12.398831367492675781 12.460072517395019531 12.345852851867675781 12.192533493041992188 12.033666610717773438 11.868111610412597656 11.710024833679199219 11.560215950012207031 11.4316253662109375 11.324511528015136719 11.241191864013671875 11.173941612243652344 11.120088577270507812 11.072801589965820312 11.028958320617675781 10.984282493591308594 10.939670562744140625 10.893553733825683594 10.8471832275390625 10.799048423767089844 10.750598907470703125 10.701212882995605469 10.653115272521972656 10.606102943420410156 10.562222480773925781 10.521366119384765625 10.484334945678710938 10.44947052001953125 10.416371345520019531 10.383365631103515625 10.349995613098144531 
12.720600128173828125 12.755039215087890625 12.788752555847167969 12.822299957275390625 12.855301856994628906 12.888190269470214844 12.92070770263671875 12.953203201293945312 12.985476493835449219 13.017796516418457031 13.050026893615722656 13.082369804382324219 13.114756584167480469 13.147321701049804688 13.180059432983398438 13.213038444519042969 13.246316909790039062 13.279894828796386719 13.313904762268066406 13.34827423095703125 13.383200645446777344 13.418520927429199219 13.454498291015625 13.490863800048828125 13.527880668640136719 13.565079689025878906 13.602752685546875 13.640279769897460938 13.678008079528808594 13.716447830200195312 13.780084609985351562 13.911036491394042969 14.097871780395507812 14.284313201904296875 14.458985328674316406 14.630453109741210938 14.803578376770019531 14.974535942077636719 15.147610664367675781 15.318633079528808594 15.492151260375976562 15.663622856140136719 15.838107109069824219 16.0107879638671875 16.1871490478515625 16.361909866333007812 16.540891647338867188 16.718257904052734375 16.900177001953125 17.080230712890625 17.265005111694335938 17.447782516479492188 17.6360626220703125 17.822742462158203125 18.01578521728515625 18.207551956176757812 18.406755447387695312 18.605138778686523438 18.811344146728515625 19.017124176025390625 19.228826522827148438 19.4351654052734375 19.645114898681640625 19.839159011840820312 20.004556655883789062 20.111013412475585938 20.182498931884765625 20.234968185424804688 20.27027130126953125 20.274463653564453125 20.2563018798828125 20.229524612426757812 20.198474884033203125 20.262304306030273438 20.340496063232421875 21.077312469482421875 21.7230072021484375 21.95449066162109375 22.0731964111328125 21.961099624633789062 21.83184814453125 21.694440841674804688 21.540273666381835938 21.380453109741210938 21.203119277954101562 21.021329879760742188 20.821582794189453125 20.617071151733398438 20.390483856201171875 20.1638946533203125 19.924409866333007812 19.691219329833984375 19.444854736328125 19.204196929931640625 18.9483489990234375 18.700649261474609375 18.441768646240234375 18.193994522094726562 17.935516357421875 17.689685821533203125 17.43721771240234375 17.203830718994140625 16.96976470947265625 16.757415771484375 16.544393539428710938 16.351482391357421875 16.158382415771484375 15.980861663818359375 15.801326751708984375 15.638515472412109375 15.480154037475585938 15.360909461975097656 15.273199081420898438 15.199885368347167969 15.13055419921875 15.075400352478027344 15.022133827209472656 14.973486900329589844 14.924015998840332031 14.878919601440429688 14.8333740234375 14.792170524597167969 14.750293731689453125 14.7122955322265625 14.673583984375 14.638463020324707031 14.602613449096679688 14.570115089416503906 14.536901473999023438 14.506822586059570312 14.476071357727050781 14.448459625244140625 14.420686721801757812 14.395968437194824219 14.370917320251464844 14.348498344421386719 14.325639724731445312 14.305126190185546875 14.284129142761230469 14.265272140502929688 14.245940208435058594 14.228612899780273438 14.210864067077636719 14.194997787475585938 14.178737640380859375 14.164223670959472656 14.149346351623535156 14.13610076904296875 14.122736930847167969 14.111173629760742188 14.099578857421875 14.08948516845703125 14.079305648803710938 14.070416450500488281 14.061407089233398438 14.053521156311035156 14.045492172241210938 14.038446426391601562 14.031241416931152344 14.024905204772949219 14.018384933471679688 14.012605667114257812 14.00659942626953125 14.001246452331542969 13.99564361572265625 13.990629196166992188 13.985365867614746094 13.980658531188964844 13.975701332092285156 13.97122955322265625 13.966503143310546875 13.962216377258300781 13.957671165466308594 13.953528404235839844 13.949122428894042969 13.945084571838378906 13.940749168395996094 13.936669349670410156 13.932139396667480469 13.927735328674316406 13.922701835632324219 13.917585372924804688 13.911142349243164062 13.903863906860351562 13.894623756408691406 13.885120391845703125 13.874082565307617188 13.862946510314941406 13.850090980529785156 13.837230682373046875 13.822693824768066406 13.808636665344238281 13.793852806091308594 13.779950141906738281 13.759124755859375 13.733053207397460938 13.702417373657226562 13.673858642578125 13.643756866455078125 13.615838050842285156 13.586741447448730469 13.559939384460449219 13.531982421875 13.506114959716796875 13.479088783264160156 13.454001426696777344 13.427768707275390625 13.403356552124023438 13.377825736999511719 13.354018211364746094 13.329126358032226562 13.305875778198242188 13.281579971313476562 13.258852005004882812 13.235121726989746094 13.212894439697265625 13.189710617065429688 13.167971611022949219 13.145320892333984375 13.124057769775390625 13.101892471313476562 13.081021308898925781 13.059276580810546875 13.038784980773925781 13.017464637756347656 12.997358322143554688 12.976469993591308594 12.956758499145507812 12.936309814453125 12.917001724243164062 12.897004127502441406 12.878113746643066406 12.858584403991699219 12.840128898620605469 12.82108306884765625 12.803081512451171875 12.784541130065917969 12.767016410827636719 12.749005317687988281 12.731991767883300781 12.714591026306152344 12.698199272155761719 12.681485176086425781 12.665746688842773438 12.64974212646484375 12.634682655334472656 12.619418144226074219 12.605072975158691406 12.590586662292480469 12.576999664306640625 12.563341140747070312 12.550558090209960938 12.537728309631347656 12.525700569152832031 12.513648033142089844 12.502352714538574219 12.491084098815917969 12.480564117431640625 12.4701385498046875 12.46045684814453125 12.450942039489746094 12.442170143127441406 12.433688163757324219 12.426067352294921875 12.418927192687988281 12.412689208984375 12.40706634521484375 12.402402877807617188 12.398550033569335938 12.395838737487792969 12.394804000854492188 12.397728919982910156 12.442963600158691406 12.310047149658203125 12.155932426452636719 11.997129440307617188 11.832251548767089844 11.67510223388671875 11.526204109191894531 11.398152351379394531 11.291007041931152344 11.207215309143066406 11.139318466186523438 11.084962844848632812 11.037600517272949219 10.9943695068359375 10.951073646545410156 10.908358573913574219 10.864465713500976562 10.820332527160644531 10.774265289306640625 10.727492332458496094 10.679476737976074219 10.632547378540039062 10.586671829223632812 10.544012069702148438 10.504613876342773438 10.46924591064453125 10.436155319213867188 10.404763221740722656 10.373279571533203125 10.341081619262695312 
12.71091461181640625 12.743439674377441406 12.7752532958984375 12.806919097900390625 12.838168144226074219 12.869395256042480469 12.900319099426269531 12.931242942810058594 12.961958885192871094 12.992723464965820312 13.023406982421875 13.054201126098632812 13.085033416748046875 13.11602783203125 13.147169113159179688 13.178514480590820312 13.210108757019042969 13.241939544677734375 13.274120330810546875 13.306569099426269531 13.33946990966796875 13.3726654052734375 13.406393051147460938 13.440378189086914062 13.474886894226074219 13.509449005126953125 13.544237136840820312 13.578564643859863281 13.612482070922851562 13.645673751831054688 13.699026107788085938 13.825855255126953125 14.001553535461425781 14.170929908752441406 14.336981773376464844 14.500317573547363281 14.664829254150390625 14.827105522155761719 14.991339683532714844 15.153695106506347656 15.318612098693847656 15.481810569763183594 15.648036956787109375 15.812621116638183594 15.980711936950683594 16.147237777709960938 16.317728042602539062 16.48663330078125 16.659893035888671875 16.831531524658203125 17.008045196533203125 17.18304443359375 17.363538742065429688 17.542669296264648438 17.728071212768554688 17.912410736083984375 18.104045867919921875 18.295457839965820312 18.49852752685546875 18.700670242309570312 18.905069351196289062 19.103826522827148438 19.305139541625976562 19.490869522094726562 19.65375518798828125 19.769601821899414062 19.8527069091796875 19.915983200073242188 19.968652725219726562 20.009691238403320312 20.035182952880859375 20.039232254028320312 20.029376983642578125 20.013093948364257812 19.992916107177734375 19.97174072265625 19.94962310791015625 19.963781356811523438 20.49494171142578125 21.116306304931640625 21.286828994750976562 21.591829299926757812 21.4458465576171875 21.293256759643554688 21.122854232788085938 20.946561813354492188 20.751436233520507812 20.551898956298828125 20.331155776977539062 20.10800933837890625 19.87120819091796875 19.640142440795898438 19.3955078125 19.155935287475585938 18.900302886962890625 18.652042388916015625 18.392320632934570312 18.14349365234375 17.883632659912109375 17.636335372924804688 17.382305145263671875 17.146924972534179688 16.9110565185546875 16.696977615356445312 16.482967376708984375 16.290338516235351562 16.0956878662109375 15.915863037109375 15.732957839965820312 15.565602302551269531 15.418909072875976562 15.3385162353515625 15.267608642578125 15.205344200134277344 15.14560699462890625 15.091795921325683594 15.036520004272460938 14.986102104187011719 14.935044288635253906 14.889037132263183594 14.84261322021484375 14.800588607788085938 14.757906913757324219 14.719232559204101562 14.67990875244140625 14.64434814453125 14.608210563659667969 14.575620651245117188 14.542489051818847656 14.512631416320800781 14.482216835021972656 14.455012321472167969 14.427561759948730469 14.403037071228027344 14.378108978271484375 14.355750083923339844 14.332911491394042969 14.31238555908203125 14.291352272033691406 14.272454261779785156 14.253081321716308594 14.235696792602539062 14.2178497314453125 14.201861381530761719 14.185456275939941406 14.170800209045410156 14.155763626098632812 14.142359733581542969 14.128766059875488281 14.117021560668945312 14.105296134948730469 14.095089912414550781 14.084767341613769531 14.075731277465820312 14.066550254821777344 14.05849456787109375 14.050273895263671875 14.043045997619628906 14.035640716552734375 14.029115676879882812 14.022402763366699219 14.016469955444335938 14.010311126708984375 14.004818916320800781 13.999070167541503906 13.993921279907226562 13.988496780395507812 13.983624458312988281 13.978501319885253906 13.973887443542480469 13.969013214111328125 13.964593887329101562 13.959908485412597656 13.955637931823730469 13.951096534729003906 13.946934700012207031 13.942493438720703125 13.938399314880371094 13.933962821960449219 13.929713249206542969 13.924901008605957031 13.920109748840332031 13.914395332336425781 13.908061027526855469 13.899723052978515625 13.890583992004394531 13.879907608032226562 13.869199752807617188 13.856939315795898438 13.844803810119628906 13.831232070922851562 13.818249702453613281 13.804812431335449219 13.791285514831542969 13.770438194274902344 13.744950294494628906 13.714634895324707031 13.686223983764648438 13.65625 13.628453254699707031 13.599463462829589844 13.572722434997558594 13.54479217529296875 13.518921852111816406 13.491865158081054688 13.466726303100585938 13.440421104431152344 13.415924072265625 13.390289306640625 13.366369247436523438 13.34134674072265625 13.317961692810058594 13.293515205383300781 13.270635604858398438 13.246736526489257812 13.224337577819824219 13.200954437255859375 13.179010391235351562 13.156131744384765625 13.134645462036132812 13.11225128173828125 13.091166496276855469 13.069205284118652344 13.048514366149902344 13.026993751525878906 13.006705284118652344 12.985630989074707031 12.965745925903320312 12.945117950439453125 12.92563629150390625 12.905452728271484375 12.886374473571777344 12.866639137268066406 12.847982406616210938 12.828723907470703125 12.810519218444824219 12.791766166687011719 12.774037361145019531 12.755814552307128906 12.738589286804199219 12.720943450927734375 12.704310417175292969 12.687343597412109375 12.671359062194824219 12.655097007751464844 12.639788627624511719 12.624262809753417969 12.609663963317871094 12.594912528991699219 12.581067085266113281 12.567138671875 12.554091453552246094 12.540984153747558594 12.528696060180664062 12.516399383544921875 12.504886627197265625 12.493406295776367188 12.482690811157226562 12.472077369689941406 12.462227821350097656 12.452559471130371094 12.443657875061035156 12.435021400451660156 12.427186012268066406 12.419804573059082031 12.413336753845214844 12.407482147216796875 12.402592658996582031 12.398497581481933594 12.39551544189453125 12.393972396850585938 12.405627250671386719 12.407232284545898438 12.268877029418945312 12.115154266357421875 11.95790863037109375 11.79541015625 11.6408538818359375 11.494355201721191406 11.367921829223632812 11.261312484741210938 11.177096366882324219 11.108160018920898438 11.052567481994628906 11.004111289978027344 10.960308074951171875 10.917101860046386719 10.875020980834960938 10.832201004028320312 10.789401054382324219 10.744828224182128906 10.69956207275390625 10.653108596801757812 10.607796669006347656 10.563679695129394531 10.522922515869140625 10.48564910888671875 10.452528953552246094 10.421725273132324219 10.3924713134765625 10.362862586975097656 10.332111358642578125 
12.701195716857910156 12.731771469116210938 12.761699676513671875 12.791531562805175781 12.821010589599609375 12.850502967834472656 12.879727363586425781 12.908976554870605469 12.938059806823730469 12.967219352722167969 12.9963226318359375 13.025544166564941406 13.05480194091796875 13.084201812744140625 13.113719940185546875 13.143402099609375 13.173288345336914062 13.203354835510253906 13.233691215515136719 13.264200210571289062 13.295038223266601562 13.3260498046875 13.357469558715820312 13.389041900634765625 13.420972824096679688 13.452844619750976562 13.48479461669921875 13.515985488891601562 13.546277046203613281 13.574665069580078125 13.616214752197265625 13.735050201416015625 13.89801788330078125 14.056332588195800781 14.213926315307617188 14.368445396423339844 14.523865699768066406 14.677100181579589844 14.832185745239257812 14.985547065734863281 15.14141082763671875 15.295771598815917969 15.453143119812011719 15.609107017517089844 15.768523216247558594 15.926566123962402344 16.088487625122070312 16.249048233032226562 16.413934707641601562 16.577482223510742188 16.74585723876953125 16.912958145141601562 17.085481643676757812 17.256877899169921875 17.434446334838867188 17.61116790771484375 17.795141220092773438 17.981233596801757812 18.180065155029296875 18.375864028930664062 18.574491500854492188 18.767673492431640625 18.96280670166015625 19.143085479736328125 19.30446624755859375 19.426694869995117188 19.519624710083007812 19.592243194580078125 19.65374755859375 19.703460693359375 19.746541976928710938 19.780536651611328125 19.803295135498046875 19.811483383178710938 19.809825897216796875 19.802356719970703125 19.791006088256835938 19.777872085571289062 19.763349533081054688 19.750665664672851562 19.780965805053710938 19.921110153198242188 20.511356353759765625 20.942556381225585938 20.925935745239257812 20.874027252197265625 20.683923721313476562 20.487888336181640625 20.270843505859375 20.050945281982421875 19.8168182373046875 19.587816238403320312 19.344621658325195312 19.105518341064453125 18.849151611328125 18.599431991577148438 18.337812423706054688 18.08672332763671875 17.823963165283203125 17.573902130126953125 17.318143844604492188 17.082706451416015625 16.848707199096679688 16.63616943359375 16.425846099853515625 16.235143661499023438 16.040159225463867188 15.859547615051269531 15.677721977233886719 15.53424072265625 15.445697784423828125 15.377474784851074219 15.306993484497070312 15.243611335754394531 15.179259300231933594 15.120067596435546875 15.060344696044921875 15.006855010986328125 14.953512191772460938 14.905753135681152344 14.857655525207519531 14.814220428466796875 14.770207405090332031 14.730404853820800781 14.689996719360351562 14.653497695922851562 14.616437911987304688 14.583045005798339844 14.549166679382324219 14.518739700317382812 14.487975120544433594 14.460724830627441406 14.433378219604492188 14.409008026123046875 14.384221076965332031 14.361949920654296875 14.339168548583984375 14.318675041198730469 14.297682762145996094 14.278830528259277344 14.259496688842773438 14.242135047912597656 14.224293708801269531 14.208278656005859375 14.191799163818359375 14.177042961120605469 14.161887168884277344 14.148365020751953125 14.134565353393554688 14.122570991516113281 14.110590934753417969 14.100221633911132812 14.08978271484375 14.080636024475097656 14.071322441101074219 14.063135147094726562 14.054765701293945312 14.047394752502441406 14.039830207824707031 14.033156394958496094 14.026280403137207031 14.02020263671875 14.013912200927734375 14.008318901062011719 14.00246429443359375 13.997220039367675781 13.991698265075683594 13.986724853515625 13.981473922729492188 13.976748466491699219 13.971764564514160156 13.967252731323242188 13.962473869323730469 13.958121299743652344 13.953495025634765625 13.949258804321289062 13.944741249084472656 13.940580368041992188 13.936127662658691406 13.931992530822753906 13.927433013916015625 13.922952651977539062 13.917748451232910156 13.912272453308105469 13.905117988586425781 13.896863937377929688 13.886644363403320312 13.876401901245117188 13.864762306213378906 13.853320121765136719 13.840622901916503906 13.828638076782226562 13.816355705261230469 13.802942276000976562 13.782026290893554688 13.756941795349121094 13.726931571960449219 13.698653221130371094 13.668792724609375 13.641095161437988281 13.612184524536132812 13.585482597351074219 13.557561874389648438 13.531673431396484375 13.504572868347167969 13.479373931884765625 13.452984809875488281 13.428393363952636719 13.402643203735351562 13.378603935241699219 13.353443145751953125 13.329915046691894531 13.305294036865234375 13.282213211059570312 13.25806427001953125 13.235408782958984375 13.211750984191894531 13.18955230712890625 13.166412353515625 13.144688606262207031 13.122061729431152344 13.100768089294433594 13.078596115112304688 13.057712554931640625 13.035997390747070312 13.015528678894042969 12.994275093078613281 12.974225997924804688 12.953433990478515625 12.933804512023925781 12.913474082946777344 12.894263267517089844 12.874388694763183594 12.855588912963867188 12.836157798767089844 12.817765235900878906 12.798802375793457031 12.7808685302734375 12.762432098388671875 12.745001792907714844 12.727126121520996094 12.710253715515136719 12.693034172058105469 12.6768035888671875 12.660284996032714844 12.644727706909179688 12.628940582275390625 12.614089012145996094 12.599073410034179688 12.584972381591796875 12.570775985717773438 12.557463645935058594 12.544080734252929688 12.531529426574707031 12.518964767456054688 12.507215499877929688 12.495512962341308594 12.48459625244140625 12.473787307739257812 12.4637603759765625 12.453925132751464844 12.444880485534667969 12.43611907958984375 12.428162574768066406 12.420598983764648438 12.413912773132324219 12.407830238342285156 12.402723312377929688 12.39839935302734375 12.395162582397460938 12.393189430236816406 12.414880752563476562 12.365492820739746094 12.221949577331542969 12.070079803466796875 11.916118621826171875 11.757893562316894531 11.607717514038085938 11.465170860290527344 11.341422080993652344 11.235827445983886719 11.151101112365722656 11.080586433410644531 11.022914886474609375 10.972316741943359375 10.926853179931640625 10.882654190063476562 10.840235710144042969 10.797641754150390625 10.755530357360839844 10.712041854858398438 10.668152809143066406 10.623362541198730469 10.579928398132324219 10.537924766540527344 10.4994354248046875 10.464605331420898438 10.433970451354980469 10.405618667602539062 10.378602981567382812 10.350920677185058594 10.321624755859375 
12.691862106323242188 12.720227241516113281 12.748270988464355469 12.776314735412597656 12.804033279418945312 12.831758499145507812 12.859262466430664062 12.886860847473144531 12.914386749267578125 12.942046165466308594 12.96967315673828125 12.997396469116210938 13.025119781494140625 13.052930831909179688 13.080803871154785156 13.108776092529296875 13.136884689331054688 13.165112495422363281 13.1935577392578125 13.22212982177734375 13.250952720642089844 13.279827117919921875 13.308931350708007812 13.338040351867675781 13.3674163818359375 13.396628379821777344 13.425745010375976562 13.453940391540527344 13.4808197021484375 13.505490303039550781 13.535775184631347656 13.640911102294921875 13.793786048889160156 13.9433746337890625 14.091922760009765625 14.237318992614746094 14.383469581604003906 14.527554512023925781 14.673421859741210938 14.817744255065917969 14.964527130126953125 15.110016822814941406 15.258479118347167969 15.405760765075683594 15.556456565856933594 15.706015586853027344 15.859409332275390625 16.011682510375976562 16.168230056762695312 16.323680877685546875 16.483892440795898438 16.643068313598632812 16.807588577270507812 16.9712066650390625 17.140897750854492188 17.309963226318359375 17.487071990966796875 17.669361114501953125 17.861780166625976562 18.051115036010742188 18.245660781860351562 18.43491363525390625 18.62577056884765625 18.802707672119140625 18.963590621948242188 19.090517044067382812 19.191888809204101562 19.27280426025390625 19.34230804443359375 19.399065017700195312 19.448617935180664062 19.489488601684570312 19.525472640991210938 19.554597854614257812 19.576704025268554688 19.589015960693359375 19.593502044677734375 19.59234619140625 19.5876617431640625 19.581401824951171875 19.5762481689453125 19.574230194091796875 19.5747222900390625 19.576814651489257812 19.672655105590820312 19.946107864379882812 20.28575897216796875 20.269971847534179688 20.214418411254882812 19.995677947998046875 19.763256072998046875 19.536052703857421875 19.293897628784179688 19.054471969604492188 18.79610443115234375 18.543766021728515625 18.278818130493164062 18.023731231689453125 17.75582122802734375 17.501251220703125 17.242559432983398438 17.007184982299804688 16.775285720825195312 16.567453384399414062 16.363992691040039062 16.175741195678710938 15.986868858337402344 15.821303367614746094 15.682918548583984375 15.590484619140625 15.503454208374023438 15.425528526306152344 15.348795890808105469 15.279553413391113281 15.209481239318847656 15.14614105224609375 15.083519935607910156 15.027953147888183594 14.972850799560546875 14.9235382080078125 14.873943328857421875 14.829230308532714844 14.783990859985351562 14.743129730224609375 14.701686859130859375 14.664280891418457031 14.626320838928222656 14.592132568359375 14.557452201843261719 14.52630615234375 14.494854927062988281 14.466979026794433594 14.439006805419921875 14.414220809936523438 14.389264106750488281 14.367025375366210938 14.344346046447753906 14.323963165283203125 14.303084373474121094 14.284321784973144531 14.265065193176269531 14.247762680053710938 14.229970932006835938 14.2139892578125 14.197531700134277344 14.182763099670410156 14.167548179626464844 14.153944015502929688 14.140001296997070312 14.127797126770019531 14.115565299987792969 14.104952812194824219 14.094309806823730469 14.085055351257324219 14.075648307800292969 14.067364692687988281 14.058886528015136719 14.051408767700195312 14.043725967407226562 14.036940574645996094 14.029942512512207031 14.023751258850097656 14.017343521118164062 14.011662483215332031 14.0057373046875 14.00043487548828125 13.994853019714355469 13.989829063415527344 13.984517097473144531 13.979717254638671875 13.974657058715820312 13.970084190368652344 13.965250968933105469 13.960855484008789062 13.956191062927246094 13.951926231384277344 13.947382926940917969 13.943204879760742188 13.938740730285644531 13.934614181518554688 13.930190086364746094 13.926012992858886719 13.921260833740234375 13.916429519653320312 13.91039276123046875 13.903401374816894531 13.894075393676757812 13.884297370910644531 13.873228073120117188 13.862414360046386719 13.850529670715332031 13.839455604553222656 13.828125953674316406 13.814676284790039062 13.793631553649902344 13.768807411193847656 13.739048004150390625 13.71088409423828125 13.681118011474609375 13.653499603271484375 13.624640464782714844 13.597957611083984375 13.570028305053710938 13.544108390808105469 13.5169525146484375 13.491683006286621094 13.465201377868652344 13.440508842468261719 13.414639472961425781 13.390466690063476562 13.365113258361816406 13.341340065002441406 13.316418647766113281 13.293050765991210938 13.268614768981933594 13.245702743530273438 13.221785545349121094 13.199350357055664062 13.175970077514648438 13.154023170471191406 13.131177902221679688 13.10968780517578125 13.087316513061523438 13.066249847412109375 13.04434967041015625 13.023711204528808594 13.002284049987792969 12.982075691223144531 12.961122512817382812 12.941344261169433594 12.920864105224609375 12.901515007019042969 12.881505966186523438 12.862585067749023438 12.843042373657226562 12.824545860290527344 12.805455207824707031 12.78736114501953125 12.768725395202636719 12.751092910766601562 12.733004570007324219 12.715909004211425781 12.698441505432128906 12.681971549987792969 12.665200233459472656 12.6493988037109375 12.633357048034667969 12.618259429931640625 12.602985382080078125 12.588633537292480469 12.574175834655761719 12.560604095458984375 12.5469512939453125 12.534140586853027344 12.521311759948730469 12.509311676025390625 12.497364044189453125 12.486233711242675781 12.475220680236816406 12.465010643005371094 12.454998016357421875 12.445796966552734375 12.436893463134765625 12.428819656372070312 12.421156883239746094 12.414355278015136719 12.408102035522460938 12.402798652648925781 12.398264884948730469 12.394804954528808594 12.392443656921386719 12.402523040771484375 12.312781333923339844 12.170831680297851562 12.022434234619140625 11.87354278564453125 11.721461296081542969 11.577371597290039062 11.440203666687011719 11.320072174072265625 11.215831756591796875 11.130398750305175781 11.05770111083984375 10.997109413146972656 10.943408012390136719 10.8953704833984375 10.849369049072265625 10.805943489074707031 10.763027191162109375 10.721195220947265625 10.678518295288085938 10.635857582092285156 10.592679023742675781 10.551117897033691406 10.51123046875 10.474972724914550781 10.442467689514160156 10.414114952087402344 10.387942314147949219 10.362858772277832031 10.336789131164550781 10.308658599853515625 
12.682931900024414062 12.708664894104003906 12.734641075134277344 12.760778427124023438 12.786656379699707031 12.81266021728515625 12.838640213012695312 12.864828109741210938 12.890959739685058594 12.917181968688964844 12.943325996398925781 12.969512939453125 12.995652198791503906 13.021822929382324219 13.047998428344726562 13.074206352233886719 13.100480079650878906 13.126791954040527344 13.153226852416992188 13.179700851440429688 13.206349372863769531 13.2330169677734375 13.259823799133300781 13.286468505859375 13.313164710998535156 13.33962249755859375 13.365866661071777344 13.391049385070800781 13.414820671081542969 13.436968803405761719 13.45903778076171875 13.544137954711914062 13.688411712646484375 13.828677177429199219 13.967673301696777344 14.103581428527832031 14.240152359008789062 14.374814033508300781 14.511206626892089844 14.646254539489746094 14.783743858337402344 14.920198440551757812 15.059629440307617188 15.198091506958007812 15.339874267578125 15.480694770812988281 15.625260353088378906 15.768949508666992188 15.916895866394042969 16.064020156860351562 16.215839385986328125 16.366863250732421875 16.523136138916015625 16.678741455078125 16.84030914306640625 17.001585006713867188 17.173242568969726562 17.35099029541015625 17.536640167236328125 17.720281600952148438 17.911762237548828125 18.098388671875 18.286428451538085938 18.4615631103515625 18.622926712036132812 18.75396728515625 18.863018035888671875 18.951633453369140625 19.028615951538085938 19.092016220092773438 19.147693634033203125 19.193775177001953125 19.234380722045898438 19.26792144775390625 19.2972869873046875 19.3208160400390625 19.340139389038085938 19.353406906127929688 19.361780166625976562 19.365509033203125 19.367919921875 19.372392654418945312 19.379632949829101562 19.3878631591796875 19.397829055786132812 19.409193038940429688 19.423004150390625 19.468540191650390625 19.56664276123046875 19.692544937133789062 19.67923736572265625 19.479816436767578125 19.24372100830078125 19.002635955810546875 18.740404129028320312 18.483781814575195312 18.213197708129882812 17.9510345458984375 17.674108505249023438 17.412454605102539062 17.1493682861328125 16.91417694091796875 16.685527801513671875 16.48694610595703125 16.293066024780273438 16.123380661010742188 15.961833953857421875 15.8359375 15.72911834716796875 15.635649681091308594 15.543824195861816406 15.462484359741210938 15.381512641906738281 15.308178901672363281 15.234416961669921875 15.168972969055175781 15.104541778564453125 15.047628402709960938 14.991120338439941406 14.940565109252929688 14.889773368835449219 14.844033241271972656 14.797801017761230469 14.756076812744140625 14.71378326416015625 14.675620079040527344 14.636889457702636719 14.601992607116699219 14.566579818725585938 14.53476715087890625 14.502669334411621094 14.474162101745605469 14.445482254028320312 14.420009613037109375 14.394347190856933594 14.371614456176757812 14.348744392395019531 14.328433036804199219 14.307698249816894531 14.289059638977050781 14.269916534423828125 14.252705574035644531 14.234997749328613281 14.219084739685058594 14.202689170837402344 14.187968254089355469 14.172786712646484375 14.159174919128417969 14.145155906677246094 14.132782936096191406 14.12033843994140625 14.109510421752929688 14.098621368408203125 14.089165687561035156 14.079638481140136719 14.071287155151367188 14.062732696533203125 14.055180549621582031 14.047413825988769531 14.040548324584960938 14.0334625244140625 14.027190208435058594 14.020696640014648438 14.014939308166503906 14.008954048156738281 14.003620147705078125 13.998011589050292969 13.992969512939453125 13.987643241882324219 13.982824325561523438 13.977726936340332031 13.973123550415039062 13.968266487121582031 13.963860511779785156 13.959194183349609375 13.954937934875488281 13.950414657592773438 13.946265220642089844 13.941843032836914062 13.937766075134277344 13.933408737182617188 13.929377555847167969 13.925020217895507812 13.920741081237792969 13.915636062622070312 13.9098968505859375 13.902029037475585938 13.892957687377929688 13.882432937622070312 13.872223854064941406 13.861108779907226562 13.850877761840820312 13.840320587158203125 13.826722145080566406 13.805511474609375 13.780832290649414062 13.751263618469238281 13.723196029663085938 13.693510055541992188 13.665949821472167969 13.637121200561523438 13.610437393188476562 13.582482337951660156 13.556516647338867188 13.529291152954101562 13.503940582275390625 13.47735595703125 13.452539443969726562 13.426457405090332031 13.401993751525878906 13.376298904418945312 13.3522186279296875 13.326995849609375 13.3033599853515625 13.278654098510742188 13.255496025085449219 13.23133087158203125 13.208668708801269531 13.185054779052734375 13.162894248962402344 13.139833450317382812 13.118151664733886719 13.095585823059082031 13.074341773986816406 13.052259445190429688 13.031455039978027344 13.009859085083007812 12.98949432373046875 12.968382835388183594 12.948458671569824219 12.927829742431640625 12.908344268798828125 12.888195991516113281 12.869149208068847656 12.849478721618652344 12.830867767333984375 12.811670303344726562 12.793491363525390625 12.774755477905273438 12.75698089599609375 12.738697052001953125 12.721393585205078125 12.703687667846679688 12.686977386474609375 12.669954299926757812 12.65390777587890625 12.637610435485839844 12.622263908386230469 12.606731414794921875 12.592128753662109375 12.5774078369140625 12.56357574462890625 12.549652099609375 12.536581993103027344 12.523488044738769531 12.511233329772949219 12.499027252197265625 12.487651824951171875 12.476406097412109375 12.4659881591796875 12.455779075622558594 12.446400642395019531 12.437330245971679688 12.429109573364257812 12.421317100524902344 12.4144134521484375 12.408077239990234375 12.40268707275390625 12.398031234741210938 12.39441680908203125 12.391776084899902344 12.380168914794921875 12.2541351318359375 12.115124702453613281 11.971865653991699219 11.829870223999023438 11.685843467712402344 11.549570083618164062 11.419220924377441406 11.303617477416992188 11.201032638549804688 11.114640235900878906 11.039106369018554688 10.974741935729980469 10.917019844055175781 10.865617752075195312 10.817201614379882812 10.772333145141601562 10.728787422180175781 10.687027931213378906 10.645013809204101562 10.60346221923828125 10.561773300170898438 10.521944046020507812 10.483975410461425781 10.449687957763671875 10.41915130615234375 10.392637252807617188 10.368142127990722656 10.344472885131835938 10.3195037841796875 10.292078971862792969 
12.674622535705566406 12.697595596313476562 12.721193313598632812 12.745298385620117188 12.769583702087402344 12.794270515441894531 12.818967819213867188 12.843805313110351562 12.868533134460449219 12.893296241760253906 12.917937278747558594 12.942574501037597656 12.967121124267578125 12.991649627685546875 13.016129493713378906 13.040586471557617188 13.065042495727539062 13.089463233947753906 13.113919258117675781 13.138318061828613281 13.162770271301269531 13.187125205993652344 13.211548805236816406 13.235795974731445312 13.259914398193359375 13.283513069152832031 13.306811332702636719 13.32909393310546875 13.350589752197265625 13.371196746826171875 13.391595840454101562 13.450933456420898438 13.583455085754394531 13.714446067810058594 13.843914031982421875 13.970351219177246094 14.097355842590332031 14.222608566284179688 14.349626541137695312 14.475780487060546875 14.604595184326171875 14.732677459716796875 14.863603591918945312 14.993575096130371094 15.126536369323730469 15.258441925048828125 15.393750190734863281 15.528254508972167969 15.666929244995117188 15.805215835571289062 15.948374748229980469 16.0911712646484375 16.23915863037109375 16.386699676513671875 16.540094375610351562 16.693998336791992188 16.861070632934570312 17.033473968505859375 17.213174819946289062 17.392740249633789062 17.581724166870117188 17.766887664794921875 17.953405380249023438 18.12795257568359375 18.290737152099609375 18.425840377807617188 18.542051315307617188 18.637786865234375 18.721681594848632812 18.791229248046875 18.852581024169921875 18.903497695922851562 18.948389053344726562 18.985399246215820312 19.017480850219726562 19.042901992797851562 19.064067840576171875 19.080183029174804688 19.092985153198242188 19.102106094360351562 19.109281539916992188 19.11804962158203125 19.130590438842773438 19.1437835693359375 19.157840728759765625 19.172151565551757812 19.188154220581054688 19.204935073852539062 19.223878860473632812 19.243444442749023438 19.264360427856445312 19.251880645751953125 19.132373809814453125 18.949481964111328125 18.686105728149414062 18.422626495361328125 18.142686843872070312 17.867971420288085938 17.576416015625 17.303888320922851562 17.035160064697265625 16.802051544189453125 16.594646453857421875 16.424200057983398438 16.261749267578125 16.117631912231445312 15.986584663391113281 15.878119468688964844 15.770961761474609375 15.675176620483398438 15.580850601196289062 15.496217727661132812 15.411420822143554688 15.334575653076171875 15.258390426635742188 15.19113922119140625 15.125121116638183594 15.066698074340820312 15.008610725402832031 14.956655502319335938 14.904543876647949219 14.857738494873046875 14.810564041137695312 14.768098831176757812 14.72512054443359375 14.686361312866210938 14.647027969360351562 14.611586570739746094 14.575602531433105469 14.543256759643554688 14.510598182678222656 14.481520652770996094 14.452203750610351562 14.426121711730957031 14.39983367919921875 14.37653350830078125 14.353077888488769531 14.332355499267578125 14.311497688293457031 14.292959213256835938 14.273959159851074219 14.256866455078125 14.2392730712890625 14.223455429077148438 14.207151412963867188 14.192507743835449219 14.177397727966308594 14.163844108581542969 14.149850845336914062 14.137383460998535156 14.124768257141113281 14.113763809204101562 14.102670669555664062 14.093014717102050781 14.083285331726074219 14.0748291015625 14.06622314453125 14.058625221252441406 14.050806045532226562 14.043890953063964844 14.03675079345703125 14.030428886413574219 14.023880958557128906 14.018075942993164062 14.012043952941894531 14.006686210632324219 14.001079559326171875 13.996046066284179688 13.990736007690429688 13.98593902587890625 13.980858802795410156 13.97625732421875 13.971408843994140625 13.967020988464355469 13.962385177612304688 13.95816802978515625 13.953700065612792969 13.949615478515625 13.945276260375976562 13.941290855407714844 13.937048912048339844 13.933139801025390625 13.928979873657226562 13.925118446350097656 13.920748710632324219 13.916088104248046875 13.909746170043945312 13.901976585388183594 13.892076492309570312 13.882429122924804688 13.872019767761230469 13.862552642822265625 13.852603912353515625 13.838740348815917969 13.817350387573242188 13.792715072631835938 13.763268470764160156 13.735280036926269531 13.705656051635742188 13.678133010864257812 13.649312019348144531 13.622611045837402344 13.594614028930664062 13.568590164184570312 13.541284561157226562 13.515835762023925781 13.489053726196289062 13.46392822265625 13.437474250793457031 13.412686347961425781 13.386676788330078125 13.362318038940429688 13.336820602416992188 13.3129425048828125 13.287992477416992188 13.264615058898925781 13.240224838256835938 13.21735382080078125 13.193523406982421875 13.171160697937011719 13.147891044616699219 13.126023292541503906 13.103266716003417969 13.081845283508300781 13.059581756591796875 13.038609504699707031 13.016844749450683594 12.996325492858886719 12.975058555603027344 12.954992294311523438 12.934220314025878906 12.914603233337402344 12.894321441650390625 12.875150680541992188 12.855356216430664062 12.836629867553710938 12.817317962646484375 12.79903411865234375 12.780202865600585938 12.762355804443359375 12.743988037109375 12.726545333862304688 12.708636283874511719 12.691699981689453125 12.674429893493652344 12.658143043518066406 12.641595840454101562 12.626006126403808594 12.610219955444335938 12.595373153686523438 12.580392837524414062 12.566302299499511719 12.552114486694335938 12.538790702819824219 12.525435447692871094 12.512930870056152344 12.500469207763671875 12.488850593566894531 12.47735595703125 12.466703414916992188 12.456265449523925781 12.446680068969726562 12.437409400939941406 12.42900848388671875 12.421040534973144531 12.413977622985839844 12.407488822937011719 12.401959419250488281 12.397165298461914062 12.393390655517578125 12.390377998352050781 12.334011077880859375 12.193325042724609375 12.057901382446289062 11.920621871948242188 11.786503791809082031 11.651592254638671875 11.524128913879394531 11.401448249816894531 11.290937423706054688 11.190232276916503906 11.102797508239746094 11.024126052856445312 10.955572128295898438 10.893387794494628906 10.838253021240234375 10.787158966064453125 10.740672111511230469 10.696372032165527344 10.654580116271972656 10.61310577392578125 10.572500228881835938 10.532079696655273438 10.493700027465820312 10.457306861877441406 10.424576759338378906 10.3955230712890625 10.370316505432128906 10.346930503845214844 10.324116706848144531 10.299725532531738281 10.272554397583007812 
12.666527748107910156 12.686665534973144531 12.707829475402832031 12.730206489562988281 12.753131866455078125 12.776490211486816406 12.799823760986328125 12.82323455810546875 12.846491813659667969 12.869733810424804688 12.892817497253417969 12.915853500366210938 12.938757896423339844 12.961599349975585938 12.984345436096191406 13.007013320922851562 13.029618263244628906 13.052123069763183594 13.074580192565917969 13.096897125244140625 13.119165420532226562 13.141232490539550781 13.163212776184082031 13.184876441955566406 13.206339836120605469 13.227146148681640625 13.247317314147949219 13.267056465148925781 13.286980628967285156 13.306965827941894531 13.328799247741699219 13.362643241882324219 13.474460601806640625 13.596798896789550781 13.716809272766113281 13.833670616149902344 13.9510040283203125 14.067216873168945312 14.185882568359375 14.304248809814453125 14.425366401672363281 14.545802116394042969 14.668735504150390625 14.790467262268066406 14.914621353149414062 15.037364006042480469 15.162812232971191406 15.287069320678710938 15.414885520935058594 15.542429924011230469 15.675129890441894531 15.808463096618652344 15.947562217712402344 16.08673095703125 16.231653213500976562 16.378612518310546875 16.540899276733398438 16.707738876342773438 16.882801055908203125 17.059732437133789062 17.246805191040039062 17.431447982788085938 17.617626190185546875 17.792554855346679688 17.957777023315429688 18.097492218017578125 18.220869064331054688 18.323497772216796875 18.414033889770507812 18.48946380615234375 18.556219100952148438 18.611707687377929688 18.660619735717773438 18.700826644897460938 18.735338211059570312 18.762294769287109375 18.784223556518554688 18.8002471923828125 18.812076568603515625 18.8193817138671875 18.823614120483398438 18.828800201416015625 18.838735580444335938 18.850522994995117188 18.862577438354492188 18.873992919921875 18.885650634765625 18.896596908569335938 18.907306671142578125 18.9154815673828125 18.912609100341796875 18.856748580932617188 18.775774002075195312 18.679529190063476562 18.560543060302734375 18.36003875732421875 18.073795318603515625 17.774517059326171875 17.458057403564453125 17.164228439331054688 16.906982421875 16.735919952392578125 16.586080551147460938 16.443851470947265625 16.294660568237304688 16.164340972900390625 16.040126800537109375 15.928143501281738281 15.816967964172363281 15.717753410339355469 15.619251251220703125 15.530467033386230469 15.441369056701660156 15.36133575439453125 15.282841682434082031 15.213758468627929688 15.146038055419921875 15.086040496826171875 15.026400566101074219 14.973069190979003906 14.919589042663574219 14.871562957763671875 14.823195457458496094 14.779726982116699219 14.735857963562011719 14.696446418762207031 14.656569480895996094 14.620676994323730469 14.584234237670898438 14.55147552490234375 14.518377304077148438 14.488836288452148438 14.458978652954101562 14.432394027709960938 14.40557861328125 14.381778717041015625 14.357782363891601562 14.336546897888183594 14.315167427062988281 14.296324729919433594 14.277324676513671875 14.260367393493652344 14.242918014526367188 14.227223396301269531 14.211040496826171875 14.196498870849609375 14.181490898132324219 14.168024063110351562 14.154114723205566406 14.141665458679199219 14.128948211669921875 14.117802619934082031 14.106541633605957031 14.096718788146972656 14.08679962158203125 14.078172683715820312 14.069464683532714844 14.061840057373046875 14.053997039794921875 14.04705810546875 14.039892196655273438 14.03354644775390625 14.026973724365234375 14.021147727966308594 14.015095710754394531 14.009725570678710938 14.004128456115722656 13.999127388000488281 13.993860244750976562 13.989110946655273438 13.984089851379394531 13.979537010192871094 13.974730491638183594 13.970388412475585938 13.965815544128417969 13.961668014526367188 13.957288742065429688 13.953299522399902344 13.949080467224121094 13.945221900939941406 13.941136360168457031 13.937391281127929688 13.933427810668945312 13.929795265197753906 13.925942420959472656 13.922155380249023438 13.917237281799316406 13.911110877990722656 13.902371406555175781 13.893269538879394531 13.883526802062988281 13.874762535095214844 13.865236282348632812 13.851047515869140625 13.829462051391601562 13.804778099060058594 13.775391578674316406 13.747465133666992188 13.717886924743652344 13.690381050109863281 13.661550521850585938 13.634815216064453125 13.606760978698730469 13.580662727355957031 13.553206443786621094 13.527451515197753906 13.500255584716796875 13.474764823913574219 13.447966575622558594 13.422885894775390625 13.396597862243652344 13.372000694274902344 13.346265792846679688 13.322171211242675781 13.296998977661132812 13.273413658142089844 13.248805999755859375 13.22573089599609375 13.201687812805175781 13.179123878479003906 13.155644416809082031 13.133585929870605469 13.110638618469238281 13.089036941528320312 13.066588401794433594 13.045442581176757812 13.023497581481933594 13.002810478210449219 12.981373786926269531 12.961153030395507812 12.940227508544921875 12.920473098754882812 12.900056838989257812 12.880762100219726562 12.860841751098632812 12.842000007629394531 12.822573661804199219 12.804182052612304688 12.785243988037109375 12.767299652099609375 12.748845100402832031 12.731342315673828125 12.713346481323242188 12.696246147155761719 12.678744316101074219 12.662218093872070312 12.645417213439941406 12.629583358764648438 12.613541603088378906 12.598446846008300781 12.583202362060546875 12.568852424621582031 12.5543975830078125 12.540816307067871094 12.527196884155273438 12.514439582824707031 12.501718521118164062 12.489850997924804688 12.478102684020996094 12.4672088623046875 12.456524848937988281 12.446702957153320312 12.43719482421875 12.428568840026855469 12.420373916625976562 12.413091659545898438 12.406373977661132812 12.400608062744140625 12.395532608032226562 12.391350746154785156 12.379326820373535156 12.273097038269042969 12.131382942199707031 11.999466896057128906 11.868291854858398438 11.742406845092773438 11.6171417236328125 11.499074935913085938 11.384636878967285156 11.279672622680664062 11.181117057800292969 11.092730522155761719 11.010890960693359375 10.938047409057617188 10.871278762817382812 10.81232452392578125 10.758514404296875 10.710397720336914062 10.665333747863769531 10.623470306396484375 10.582440376281738281 10.54261016845703125 10.503207206726074219 10.465967178344726562 10.430773735046386719 10.399182319641113281 10.371144294738769531 10.346754074096679688 10.323980331420898438 10.301550865173339844 10.277301788330078125 10.250016212463378906 
12.658483505249023438 12.67630767822265625 12.69573974609375 12.716645240783691406 12.738101005554199219 12.759964942932128906 12.781812667846679688 12.803732872009277344 12.825486183166503906 12.847187042236328125 12.8686981201171875 12.8901214599609375 12.91138458251953125 12.932547569274902344 12.953577041625976562 12.974482536315917969 12.995270729064941406 13.015900611877441406 13.036416053771972656 13.056722640991210938 13.076890945434570312 13.096754074096679688 13.116389274597167969 13.135550498962402344 13.154307365417480469 13.172371864318847656 13.190056800842285156 13.207634925842285156 13.2262725830078125 13.246756553649902344 13.268172264099121094 13.286054611206054688 13.365705490112304688 13.478540420532226562 13.589796066284179688 13.697626113891601562 13.806744575500488281 13.915867805480957031 14.027841567993164062 14.13967132568359375 14.253891944885253906 14.367150306701660156 14.482413291931152344 14.596177101135253906 14.711796760559082031 14.825643539428710938 14.941481590270996094 15.055640220642089844 15.172415733337402344 15.288256645202636719 15.408311843872070312 15.529444694519042969 15.657576560974121094 15.787591934204101562 15.923944473266601562 16.064306259155273438 16.221466064453125 16.383417129516601562 16.555715560913085938 16.731014251708984375 16.917051315307617188 17.102056503295898438 17.289060592651367188 17.465253829956054688 17.63379669189453125 17.77899169921875 17.909482955932617188 18.018697738647460938 18.115510940551757812 18.196445465087890625 18.268205642700195312 18.327875137329101562 18.380395889282226562 18.423398971557617188 18.459970474243164062 18.488109588623046875 18.510431289672851562 18.52600860595703125 18.53650665283203125 18.541637420654296875 18.542459487915039062 18.543001174926757812 18.548604965209960938 18.557216644287109375 18.565485000610351562 18.572412490844726562 18.5782623291015625 18.582004547119140625 18.5825042724609375 18.575490951538085938 18.541357040405273438 18.45949554443359375 18.383810043334960938 18.311052322387695312 18.2186431884765625 18.1179656982421875 17.9695892333984375 17.718013763427734375 17.38585662841796875 17.1194610595703125 16.962945938110351562 16.821331024169921875 16.66204833984375 16.5085296630859375 16.358663558959960938 16.227691650390625 16.09765625 15.980462074279785156 15.864901542663574219 15.761347770690917969 15.658306121826171875 15.565266609191894531 15.472137451171875 15.389494895935058594 15.30855560302734375 15.237433433532714844 15.167511940002441406 15.105492591857910156 15.043885231018066406 14.988943099975585938 14.934038162231445312 14.8848876953125 14.835466384887695312 14.791058540344238281 14.746241569519042969 14.705988883972167969 14.665330886840820312 14.628870964050292969 14.59198760986328125 14.558897972106933594 14.52544403076171875 14.495549201965332031 14.465330123901367188 14.438389778137207031 14.411150932312011719 14.386927604675292969 14.362469673156738281 14.340794563293457031 14.318941116333007812 14.299650192260742188 14.280246734619140625 14.263180732727050781 14.245853424072265625 14.230301856994628906 14.214262962341308594 14.199846267700195312 14.184963226318359375 14.171603202819824219 14.157802581787109375 14.145435333251953125 14.132712364196777344 14.121493339538574219 14.110105514526367188 14.10015106201171875 14.090081214904785156 14.081308364868164062 14.072446823120117188 14.064748764038085938 14.0569000244140625 14.049961090087890625 14.042796134948730469 14.036450386047363281 14.029880523681640625 14.024058341979980469 14.01801300048828125 14.012652397155761719 14.007071495056152344 14.002111434936523438 13.996911048889160156 13.992230415344238281 13.987291336059570312 13.982823371887207031 13.978096961975097656 13.973826408386230469 13.969341278076171875 13.965288162231445312 13.961023330688476562 13.957155227661132812 13.953082084655761719 13.949378013610839844 13.945476531982421875 13.941922187805175781 13.938187599182128906 13.934790611267089844 13.931240081787109375 13.928012847900390625 13.924275398254394531 13.919699668884277344 13.9127349853515625 13.904375076293945312 13.895241737365722656 13.887102127075195312 13.87774658203125 13.863278388977050781 13.841471672058105469 13.816653251647949219 13.787274360656738281 13.75939178466796875 13.729842185974121094 13.702336311340332031 13.673476219177246094 13.646694183349609375 13.618556022644042969 13.592237472534179688 13.564352989196777344 13.538186073303222656 13.510613441467285156 13.484818458557128906 13.457745552062988281 13.432432174682617188 13.405912399291992188 13.381101608276367188 13.355147361755371094 13.330847740173339844 13.305461883544921875 13.281676292419433594 13.256857872009277344 13.233586311340332031 13.2093353271484375 13.18657684326171875 13.162892341613769531 13.140645027160644531 13.117508888244628906 13.095733642578125 13.073103904724121094 13.051787376403808594 13.029666900634765625 13.008814811706542969 12.987208366394042969 12.966826438903808594 12.945737838745117188 12.925831794738769531 12.90526580810546875 12.885840415954589844 12.865795135498046875 12.846840858459472656 12.827300071716308594 12.808802604675292969 12.789759635925292969 12.771718025207519531 12.753168106079101562 12.735578536987304688 12.7175140380859375 12.700362205505371094 12.6827392578125 12.666008949279785156 12.648965835571289062 12.632890701293945312 12.61660003662109375 12.601260185241699219 12.585753440856933594 12.571149826049804688 12.556431770324707031 12.542597770690917969 12.528718948364257812 12.515711784362792969 12.502734184265136719 12.490620613098144531 12.478620529174804688 12.467484474182128906 12.456552505493164062 12.446492195129394531 12.436739921569824219 12.427876472473144531 12.419436454772949219 12.411910057067871094 12.404925346374511719 12.398867607116699219 12.393378257751464844 12.3885040283203125 12.350543975830078125 12.213822364807128906 12.072811126708984375 11.943409919738769531 11.817414283752441406 11.699034690856933594 11.582877159118652344 11.473865509033203125 11.367514610290527344 11.268115997314453125 11.171901702880859375 11.0828857421875 10.998290061950683594 10.921607017517089844 10.850709915161132812 10.78833770751953125 10.732142448425292969 10.682636260986328125 10.636949539184570312 10.595046043395996094 10.554365158081054688 10.515097618103027344 10.476383209228515625 10.439879417419433594 10.405415534973144531 10.374471664428710938 10.346944808959960938 10.322892189025878906 10.300278663635253906 10.277825355529785156 10.253371238708496094 10.225695610046386719 
12.650356292724609375 12.666904449462890625 12.685031890869140625 12.704304695129394531 12.724099159240722656 12.744324684143066406 12.764543533325195312 12.784809112548828125 12.804897308349609375 12.824922561645507812 12.844763755798339844 12.86450958251953125 12.88408660888671875 12.903540611267089844 12.9228363037109375 12.941974639892578125 12.960954666137695312 12.979726791381835938 12.998315811157226562 13.0166168212890625 13.034680366516113281 13.052344322204589844 13.069659233093261719 13.086368560791015625 13.10257720947265625 13.118291854858398438 13.133998870849609375 13.149790763854980469 13.167192459106445312 13.187419891357421875 13.20616912841796875 13.215834617614746094 13.262452125549316406 13.356190681457519531 13.458909988403320312 13.559802055358886719 13.662888526916503906 13.766338348388671875 13.872262001037597656 13.97766876220703125 14.084979057312011719 14.191040992736816406 14.29862213134765625 14.40441131591796875 14.5114898681640625 14.616436004638671875 14.722658157348632812 14.826708793640136719 14.932430267333984375 15.036508560180664062 15.143495559692382812 15.250552177429199219 15.363657951354980469 15.480749130249023438 15.606936454772949219 15.740240097045898438 15.892006874084472656 16.050628662109375 16.221303939819335938 16.395818710327148438 16.581880569458007812 16.768283843994140625 16.957399368286132812 17.1359710693359375 17.30872344970703125 17.460824966430664062 17.598665237426757812 17.714475631713867188 17.817485809326171875 17.90377044677734375 17.980314254760742188 18.043893814086914062 18.099695205688476562 18.145139694213867188 18.183427810668945312 18.212368011474609375 18.2346343994140625 18.249280929565429688 18.257902145385742188 18.260297775268554688 18.257236480712890625 18.252826690673828125 18.253633499145507812 18.258470535278320312 18.26216888427734375 18.263551712036132812 18.262037277221679688 18.256410598754882812 18.243276596069335938 18.215576171875 18.146480560302734375 18.053745269775390625 17.979162216186523438 17.9198760986328125 17.869436264038085938 17.8187103271484375 17.755430221557617188 17.65149688720703125 17.451725006103515625 17.262388229370117188 17.080980300903320312 16.908044815063476562 16.730621337890625 16.572942733764648438 16.421237945556640625 16.28525543212890625 16.150096893310546875 16.029323577880859375 15.909816741943359375 15.802541732788085938 15.69551849365234375 15.598807334899902344 15.502765655517578125 15.417978286743164062 15.335031509399414062 15.262010574340820312 15.190019607543945312 15.126051902770996094 15.062438011169433594 15.005664825439453125 14.948938369750976562 14.898243904113769531 14.847468376159667969 14.802071571350097656 14.756390571594238281 14.715384483337402344 14.673954010009765625 14.636790275573730469 14.59923553466796875 14.565667152404785156 14.531863212585449219 14.501714706420898438 14.471232414245605469 14.444026947021484375 14.416482925415039062 14.391933441162109375 14.367086410522460938 14.345030784606933594 14.322763442993164062 14.303080558776855469 14.283247947692871094 14.265796661376953125 14.248263359069824219 14.232800483703613281 14.216927528381347656 14.202658653259277344 14.187925338745117188 14.174695968627929688 14.161027908325195312 14.148775100708007812 14.136121749877929688 14.124895095825195312 14.113452911376953125 14.103400230407714844 14.093212127685546875 14.084323883056640625 14.075329780578613281 14.067513465881347656 14.059614181518554688 14.052692413330078125 14.045551300048828125 14.039228439331054688 14.032684326171875 14.026889801025390625 14.020876884460449219 14.015547752380371094 14.010007858276367188 14.005092620849609375 13.999970436096191406 13.995380401611328125 13.990548133850097656 13.986186981201171875 13.981583595275878906 13.977416038513183594 13.97304534912109375 13.969109535217285156 13.964986801147460938 13.96126556396484375 13.957366943359375 13.9538421630859375 13.950154304504394531 13.946820259094238281 13.943346023559570312 13.940217018127441406 13.936985015869140625 13.934102058410644531 13.931136131286621094 13.9279632568359375 13.922963142395019531 13.916019439697265625 13.907513618469238281 13.899853706359863281 13.890509605407714844 13.875821113586425781 13.853750228881835938 13.828698158264160156 13.799288749694824219 13.771435737609863281 13.741900444030761719 13.714377403259277344 13.685471534729003906 13.658587455749511719 13.630094528198242188 13.603295326232910156 13.574961662292480469 13.548455238342285156 13.520590782165527344 13.494555473327636719 13.467241287231445312 13.441707611083984375 13.414961814880371094 13.389941215515136719 13.363767623901367188 13.339263916015625 13.313664436340332031 13.289676666259765625 13.264649391174316406 13.241177558898925781 13.2167205810546875 13.193764686584472656 13.169875144958496094 13.147433280944824219 13.124105453491210938 13.102152824401855469 13.079339981079101562 13.057850837707519531 13.035552978515625 13.01453399658203125 12.992753982543945312 12.972210884094238281 12.950953483581542969 12.930891036987304688 12.910162925720214844 12.890587806701660156 12.870394706726074219 12.851312637329101562 12.831652641296386719 12.813048362731933594 12.793897628784179688 12.7757568359375 12.757105827331542969 12.7394256591796875 12.721270561218261719 12.704043388366699219 12.686371803283691406 12.669564247131347656 12.652330398559570312 12.636026382446289062 12.619484901428222656 12.603895187377929688 12.588120460510253906 12.573259353637695312 12.558274269104003906 12.544183731079101562 12.530039787292480469 12.51677703857421875 12.503538131713867188 12.491170883178710938 12.478911399841308594 12.467523574829101562 12.456334114074707031 12.446022987365722656 12.43601226806640625 12.426892280578613281 12.418182373046875 12.410376548767089844 12.403061866760253906 12.396585464477539062 12.390492439270019531 12.38523101806640625 12.308620452880859375 12.160551071166992188 12.018559455871582031 11.889902114868164062 11.767404556274414062 11.655170440673828125 11.547049522399902344 11.446371078491210938 11.347698211669921875 11.2537994384765625 11.160188674926757812 11.071056365966796875 10.984404563903808594 10.904654502868652344 10.830414772033691406 10.765315055847167969 10.707299232482910156 10.656812667846679688 10.610762596130371094 10.568918228149414062 10.5285186767578125 10.489580154418945312 10.451189041137695312 10.414960861206054688 10.380709648132324219 10.349886894226074219 10.32236480712890625 10.298193931579589844 10.275336265563964844 10.252521514892578125 10.227581024169921875 10.199316978454589844 
12.643240928649902344 12.659121513366699219 12.675937652587890625 12.693620681762695312 12.711672782897949219 12.730095863342285156 12.74853515625 12.767049789428710938 12.785455703735351562 12.803846359252929688 12.822080612182617188 12.840210914611816406 12.858148574829101562 12.875922203063964844 12.893494606018066406 12.910861015319824219 12.928023338317871094 12.94493865966796875 12.961630821228027344 12.977993011474609375 12.994040489196777344 13.00959014892578125 13.024702072143554688 13.039275169372558594 13.053544998168945312 13.067477226257324219 13.081465721130371094 13.095960617065429688 13.111833572387695312 13.128904342651367188 13.145140647888183594 13.151404380798339844 13.172673225402832031 13.240750312805175781 13.331148147583007812 13.427355766296386719 13.525916099548339844 13.624170303344726562 13.724264144897460938 13.823468208312988281 13.924103736877441406 14.023215293884277344 14.123373031616210938 14.221455574035644531 14.32027435302734375 14.416605949401855469 14.513517379760742188 14.607773780822753906 14.702771186828613281 14.795428276062011719 14.889713287353515625 14.983029365539550781 15.080577850341796875 15.181066513061523438 15.292435646057128906 15.416953086853027344 15.56418609619140625 15.720728874206542969 15.890471458435058594 16.06512451171875 16.252435684204101562 16.441471099853515625 16.63405609130859375 16.816358566284179688 16.994213104248046875 17.1543121337890625 17.299482345581054688 17.42177581787109375 17.530759811401367188 17.62210845947265625 17.703075408935546875 17.770160675048828125 17.82877349853515625 17.876178741455078125 17.915737152099609375 17.94501495361328125 17.966699600219726562 17.979862213134765625 17.985998153686523438 17.985042572021484375 17.977510452270507812 17.967996597290039062 17.963972091674804688 17.964643478393554688 17.963043212890625 17.957838058471679688 17.947366714477539062 17.930067062377929688 17.899591445922851562 17.845306396484375 17.747898101806640625 17.654352188110351562 17.598199844360351562 17.587583541870117188 17.590375900268554688 17.592241287231445312 17.592655181884765625 17.5793914794921875 17.5358123779296875 17.33934783935546875 17.141691207885742188 16.959545135498046875 16.780969619750976562 16.624418258666992188 16.470426559448242188 16.331312179565429688 16.193883895874023438 16.070627212524414062 15.948416709899902344 15.838335990905761719 15.728271484375 15.628933906555175781 15.531055450439453125 15.444616317749023438 15.360057830810546875 15.285374641418457031 15.21158599853515625 15.14593505859375 15.08058929443359375 15.022227287292480469 14.963878631591796875 14.91170501708984375 14.859426498413085938 14.812709808349609375 14.765860557556152344 14.724039077758789062 14.681928634643554688 14.644169807434082031 14.605992317199707031 14.571860313415527344 14.537550926208496094 14.507085800170898438 14.476382255554199219 14.448979377746582031 14.421209335327148438 14.396432876586914062 14.371315956115722656 14.348964691162109375 14.326355934143066406 14.30634307861328125 14.286152839660644531 14.268359184265136719 14.250459671020507812 14.234777450561523438 14.218970298767089844 14.204863548278808594 14.190297126770019531 14.177215576171875 14.1636962890625 14.151576995849609375 14.139048576354980469 14.127865791320800781 14.116428375244140625 14.106343269348144531 14.096075057983398438 14.087100028991699219 14.078008651733398438 14.070097923278808594 14.062104225158691406 14.055170059204101562 14.048070907592773438 14.041790962219238281 14.035294532775878906 14.029544830322265625 14.023584365844726562 14.018308639526367188 14.012829780578613281 14.007975578308105469 14.002932548522949219 13.998443603515625 13.993735313415527344 13.989497184753417969 13.98503875732421875 13.981006622314453125 13.976773262023925781 13.972972869873046875 13.969011306762695312 13.965453147888183594 13.961748123168945312 13.9584197998046875 13.954962730407714844 13.951865196228027344 13.94866943359375 13.945824623107910156 13.942927360534667969 13.940388679504394531 13.937869071960449219 13.935651779174804688 13.932448387145996094 13.927464485168457031 13.919864654541015625 13.912439346313476562 13.903105735778808594 13.888247489929199219 13.865861892700195312 13.840491294860839844 13.811023712158203125 13.783190727233886719 13.753653526306152344 13.726100921630859375 13.697052955627441406 13.669739723205566406 13.640700340270996094 13.613497734069824219 13.584843635559082031 13.558085441589355469 13.529974937438964844 13.503716468811035156 13.476175308227539062 13.450432777404785156 13.423468589782714844 13.398245811462402344 13.371861457824707031 13.34716033935546875 13.321352005004882812 13.297169685363769531 13.271937370300292969 13.248272895812988281 13.223612785339355469 13.200465202331542969 13.176375389099121094 13.153743743896484375 13.130220413208007812 13.108094215393066406 13.085101127624511719 13.063445091247558594 13.040971755981445312 13.019787788391113281 12.997838973999023438 12.977135658264160156 12.955714225769042969 12.935497283935546875 12.914609909057617188 12.894885063171386719 12.874538421630859375 12.855312347412109375 12.835513114929199219 12.816792488098144531 12.797533035278320312 12.779294013977050781 12.7605438232421875 12.742772102355957031 12.724526405334472656 12.707215309143066406 12.689464569091796875 12.672606468200683594 12.655317306518554688 12.638853073120117188 12.622083663940429688 12.60625457763671875 12.590222358703613281 12.575108528137207031 12.559861183166503906 12.545517921447753906 12.531113624572753906 12.517598152160644531 12.504097938537597656 12.491479873657226562 12.478960990905761719 12.467320442199707031 12.455869674682617188 12.445303916931152344 12.435024261474609375 12.425634384155273438 12.416620254516601562 12.408473968505859375 12.400735855102539062 12.393752098083496094 12.387010574340820312 12.379759788513183594 12.271021842956542969 12.117692947387695312 11.972553253173828125 11.842248916625976562 11.720790863037109375 11.612475395202636719 11.510423660278320312 11.416530609130859375 11.324463844299316406 11.235581398010253906 11.144722938537597656 11.056143760681152344 10.968489646911621094 10.886891365051269531 10.8105621337890625 10.743821144104003906 10.684843063354492188 10.633981704711914062 10.587942123413085938 10.546300888061523438 10.50611114501953125 10.467245101928710938 10.428754806518554688 10.392292022705078125 10.357687950134277344 10.326430320739746094 10.298410415649414062 10.273702621459960938 10.250261306762695312 10.226834297180175781 10.201234817504882812 10.172284126281738281 
12.637001991271972656 12.6525726318359375 12.668137550354003906 12.684147834777832031 12.700333595275878906 12.716795921325683594 12.733382225036621094 12.750203132629394531 12.767004013061523438 12.783789634704589844 12.800396919250488281 12.816862106323242188 12.833099365234375 12.849133491516113281 12.864925384521484375 12.880464553833007812 12.895746231079101562 12.9107208251953125 12.925406455993652344 12.939714431762695312 12.95369720458984375 12.967263221740722656 12.980504035949707031 12.993327140808105469 13.005949020385742188 13.01837921142578125 13.031078338623046875 13.044194221496582031 13.056872367858886719 13.069271087646484375 13.083027839660644531 13.087906837463378906 13.092930793762207031 13.136541366577148438 13.210231781005859375 13.297542572021484375 13.391037940979003906 13.484183311462402344 13.5785064697265625 13.671532630920410156 13.765501022338867188 13.857656478881835938 13.950384140014648438 14.040755271911621094 14.13130950927734375 14.219015121459960938 14.306588172912597656 14.390997886657714844 14.475197792053222656 14.556331634521484375 14.637777328491210938 14.7171783447265625 14.798926353454589844 14.882005691528320312 14.974062919616699219 15.084530830383300781 15.226376533508300781 15.381087303161621094 15.550532341003417969 15.726385116577148438 15.916517257690429688 16.109910964965820312 16.307773590087890625 16.495733261108398438 16.680711746215820312 16.849151611328125 17.001979827880859375 17.130977630615234375 17.246007919311523438 17.342351913452148438 17.427549362182617188 17.49784088134765625 17.558841705322265625 17.607690811157226562 17.648015975952148438 17.677097320556640625 17.697530746459960938 17.708459854125976562 17.71123504638671875 17.705995559692382812 17.693010330200195312 17.678030014038085938 17.669202804565429688 17.66515350341796875 17.657045364379882812 17.64349365234375 17.621341705322265625 17.588407516479492188 17.534250259399414062 17.448879241943359375 17.338968276977539062 17.257257461547851562 17.27410125732421875 17.328222274780273438 17.383466720581054688 17.43379974365234375 17.486360549926757812 17.524885177612304688 17.546094894409179688 17.374597549438476562 17.174468994140625 16.9940643310546875 16.81951904296875 16.6635589599609375 16.508424758911132812 16.368621826171875 16.2301788330078125 16.105663299560546875 15.981774330139160156 15.869787216186523438 15.757544517517089844 15.656685829162597656 15.55748748779296875 15.469873428344726562 15.383942604064941406 15.30780029296875 15.232400894165039062 15.165215492248535156 15.098293304443359375 15.03850555419921875 14.978713035583496094 14.925220489501953125 14.871586799621582031 14.823630332946777344 14.77550506591796875 14.732552528381347656 14.689455986022949219 14.651044845581054688 14.612321853637695312 14.577731132507324219 14.542952537536621094 14.512045860290527344 14.48095703125 14.453339576721191406 14.425395965576171875 14.400448799133300781 14.3751373291015625 14.3525848388671875 14.32971954345703125 14.3094329833984375 14.288937568664550781 14.270852088928222656 14.25263214111328125 14.236643791198730469 14.220602035522460938 14.206553459167480469 14.192168235778808594 14.179254531860351562 14.165907859802246094 14.153940200805664062 14.141567230224609375 14.130497932434082031 14.119105339050292969 14.109041213989257812 14.0987548828125 14.089722633361816406 14.080562591552734375 14.072584152221679688 14.064513206481933594 14.057520866394042969 14.050444602966308594 14.044225692749023438 14.037797927856445312 14.032114028930664062 14.026227951049804688 14.021024703979492188 14.015628814697265625 14.01085662841796875 14.005908012390136719 14.001524925231933594 13.996957778930664062 13.992862701416015625 13.988567352294921875 13.984698295593261719 13.9806365966796875 13.976994514465332031 13.973216056823730469 13.969842910766601562 13.9663543701171875 13.963243484497070312 13.960041999816894531 13.957201004028320312 13.954306602478027344 13.951768875122070312 13.949231147766113281 13.94705963134765625 13.944974899291992188 13.943289756774902344 13.941501617431640625 13.93859100341796875 13.932559013366699219 13.925261497497558594 13.915997505187988281 13.901007652282714844 13.878222465515136719 13.852437019348144531 13.822896003723144531 13.795074462890625 13.765522003173828125 13.737812042236328125 13.708201408386230469 13.680335044860839844 13.650888442993164062 13.6233978271484375 13.594475746154785156 13.567481040954589844 13.539130210876464844 13.512654304504394531 13.484888076782226562 13.458936691284179688 13.431756019592285156 13.406330108642578125 13.379733085632324219 13.354831695556640625 13.328815460205078125 13.30443572998046875 13.278996467590332031 13.255136489868164062 13.2302703857421875 13.206928253173828125 13.182634353637695312 13.159810066223144531 13.13608551025390625 13.11377716064453125 13.090600967407226562 13.068772315979003906 13.046120643615722656 13.024770736694335938 13.00264739990234375 12.981781005859375 12.960191726684570312 12.939815521240234375 12.918766021728515625 12.89888763427734375 12.878384590148925781 12.859009742736816406 12.839058876037597656 12.82019805908203125 12.800806045532226562 12.782458305358886719 12.763607025146484375 12.745739936828613281 12.727398872375488281 12.710000991821289062 12.692163467407226562 12.675226211547851562 12.657877922058105469 12.6413726806640625 12.624441146850585938 12.608379364013671875 12.592097282409667969 12.576737403869628906 12.561232566833496094 12.546633720397949219 12.531964302062988281 12.518189430236816406 12.504422187805175781 12.491542816162109375 12.47875213623046875 12.466847419738769531 12.455117225646972656 12.444270133972167969 12.433683395385742188 12.423969268798828125 12.414585113525390625 12.406033515930175781 12.397813796997070312 12.390275955200195312 12.38292694091796875 12.382185935974121094 12.241200447082519531 12.08325958251953125 11.933009147644042969 11.798876762390136719 11.676198959350585938 11.569759368896484375 11.471964836120605469 11.383450508117675781 11.297014236450195312 11.212741851806640625 11.124822616577148438 11.037480354309082031 10.949865341186523438 10.867615699768066406 10.790426254272460938 10.723107337951660156 10.664012908935546875 10.613368988037109375 10.567707061767578125 10.526407241821289062 10.486350059509277344 10.447278022766113281 10.408253669738769531 10.371026992797851562 10.335490226745605469 10.303241729736328125 10.274228096008300781 10.248587608337402344 10.224259376525878906 10.200005531311035156 10.173627853393554688 10.14395904541015625 
12.631761550903320312 12.646993637084960938 12.661698341369628906 12.67608642578125 12.690497398376464844 12.705354690551757812 12.72037506103515625 12.735552787780761719 12.750667572021484375 12.765752792358398438 12.780663490295410156 12.795423507690429688 12.809947013854980469 12.82424163818359375 12.838269233703613281 12.85201263427734375 12.8654632568359375 12.878579139709472656 12.891384124755859375 12.903819084167480469 12.915959358215332031 12.927746772766113281 12.939318656921386719 12.95062255859375 12.961823463439941406 12.973073005676269531 12.984484672546386719 12.994960784912109375 13.004057884216308594 13.011903762817382812 13.022257804870605469 13.026201248168945312 13.025180816650390625 13.049671173095703125 13.106984138488769531 13.181116104125976562 13.264950752258300781 13.351815223693847656 13.440465927124023438 13.527515411376953125 13.615040779113769531 13.700497627258300781 13.786082267761230469 13.869042396545410156 13.951658248901367188 14.031077384948730469 14.109677314758300781 14.184613227844238281 14.258383750915527344 14.32833099365234375 14.397256851196289062 14.463047981262207031 14.529368400573730469 14.595937728881835938 14.669797897338867188 14.760824203491210938 14.891297340393066406 15.043865203857421875 15.213664054870605469 15.39189910888671875 15.586673736572265625 15.786438941955566406 15.991648674011230469 16.187593460083007812 16.382299423217773438 16.557970046997070312 16.718275070190429688 16.854053497314453125 16.975046157836914062 17.076168060302734375 17.165254592895507812 17.23830413818359375 17.301126480102539062 17.350748062133789062 17.39111328125 17.419374465942382812 17.437816619873046875 17.445695877075195312 17.444171905517578125 17.433664321899414062 17.414270401000976562 17.39379119873046875 17.380632400512695312 17.371185302734375 17.355039596557617188 17.330780029296875 17.29311370849609375 17.240041732788085938 17.161304473876953125 17.06771087646484375 16.975505828857421875 16.968286514282226562 17.063196182250976562 17.155971527099609375 17.245996475219726562 17.330579757690429688 17.416439056396484375 17.476499557495117188 17.519952774047851562 17.380643844604492188 17.185596466064453125 17.012147903442382812 16.8418426513671875 16.687633514404296875 16.533824920654296875 16.395130157470703125 16.257108688354492188 16.132532119750976562 16.008008956909179688 15.895055770874023438 15.781772613525390625 15.680478096008300781 15.580687522888183594 15.492425918579101562 15.405463218688964844 15.3281402587890625 15.251405715942382812 15.182923316955566406 15.114624977111816406 15.053554534912109375 14.992464065551757812 14.937822341918945312 14.883028030395507812 14.834006309509277344 14.784778594970703125 14.740807533264160156 14.696656227111816406 14.657328605651855469 14.617906570434570312 14.582921028137207031 14.547764778137207031 14.516489028930664062 14.484995841979980469 14.457025527954101562 14.428849220275878906 14.403776168823242188 14.378328323364257812 14.355637550354003906 14.332610130310058594 14.312137603759765625 14.291403770446777344 14.273082733154296875 14.254602432250976562 14.238362312316894531 14.222043991088867188 14.207803726196289062 14.193492889404296875 14.180756568908691406 14.167593955993652344 14.155792236328125 14.143589973449707031 14.132670402526855469 14.121386528015136719 14.111370086669921875 14.1011199951171875 14.092084884643554688 14.082884788513183594 14.074863433837890625 14.066745758056640625 14.059706687927246094 14.052606582641601562 14.046445846557617188 14.040102958679199219 14.034501075744628906 14.028705596923828125 14.023590087890625 14.018293380737304688 14.013617515563964844 14.008780479431152344 14.004506111145019531 14.000084877014160156 13.996143341064453125 13.992023468017578125 13.988328933715820312 13.984463691711425781 13.980998039245605469 13.9774169921875 13.974240303039550781 13.970979690551757812 13.968097686767578125 13.965162277221679688 13.962589263916015625 13.960005760192871094 13.957780838012695312 13.955608367919921875 13.953808784484863281 13.952159881591796875 13.950924873352050781 13.949945449829101562 13.948687553405761719 13.944675445556640625 13.937829017639160156 13.928696632385253906 13.913607597351074219 13.890328407287597656 13.864055633544921875 13.834450721740722656 13.806629180908203125 13.776909828186035156 13.748612403869628906 13.718409538269042969 13.690186500549316406 13.660444259643554688 13.632704734802246094 13.603534698486328125 13.576317787170410156 13.547740936279296875 13.521056175231933594 13.493074417114257812 13.466921806335449219 13.439531326293945312 13.413908958435058594 13.387104988098144531 13.362009048461914062 13.335788726806640625 13.311216354370117188 13.285573959350585938 13.261522293090820312 13.236455917358398438 13.212924003601074219 13.188429832458496094 13.165416717529296875 13.1414947509765625 13.119000434875488281 13.095643043518066406 13.073644638061523438 13.050818443298339844 13.029302597045898438 13.007009506225585938 12.985981941223144531 12.964226722717285156 12.943695068359375 12.922484397888183594 12.902454376220703125 12.881795883178710938 12.862275123596191406 12.842174530029296875 12.823171615600585938 12.803635597229003906 12.785159111022949219 12.766191482543945312 12.748229026794433594 12.729793548583984375 12.712306976318359375 12.6943817138671875 12.677362442016601562 12.65993499755859375 12.643369674682617188 12.626391410827636719 12.610170364379882812 12.593645095825195312 12.578044891357421875 12.562288284301757812 12.547444343566894531 12.5325164794921875 12.518489837646484375 12.50445556640625 12.491313934326171875 12.478245735168457031 12.466063499450683594 12.454035758972167969 12.442885398864746094 12.431967735290527344 12.421906471252441406 12.412130355834960938 12.403151512145996094 12.39443206787109375 12.38634490966796875 12.387175559997558594 12.385186195373535156 12.21813201904296875 12.055247306823730469 11.899188995361328125 11.760231971740722656 11.635049819946289062 11.529061317443847656 11.434053421020507812 11.349607467651367188 11.267770767211914062 11.187535285949707031 11.102541923522949219 11.016898155212402344 10.930131912231445312 10.848199844360351562 10.771155357360839844 10.704113960266113281 10.645558357238769531 10.595566749572753906 10.550522804260253906 10.509619712829589844 10.469575881958007812 10.43003082275390625 10.390086174011230469 10.351644515991210938 10.314701080322265625 10.281012535095214844 10.250620841979980469 10.223752021789550781 10.198332786560058594 10.173144340515136719 10.14597320556640625 10.11566162109375 
12.627383232116699219 12.64194488525390625 12.655675888061523438 12.669157028198242188 12.682456016540527344 12.695818901062011719 12.709197998046875 12.722654342651367188 12.736006736755371094 12.749294281005859375 12.762396812438964844 12.775341987609863281 12.788054466247558594 12.800539970397949219 12.812761306762695312 12.824702262878417969 12.836358070373535156 12.84769439697265625 12.858737945556640625 12.869441032409667969 12.879873275756835938 12.889995574951171875 12.899945259094238281 12.909771919250488281 12.919706344604492188 12.929341316223144531 12.938210487365722656 12.945766448974609375 12.951623916625976562 12.955422401428222656 12.960662841796875 12.96363067626953125 12.964831352233886719 12.977705001831054688 13.017958641052246094 13.077805519104003906 13.149059295654296875 13.225345611572265625 13.305568695068359375 13.385807991027832031 13.466746330261230469 13.545499801635742188 13.623952865600585938 13.699512481689453125 13.774196624755859375 13.845335006713867188 13.914958953857421875 13.980417251586914062 14.043753623962402344 14.102506637573242188 14.158907890319824219 14.211313247680664062 14.263048171997070312 14.313970565795898438 14.36946868896484375 14.437905311584472656 14.5472259521484375 14.6941986083984375 14.864979743957519531 15.047201156616210938 15.249337196350097656 15.458486557006835938 15.674298286437988281 15.882354736328125 16.088739395141601562 16.271240234375 16.438440322875976562 16.581254959106445312 16.708463668823242188 16.814388275146484375 16.907171249389648438 16.982603073120117188 17.046657562255859375 17.096288681030273438 17.13561248779296875 17.162153244018554688 17.1775665283203125 17.181196212768554688 17.173946380615234375 17.156629562377929688 17.129482269287109375 17.103574752807617188 17.086446762084960938 17.069820404052734375 17.042621612548828125 17.006811141967773438 16.963758468627929688 16.918016433715820312 16.870450973510742188 16.83821868896484375 16.840662002563476562 16.9072723388671875 16.99236297607421875 17.077032089233398438 17.168184280395507812 17.25955963134765625 17.353971481323242188 17.42952728271484375 17.501377105712890625 17.37206268310546875 17.185764312744140625 17.018604278564453125 16.8522491455078125 16.700586318969726562 16.549421310424804688 16.412454605102539062 16.275859832763671875 16.1520843505859375 16.027910232543945312 15.914926528930664062 15.801756858825683594 15.700616836547851562 15.600836753845214844 15.512360572814941406 15.424876213073730469 15.3468170166015625 15.269074440002441406 15.199503898620605469 15.130014419555664062 15.067812919616699219 15.005533218383789062 14.949789047241210938 14.89389801025390625 14.843913078308105469 14.793705940246582031 14.748827934265136719 14.703729629516601562 14.663538932800292969 14.623274803161621094 14.587635993957519531 14.552045822143554688 14.520460128784179688 14.488629341125488281 14.460330009460449219 14.431809425354003906 14.406517982482910156 14.380961418151855469 14.358178138732910156 14.335039138793945312 14.314452171325683594 14.2935638427734375 14.275055885314941406 14.256361961364746094 14.239914894104003906 14.223364830017089844 14.20890045166015625 14.194423675537109375 14.181787490844726562 14.168828010559082031 14.157209396362304688 14.145196914672851562 14.134447097778320312 14.123333930969238281 14.113420486450195312 14.103236198425292969 14.094248771667480469 14.085055351257324219 14.077016830444335938 14.068876266479492188 14.0618133544921875 14.054690361022949219 14.048547744750976562 14.042301177978515625 14.03679656982421875 14.031111717224121094 14.026101112365722656 14.020923614501953125 14.016363143920898438 14.011656761169433594 14.007509231567382812 14.003238677978515625 13.999463081359863281 13.995538711547851562 13.992033958435058594 13.9883880615234375 13.985128402709960938 13.9817657470703125 13.978804588317871094 13.97579193115234375 13.973157882690429688 13.970508575439453125 13.968220710754394531 13.965967178344726562 13.96407318115234375 13.962284088134765625 13.960871696472167969 13.959673881530761719 13.95890045166015625 13.958468437194824219 13.958105087280273438 13.956187248229980469 13.95062255859375 13.941717147827148438 13.926555633544921875 13.902623176574707031 13.875815391540527344 13.846150398254394531 13.818167686462402344 13.787768363952636719 13.758906364440917969 13.728322982788085938 13.6998138427734375 13.669796943664550781 13.641819000244140625 13.612408638000488281 13.584973335266113281 13.556170463562011719 13.529278755187988281 13.501078605651855469 13.474724769592285156 13.44712066650390625 13.421298980712890625 13.394285202026367188 13.368990898132324219 13.342561721801757812 13.317792892456054688 13.291944503784179688 13.267697334289550781 13.242424964904785156 13.218699455261230469 13.194001197814941406 13.170795440673828125 13.146670341491699219 13.12398529052734375 13.100432395935058594 13.078260421752929688 13.055253982543945312 13.033568382263183594 13.011099815368652344 12.989907264709472656 12.967981338500976562 12.94728851318359375 12.925912857055664062 12.905726432800292969 12.884907722473144531 12.865237236022949219 12.844981193542480469 12.825832366943359375 12.806147575378417969 12.787530899047851562 12.768423080444335938 12.75034332275390625 12.731805801391601562 12.714226722717285156 12.696208000183105469 12.679102897644042969 12.661588668823242188 12.644940376281738281 12.627886772155761719 12.6116180419921875 12.594915390014648438 12.579067230224609375 12.563048362731933594 12.547947883605957031 12.532751083374023438 12.518459320068359375 12.504145622253417969 12.490726470947265625 12.47736358642578125 12.464884757995605469 12.452538490295410156 12.441061973571777344 12.42978668212890625 12.419348716735839844 12.409150123596191406 12.399712562561035156 12.390468597412109375 12.381864547729492188 12.437284469604492188 12.372747421264648438 12.196410179138183594 12.02901458740234375 11.8673553466796875 11.723504066467285156 11.595426559448242188 11.489218711853027344 11.396151542663574219 11.314944267272949219 11.237010002136230469 11.160422325134277344 11.078358650207519531 10.994770050048828125 10.909463882446289062 10.828577995300292969 10.752423286437988281 10.6862945556640625 10.628756523132324219 10.579724311828613281 10.535442352294921875 10.494925498962402344 10.454730033874511719 10.414419174194335938 10.3731536865234375 10.333045005798339844 10.294216156005859375 10.258645057678222656 10.226492881774902344 10.198111534118652344 10.171416282653808594 10.145212173461914062 10.117275238037109375 10.086460113525390625 
12.62401580810546875 12.637629508972167969 12.650726318359375 12.6636962890625 12.676237106323242188 12.688455581665039062 12.700310707092285156 12.712046623229980469 12.723642349243164062 12.7351531982421875 12.746479034423828125 12.757643699645996094 12.768587112426757812 12.7793121337890625 12.789789199829101562 12.800006866455078125 12.809961318969726562 12.819626808166503906 12.829030990600585938 12.83814239501953125 12.847033500671386719 12.855696678161621094 12.864262580871582031 12.872599601745605469 12.88053131103515625 12.887711524963378906 12.893942832946777344 12.898861885070800781 12.902025222778320312 12.902516365051269531 12.901661872863769531 12.904485702514648438 12.911668777465820312 12.922353744506835938 12.947035789489746094 12.991979598999023438 13.05007171630859375 13.11492156982421875 13.184782028198242188 13.25591278076171875 13.328692436218261719 13.400103569030761719 13.471317291259765625 13.539645195007324219 13.606690406799316406 13.669903755187988281 13.73097991943359375 13.787481307983398438 13.8411102294921875 13.889718055725097656 13.935129165649414062 13.975752830505371094 14.013854026794433594 14.049350738525390625 14.086464881896972656 14.131312370300292969 14.213214874267578125 14.346171379089355469 14.517907142639160156 14.705999374389648438 14.918894767761230469 15.141011238098144531 15.371789932250976562 15.596489906311035156 15.813291549682617188 16.002956390380859375 16.17678070068359375 16.325870513916015625 16.459222793579101562 16.569829940795898438 16.665979385375976562 16.743272781372070312 16.807834625244140625 16.856573104858398438 16.893585205078125 16.9169921875 16.928186416625976562 16.926240921020507812 16.911685943603515625 16.88587188720703125 16.850147247314453125 16.819696426391601562 16.798450469970703125 16.772779464721679688 16.743778228759765625 16.721836090087890625 16.705812454223632812 16.699304580688476562 16.708003997802734375 16.737386703491210938 16.803697586059570312 16.880426406860351562 16.961864471435546875 17.041278839111328125 17.125066757202148438 17.206781387329101562 17.295076370239257812 17.379529953002929688 17.451379776000976562 17.358936309814453125 17.180150985717773438 17.017782211303710938 16.854887008666992188 16.706226348876953125 16.557672500610351562 16.422689437866210938 16.287729263305664062 16.165008544921875 16.04155731201171875 15.929052352905273438 15.816736221313476562 15.716227531433105469 15.616987228393554688 15.528627395629882812 15.440937042236328125 15.362490653991699219 15.284214019775390625 15.2139892578125 15.143628120422363281 15.080499649047851562 15.017223358154296875 14.960539817810058594 14.903659820556640625 14.852773666381835938 14.801686286926269531 14.756033897399902344 14.710137367248535156 14.669247627258300781 14.628268241882324219 14.591956138610839844 14.555705070495605469 14.523718833923339844 14.491612434387207031 14.463055610656738281 14.4342498779296875 14.408686637878417969 14.382925033569335938 14.360071182250976562 14.336870193481445312 14.316214561462402344 14.295241355895996094 14.276627540588378906 14.257777214050292969 14.241169929504394531 14.2244415283203125 14.209799766540527344 14.195127487182617188 14.1823883056640625 14.169574737548828125 14.158147811889648438 14.146335601806640625 14.13576507568359375 14.124838829040527344 14.115084648132324219 14.105015754699707031 14.096100807189941406 14.086969375610351562 14.078946113586425781 14.070805549621582031 14.06374359130859375 14.056618690490722656 14.050477981567382812 14.044301986694335938 14.038908004760742188 14.033346176147460938 14.028452873229980469 14.023406982421875 14.018973350524902344 14.014409065246582031 14.010400772094726562 14.00628662109375 14.002676010131835938 13.99895477294921875 13.995648384094238281 13.992228507995605469 13.98918914794921875 13.98606109619140625 13.983323097229003906 13.98056793212890625 13.97818756103515625 13.975830078125 13.973832130432128906 13.971912384033203125 13.970351219177246094 13.968945503234863281 13.967916488647460938 13.9671630859375 13.966814994812011719 13.96674346923828125 13.966814041137695312 13.966352462768554688 13.962876319885253906 13.954496383666992188 13.939287185668945312 13.914519309997558594 13.887212753295898438 13.857378005981445312 13.82869720458984375 13.797678947448730469 13.768500328063964844 13.737616539001464844 13.708853721618652344 13.678587913513183594 13.650387763977050781 13.62075042724609375 13.593107223510742188 13.564088821411132812 13.536995887756347656 13.508585929870605469 13.482033729553222656 13.4542236328125 13.428206443786621094 13.400986671447753906 13.375498771667480469 13.348865509033203125 13.323903083801269531 13.297852516174316406 13.273413658142089844 13.2479400634765625 13.224022865295410156 13.199125289916992188 13.175729751586914062 13.151407241821289062 13.128534317016601562 13.104784965515136719 13.082434654235839844 13.0592498779296875 13.037398338317871094 13.014756202697753906 12.993401527404785156 12.971306800842285156 12.950455665588378906 12.928915977478027344 12.908576011657714844 12.887598037719726562 12.867777824401855469 12.847369194030761719 12.828076362609863281 12.808243751525878906 12.789487838745117188 12.770237922668457031 12.752024650573730469 12.733365058898925781 12.715689659118652344 12.697577476501464844 12.680385589599609375 12.662781715393066406 12.646040916442871094 12.628896713256835938 12.612559318542480469 12.595801353454589844 12.579762458801269531 12.563483238220214844 12.548125267028808594 12.532658576965332031 12.518100738525390625 12.503504753112792969 12.489805221557617188 12.47614288330078125 12.463361740112304688 12.450690269470214844 12.438879966735839844 12.427236557006835938 12.416415214538574219 12.405780792236328125 12.39588165283203125 12.386140823364257812 12.377157211303710938 12.480350494384765625 12.349666595458984375 12.172572135925292969 12.002197265625 11.836481094360351562 11.688959121704101562 11.558676719665527344 11.452325820922851562 11.360809326171875 11.282210350036621094 11.207487106323242188 11.134028434753417969 11.054684638977050781 10.973240852355957031 10.889699935913085938 10.810265541076660156 10.735433578491210938 10.670569419860839844 10.614275932312011719 10.56630706787109375 10.522782325744628906 10.482548713684082031 10.442010879516601562 10.40067291259765625 10.3577728271484375 10.31566619873046875 10.274625778198242188 10.236882209777832031 10.20273590087890625 10.172690391540527344 10.1446533203125 10.117460250854492188 10.088891029357910156 10.057814598083496094 
12.621558189392089844 12.634614944458007812 12.647279739379882812 12.659496307373046875 12.671103477478027344 12.682249069213867188 12.692879676818847656 12.703153610229492188 12.713069915771484375 12.722781181335449219 12.732288360595703125 12.741641998291015625 12.750796318054199219 12.759751319885253906 12.768482208251953125 12.776975631713867188 12.785237312316894531 12.793254852294921875 12.801068305969238281 12.808659553527832031 12.816070556640625 12.823195457458496094 12.829954147338867188 12.836134910583496094 12.841665267944335938 12.846349716186523438 12.850081443786621094 12.852490425109863281 12.8532257080078125 12.851114273071289062 12.84490203857421875 12.84918975830078125 12.862364768981933594 12.876171112060546875 12.891530036926269531 12.920443534851074219 12.964335441589355469 13.016916275024414062 13.075658798217773438 13.136796951293945312 13.200186729431152344 13.262894630432128906 13.325714111328125 13.386020660400390625 13.445000648498535156 13.500200271606445312 13.552929878234863281 13.600910186767578125 13.645416259765625 13.684428215026855469 13.719134330749511719 13.747992515563964844 13.772297859191894531 13.791817665100097656 13.8096160888671875 13.829863548278808594 13.877874374389648438 13.984912872314453125 14.154727935791015625 14.351778984069824219 14.581316947937011719 14.822576522827148438 15.076712608337402344 15.319048881530761719 15.545554161071777344 15.743408203125 15.924677848815917969 16.080057144165039062 16.219207763671875 16.334531784057617188 16.433887481689453125 16.512556076049804688 16.576791763305664062 16.623500823974609375 16.656650543212890625 16.67464447021484375 16.679231643676757812 16.669546127319335938 16.645061492919921875 16.607965469360351562 16.563230514526367188 16.52980804443359375 16.504739761352539062 16.488407135009765625 16.487703323364257812 16.501558303833007812 16.530576705932617188 16.572355270385742188 16.629838943481445312 16.701436996459960938 16.782491683959960938 16.86016845703125 16.940755844116210938 17.017847061157226562 17.097719192504882812 17.173776626586914062 17.253396987915039062 17.331104278564453125 17.409341812133789062 17.342990875244140625 17.170141220092773438 17.011800765991210938 16.852319717407226562 16.70676422119140625 16.560764312744140625 16.427934646606445312 16.294708251953125 16.1732177734375 16.050729751586914062 15.939117431640625 15.827908515930175781 15.728282928466796875 15.629791259765625 15.5418243408203125 15.454272270202636719 15.375720024108886719 15.297141075134277344 15.226527214050292969 15.155674934387207031 15.091949462890625 15.0278778076171875 14.970378875732421875 14.912631034851074219 14.860926628112792969 14.808981895446777344 14.762576103210449219 14.715990066528320312 14.674509048461914062 14.632907867431640625 14.59600067138671875 14.559106826782226562 14.526536941528320312 14.49401092529296875 14.46523284912109375 14.436201095581054688 14.4104156494140625 14.384409904479980469 14.361393928527832031 14.338145256042480469 14.317460060119628906 14.296446800231933594 14.277783393859863281 14.258849143981933594 14.242123603820800781 14.225256919860839844 14.210478782653808594 14.195648193359375 14.182757377624511719 14.169900894165039062 14.158654212951660156 14.147058486938476562 14.136685371398925781 14.125963211059570312 14.11639404296875 14.106508255004882812 14.097716331481933594 14.088680267333984375 14.080720901489257812 14.072610855102539062 14.065568923950195312 14.058465957641601562 14.052346229553222656 14.046209335327148438 14.040925979614257812 14.035504341125488281 14.030745506286621094 14.025849342346191406 14.021557807922363281 14.017155647277832031 14.013301849365234375 14.009363174438476562 14.005925178527832031 14.002417564392089844 13.999325752258300781 13.996148109436035156 13.993346214294433594 13.990481376647949219 13.987985610961914062 13.985505104064941406 13.983395576477050781 13.981348037719726562 13.979657173156738281 13.97808837890625 13.976874351501464844 13.97586822509765625 13.975235939025878906 13.974907875061035156 13.974875450134277344 13.975095748901367188 13.975514411926269531 13.975840568542480469 13.974650382995605469 13.967598915100097656 13.9523468017578125 13.926473617553710938 13.898709297180175781 13.868075370788574219 13.838697433471679688 13.807315826416015625 13.777887344360351562 13.74674224853515625 13.717739105224609375 13.68723297119140625 13.6588134765625 13.628951072692871094 13.601099014282226562 13.571863174438476562 13.544565200805664062 13.515940666198730469 13.489187240600585938 13.461164474487304688 13.434947013854980469 13.407517433166503906 13.381830215454101562 13.35498809814453125 13.329827308654785156 13.303567886352539062 13.278931617736816406 13.253251075744628906 13.229138374328613281 13.204034805297851562 13.180444717407226562 13.155918121337890625 13.132851600646972656 13.108901023864746094 13.086359977722167969 13.062985420227050781 13.040960311889648438 13.018140792846679688 12.996616363525390625 12.974349021911621094 12.953333854675292969 12.931624412536621094 12.911126136779785156 12.889983177185058594 12.870008468627929688 12.849440574645996094 12.829998970031738281 12.8100128173828125 12.791110992431640625 12.771714210510253906 12.753361701965332031 12.734560012817382812 12.716763496398925781 12.69854736328125 12.681262016296386719 12.663558006286621094 12.646719932556152344 12.629477500915527344 12.613048553466796875 12.596221923828125 12.580114364624023438 12.563601493835449219 12.547976493835449219 12.532225608825683594 12.517386436462402344 12.502493858337402344 12.488497734069824219 12.474517822265625 12.461416244506835938 12.448398590087890625 12.436230659484863281 12.424195289611816406 12.412962913513183594 12.4018707275390625 12.39150238037109375 12.381327629089355469 12.408337593078613281 12.475279808044433594 12.316988945007324219 12.141071319580078125 11.970066070556640625 11.802801132202148438 11.653788566589355469 11.522887229919433594 11.417195320129394531 11.327433586120605469 11.251248359680175781 11.179347038269042969 11.108654022216796875 11.0318450927734375 10.952553749084472656 10.8709259033203125 10.79315948486328125 10.719874382019042969 10.656439781188964844 10.601475715637207031 10.554564476013183594 10.511705398559570312 10.471583366394042969 10.430453300476074219 10.387775421142578125 10.3428802490234375 10.298401832580566406 10.25478363037109375 10.214545249938964844 10.178150177001953125 10.146273612976074219 10.11682891845703125 10.088700294494628906 10.059676170349121094 10.028653144836425781 
12.620879173278808594 12.633580207824707031 12.645519256591796875 12.656787872314453125 12.667299270629882812 12.677254676818847656 12.686636924743652344 12.695589065551757812 12.704120635986328125 12.712357521057128906 12.720307350158691406 12.728039741516113281 12.735556602478027344 12.7428741455078125 12.749976158142089844 12.756854057312011719 12.7635040283203125 12.769902229309082031 12.776060104370117188 12.781933784484863281 12.787523269653320312 12.792720794677734375 12.797455787658691406 12.80156707763671875 12.804965972900390625 12.807446479797363281 12.80892181396484375 12.809145927429199219 12.807758331298828125 12.804057121276855469 12.799561500549316406 12.803297042846679688 12.819283485412597656 12.836057662963867188 12.850660324096679688 12.867333412170410156 12.89662933349609375 12.936571121215820312 12.983937263488769531 13.034912109375 13.088808059692382812 13.142755508422851562 13.197117805480957031 13.249387741088867188 13.300367355346679688 13.347733497619628906 13.392403602600097656 13.432217597961425781 13.4680023193359375 13.497836112976074219 13.52231597900390625 13.539930343627929688 13.55107879638671875 13.555215835571289062 13.553847312927246094 13.550418853759765625 13.560452461242675781 13.629974365234375 13.789966583251953125 14.000363349914550781 14.254724502563476562 14.52509307861328125 14.807595252990722656 15.063112258911132812 15.300023078918457031 15.506931304931640625 15.69634246826171875 15.858461380004882812 16.003343582153320312 16.123096466064453125 16.2255096435546875 16.30509185791015625 16.368120193481445312 16.411615371704101562 16.439327239990234375 16.449869155883789062 16.44455718994140625 16.423755645751953125 16.385976791381835938 16.335002899169921875 16.282022476196289062 16.251241683959960938 16.249647140502929688 16.278600692749023438 16.331590652465820312 16.397352218627929688 16.47435760498046875 16.55484771728515625 16.642955780029296875 16.727876663208007812 16.814474105834960938 16.895792007446289062 16.978580474853515625 17.056299209594726562 17.135625839233398438 17.209966659545898438 17.286006927490234375 17.358760833740234375 17.438558578491210938 17.323423385620117188 17.156267166137695312 17.001928329467773438 16.846071243286132812 16.703306198120117188 16.559812545776367188 16.429037094116210938 16.297513961791992188 16.177309036254882812 16.055908203125 15.945468902587890625 15.835412025451660156 15.736791610717773438 15.639090538024902344 15.551602363586425781 15.464342117309570312 15.385906219482421875 15.307294845581054688 15.236502647399902344 15.165354728698730469 15.10129547119140625 15.036790847778320312 14.978734970092773438 14.920283317565917969 14.867894172668457031 14.81522369384765625 14.768146514892578125 14.720934867858886719 14.678945541381835938 14.636832237243652344 14.599432945251464844 14.562002182006835938 14.528918266296386719 14.495856285095214844 14.466736793518066406 14.437520027160644531 14.411571502685546875 14.385380744934082031 14.362183570861816406 14.338811874389648438 14.318118095397949219 14.297102928161621094 14.278429985046386719 14.259470939636230469 14.242692947387695312 14.225733757019042969 14.210858345031738281 14.195916175842285156 14.182912826538085938 14.169936180114746094 14.158730506896972656 14.147348403930664062 14.137178421020507812 14.126667976379394531 14.117290496826171875 14.107605934143066406 14.098988533020019531 14.090101242065429688 14.082242965698242188 14.074201583862304688 14.06719970703125 14.060138702392578125 14.054059028625488281 14.04796600341796875 14.04276275634765625 14.037488937377929688 14.032872200012207031 14.028135299682617188 14.023996353149414062 14.019763946533203125 14.016074180603027344 14.012319564819335938 14.009058952331542969 14.005763053894042969 14.002888679504394531 13.999958992004394531 13.99739837646484375 13.99480438232421875 13.99256134033203125 13.990359306335449219 13.988525390625 13.986789703369140625 13.985406875610351562 13.984187126159667969 13.983321189880371094 13.982707023620605469 13.982430458068847656 13.982411384582519531 13.982634544372558594 13.9831390380859375 13.983854293823242188 13.984696388244628906 13.984969139099121094 13.980360031127929688 13.965060234069824219 13.937857627868652344 13.90924835205078125 13.877713203430175781 13.847956657409667969 13.816302299499511719 13.786670684814453125 13.75531005859375 13.726088523864746094 13.695356369018554688 13.666729927062988281 13.63665008544921875 13.608597755432128906 13.579148292541503906 13.551651954650878906 13.522818565368652344 13.495867729187011719 13.467637062072753906 13.441224098205566406 13.413586616516113281 13.387704849243164062 13.360655784606933594 13.335301399230957031 13.308836936950683594 13.284007072448730469 13.258122444152832031 13.233817100524902344 13.2085113525390625 13.18473052978515625 13.160003662109375 13.136747360229492188 13.112599372863769531 13.089869499206542969 13.066301345825195312 13.044099807739257812 13.0211029052734375 12.999413490295410156 12.976973533630371094 12.955796241760253906 12.933919906616210938 12.913263320922851562 12.891959190368652344 12.871830940246582031 12.851105690002441406 12.831515312194824219 12.811377525329589844 12.792332649230957031 12.77278900146484375 12.754299163818359375 12.735356330871582031 12.717425346374511719 12.699086189270019531 12.681698799133300781 12.663890838623046875 12.646955490112304688 12.629613876342773438 12.613091468811035156 12.596172332763671875 12.580007553100585938 12.563385963439941406 12.547507286071777344 12.531473159790039062 12.516353607177734375 12.501162528991699219 12.486866950988769531 12.472567558288574219 12.459141731262207031 12.445772171020507812 12.433243751525878906 12.420810699462890625 12.4091644287109375 12.397625923156738281 12.386859893798828125 12.376297950744628906 12.450467109680175781 12.434606552124023438 12.273744583129882812 12.101123809814453125 11.932270050048828125 11.766544342041015625 11.61881256103515625 11.489406585693359375 11.385554313659667969 11.297989845275878906 11.224142074584960938 11.154681205749511719 11.086310386657714844 11.011694908142089844 10.934361457824707031 10.854541778564453125 10.778395652770996094 10.706615447998046875 10.644534111022949219 10.590764999389648438 10.544734001159667969 10.50232696533203125 10.46208953857421875 10.420128822326660156 10.375885009765625 10.328779220581054688 10.281740188598632812 10.235384941101074219 10.192530632019042969 10.153811454772949219 10.120081901550292969 10.089275360107421875 10.060337066650390625 10.0310821533203125 10.000441551208496094 
12.622632980346679688 12.634571075439453125 12.645450592041015625 12.655504226684570312 12.66472625732421875 12.673276901245117188 12.681195259094238281 12.688673019409179688 12.695750236511230469 12.702532768249511719 12.709029197692871094 12.715291976928710938 12.721311569213867188 12.727098464965820312 12.732637405395507812 12.737910270690917969 12.742898941040039062 12.747562408447265625 12.751889228820800781 12.755825996398925781 12.759372711181640625 12.762494087219238281 12.76519775390625 12.76732635498046875 12.768726348876953125 12.769235610961914062 12.768695831298828125 12.766982078552246094 12.763932228088378906 12.7600555419921875 12.761160850524902344 12.765255928039550781 12.780640602111816406 12.798926353454589844 12.81522369384765625 12.828955650329589844 12.845331192016601562 12.871526718139648438 12.906574249267578125 12.946652412414550781 12.990457534790039062 13.035172462463378906 13.080704689025878906 13.124650001525878906 13.167413711547851562 13.206800460815429688 13.243330955505371094 13.274972915649414062 13.30210113525390625 13.322888374328613281 13.337337493896484375 13.343944549560546875 13.342186927795410156 13.331239700317382812 13.310576438903808594 13.28292083740234375 13.25421905517578125 13.268902778625488281 13.402291297912597656 13.6354827880859375 13.932469367980957031 14.246014595031738281 14.550722122192382812 14.819507598876953125 15.068233489990234375 15.285451889038085938 15.484345436096191406 15.654236793518066406 15.805542945861816406 15.929999351501464844 16.03568267822265625 16.116598129272460938 16.178424835205078125 16.217853546142578125 16.238445281982421875 16.2393035888671875 16.220956802368164062 16.1843109130859375 16.127199172973632812 16.061553955078125 16.019802093505859375 16.063653945922851562 16.151123046875 16.24547576904296875 16.344018936157226562 16.4380340576171875 16.534570693969726562 16.625970840454101562 16.7188568115234375 16.80608367919921875 16.894802093505859375 16.9781341552734375 17.063150405883789062 17.14318084716796875 17.225366592407226562 17.3031463623046875 17.378204345703125 17.49369049072265625 17.457422256469726562 17.297954559326171875 17.136384963989257812 16.986667633056640625 16.835275650024414062 16.695898056030273438 16.555341720581054688 16.426675796508789062 16.296899795532226562 16.178066253662109375 16.05792999267578125 15.948848724365234375 15.840025901794433594 15.742499351501464844 15.6456451416015625 15.558717727661132812 15.471852302551269531 15.393644332885742188 15.315151214599609375 15.244371414184570312 15.173120498657226562 15.10886383056640625 15.044093132019042969 14.985738754272460938 14.926845550537109375 14.873897552490234375 14.820598602294921875 14.772965431213378906 14.725189208984375 14.682688713073730469 14.640105247497558594 14.60228729248046875 14.564394950866699219 14.530866622924804688 14.49732208251953125 14.467755317687988281 14.438228607177734375 14.412150382995605469 14.38582611083984375 14.362492561340332031 14.338969230651855469 14.318204879760742188 14.297213554382324219 14.278564453125 14.259621620178222656 14.242846488952636719 14.225850105285644531 14.210913658142089844 14.195896148681640625 14.182812690734863281 14.169743537902832031 14.158467292785644531 14.147222518920898438 14.137270927429199219 14.126990318298339844 14.117818832397460938 14.108351707458496094 14.099931716918945312 14.091248512268066406 14.083553314208984375 14.075640678405761719 14.068707466125488281 14.061710357666015625 14.055687904357910156 14.04965972900390625 14.044525146484375 14.039394378662109375 14.034935951232910156 14.030375480651855469 14.026403427124023438 14.022357940673828125 14.018847465515136719 14.015294075012207031 14.012228012084960938 14.009152412414550781 14.006508827209472656 14.003842353820800781 14.001537322998046875 13.999233245849609375 13.997265815734863281 13.995361328125 13.993816375732421875 13.992410659790039062 13.991351127624511719 13.990498542785644531 13.989984512329101562 13.989720344543457031 13.989718437194824219 13.989977836608886719 13.990466117858886719 13.991261482238769531 13.992261886596679688 13.993539810180664062 13.994553565979003906 13.992915153503417969 13.977868080139160156 13.948840141296386719 13.919078826904296875 13.887037277221679688 13.857003211975097656 13.825120925903320312 13.795308113098144531 13.763754844665527344 13.7343292236328125 13.703373908996582031 13.674538612365722656 13.644239425659179688 13.615980148315429688 13.586314201354980469 13.558614730834960938 13.529564857482910156 13.502410888671875 13.473965644836425781 13.44734954833984375 13.419499397277832031 13.393415451049804688 13.366153717041015625 13.340598106384277344 13.313921928405761719 13.288891792297363281 13.262796401977539062 13.238292694091796875 13.212778091430664062 13.188798904418945312 13.163865089416503906 13.140412330627441406 13.116060256958007812 13.093136787414550781 13.069365501403808594 13.04697418212890625 13.023786544799804688 13.001923561096191406 12.979305267333984375 12.957960128784179688 12.935910224914550781 12.915089607238769531 12.893616676330566406 12.87332916259765625 12.852440834045410156 12.832695960998535156 12.812398910522460938 12.793206214904785156 12.773509025573730469 12.754874229431152344 12.735783576965332031 12.717714309692382812 12.699229240417480469 12.681713104248046875 12.663792610168457031 12.646753311157226562 12.629306793212890625 12.612685203552246094 12.595664024353027344 12.57940673828125 12.562727928161621094 12.546683311462402344 12.530355453491210938 12.514940261840820312 12.499433517456054688 12.484822273254394531 12.470184326171875 12.456415176391601562 12.442671775817871094 12.429760932922363281 12.416907310485839844 12.40483856201171875 12.392901420593261719 12.381756782531738281 12.374054908752441406 12.470140457153320312 12.37416839599609375 12.218943595886230469 12.0516204833984375 11.887481689453125 11.726120948791503906 11.582222938537597656 11.456307411193847656 11.355487823486328125 11.270686149597167969 11.199274063110351562 11.132083892822265625 11.065784454345703125 10.993167877197265625 10.917689323425292969 10.839632034301757812 10.765079498291015625 10.694761276245117188 10.633941650390625 10.581210136413574219 10.535856246948242188 10.49365997314453125 10.453047752380371094 10.40999603271484375 10.363934516906738281 10.314382553100585938 10.264577865600585938 10.215302467346191406 10.169683456420898438 10.128529548645019531 10.092886924743652344 10.06072235107421875 10.031047821044921875 10.001727104187011719 9.971729278564453125 
12.626776695251464844 12.637529373168945312 12.647116661071777344 12.655733108520507812 12.663390159606933594 12.670351028442382812 12.676721572875976562 12.682683944702148438 12.688291549682617188 12.693635940551757812 12.698720932006835938 12.703573226928710938 12.708177566528320312 12.712528228759765625 12.716601371765136719 12.720365524291992188 12.723795890808105469 12.726843833923339844 12.729483604431152344 12.731658935546875 12.733350753784179688 12.734510421752929688 12.735149383544921875 12.73529052734375 12.734892845153808594 12.733690261840820312 12.731524467468261719 12.728363990783691406 12.724421501159667969 12.722159385681152344 12.725757598876953125 12.7342987060546875 12.748722076416015625 12.766766548156738281 12.784109115600585938 12.799056053161621094 12.812009811401367188 12.826543807983398438 12.848928451538085938 12.877836227416992188 12.911418914794921875 12.94689178466796875 12.983686447143554688 13.019495964050292969 13.054329872131347656 13.086111068725585938 13.114980697631835938 13.139023780822753906 13.158196449279785156 13.170773506164550781 13.176218032836914062 13.173035621643066406 13.159978866577148438 13.135965347290039062 13.098352432250976562 13.047951698303222656 12.9854278564453125 12.933684349060058594 13.011988639831542969 13.287591934204101562 13.656072616577148438 14.006484031677246094 14.33050537109375 14.612778663635253906 14.87172698974609375 15.096845626831054688 15.303784370422363281 15.48191070556640625 15.640170097351074219 15.769397735595703125 15.877977371215820312 15.959731101989746094 16.020357131958007812 16.05628204345703125 16.070392608642578125 16.061777114868164062 16.030658721923828125 15.986384391784667969 15.948577880859375 15.956078529357910156 16.03299713134765625 16.13376617431640625 16.238286972045898438 16.337415695190429688 16.438196182250976562 16.53327178955078125 16.629953384399414062 16.7210845947265625 16.813917160034179688 16.901422500610351562 16.99079132080078125 17.07512664794921875 17.161619186401367188 17.2435150146484375 17.326900482177734375 17.393632888793945312 17.513591766357421875 17.578996658325195312 17.423646926879882812 17.269641876220703125 17.1129302978515625 16.967550277709960938 16.82025909423828125 16.6844024658203125 16.547199249267578125 16.421113967895507812 16.29335784912109375 16.175951004028320312 16.057180404663085938 15.949454307556152344 15.841893196105957031 15.745436668395996094 15.649430274963378906 15.563098907470703125 15.47669219970703125 15.398787498474121094 15.320502281188964844 15.2498321533203125 15.178619384765625 15.114322662353515625 15.049424171447753906 14.990893363952636719 14.931777000427246094 14.878531455993652344 14.8247833251953125 14.776720046997070312 14.728489875793457031 14.685555458068847656 14.642521858215332031 14.604337692260742188 14.566076278686523438 14.532190322875976562 14.498254776000976562 14.468310356140136719 14.438391685485839844 14.412102699279785156 14.385689735412597656 14.362271308898925781 14.338644027709960938 14.317778587341308594 14.296771049499511719 14.278174400329589844 14.259281158447265625 14.242540359497070312 14.225567817687988281 14.210613250732421875 14.195557594299316406 14.182432174682617188 14.169306755065917969 14.157970428466796875 14.146730422973632812 14.13697052001953125 14.126923561096191406 14.117964744567871094 14.108719825744628906 14.10050201416015625 14.092031478881835938 14.084527969360351562 14.076807975769042969 14.070004463195800781 14.063094139099121094 14.057147026062011719 14.051199913024902344 14.046141624450683594 14.041128158569335938 14.036831855773925781 14.032453536987304688 14.028656005859375 14.024805068969726562 14.021478652954101562 14.018134117126464844 14.01526641845703125 14.012414932250976562 14.009996414184570312 14.007595062255859375 14.00554656982421875 14.003533363342285156 14.001845359802246094 14.000244140625 13.998991012573242188 13.997914314270019531 13.997174263000488281 13.9966583251953125 13.996425628662109375 13.996434211730957031 13.996684074401855469 13.997219085693359375 13.997967720031738281 13.999047279357910156 14.000319480895996094 14.001947402954101562 14.003462791442871094 14.004033088684082031 13.989673614501953125 13.958383560180664062 13.928012847900390625 13.895671844482421875 13.865433692932128906 13.833365440368652344 13.803391456604003906 13.771671295166015625 13.742060661315917969 13.710897445678710938 13.68186187744140625 13.651350021362304688 13.622890472412109375 13.593011856079101562 13.565112113952636719 13.535851478576660156 13.508498191833496094 13.479841232299804688 13.453026771545410156 13.424965858459472656 13.398683547973632812 13.371212959289550781 13.345458984375 13.318572998046875 13.293347358703613281 13.267045021057128906 13.242344856262207031 13.216625213623046875 13.19245147705078125 13.167314529418945312 13.143670082092285156 13.119114875793457031 13.096001625061035156 13.072031974792480469 13.049452781677246094 13.026070594787597656 13.0040283203125 12.981232643127441406 12.959720611572265625 12.9375 12.916517257690429688 12.894877433776855469 12.874432563781738281 12.853382110595703125 12.833484649658203125 12.813031196594238281 12.793689727783203125 12.773840904235839844 12.755063056945800781 12.735826492309570312 12.717615127563476562 12.698981285095214844 12.681324005126953125 12.663275718688964844 12.646132469177246094 12.628580093383789062 12.611858367919921875 12.594735145568847656 12.578378677368164062 12.561612129211425781 12.545500755310058594 12.5289306640625 12.513219833374023438 12.497397422790527344 12.482469558715820312 12.46749114990234375 12.453375816345214844 12.439258575439453125 12.425962448120117188 12.412711143493652344 12.400282859802246094 12.387978553771972656 12.376445770263671875 12.384940147399902344 12.448246002197265625 12.307062149047851562 12.157895088195800781 11.997117042541503906 11.839399337768554688 11.684337615966796875 11.546031951904296875 11.424971580505371094 11.327973365783691406 11.246263504028320312 11.177280426025390625 11.112154006958007812 11.04766082763671875 10.976817131042480469 10.903027534484863281 10.826602935791015625 10.753519058227539062 10.684511184692382812 10.624752044677734375 10.572798728942871094 10.527838706970214844 10.485568046569824219 10.444340705871582031 10.40001678466796875 10.35205078125 10.300046920776367188 10.247523307800292969 10.195412635803222656 10.147131919860839844 10.103641510009765625 10.066171646118164062 10.032729148864746094 10.002400398254394531 9.9731092453002929688 9.9438657760620117188 
12.633604049682617188 12.642745018005371094 12.650571823120117188 12.6572723388671875 12.663026809692382812 12.668163299560546875 12.672846794128417969 12.677231788635253906 12.68134307861328125 12.685230255126953125 12.688883781433105469 12.692313194274902344 12.695496559143066406 12.698412895202636719 12.701032638549804688 12.703314781188964844 12.705225944519042969 12.7067108154296875 12.707728385925292969 12.708217620849609375 12.708143234252929688 12.707465171813964844 12.706175804138183594 12.704291343688964844 12.70188140869140625 12.6990509033203125 12.695567131042480469 12.691464424133300781 12.687713623046875 12.687124252319335938 12.689859390258789062 12.704874038696289062 12.721910476684570312 12.73815155029296875 12.755619049072265625 12.771641731262207031 12.785940170288085938 12.798095703125 12.810480117797851562 12.8275146484375 12.850095748901367188 12.875766754150390625 12.903443336486816406 12.930912971496582031 12.957765579223632812 12.982047080993652344 13.0035247802734375 13.020406723022460938 13.032257080078125 13.037455558776855469 13.035192489624023438 13.024579048156738281 13.003745079040527344 12.970928192138671875 12.921758651733398438 12.854732513427734375 12.765480995178222656 12.658132553100585938 12.64568328857421875 13.001595497131347656 13.430511474609375 13.80728912353515625 14.14898681640625 14.443406105041503906 14.711499214172363281 14.943217277526855469 15.155405998229980469 15.339442253112792969 15.505254745483398438 15.639524459838867188 15.750288009643554688 15.831110954284667969 15.887495040893554688 15.91579437255859375 15.920125007629394531 15.911397933959960938 15.908411979675292969 15.926672935485839844 15.979402542114257812 16.060598373413085938 16.15738677978515625 16.254268646240234375 16.354852676391601562 16.451009750366210938 16.549436569213867188 16.642827987670898438 16.738260269165039062 16.82861328125 16.921033859252929688 17.00850677490234375 17.098209381103515625 17.18321990966796875 17.270595550537109375 17.348833084106445312 17.410272598266601562 17.558010101318359375 17.696996688842773438 17.547344207763671875 17.387228012084960938 17.238122940063476562 17.085956573486328125 16.94474029541015625 16.801294326782226562 16.668910980224609375 16.534978866577148438 16.411630630493164062 16.286386489868164062 16.170932769775390625 16.053873062133789062 15.947535514831542969 15.841318130493164062 15.745942115783691406 15.650824546813964844 15.56514739990234375 15.479271888732910156 15.401746749877929688 15.323756217956542969 15.253279685974121094 15.182195663452148438 15.117959022521972656 15.053059577941894531 14.9944610595703125 14.93521881103515625 14.881823539733886719 14.827886581420898438 14.779527664184570312 14.730923652648925781 14.687624931335449219 14.644193649291992188 14.605643272399902344 14.567047119140625 14.532867431640625 14.498606681823730469 14.468347549438476562 14.438081741333007812 14.411482810974121094 14.384923934936523438 14.361460685729980469 14.337775230407714844 14.316844940185546875 14.295774459838867188 14.277217864990234375 14.2584075927734375 14.241734504699707031 14.224822044372558594 14.209905624389648438 14.194850921630859375 14.181712150573730469 14.168564796447753906 14.157200813293457031 14.14592742919921875 14.136270523071289062 14.126466751098632812 14.117735862731933594 14.108729362487792969 14.100728988647460938 14.092486381530761719 14.085191726684570312 14.077691078186035156 14.071081161499023438 14.064329147338867188 14.058496475219726562 14.052657127380371094 14.047695159912109375 14.042795181274414062 14.038661003112792969 14.034482002258300781 14.030872344970703125 14.027231216430664062 14.024106025695800781 14.020984649658203125 14.018331527709960938 14.015721321105957031 14.013537406921386719 14.011415481567382812 14.009638786315917969 14.007930755615234375 14.006539344787597656 14.005262374877929688 14.004312515258789062 14.003560066223144531 14.003102302551269531 14.002869606018066406 14.002894401550292969 14.003182411193847656 14.003697395324707031 14.0045166015625 14.005536079406738281 14.00690460205078125 14.008447647094726562 14.010381698608398438 14.012286186218261719 14.013829231262207031 13.999703407287597656 13.967283248901367188 13.936669349670410156 13.904134750366210938 13.873731613159179688 13.841497421264648438 13.811371803283691406 13.779492378234863281 13.749706268310546875 13.718336105346679688 13.689100265502929688 13.6583709716796875 13.629704475402832031 13.599607467651367188 13.571499824523925781 13.542018890380859375 13.514459609985351562 13.485583305358886719 13.458561897277832031 13.4302825927734375 13.4037933349609375 13.376105308532714844 13.350145339965820312 13.3230438232421875 13.297612190246582031 13.27109527587890625 13.246191978454589844 13.220258712768554688 13.195883750915527344 13.170535087585449219 13.14669036865234375 13.121927261352539062 13.098615646362304688 13.074440956115722656 13.051665306091308594 13.028080940246582031 13.005847930908203125 12.982855796813964844 12.961167335510253906 12.9387664794921875 12.917614936828613281 12.895801544189453125 12.875191688537597656 12.853972434997558594 12.833914756774902344 12.813298225402832031 12.793802261352539062 12.773795127868652344 12.7548675537109375 12.7354736328125 12.717110633850097656 12.698319435119628906 12.680513381958007812 12.662317276000976562 12.645052909851074219 12.627388954162597656 12.610561370849609375 12.593329429626464844 12.576868057250976562 12.559991836547851562 12.543803215026855469 12.527098655700683594 12.511088371276855469 12.49493408203125 12.479671478271484375 12.46433258056640625 12.44985198974609375 12.435342788696289062 12.421674728393554688 12.408060073852539062 12.395276069641113281 12.382579803466796875 12.370629310607910156 12.416524887084960938 12.368065834045410156 12.232312202453613281 12.089710235595703125 11.936611175537109375 11.786778450012207031 11.639654159545898438 11.508442878723144531 11.393439292907714844 11.301015853881835938 11.22280120849609375 11.156388282775878906 11.093303680419921875 11.030537605285644531 10.96140289306640625 10.889268875122070312 10.814436912536621094 10.742757797241210938 10.674936294555664062 10.616039276123046875 10.564586639404296875 10.519701957702636719 10.477031707763671875 10.43489837646484375 10.389081954956054688 10.339087486267089844 10.2845916748046875 10.229372024536132812 10.174490928649902344 10.123618125915527344 10.077852249145507812 10.038594245910644531 10.003899574279785156 9.9729375839233398438 9.9436941146850585938 9.9152374267578125 
12.64278411865234375 12.649777412414550781 12.655277252197265625 12.659688949584960938 12.663416862487792969 12.666757583618164062 12.669804573059082031 12.672648429870605469 12.675298690795898438 12.677778244018554688 12.680064201354980469 12.6821441650390625 12.683984756469726562 12.68555450439453125 12.686816215515136719 12.687722206115722656 12.688229560852050781 12.688280105590820312 12.687827110290527344 12.686810493469238281 12.685185432434082031 12.682901382446289062 12.679923057556152344 12.676279067993164062 12.672051429748535156 12.667508125305175781 12.662905693054199219 12.658557891845703125 12.655862808227539062 12.654559135437011719 12.655508995056152344 12.676711082458496094 12.698726654052734375 12.714937210083007812 12.731507301330566406 12.748065948486328125 12.763609886169433594 12.7773284912109375 12.789417266845703125 12.800141334533691406 12.812613487243652344 12.828463554382324219 12.847142219543457031 12.866573333740234375 12.885941505432128906 12.903413772583007812 12.918423652648925781 12.92931365966796875 12.935355186462402344 12.935271263122558594 12.928852081298828125 12.915132522583007812 12.891664505004882812 12.856867790222167969 12.806680679321289062 12.74086761474609375 12.663631439208984375 12.606317520141601562 12.676779747009277344 12.935300827026367188 13.29647064208984375 13.673172950744628906 14.024594306945800781 14.327287673950195312 14.602402687072753906 14.839684486389160156 15.056483268737792969 15.244241714477539062 15.415776252746582031 15.554816246032714844 15.665835380554199219 15.741852760314941406 15.78832244873046875 15.814520835876464844 15.843361854553222656 15.881144523620605469 15.933582305908203125 16.002897262573242188 16.090681076049804688 16.180757522583007812 16.277256011962890625 16.372014999389648438 16.470294952392578125 16.56450653076171875 16.661279678344726562 16.753431320190429688 16.8479156494140625 16.937671661376953125 17.029779434204101562 17.117237091064453125 17.207212448120117188 17.291990280151367188 17.369188308715820312 17.421560287475585938 17.600633621215820312 17.802068710327148438 17.657949447631835938 17.505792617797851562 17.350725173950195312 17.20584869384765625 17.057788848876953125 16.92026519775390625 16.780303955078125 16.651105880737304688 16.520153045654296875 16.3993377685546875 16.27648162841796875 16.163087844848632812 16.048135757446289062 15.943395614624023438 15.838543891906738281 15.744203567504882812 15.649961471557617188 15.564950942993164062 15.47963714599609375 15.402535438537597656 15.324895858764648438 15.254672050476074219 15.183787345886230469 15.119679450988769531 15.054862022399902344 14.996293067932128906 14.937025070190429688 14.883577346801757812 14.829601287841796875 14.781154632568359375 14.732312202453613281 14.688735008239746094 14.644995689392089844 14.606142997741699219 14.567229270935058594 14.532808303833007812 14.498302459716796875 14.467801094055175781 14.437267303466796875 14.410406112670898438 14.38360595703125 14.360089302062988281 14.336390495300292969 14.31543731689453125 14.294329643249511719 14.275765419006347656 14.257045745849609375 14.240467071533203125 14.223645210266113281 14.208800315856933594 14.19379425048828125 14.180673599243164062 14.167536735534667969 14.156175613403320312 14.144894599914550781 14.135256767272949219 14.125658035278320312 14.117156028747558594 14.108391761779785156 14.100609779357910156 14.092598915100097656 14.085515022277832031 14.078238487243652344 14.071831703186035156 14.065276145935058594 14.059595108032226562 14.053910255432128906 14.049078941345214844 14.044310569763183594 14.040323257446289062 14.036347389221191406 14.032930374145507812 14.02950286865234375 14.026581764221191406 14.023688316345214844 14.021253585815429688 14.018885612487792969 14.016936302185058594 14.015089035034179688 14.013583183288574219 14.012175559997558594 14.011069297790527344 14.01009368896484375 14.009404182434082031 14.008920669555664062 14.008711814880371094 14.00875091552734375 14.009029388427734375 14.009593963623046875 14.01036834716796875 14.011468887329101562 14.01274871826171875 14.014394760131835938 14.016190528869628906 14.018382072448730469 14.02054595947265625 14.020837783813476562 14.006631851196289062 13.975328445434570312 13.944657325744628906 13.912005424499511719 13.881473541259765625 13.849095344543457031 13.818830490112304688 13.786802291870117188 13.756861686706542969 13.725292205810546875 13.695864677429199219 13.664926528930664062 13.636060714721679688 13.605748176574707031 13.577437400817871094 13.547740936279296875 13.519977569580078125 13.490886688232421875 13.46366119384765625 13.435166358947753906 13.408473968505859375 13.380571365356445312 13.354409217834472656 13.32709503173828125 13.301462173461914062 13.274732589721679688 13.249629020690917969 13.223485946655273438 13.198912620544433594 13.173356056213378906 13.14931488037109375 13.124346733093261719 13.100841522216796875 13.076464653015136719 13.053498268127441406 13.029713630676269531 13.007291793823242188 12.984105110168457031 12.962231636047363281 12.939647674560546875 12.918326377868652344 12.896340370178222656 12.875569343566894531 12.854182243347167969 12.833967208862304688 12.813187599182128906 12.793539047241210938 12.773374557495117188 12.75429534912109375 12.734743118286132812 12.716229438781738281 12.697283744812011719 12.679332733154296875 12.660985946655273438 12.643585205078125 12.625803947448730469 12.608870506286621094 12.591528892517089844 12.574962615966796875 12.55797576904296875 12.541682243347167969 12.52490234375 12.5086669921875 12.492180824279785156 12.476583480834960938 12.460886001586914062 12.446055412292480469 12.431197166442871094 12.417200088500976562 12.403235435485839844 12.390092849731445312 12.376994132995605469 12.36495208740234375 12.39934539794921875 12.287506103515625 12.1567230224609375 12.020605087280273438 11.875418663024902344 11.73390960693359375 11.595271110534667969 11.471680641174316406 11.363155364990234375 11.275561332702636719 11.200961112976074219 11.137131690979003906 11.0760345458984375 11.014909744262695312 10.947390556335449219 10.8768157958984375 10.803457260131835938 10.733022689819335938 10.666167259216308594 10.607846260070800781 10.556536674499511719 10.511363029479980469 10.467959403991699219 10.424677848815917969 10.37725830078125 10.325290679931640625 10.268502235412597656 10.210873603820800781 10.153551101684570312 10.100409507751464844 10.052632331848144531 10.011771202087402344 9.97592926025390625 9.9443569183349609375 9.9151105880737304688 9.8873138427734375 
12.654733657836914062 12.658545494079589844 12.661069869995117188 12.662988662719726562 12.66460418701171875 12.666074752807617188 12.667440414428710938 12.668718338012695312 12.669887542724609375 12.670934677124023438 12.671831130981445312 12.672545433044433594 12.673040390014648438 12.67327117919921875 12.67319488525390625 12.672757148742675781 12.671907424926757812 12.670586585998535156 12.668737411499023438 12.666299819946289062 12.663211822509765625 12.659437179565429688 12.654942512512207031 12.649773597717285156 12.643980979919433594 12.637884140014648438 12.632129669189453125 12.62802886962890625 12.625276565551757812 12.621932029724121094 12.620954513549804688 12.647942543029785156 12.674935340881347656 12.694528579711914062 12.710870742797851562 12.727258682250976562 12.743696212768554688 12.758915901184082031 12.772935867309570312 12.785231590270996094 12.796102523803710938 12.805795669555664062 12.816196441650390625 12.827673912048339844 12.839822769165039062 12.851073265075683594 12.860590934753417969 12.8668975830078125 12.869226455688476562 12.867440223693847656 12.861364364624023438 12.850107192993164062 12.832345962524414062 12.808626174926757812 12.780384063720703125 12.755002975463867188 12.743782997131347656 12.771683692932128906 12.930396080017089844 13.171163558959960938 13.389873504638671875 13.652284622192382812 13.967584609985351562 14.268418312072753906 14.547484397888183594 14.789508819580078125 15.0111846923828125 15.203274726867675781 15.379346847534179688 15.52173614501953125 15.627230644226074219 15.694253921508789062 15.753086090087890625 15.813527107238769531 15.87903594970703125 15.949665069580078125 16.03350830078125 16.121555328369140625 16.213903427124023438 16.304281234741210938 16.399991989135742188 16.493303298950195312 16.590013504028320312 16.682855606079101562 16.778430938720703125 16.869668960571289062 16.963459014892578125 17.05278778076171875 17.144693374633789062 17.232143402099609375 17.319232940673828125 17.387048721313476562 17.4362030029296875 17.640293121337890625 17.909086227416992188 17.767375946044921875 17.609979629516601562 17.462795257568359375 17.312313079833984375 17.171360015869140625 17.027246475219726562 16.893163681030273438 16.75659942626953125 16.630458831787109375 16.502382278442382812 16.384046554565429688 16.263559341430664062 16.152252197265625 16.039470672607421875 15.936586380004882812 15.833433151245117188 15.740228652954101562 15.646901130676269531 15.562603950500488281 15.477910995483398438 15.401291847229003906 15.324069976806640625 15.254166603088378906 15.183550834655761719 15.119639396667480469 15.054976463317871094 14.996506690979003906 14.937299728393554688 14.883898735046386719 14.829968452453613281 14.781537055969238281 14.732644081115722656 14.688884735107421875 14.64490509033203125 14.605813026428222656 14.566626548767089844 14.531962394714355469 14.497258186340332031 14.466572761535644531 14.43582916259765625 14.40876007080078125 14.3817291259765625 14.358068466186523438 14.334378242492675781 14.313440322875976562 14.292336463928222656 14.273766517639160156 14.255105972290039062 14.2386474609375 14.22194671630859375 14.20720672607421875 14.192294120788574219 14.179228782653808594 14.166134834289550781 14.154803276062011719 14.143548011779785156 14.1339263916015625 14.124452590942382812 14.116190910339355469 14.107684135437011719 14.100136756896972656 14.092374801635742188 14.085515975952148438 14.078477859497070312 14.072289466857910156 14.065958976745605469 14.060454368591308594 14.054948806762695312 14.050282478332519531 14.045687675476074219 14.041866302490234375 14.038119316101074219 14.034921646118164062 14.031731605529785156 14.029032707214355469 14.026384353637695312 14.024181365966796875 14.022070884704589844 14.020364761352539062 14.018790245056152344 14.017549514770507812 14.016428947448730469 14.015587806701660156 14.014898300170898438 14.014467239379882812 14.014261245727539062 14.014314651489257812 14.014636039733886719 14.015181541442871094 14.016034126281738281 14.017078399658203125 14.018467903137207031 14.020014762878417969 14.021940231323242188 14.023981094360351562 14.026394844055175781 14.028559684753417969 14.025961875915527344 14.01224517822265625 13.983099937438964844 13.952484130859375 13.919762611389160156 13.889123916625976562 13.856610298156738281 13.82621002197265625 13.794031143188476562 13.763942718505859375 13.732178688049316406 13.702551841735839844 13.671399116516113281 13.642328262329101562 13.611794471740722656 13.583272933959960938 13.553350448608398438 13.525374412536621094 13.496058464050292969 13.46862030029296875 13.439901351928710938 13.412997245788574219 13.384870529174804688 13.35849761962890625 13.330960273742675781 13.305116653442382812 13.278166770935058594 13.252854347229003906 13.226492881774902344 13.201711654663085938 13.175939559936523438 13.151693344116210938 13.1265106201171875 13.102803230285644531 13.078214645385742188 13.055048942565917969 13.031057357788085938 13.008439064025878906 12.985049247741699219 12.962984085083007812 12.940199851989746094 12.91869354248046875 12.896520614624023438 12.875576019287109375 12.854014396667480469 12.833634376525878906 12.812685012817382812 12.792874336242675781 12.772541046142578125 12.753299713134765625 12.733580589294433594 12.714909553527832031 12.695803642272949219 12.677698135375976562 12.6591949462890625 12.641646385192871094 12.623727798461914062 12.606679916381835938 12.589222908020019531 12.572543144226074219 12.555439949035644531 12.539031028747558594 12.52214813232421875 12.505782127380371094 12.4889678955078125 12.473028182983398438 12.456982612609863281 12.441822052001953125 12.426619529724121094 12.412276268005371094 12.397942543029785156 12.3844146728515625 12.370877265930175781 12.370783805847167969 12.321259498596191406 12.204360008239746094 12.078352928161621094 11.948775291442871094 11.811753273010253906 11.678943634033203125 11.549243927001953125 11.433724403381347656 11.332083702087402344 11.249632835388183594 11.178882598876953125 11.11780548095703125 11.058814048767089844 10.999413490295410156 10.933562278747558594 10.864563941955566406 10.79264068603515625 10.723344802856445312 10.657258987426757812 10.599215507507324219 10.547663688659667969 10.501791000366210938 10.457262039184570312 10.412530899047851562 10.363352775573730469 10.309436798095703125 10.250535011291503906 10.190769195556640625 10.131323814392089844 10.076205253601074219 10.026647567749023438 9.9843149185180664062 9.9473628997802734375 9.915134429931640625 9.8857555389404296875 9.8584117889404296875 
12.667713165283203125 12.667978286743164062 12.667487144470214844 12.666975021362304688 12.666553497314453125 12.6662139892578125 12.665936470031738281 12.665688514709472656 12.665431022644042969 12.6651153564453125 12.664698600769042969 12.664130210876464844 12.663365364074707031 12.662347793579101562 12.661032676696777344 12.659358024597167969 12.657270431518554688 12.654706954956054688 12.651606559753417969 12.64791107177734375 12.64356231689453125 12.638535499572753906 12.632787704467773438 12.626376152038574219 12.619381904602050781 12.612246513366699219 12.605750083923339844 12.600785255432128906 12.596335411071777344 12.591207504272460938 12.589697837829589844 12.620446205139160156 12.651427268981933594 12.674944877624511719 12.694139480590820312 12.710758209228515625 12.727551460266113281 12.743945121765136719 12.759694099426269531 12.774098396301269531 12.787401199340820312 12.799142837524414062 12.809621810913085938 12.818604469299316406 12.826794624328613281 12.834052085876464844 12.840288162231445312 12.844600677490234375 12.847032546997070312 12.848597526550292969 12.849439620971679688 12.849584579467773438 12.850004196166992188 12.851870536804199219 12.856654167175292969 12.865972518920898438 12.892712593078613281 12.969788551330566406 13.183406829833984375 13.443643569946289062 13.66411590576171875 13.85884857177734375 14.070769309997558594 14.304574966430664062 14.560687065124511719 14.803299903869628906 15.031088829040527344 15.229990959167480469 15.412274360656738281 15.551878929138183594 15.647393226623535156 15.727283477783203125 15.807521820068359375 15.886267662048339844 15.972149848937988281 16.05968475341796875 16.151683807373046875 16.240915298461914062 16.333333969116210938 16.423686981201171875 16.518686294555664062 16.610992431640625 16.706632614135742188 16.79853057861328125 16.893274307250976562 16.983880996704101562 17.077198028564453125 17.16625213623046875 17.257856369018554688 17.339372634887695312 17.404293060302734375 17.447816848754882812 17.591890335083007812 17.993448257446289062 17.863399505615234375 17.715419769287109375 17.563634872436523438 17.4209136962890625 17.274444580078125 17.136993408203125 16.996419906616210938 16.865406036376953125 16.731966018676757812 16.608587265014648438 16.483140945434570312 16.367095947265625 16.24881744384765625 16.139490127563476562 16.0287322998046875 15.927610397338867188 15.826174736022949219 15.734308242797851562 15.641978263854980469 15.5583953857421875 15.474335670471191406 15.398224830627441406 15.321454048156738281 15.251909255981445312 15.181608200073242188 15.117941856384277344 15.053486824035644531 14.995169639587402344 14.936090469360351562 14.882817268371582031 14.828999519348144531 14.780646324157714844 14.731805801391601562 14.68802642822265625 14.643900871276855469 14.604640960693359375 14.565258026123046875 14.530392646789550781 14.495510101318359375 14.46469879150390625 14.433813095092773438 14.406599998474121094 14.37940216064453125 14.355581283569335938 14.33184814453125 14.310959815979003906 14.289897918701171875 14.271356582641601562 14.252729415893554688 14.236385345458984375 14.219828605651855469 14.205213546752929688 14.190423965454101562 14.177451133728027344 14.164427757263183594 14.153153419494628906 14.141950607299804688 14.1323699951171875 14.12296295166015625 14.114910125732421875 14.106659889221191406 14.099348068237304688 14.091834068298339844 14.085202217102050781 14.078404426574707031 14.072434425354003906 14.066336631774902344 14.061024665832519531 14.055704116821289062 14.051206588745117188 14.046793937683105469 14.043139457702636719 14.03961181640625 14.036641120910644531 14.033697128295898438 14.031225204467773438 14.0288238525390625 14.026850700378417969 14.024991035461425781 14.023517608642578125 14.022198677062988281 14.021208763122558594 14.02036285400390625 14.019780158996582031 14.01937103271484375 14.019198417663574219 14.019266128540039062 14.0195770263671875 14.020177841186523438 14.020985603332519531 14.022119522094726562 14.023427009582519531 14.025094985961914062 14.026897430419921875 14.029083251953125 14.031342506408691406 14.033916473388671875 14.035196304321289062 14.030118942260742188 14.016714096069335938 13.990146636962890625 13.959720611572265625 13.926970481872558594 13.896246910095214844 13.863614082336425781 13.833086967468261719 13.800764083862304688 13.770534515380859375 13.738598823547363281 13.708775520324707031 13.677412986755371094 13.648141860961914062 13.61739349365234375 13.588666915893554688 13.55852508544921875 13.530339241027832031 13.500802040100097656 13.473155021667480469 13.444214820861816406 13.417101860046386719 13.388754844665527344 13.362174034118652344 13.334418296813964844 13.308367729187011719 13.281200408935546875 13.255682945251464844 13.229105949401855469 13.204121589660644531 13.178135871887207031 13.153688430786132812 13.1282958984375 13.104389190673828125 13.079592704772949219 13.056231498718261719 13.032036781311035156 13.009226799011230469 12.985636711120605469 12.963382720947265625 12.940402984619140625 12.918711662292480469 12.896347999572753906 12.875226020812988281 12.853484153747558594 12.832936286926269531 12.811816215515136719 12.791842460632324219 12.771341323852539062 12.751939773559570312 12.732057571411132812 12.713231086730957031 12.693965911865234375 12.675710678100585938 12.657053947448730469 12.6393585205078125 12.6212921142578125 12.604122161865234375 12.586550712585449219 12.569760322570800781 12.552539825439453125 12.536016464233398438 12.519015312194824219 12.50257110595703125 12.485525131225585938 12.469275474548339844 12.452905654907226562 12.437424659729003906 12.42188262939453125 12.407196998596191406 12.392490386962890625 12.378571510314941406 12.364675521850585938 12.340490341186523438 12.240365982055664062 12.1250762939453125 12.003235816955566406 11.87964630126953125 11.750274658203125 11.625720977783203125 11.504575729370117188 11.396822929382324219 11.301850318908691406 11.224411964416503906 11.157442092895507812 11.099083900451660156 11.042179107666015625 10.984466552734375 10.920222282409667969 10.852691650390625 10.782053947448730469 10.713702201843261719 10.648138046264648438 10.590085029602050781 10.537974357604980469 10.491109848022460938 10.445232391357421875 10.398955345153808594 10.348097801208496094 10.292505264282226562 10.231925010681152344 10.170538902282714844 10.10950469970703125 10.052887916564941406 10.001905441284179688 9.9583034515380859375 9.9202976226806640625 9.8873348236083984375 9.8576154708862304688 9.830413818359375 
12.681238174438476562 12.678274154663085938 12.675001144409179688 12.671988487243652344 12.669439315795898438 12.667232513427734375 12.665276527404785156 12.663466453552246094 12.6617431640625 12.660032272338867188 12.658280372619628906 12.6564178466796875 12.654395103454589844 12.652148246765136719 12.649628639221191406 12.646773338317871094 12.643523216247558594 12.639812469482421875 12.6355743408203125 12.630750656127929688 12.625271797180175781 12.619118690490722656 12.612255096435546875 12.604814529418945312 12.596966743469238281 12.5892181396484375 12.581650733947753906 12.574092864990234375 12.567148208618164062 12.560576438903808594 12.560473442077636719 12.592357635498046875 12.6266021728515625 12.653888702392578125 12.676967620849609375 12.696608543395996094 12.71448516845703125 12.731740951538085938 12.749030113220214844 12.765498161315917969 12.781329154968261719 12.795950889587402344 12.809719085693359375 12.822175025939941406 12.833684921264648438 12.843846321105957031 12.852979660034179688 12.860762596130371094 12.868656158447265625 12.878173828125 12.889861106872558594 12.903560638427734375 12.9203643798828125 12.940737724304199219 12.967812538146972656 13.00399017333984375 13.06296539306640625 13.188852310180664062 13.450765609741210938 13.723107337951660156 13.958119392395019531 14.155257225036621094 14.3535003662109375 14.546884536743164062 14.746830940246582031 14.945168495178222656 15.153288841247558594 15.350917816162109375 15.5313568115234375 15.644100189208984375 15.735196113586425781 15.822167396545410156 15.912827491760253906 16.001529693603515625 16.093412399291992188 16.182546615600585938 16.274709701538085938 16.363983154296875 16.45642852783203125 16.546619415283203125 16.641008377075195312 16.73255157470703125 16.827388763427734375 16.9185791015625 17.012706756591796875 17.102849960327148438 17.195835113525390625 17.283826828002929688 17.364534378051757812 17.421136856079101562 17.463253021240234375 17.549266815185546875 17.975566864013671875 17.953969955444335938 17.803789138793945312 17.66138458251953125 17.515039443969726562 17.376993179321289062 17.234716415405273438 17.100736618041992188 16.963533401489257812 16.835475921630859375 16.705072402954101562 16.584360122680664062 16.46147918701171875 16.347688674926757812 16.231601715087890625 16.124269485473632812 16.015501022338867188 15.916138648986816406 15.816400527954101562 15.725941658020019531 15.634860038757324219 15.552129745483398438 15.468758583068847656 15.393206596374511719 15.316944122314453125 15.247813224792480469 15.177886009216308594 15.114521980285644531 15.050335884094238281 14.992228507995605469 14.933351516723632812 14.880272865295410156 14.826631546020507812 14.778416633605957031 14.729693412780761719 14.68599700927734375 14.641866683959960938 14.602501869201660156 14.562985420227050781 14.527976036071777344 14.492932319641113281 14.462018013000488281 14.431044578552246094 14.403737068176269531 14.37642669677734375 14.352488517761230469 14.328655242919921875 14.307817459106445312 14.286836624145507812 14.268358230590820312 14.249788284301757812 14.233531951904296875 14.217142105102539062 14.202679634094238281 14.188045501708984375 14.175202369689941406 14.162286758422851562 14.151096343994140625 14.13997650146484375 14.130465507507324219 14.121128082275390625 14.113232612609863281 14.105255126953125 14.098192214965820312 14.0909423828125 14.084551811218261719 14.078009605407714844 14.07227325439453125 14.066424369812011719 14.061331748962402344 14.056217193603515625 14.051903724670410156 14.047689437866210938 14.044217109680175781 14.040905952453613281 14.038171768188476562 14.035486221313476562 14.033253669738769531 14.031113624572753906 14.029382705688476562 14.027785301208496094 14.02655792236328125 14.025506973266601562 14.024775505065917969 14.024216651916503906 14.02390289306640625 14.023787498474121094 14.023886680603027344 14.024243354797363281 14.024823188781738281 14.025714874267578125 14.026795387268066406 14.028222084045410156 14.0298004150390625 14.0317535400390625 14.033812522888183594 14.036252021789550781 14.038709640502929688 14.041229248046875 14.0408782958984375 14.034216880798339844 14.020921707153320312 13.996663093566894531 13.966831207275390625 13.934084892272949219 13.903291702270507812 13.870545387268066406 13.839892387390136719 13.807421684265136719 13.777047157287597656 13.744946479797363281 13.714932441711425781 13.683347702026367188 13.653865814208984375 13.622893333435058594 13.593954086303710938 13.563585281372070312 13.535182952880859375 13.505414009094238281 13.477547645568847656 13.448374748229980469 13.42104339599609375 13.392465591430664062 13.365666389465332031 13.337680816650390625 13.311414718627929688 13.284020423889160156 13.258286476135253906 13.231484413146972656 13.206286430358886719 13.180078506469726562 13.155420303344726562 13.129807472229003906 13.105692863464355469 13.080679893493652344 13.0571136474609375 13.032706260681152344 13.009694099426269531 12.985895156860351562 12.963443756103515625 12.940259933471679688 12.918375968933105469 12.89581298828125 12.874503135681152344 12.852566719055175781 12.831833839416503906 12.81052398681640625 12.790371894836425781 12.769690513610839844 12.750120162963867188 12.73006439208984375 12.7110748291015625 12.691643714904785156 12.673231124877929688 12.654414176940917969 12.636566162109375 12.618342399597167969 12.601033210754394531 12.583337783813476562 12.566434860229492188 12.549100875854492188 12.532469749450683594 12.515361785888671875 12.498836517333984375 12.481661796569824219 12.465104103088378906 12.448396682739257812 12.432578086853027344 12.416677474975585938 12.401629447937011719 12.386525154113769531 12.372181892395019531 12.276974678039550781 12.203556060791015625 12.159810066223144531 12.045735359191894531 11.927451133728027344 11.809445381164550781 11.687485694885253906 11.571086883544921875 11.458495140075683594 11.358578681945800781 11.270368576049804688 11.198038101196289062 11.134940147399902344 11.079371452331542969 11.024598121643066406 10.9685821533203125 10.905902862548828125 10.839763641357421875 10.770283699035644531 10.702714920043945312 10.637467384338378906 10.579172134399414062 10.52625274658203125 10.478184700012207031 10.430826187133789062 10.382993698120117188 10.33061981201171875 10.273700714111328125 10.211942672729492188 10.149492263793945312 10.087416648864746094 10.029740333557128906 9.977603912353515625 9.9328088760375976562 9.8936548233032226562 9.8597278594970703125 9.8293437957763671875 9.8018951416015625 
12.69415283203125 12.688295364379882812 12.682843208312988281 12.677731513977050781 12.673152923583984375 12.669116020202636719 12.665525436401367188 12.6622161865234375 12.659101486206054688 12.656069755554199219 12.653058052062988281 12.649983406066894531 12.646800041198730469 12.643439292907714844 12.639845848083496094 12.63594818115234375 12.631682395935058594 12.626983642578125 12.621778488159179688 12.616019248962402344 12.609636306762695312 12.602632522583007812 12.594991683959960938 12.586871147155761719 12.578404426574707031 12.569560050964355469 12.559952735900878906 12.5498199462890625 12.539950370788574219 12.532114028930664062 12.532627105712890625 12.564932823181152344 12.60184478759765625 12.632493972778320312 12.659175872802734375 12.682468414306640625 12.703705787658691406 12.723001480102539062 12.741749763488769531 12.760041236877441406 12.778248786926269531 12.795680046081542969 12.812730789184570312 12.828854560852050781 12.844539642333984375 12.859297752380371094 12.873640060424804688 12.887189865112304688 12.902211189270019531 12.920183181762695312 12.942150115966796875 12.968000411987304688 12.999932289123535156 13.038521766662597656 13.086871147155761719 13.145509719848632812 13.236024856567382812 13.41457366943359375 13.713369369506835938 13.995448112487792969 14.242035865783691406 14.442688941955566406 14.640932083129882812 14.834188461303710938 15.032248497009277344 15.218745231628417969 15.39429473876953125 15.543045997619628906 15.66046905517578125 15.752972602844238281 15.846097946166992188 15.936139106750488281 16.028837203979492188 16.118656158447265625 16.211267471313476562 16.30091094970703125 16.39344024658203125 16.482915878295898438 16.575439453125 16.665439605712890625 16.7593536376953125 16.850339889526367188 16.944597244262695312 17.03528594970703125 17.128980636596679688 17.218805313110351562 17.309766769409179688 17.383607864379882812 17.43836212158203125 17.476270675659179688 17.568878173828125 18.028982162475585938 18.031347274780273438 17.891645431518554688 17.746480941772460938 17.608921051025390625 17.467264175415039062 17.333385467529296875 17.19516754150390625 17.064775466918945312 16.930776596069335938 16.80544281005859375 16.677801132202148438 16.55951690673828125 16.438991546630859375 16.327289581298828125 16.213247299194335938 16.107791900634765625 16.000864028930664062 15.903141021728515625 15.804970741271972656 15.715828895568847656 15.625977516174316406 15.544246673583984375 15.461642265319824219 15.386660575866699219 15.310926437377929688 15.242232322692871094 15.172711372375488281 15.10968017578125 15.045800209045410156 14.987943649291992188 14.929327011108398438 14.876483917236328125 14.823062896728515625 14.775026321411132812 14.726469993591308594 14.682906150817871094 14.638882637023925781 14.599520683288574219 14.559935569763183594 14.524844169616699219 14.489698410034179688 14.4586944580078125 14.427678108215332031 14.400330543518066406 14.372963905334472656 14.348961830139160156 14.32505035400390625 14.304216384887695312 14.283342361450195312 14.264956474304199219 14.246473312377929688 14.230296134948730469 14.214062690734863281 14.199769973754882812 14.185307502746582031 14.172616958618164062 14.159840583801269531 14.148756980895996094 14.137742996215820312 14.128321647644042969 14.119073867797851562 14.111291885375976562 14.103566169738769531 14.096751213073730469 14.089764595031738281 14.083613395690917969 14.077326774597167969 14.0718231201171875 14.066221237182617188 14.061353683471679688 14.056454658508300781 14.052328109741210938 14.048316001892089844 14.045030593872070312 14.041926383972167969 14.039420127868652344 14.036989212036132812 14.034994125366210938 14.033109664916992188 14.031617164611816406 14.030279159545898438 14.029294013977050781 14.028506278991699219 14.028026580810546875 14.02774810791015625 14.027697563171386719 14.027868270874023438 14.028235435485839844 14.028874397277832031 14.029718399047851562 14.030895233154296875 14.032239913940429688 14.033949851989746094 14.035788536071777344 14.038012504577636719 14.040310859680175781 14.04297637939453125 14.045596122741699219 14.047647476196289062 14.04578399658203125 14.038164138793945312 14.024905204772949219 14.002242088317871094 13.9733734130859375 13.940664291381835938 13.909819602966308594 13.876973152160644531 13.846201896667480469 13.81359100341796875 13.783075332641601562 13.750817298889160156 13.720635414123535156 13.688837051391601562 13.659147262573242188 13.627953529357910156 13.598803520202636719 13.568212509155273438 13.539598464965820312 13.509604454040527344 13.481523513793945312 13.452124595642089844 13.424577713012695312 13.395773887634277344 13.3687591552734375 13.340548515319824219 13.314068794250488281 13.286450386047363281 13.26050567626953125 13.23348236083984375 13.208075523376464844 13.181647300720214844 13.156782150268554688 13.130952835083007812 13.106634140014648438 13.081408500671386719 13.057641029357910156 13.033023834228515625 13.009814262390136719 12.985810279846191406 12.963165283203125 12.93978118896484375 12.917707443237304688 12.894948959350585938 12.873453140258789062 12.851322174072265625 12.830407142639160156 12.808909416198730469 12.788579940795898438 12.767716407775878906 12.747976303100585938 12.727747917175292969 12.708596229553222656 12.688999176025390625 12.670432090759277344 12.651457786560058594 12.633461952209472656 12.615090370178222656 12.597641944885253906 12.579828262329101562 12.562823295593261719 12.545389175415039062 12.528662681579589844 12.511456489562988281 12.494838714599609375 12.477590560913085938 12.460780143737792969 12.443739891052246094 12.42758941650390625 12.411334991455078125 12.395926475524902344 12.380420684814453125 12.365639686584472656 12.041692733764648438 12.206678390502929688 12.086153030395507812 11.972247123718261719 11.856450080871582031 11.743061065673828125 11.627628326416015625 11.518628120422363281 11.413933753967285156 11.321325302124023438 11.239461898803710938 11.171936988830566406 11.112486839294433594 11.059536933898925781 11.006737709045410156 10.952250480651855469 10.890932083129882812 10.825949668884277344 10.75737762451171875 10.690358161926269531 10.62522125244140625 10.566523551940917969 10.512711524963378906 10.463448524475097656 10.414740562438964844 10.365621566772460938 10.312172889709472656 10.254530906677246094 10.192317962646484375 10.129544258117675781 10.067122459411621094 10.008935928344726562 9.955982208251953125 9.9100894927978515625 9.86968231201171875 9.8345384597778320312 9.8031158447265625 9.7749881744384765625 
12.707304954528808594 12.69860076904296875 12.691029548645019531 12.684171676635742188 12.677900314331054688 12.672092437744140625 12.666817665100097656 12.661952018737792969 12.657401084899902344 12.65302276611328125 12.648748397827148438 12.644484519958496094 12.640178680419921875 12.635744094848632812 12.631120681762695312 12.626235008239746094 12.621022224426269531 12.615423202514648438 12.609371185302734375 12.602834701538085938 12.595757484436035156 12.588169097900390625 12.580056190490722656 12.571416854858398438 12.561854362487792969 12.551177024841308594 12.539255142211914062 12.526549339294433594 12.513709068298339844 12.503887176513671875 12.503721237182617188 12.535296440124511719 12.575117111206054688 12.608973503112792969 12.639209747314453125 12.666172027587890625 12.691229820251464844 12.714307785034179688 12.736386299133300781 12.757287979125976562 12.7780609130859375 12.79840850830078125 12.818937301635742188 12.839029312133789062 12.859310150146484375 12.879200935363769531 12.899440765380859375 12.919561386108398438 12.942372322082519531 12.969611167907714844 13.003011703491210938 13.042363166809082031 13.090216636657714844 13.145899772644042969 13.213674545288085938 13.295847892761230469 13.425406455993652344 13.664174079895019531 13.985903739929199219 14.2803802490234375 14.537415504455566406 14.73996734619140625 14.93772125244140625 15.121836662292480469 15.287912368774414062 15.429659843444824219 15.562672615051269531 15.675421714782714844 15.775852203369140625 15.868906974792480469 15.963575363159179688 16.05487060546875 16.148586273193359375 16.239183425903320312 16.3324432373046875 16.422603607177734375 16.515575408935546875 16.605409622192382812 16.698202133178710938 16.788171768188476562 16.8817596435546875 16.972316741943359375 17.066127777099609375 17.156436920166015625 17.24974822998046875 17.33594512939453125 17.408063888549804688 17.456369400024414062 17.493215560913085938 17.586612701416015625 18.096857070922851562 18.104312896728515625 17.963376998901367188 17.828182220458984375 17.687768936157226562 17.554685592651367188 17.417385101318359375 17.287416458129882812 17.153066635131835938 17.026275634765625 16.895750045776367188 16.773340225219726562 16.648416519165039062 16.532506942749023438 16.414302825927734375 16.304668426513671875 16.192668914794921875 16.089084625244140625 15.983983993530273438 15.887888908386230469 15.791269302368164062 15.703440666198730469 15.614829063415527344 15.534157752990722656 15.452513694763183594 15.37819671630859375 15.303041458129882812 15.234835624694824219 15.165772438049316406 15.10312652587890625 15.039607048034667969 14.9820556640625 14.923764228820800781 14.871210098266601562 14.81806182861328125 14.770254135131835938 14.721915245056152344 14.678537368774414062 14.634684562683105469 14.595438957214355469 14.555866241455078125 14.520748138427734375 14.485555648803710938 14.454497337341308594 14.423455238342285156 14.396114349365234375 14.368743896484375 14.344724655151367188 14.320782661437988281 14.2999267578125 14.279160499572753906 14.260903358459472656 14.242543220520019531 14.226469993591308594 14.210378646850585938 14.196276664733886719 14.18201446533203125 14.16950225830078125 14.156903266906738281 14.14595794677734375 14.13507843017578125 14.125776290893554688 14.116646766662597656 14.108972549438476562 14.10147857666015625 14.094926834106445312 14.088219642639160156 14.082322120666503906 14.076305389404296875 14.071049690246582031 14.06571197509765625 14.061083793640136719 14.056427001953125 14.052504539489746094 14.048710823059082031 14.045625686645507812 14.042741775512695312 14.040467262268066406 14.038303375244140625 14.036557197570800781 14.034941673278808594 14.033700942993164062 14.032636642456054688 14.031905174255371094 14.031393051147460938 14.031176567077636719 14.031189918518066406 14.031413078308105469 14.031882286071777344 14.032528877258300781 14.033465385437011719 14.03458404541015625 14.036055564880371094 14.037674903869628906 14.039675712585449219 14.041779518127441406 14.044274330139160156 14.046805381774902344 14.049681663513183594 14.052471160888671875 14.053635597229003906 14.05059051513671875 14.042296409606933594 14.029046058654785156 14.007487297058105469 13.979736328125 13.947142601013183594 13.916263580322265625 13.883324623107910156 13.852437019348144531 13.819682121276855469 13.789019584655761719 13.756597518920898438 13.726253509521484375 13.694246292114257812 13.664339065551757812 13.632912635803222656 13.603541374206542969 13.572714805603027344 13.543878555297851562 13.513648033142089844 13.48534393310546875 13.455708503723144531 13.427935600280761719 13.398894309997558594 13.371655464172363281 13.343207359313964844 13.316502571105957031 13.2886505126953125 13.262482643127441406 13.235226631164550781 13.209599494934082031 13.182941436767578125 13.157857894897460938 13.131802558898925781 13.107268333435058594 13.081818580627441406 13.057840347290039062 13.033002853393554688 13.009586334228515625 12.9853668212890625 12.962518692016601562 12.938922882080078125 12.91664886474609375 12.893681526184082031 12.871988296508789062 12.8496551513671875 12.828549385070800781 12.806855201721191406 12.786340713500976562 12.765287399291992188 12.745369911193847656 12.7249603271484375 12.705639839172363281 12.685871124267578125 12.667142868041992188 12.648006439208984375 12.62985992431640625 12.611336708068847656 12.593748092651367188 12.575800895690917969 12.558691978454589844 12.541154861450195312 12.524333953857421875 12.507030487060546875 12.490315437316894531 12.472988128662109375 12.455999374389648438 12.4386138916015625 12.422114372253417969 12.405486106872558594 12.389691352844238281 12.373750686645507812 12.229563713073730469 12.002820014953613281 12.13958740234375 12.015729904174804688 11.900707244873046875 11.786219596862792969 11.676546096801757812 11.566988945007324219 11.464968681335449219 11.367909431457519531 11.282464027404785156 11.206857681274414062 11.144082069396972656 11.088219642639160156 11.037820816040039062 10.986897468566894531 10.933804512023925781 10.87364959716796875 10.809596061706542969 10.741689682006835938 10.674989700317382812 10.609771728515625 10.5505523681640625 10.495814323425292969 10.445436477661132812 10.395599365234375 10.345576286315917969 10.291629791259765625 10.234013557434082031 10.172215461730957031 10.109989166259765625 10.048000335693359375 9.9898748397827148438 9.9363813400268554688 9.88936614990234375 9.8474264144897460938 9.810619354248046875 9.777614593505859375 9.7482461929321289062 
12.71982574462890625 12.708466529846191406 12.698918342590332031 12.690441131591796875 12.68279266357421875 12.675683021545410156 12.669048309326171875 12.662777900695800781 12.656869888305664062 12.651215553283691406 12.645758628845214844 12.640392303466796875 12.635049819946289062 12.629640579223632812 12.624098777770996094 12.618351936340332031 12.612338066101074219 12.606006622314453125 12.599298477172851562 12.592199325561523438 12.584658622741699219 12.576636314392089844 12.567900657653808594 12.558263778686523438 12.547440528869628906 12.535314559936523438 12.521586418151855469 12.506434440612792969 12.490762710571289062 12.477544784545898438 12.475638389587402344 12.505373954772949219 12.547516822814941406 12.584445953369140625 12.617982864379882812 12.648395538330078125 12.6770782470703125 12.703866004943847656 12.729828834533691406 12.754640579223632812 12.779253959655761719 12.80326080322265625 12.827631950378417969 12.851881980895996094 12.876941680908203125 12.9022064208984375 12.928678512573242188 12.955747604370117188 12.986268997192382812 13.022405624389648438 13.066401481628417969 13.117577552795410156 13.179129600524902344 13.250611305236816406 13.337835311889648438 13.445882797241210938 13.62646484375 13.917356491088867188 14.246440887451171875 14.557112693786621094 14.825726509094238281 15.023867607116699219 15.191396713256835938 15.325985908508300781 15.453999519348144531 15.574294090270996094 15.689666748046875 15.790575027465820312 15.889020919799804688 15.982808113098144531 16.078298568725585938 16.170309066772460938 16.264650344848632812 16.35576629638671875 16.4494781494140625 16.540014266967773438 16.633319854736328125 16.723432540893554688 16.816461563110351562 16.906467437744140625 16.999927520751953125 17.090253829956054688 17.183765411376953125 17.273744583129882812 17.361858367919921875 17.427865982055664062 17.474985122680664062 17.508108139038085938 17.606019973754882812 18.135370254516601562 18.166492462158203125 18.03585052490234375 17.899068832397460938 17.767831802368164062 17.63162994384765625 17.502431869506835938 17.36894989013671875 17.242435455322265625 17.111539840698242188 16.987970352172851562 16.860628128051757812 16.741167068481445312 16.61896514892578125 16.505268096923828125 16.3892059326171875 16.281492233276367188 16.1714019775390625 16.069562911987304688 15.966152191162109375 15.8715667724609375 15.776384353637695312 15.68978118896484375 15.602336883544921875 15.522670745849609375 15.441991806030273438 15.368451118469238281 15.293906211853027344 15.226201057434082031 15.157614707946777344 15.095374107360839844 15.032239913940429688 14.975028038024902344 14.917095184326171875 14.864856719970703125 14.81201171875 14.764463424682617188 14.716373443603515625 14.673213958740234375 14.629572868347167969 14.590501785278320312 14.551046371459960938 14.515955924987792969 14.48077392578125 14.449711799621582031 14.418665885925292969 14.391364097595214844 14.36403656005859375 14.340045928955078125 14.316122055053710938 14.295270919799804688 14.274578094482421875 14.256470680236816406 14.238262176513671875 14.222316741943359375 14.206362724304199219 14.192442893981933594 14.178393363952636719 14.166071891784667969 14.153669357299804688 14.142884254455566406 14.132159233093261719 14.122992515563964844 14.114001274108886719 14.106449127197265625 14.09914398193359375 14.092850685119628906 14.086417198181152344 14.08077239990234375 14.075022697448730469 14.070011138916015625 14.06493377685546875 14.060544013977050781 14.056135177612304688 14.052418708801269531 14.048845291137695312 14.045964241027832031 14.043298721313476562 14.0412445068359375 14.039343833923339844 14.037839889526367188 14.036490440368652344 14.035494804382324219 14.034696578979492188 14.034214973449707031 14.03397369384765625 14.034010887145996094 14.034308433532714844 14.034799575805664062 14.035558700561523438 14.03647613525390625 14.037701606750488281 14.039086341857910156 14.040843963623046875 14.042727470397949219 14.045004844665527344 14.047358512878417969 14.050104141235351562 14.052843093872070312 14.055974006652832031 14.058855056762695312 14.059006690979003906 14.055141448974609375 14.046372413635253906 14.033113479614257812 14.012280464172363281 13.985487937927246094 13.953080177307128906 13.922186851501464844 13.889170646667480469 13.858176231384277344 13.825285911560058594 13.794482231140136719 13.761899948120117188 13.731400489807128906 13.69921112060546875 13.669096946716308594 13.637440681457519531 13.607852935791015625 13.576794624328613281 13.547738075256347656 13.517275810241699219 13.488751411437988281 13.458884239196777344 13.430891990661621094 13.401618003845214844 13.374159812927246094 13.345479965209960938 13.318556785583496094 13.290472030639648438 13.264086723327636719 13.236601829528808594 13.210758209228515625 13.183874130249023438 13.158577919006347656 13.132298469543457031 13.107553482055664062 13.081885337829589844 13.057698249816894531 13.032645225524902344 13.009023666381835938 12.984591484069824219 12.961541175842285156 12.93773651123046875 12.915265083312988281 12.892094612121582031 12.870207786560058594 12.847678184509277344 12.826383590698242188 12.804498672485351562 12.783803939819335938 12.762567520141601562 12.742476463317871094 12.721891403198242188 12.702404975891113281 12.682470321655273438 12.663586616516113281 12.644293785095214844 12.626002311706542969 12.607334136962890625 12.589612007141113281 12.571533203125 12.554319381713867188 12.536687850952148438 12.519777297973632812 12.502384185791015625 12.4855804443359375 12.468166351318359375 12.451068878173828125 12.4333648681640625 12.416522979736328125 12.399523735046386719 12.383342742919921875 12.3669586181640625 12.185655593872070312 12.186998367309570312 12.08263397216796875 11.954271316528320312 11.836758613586425781 11.722119331359863281 11.614839553833007812 11.509957313537597656 11.413895606994628906 11.323580741882324219 11.244572639465332031 11.174632072448730469 11.116147041320800781 11.063503265380859375 11.015349388122558594 10.966013908386230469 10.9140167236328125 10.8546905517578125 10.791214942932128906 10.723641395568847656 10.656992912292480469 10.591525077819824219 10.531754493713378906 10.476222991943359375 10.425022125244140625 10.374514579772949219 10.324191093444824219 10.270519256591796875 10.213824272155761719 10.153410911560058594 10.092660903930664062 10.031925201416015625 9.9744625091552734375 9.9207391738891601562 9.8725986480712890625 9.828884124755859375 9.79000091552734375 9.7549028396606445312 9.7237615585327148438 
12.732398033142089844 12.71858978271484375 12.707045555114746094 12.696954727172851562 12.687957763671875 12.679673194885253906 12.671959877014160156 12.664603233337402344 12.657558441162109375 12.650732994079589844 12.644124984741210938 12.637645721435546875 12.631255149841308594 12.624871253967285156 12.618441581726074219 12.611895561218261719 12.605161666870117188 12.5981903076171875 12.590900421142578125 12.583230972290039062 12.575028419494628906 12.566194534301757812 12.556524276733398438 12.545900344848632812 12.534039497375488281 12.520796775817871094 12.505777359008789062 12.488978385925292969 12.470491409301757812 12.451671600341796875 12.446284294128417969 12.474579811096191406 12.515645027160644531 12.556318283081054688 12.593226432800292969 12.627152442932128906 12.659539222717285156 12.690144538879394531 12.720136642456054688 12.749108314514160156 12.778147697448730469 12.806769371032714844 12.836075782775878906 12.865507125854492188 12.896245956420898438 12.927647590637207031 12.961033821105957031 12.995634078979492188 13.03380584716796875 13.078126907348632812 13.132116317749023438 13.195104598999023438 13.271100997924804688 13.359766960144042969 13.468873977661132812 13.613804817199707031 13.865580558776855469 14.183930397033691406 14.513484954833984375 14.833010673522949219 15.103449821472167969 15.24372100830078125 15.362218856811523438 15.4770660400390625 15.594486236572265625 15.70556640625 15.811553001403808594 15.909621238708496094 16.008106231689453125 16.10230255126953125 16.198276519775390625 16.290735244750976562 16.385498046875 16.476972579956054688 16.571016311645507812 16.661832809448242188 16.75539398193359375 16.845724105834960938 16.938947677612304688 17.028995513916015625 17.122362136840820312 17.212556838989257812 17.305677413940429688 17.388711929321289062 17.453319549560546875 17.4951019287109375 17.526981353759765625 17.560577392578125 18.08148193359375 18.223936080932617188 18.09362030029296875 17.966550827026367188 17.833703994750976562 17.70623016357421875 17.574008941650390625 17.448457717895507812 17.3185882568359375 17.195371627807617188 17.067800521850585938 16.947322845458984375 16.82305145263671875 16.706487655639648438 16.587162017822265625 16.475862503051757812 16.361967086791992188 16.256174087524414062 16.147998809814453125 16.047901153564453125 15.946180343627929688 15.853094100952148438 15.759342193603515625 15.673968315124511719 15.587703704833984375 15.509061813354492188 15.429372787475585938 15.356693267822265625 15.282896041870117188 15.215743064880371094 15.14768218994140625 15.085894584655761719 15.023197174072265625 14.966380119323730469 14.908858299255371094 14.856982231140136719 14.804491043090820312 14.7572479248046875 14.709454536437988281 14.666554450988769531 14.623175621032714844 14.584329605102539062 14.545080184936523438 14.510095596313476562 14.474978446960449219 14.443964004516601562 14.41295623779296875 14.385713577270507812 14.358477592468261719 14.334562301635742188 14.310703277587890625 14.2899017333984375 14.269274711608886719 14.251329421997070312 14.233306884765625 14.217523574829101562 14.201731681823730469 14.187994956970214844 14.174175262451171875 14.162069320678710938 14.149890899658203125 14.139300346374511719 14.128759384155273438 14.119754791259765625 14.110930442810058594 14.103527069091796875 14.096400260925292969 14.090369224548339844 14.084227561950683594 14.078848838806152344 14.073383331298828125 14.068630218505859375 14.063828468322753906 14.0596923828125 14.05554962158203125 14.052060127258300781 14.048724174499511719 14.046060562133789062 14.043631553649902344 14.041805267333984375 14.040179252624511719 14.038930892944335938 14.037858009338378906 14.037121772766113281 14.036603927612304688 14.036382675170898438 14.036426544189453125 14.036729812622070312 14.037322044372558594 14.038090705871582031 14.039150238037109375 14.040350914001464844 14.041876792907714844 14.043538093566894531 14.045590400695800781 14.047743797302246094 14.050303459167480469 14.052906036376953125 14.055897712707519531 14.058886528015136719 14.062481880187988281 14.065123558044433594 14.064349174499511719 14.0598602294921875 14.050716400146484375 14.037433624267578125 14.017122268676757812 13.991129875183105469 13.958886146545410156 13.92800140380859375 13.894921302795410156 13.86382293701171875 13.830796241760253906 13.799847602844238281 13.767099380493164062 13.7364349365234375 13.704064369201660156 13.673755645751953125 13.6418609619140625 13.612043380737304688 13.580739974975585938 13.55145263671875 13.52074432373046875 13.491988182067871094 13.461874961853027344 13.433650970458984375 13.404131889343261719 13.376441001892089844 13.347517013549804688 13.320363044738769531 13.292037010192871094 13.265421867370605469 13.237695693969726562 13.2116241455078125 13.18450164794921875 13.158979415893554688 13.132465362548828125 13.107497215270996094 13.08159637451171875 13.05718994140625 13.031908035278320312 13.008069038391113281 12.983412742614746094 12.960149765014648438 12.936125755310058594 12.913446426391601562 12.890061378479003906 12.867972373962402344 12.845233917236328125 12.823743820190429688 12.801657676696777344 12.780774116516113281 12.759344100952148438 12.739072799682617188 12.718304634094238281 12.69864654541015625 12.678538322448730469 12.659493446350097656 12.640039443969726562 12.6215972900390625 12.602781295776367188 12.584921836853027344 12.566708564758300781 12.549381256103515625 12.531653404235839844 12.51465606689453125 12.497174263000488281 12.48028564453125 12.462777137756347656 12.445597648620605469 12.427608489990234375 12.410403251647949219 12.393009185791015625 12.376412391662597656 12.359541893005371094 12.092698097229003906 12.172817230224609375 12.031801223754882812 11.897706985473632812 11.776353836059570312 11.660221099853515625 11.554232597351074219 11.453146934509277344 11.362391471862792969 11.278315544128417969 11.2053680419921875 11.140776634216308594 11.086314201354980469 11.036633491516113281 10.990474700927734375 10.942458152770996094 10.891261100769042969 10.832427024841308594 10.769186019897460938 10.701619148254394531 10.634768486022949219 10.5688934326171875 10.508553504943847656 10.452374458312988281 10.40065765380859375 10.349964141845703125 10.29998779296875 10.247423171997070312 10.192620277404785156 10.134654045104980469 10.076390266418457031 10.01778411865234375 9.9616031646728515625 9.9079236984252929688 9.8585796356201171875 9.8127298355102539062 9.7712354660034179688 9.7334127426147460938 9.6998834609985351562 
12.743622779846191406 12.728112220764160156 12.714903831481933594 12.703436851501464844 12.693273544311523438 12.683900833129882812 12.675157546997070312 12.666811943054199219 12.658829689025878906 12.651096343994140625 12.643585205078125 12.636201858520507812 12.628918647766113281 12.62166595458984375 12.614406585693359375 12.607081413269042969 12.599626541137695312 12.591959953308105469 12.583960533142089844 12.575552940368652344 12.566594123840332031 12.556998252868652344 12.546563148498535156 12.535187721252441406 12.522573471069335938 12.508589744567871094 12.492862701416015625 12.475376129150390625 12.454976081848144531 12.430307388305664062 12.418107986450195312 12.446193695068359375 12.483836174011230469 12.526612281799316406 12.567234039306640625 12.60428619384765625 12.639811515808105469 12.673666000366210938 12.707272529602050781 12.740214347839355469 12.773580551147460938 12.806744575500488281 12.840989112854003906 12.875685691833496094 12.912253379821777344 12.949972152709960938 12.990483283996582031 13.032932281494140625 13.079400062561035156 13.131428718566894531 13.194890975952148438 13.269354820251464844 13.35973358154296875 13.466177940368652344 13.601122856140136719 13.807271957397460938 14.118669509887695312 14.435146331787109375 14.745121002197265625 15.019074440002441406 15.207386970520019531 15.339226722717285156 15.467612266540527344 15.589577674865722656 15.710897445678710938 15.820950508117675781 15.926714897155761719 16.025335311889648438 16.12404632568359375 16.21845245361328125 16.314697265625 16.407426834106445312 16.502450942993164062 16.594163894653320312 16.688425064086914062 16.7794342041015625 16.873172760009765625 16.963659286499023438 17.057024002075195312 17.147127151489257812 17.240421295166015625 17.330289840698242188 17.415279388427734375 17.475027084350585938 17.515899658203125 17.544162750244140625 17.57128143310546875 17.962503433227539062 18.271976470947265625 18.152273178100585938 18.025030136108398438 17.901185989379882812 17.771816253662109375 17.6476898193359375 17.51897430419921875 17.396633148193359375 17.269969940185546875 17.14969635009765625 17.025112152099609375 16.907407760620117188 16.785909652709960938 16.67195892333984375 16.555253982543945312 16.446317672729492188 16.3345947265625 16.230609893798828125 16.124223709106445312 16.02574920654296875 15.925601959228515625 15.833902359008789062 15.741478919982910156 15.657256126403808594 15.572099685668945312 15.494426727294921875 15.415680885314941406 15.343830108642578125 15.270830154418945312 15.204277992248535156 15.136753082275390625 15.075429916381835938 15.013185501098632812 14.956785202026367188 14.899693489074707031 14.848196029663085938 14.796078681945800781 14.749162673950195312 14.701691627502441406 14.659071922302246094 14.615979194641113281 14.577387809753417969 14.538386344909667969 14.503583908081054688 14.468585968017578125 14.437663078308105469 14.406740188598632812 14.379574775695800781 14.352461814880371094 14.3286590576171875 14.304907798767089844 14.284193038940429688 14.263649940490722656 14.245853424072265625 14.22803497314453125 14.212433815002441406 14.196824073791503906 14.18326568603515625 14.169680595397949219 14.157790184020996094 14.145842552185058594 14.135461807250976562 14.125121116638183594 14.116293907165527344 14.107651710510253906 14.100409507751464844 14.0934600830078125 14.08766937255859375 14.081813812255859375 14.076696395874023438 14.071508407592773438 14.067009925842285156 14.062479972839355469 14.058591842651367188 14.054715156555175781 14.051453590393066406 14.048354148864746094 14.045908927917480469 14.043715476989746094 14.042111396789550781 14.040750503540039062 14.039752006530761719 14.038949966430664062 14.038464546203613281 14.038220405578613281 14.038254737854003906 14.03857421875 14.039134979248046875 14.040013313293457031 14.041049957275390625 14.042400360107421875 14.043870925903320312 14.045686721801757812 14.047614097595214844 14.049947738647460938 14.052356719970703125 14.055179595947265625 14.058012008666992188 14.061279296875 14.064692497253417969 14.068722724914550781 14.070875167846679688 14.069414138793945312 14.0644683837890625 14.0550384521484375 14.041722297668457031 14.02175140380859375 13.996409416198730469 13.964174270629882812 13.933281898498535156 13.900156021118164062 13.868968963623046875 13.835816383361816406 13.804729461669921875 13.771821975708007812 13.740998268127441406 13.708452224731445312 13.677969932556152344 13.645857810974121094 13.615816116333007812 13.584273338317871094 13.554758071899414062 13.523808479309082031 13.494824409484863281 13.464468955993652344 13.436017036437988281 13.40625762939453125 13.378338813781738281 13.349175453186035156 13.321794509887695312 13.293230056762695312 13.266389846801757812 13.238427162170410156 13.212132453918457031 13.184775352478027344 13.159031867980957031 13.13228607177734375 13.107099533081054688 13.08097076416015625 13.056347846984863281 13.030841827392578125 13.006791114807128906 12.981914520263671875 12.958443641662597656 12.9342041015625 12.911320686340332031 12.887725830078125 12.865439414978027344 12.842496871948242188 12.8208160400390625 12.798533439636230469 12.777464866638183594 12.755847930908203125 12.735399246215820312 12.714452743530273438 12.694627761840820312 12.674352645874023438 12.6551513671875 12.635541915893554688 12.616956710815429688 12.59799957275390625 12.58000946044921875 12.561670303344726562 12.544231414794921875 12.526412010192871094 12.509335517883300781 12.491776466369628906 12.474812507629394531 12.457220077514648438 12.439965248107910156 12.421754837036132812 12.404195785522460938 12.386409759521484375 12.36939239501953125 12.352205276489257812 12.292136192321777344 12.136087417602539062 11.988735198974609375 11.848932266235351562 11.723458290100097656 11.605286598205566406 11.499871253967285156 11.40171051025390625 11.315337181091308594 11.236535072326660156 11.168740272521972656 11.108661651611328125 11.057512283325195312 11.0101776123046875 10.96549224853515625 10.91832733154296875 10.867522239685058594 10.808794975280761719 10.745458602905273438 10.677625656127929688 10.61038970947265625 10.544034957885742188 10.483180999755859375 10.426547050476074219 10.374622344970703125 10.324152946472167969 10.275008201599121094 10.224104881286621094 10.17177581787109375 10.116848945617675781 10.061628341674804688 10.005640983581542969 9.9511089324951171875 9.89769744873046875 9.8472232818603515625 9.7991809844970703125 9.7549304962158203125 9.7141733169555664062 9.6780185699462890625 
12.754167556762695312 12.737550735473632812 12.723321914672851562 12.710630416870117188 12.699238777160644531 12.688714027404785156 12.678885459899902344 12.669508934020996094 12.660559654235839844 12.651894569396972656 12.643482208251953125 12.635219573974609375 12.627079010009765625 12.618985176086425781 12.610896110534667969 12.602754592895507812 12.594498634338378906 12.586072921752929688 12.577362060546875 12.568261146545410156 12.558620452880859375 12.548368453979492188 12.537302017211914062 12.525333404541015625 12.512189865112304688 12.497805595397949219 12.481892585754394531 12.464118003845214844 12.442406654357910156 12.415567398071289062 12.397100448608398438 12.424335479736328125 12.459042549133300781 12.497979164123535156 12.540427207946777344 12.579988479614257812 12.617832183837890625 12.654102325439453125 12.690389633178710938 12.726479530334472656 12.763940811157226562 12.80188751220703125 12.841412544250488281 12.88178253173828125 12.924694061279296875 12.969372749328613281 13.017847061157226562 13.069225311279296875 13.126008987426757812 13.187587738037109375 13.260676383972167969 13.346920967102050781 13.452733993530273438 13.580352783203125 13.766467094421386719 14.049627304077148438 14.351085662841796875 14.627278327941894531 14.893719673156738281 15.103979110717773438 15.270220756530761719 15.416422843933105469 15.558476448059082031 15.691073417663574219 15.818317413330078125 15.931962013244628906 16.041774749755859375 16.14357757568359375 16.244455337524414062 16.339773178100585938 16.436296463012695312 16.529195785522460938 16.624395370483398438 16.716264724731445312 16.810682296752929688 16.901826858520507812 16.995695114135742188 17.086292266845703125 17.179759979248046875 17.269933700561523438 17.362751007080078125 17.443262100219726562 17.502382278442382812 17.538709640502929688 17.56536865234375 17.595615386962890625 18.004716873168945312 18.30847930908203125 18.196485519409179688 18.079601287841796875 17.955331802368164062 17.83461761474609375 17.7085723876953125 17.587659835815429688 17.462276458740234375 17.343000411987304688 17.21941375732421875 17.101987838745117188 16.980304718017578125 16.865283966064453125 16.746490478515625 16.635082244873046875 16.520931243896484375 16.414331436157226562 16.304929733276367188 16.202877044677734375 16.098310470581054688 16.00146484375 15.90290069580078125 15.812586784362792969 15.721495628356933594 15.638432502746582031 15.554403305053710938 15.477718353271484375 15.399941444396972656 15.328945159912109375 15.256788253784179688 15.190945625305175781 15.124018669128417969 15.063206672668457031 15.00146484375 14.945529937744140625 14.888915061950683594 14.837840080261230469 14.786143302917480469 14.739599227905273438 14.69249725341796875 14.650202751159667969 14.607438087463378906 14.569146156311035156 14.530442237854003906 14.495894432067871094 14.461085319519042969 14.43030548095703125 14.399518966674804688 14.372472763061523438 14.345511436462402344 14.321866989135742188 14.298269271850585938 14.27768707275390625 14.257271766662597656 14.239621162414550781 14.222037315368652344 14.2066497802734375 14.191258430480957031 14.177895545959472656 14.164561271667480469 14.152910232543945312 14.14121246337890625 14.131061553955078125 14.120955467224121094 14.112330436706542969 14.103899955749511719 14.0968475341796875 14.090096473693847656 14.08454132080078125 14.078988075256347656 14.074146270751953125 14.069252967834472656 14.065023422241210938 14.060780525207519531 14.057154655456542969 14.053559303283691406 14.05054473876953125 14.047699928283691406 14.045488357543945312 14.043548583984375 14.042181015014648438 14.041095733642578125 14.040358543395996094 14.0398406982421875 14.039620399475097656 14.039662361145019531 14.039963722229003906 14.040572166442871094 14.041403770446777344 14.042577743530273438 14.043892860412597656 14.045543670654296875 14.047293663024902344 14.049409866333007812 14.051610946655273438 14.054230690002441406 14.056898117065429688 14.059988021850585938 14.063111305236816406 14.066842079162597656 14.070787429809570312 14.075072288513183594 14.076671600341796875 14.074676513671875 14.069363594055175781 14.059695243835449219 14.046331405639648438 14.026591300964355469 14.001752853393554688 13.969504356384277344 13.938414573669433594 13.905259132385253906 13.873991966247558594 13.840714454650878906 13.809489250183105469 13.776417732238769531 13.745428085327148438 13.712697029113769531 13.682035446166992188 13.649720191955566406 13.619452476501464844 13.587656021118164062 13.557901382446289062 13.526697158813476562 13.497470855712890625 13.466860771179199219 13.438166618347167969 13.408150672912597656 13.379991531372070312 13.350573539733886719 13.322953224182128906 13.294135093688964844 13.267056465148925781 13.238843917846679688 13.212311744689941406 13.1847076416015625 13.15872955322265625 13.131738662719726562 13.106320381164550781 13.079950332641601562 13.055098533630371094 13.029355049133300781 13.005079269409179688 12.979969978332519531 12.956277847290039062 12.931811332702636719 12.908713340759277344 12.884896278381347656 12.862401008605957031 12.839242935180664062 12.817358016967773438 12.794866561889648438 12.773603439331054688 12.751789093017578125 12.731156349182128906 12.710023880004882812 12.69002532958984375 12.669574737548828125 12.650212287902832031 12.630441665649414062 12.611708641052246094 12.592604637145996094 12.574482917785644531 12.556014060974121094 12.538461685180664062 12.520547866821289062 12.50339508056640625 12.4857635498046875 12.468730926513671875 12.451062202453613281 12.433727264404296875 12.415346145629882812 12.397418022155761719 12.37921142578125 12.361727714538574219 12.345438957214355469 12.269327163696289062 12.100638389587402344 11.947759628295898438 11.802862167358398438 11.673643112182617188 11.553582191467285156 11.448645591735839844 11.353102684020996094 11.270647048950195312 11.196532249450683594 11.133248329162597656 11.077014923095703125 11.028539657592773438 10.982924461364746094 10.939144134521484375 10.892301559448242188 10.841428756713867188 10.782414436340332031 10.718670845031738281 10.650342941284179688 10.582584381103515625 10.515703201293945312 10.454388618469238281 10.397451400756835938 10.345549583435058594 10.295618057250976562 10.247678756713867188 10.198864936828613281 10.149474143981933594 10.0980682373046875 10.046341896057128906 9.9933729171752929688 9.9408025741577148438 9.8878545761108398438 9.8363189697265625 9.7860565185546875 9.7389440536499023438 9.6950960159301757812 9.6561288833618164062 
12.763409614562988281 12.746430397033691406 12.731444358825683594 12.717830657958984375 12.705376625061035156 12.693738937377929688 12.68285369873046875 12.672487258911132812 12.662607192993164062 12.653045654296875 12.643772125244140625 12.634676933288574219 12.625727653503417969 12.616846084594726562 12.607990264892578125 12.599100112915039062 12.590112686157226562 12.580980300903320312 12.571612358093261719 12.56192779541015625 12.551737785339355469 12.540972709655761719 12.529442787170410156 12.517094612121582031 12.503702163696289062 12.489291191101074219 12.473456382751464844 12.455203056335449219 12.433355331420898438 12.409102439880371094 12.398058891296386719 12.416253089904785156 12.445188522338867188 12.477179527282714844 12.51499176025390625 12.55544281005859375 12.595009803771972656 12.632884025573730469 12.6710052490234375 12.709173202514648438 12.749235153198242188 12.791046142578125 12.835723876953125 12.881738662719726562 12.931010246276855469 12.982740402221679688 13.039389610290527344 13.100091934204101562 13.168041229248046875 13.24228668212890625 13.327344894409179688 13.424620628356933594 13.545096397399902344 13.707759857177734375 13.966825485229492188 14.236718177795410156 14.501467704772949219 14.75455474853515625 14.989918708801269531 15.177257537841796875 15.347197532653808594 15.501658439636230469 15.652123451232910156 15.790735244750976562 15.920666694641113281 16.037477493286132812 16.150478363037109375 16.254987716674804688 16.3583831787109375 16.455751419067382812 16.553516387939453125 16.646739959716796875 16.742044448852539062 16.834009170532226562 16.92852020263671875 17.019750595092773438 17.113698959350585938 17.204366683959960938 17.297901153564453125 17.387821197509765625 17.470960617065429688 17.526430130004882812 17.562084197998046875 17.585187911987304688 17.607816696166992188 18.014997482299804688 18.348941802978515625 18.241044998168945312 18.125362396240234375 18.011121749877929688 17.889617919921875 17.771711349487304688 17.64862060546875 17.530572891235351562 17.408140182495117188 17.291591644287109375 17.1707611083984375 17.0558929443359375 16.936824798583984375 16.82422637939453125 16.707880020141601562 16.598768234252929688 16.486928939819335938 16.382452011108398438 16.275196075439453125 16.175077438354492188 16.072275161743164062 15.976956367492675781 15.879871368408203125 15.790841102600097656 15.70098876953125 15.619011878967285156 15.536043167114257812 15.460294723510742188 15.3834381103515625 15.313260078430175781 15.241911888122558594 15.176786422729492188 15.110501289367675781 15.050204277038574219 14.988974571228027344 14.933516502380371094 14.877384185791015625 14.826742172241210938 14.775477409362792969 14.729319572448730469 14.682603836059570312 14.640651702880859375 14.598231315612792969 14.560255050659179688 14.52187347412109375 14.487608909606933594 14.453051567077636719 14.422451019287109375 14.391842842102050781 14.364951133728027344 14.338158607482910156 14.314700126647949219 14.291291236877441406 14.2708740234375 14.250619888305664062 14.233119964599609375 14.215772628784179688 14.20061492919921875 14.185457229614257812 14.17230224609375 14.159214973449707031 14.147810935974121094 14.1363677978515625 14.126447677612304688 14.116579055786132812 14.108166694641113281 14.099957466125488281 14.093105316162109375 14.0865631103515625 14.081231117248535156 14.075969696044921875 14.071398735046386719 14.066792488098144531 14.062824249267578125 14.058862686157226562 14.055493354797363281 14.052171707153320312 14.049404144287109375 14.046812057495117188 14.044832229614257812 14.043143272399902344 14.0420074462890625 14.041189193725585938 14.040706634521484375 14.040463447570800781 14.040498733520507812 14.040818214416503906 14.041378021240234375 14.042266845703125 14.043358802795410156 14.044817924499511719 14.046400070190429688 14.048337936401367188 14.050355911254882812 14.052756309509277344 14.055215835571289062 14.05810546875 14.061022758483886719 14.06444549560546875 14.067982673645019531 14.072226524353027344 14.076704025268554688 14.08101654052734375 14.08217620849609375 14.079794883728027344 14.074208259582519531 14.064351081848144531 14.050930976867675781 14.03131866455078125 14.006801605224609375 13.974606513977050781 13.943059921264648438 13.909830093383789062 13.878500938415527344 13.845116615295410156 13.813762664794921875 13.780534744262695312 13.749385833740234375 13.7164764404296875 13.685640335083007812 13.653134346008300781 13.622672080993652344 13.590636253356933594 13.56064605712890625 13.529191970825195312 13.499728202819824219 13.468867301940917969 13.439935684204101562 13.409670829772949219 13.381274223327636719 13.351607322692871094 13.323750495910644531 13.294686317443847656 13.267373085021972656 13.23891448974609375 13.21215057373046875 13.184302330017089844 13.158094406127929688 13.130863189697265625 13.105217933654785156 13.078609466552734375 13.053534507751464844 13.027558326721191406 13.003061294555664062 12.977724075317382812 12.953816413879394531 12.929125785827636719 12.905812263488769531 12.881768226623535156 12.859051704406738281 12.835665702819824219 12.813566207885742188 12.790859222412109375 12.769396781921386719 12.747385978698730469 12.726576805114746094 12.705273628234863281 12.685124397277832031 12.664525985717773438 12.645025253295898438 12.625111579895019531 12.606240272521972656 12.58699798583984375 12.568751335144042969 12.55016326904296875 12.532505035400390625 12.514500617980957031 12.497281074523925781 12.479589462280273438 12.462503433227539062 12.444773674011230469 12.427366256713867188 12.408855438232421875 12.390583038330078125 12.371954917907714844 12.353985786437988281 12.349846839904785156 12.238431930541992188 12.065969467163085938 11.909610748291015625 11.761569023132324219 11.630175590515136719 11.509306907653808594 11.405271530151367188 11.312167167663574219 11.233014106750488281 11.162638664245605469 11.102794647216796875 11.049298286437988281 11.002499580383300781 10.957696914672851562 10.9140472412109375 10.866865158081054688 10.8154144287109375 10.755734443664550781 10.691346168518066406 10.622394561767578125 10.55408477783203125 10.48673248291015625 10.425072669982910156 10.367991447448730469 10.316282272338867188 10.267045021057128906 10.220414161682128906 10.173719406127929688 10.127206802368164062 10.079195022583007812 10.030823707580566406 9.9807710647583007812 9.9301443099975585938 9.877765655517578125 9.8254032135009765625 9.7732400894165039062 9.7236146926879882812 9.6770076751708984375 9.6354970932006835938 
12.772240638732910156 12.755320549011230469 12.739809989929199219 12.725345611572265625 12.711956977844238281 12.699310302734375 12.687378883361816406 12.675993919372558594 12.665143013000488281 12.654652595520019531 12.644492149353027344 12.634542465209960938 12.624772071838378906 12.615097999572753906 12.605477333068847656 12.595849990844726562 12.586154937744140625 12.576345443725585938 12.566334724426269531 12.556086540222167969 12.545426368713378906 12.534257888793945312 12.522411346435546875 12.509885787963867188 12.496522903442382812 12.482230186462402344 12.466114044189453125 12.447752952575683594 12.427190780639648438 12.40903472900390625 12.405087471008300781 12.416898727416992188 12.438686370849609375 12.464203834533691406 12.493974685668945312 12.528947830200195312 12.568087577819824219 12.607198715209960938 12.646456718444824219 12.685898780822753906 12.727579116821289062 12.771669387817382812 12.820759773254394531 12.872758865356445312 12.928822517395019531 12.988115310668945312 13.053583145141601562 13.124414443969726562 13.204587936401367188 13.293287277221679688 13.395811080932617188 13.511144638061523438 13.653199195861816406 13.869101524353027344 14.121808052062988281 14.3692626953125 14.622503280639648438 14.864147186279296875 15.080053329467773438 15.265057563781738281 15.439729690551757812 15.600214958190917969 15.756564140319824219 15.89752960205078125 16.029432296752929688 16.148801803588867188 16.264141082763671875 16.37079620361328125 16.476243972778320312 16.575422286987304688 16.6748504638671875 16.769207000732421875 16.864856719970703125 16.956882476806640625 17.05144500732421875 17.142724990844726562 17.236721038818359375 17.32743072509765625 17.420612335205078125 17.500577926635742188 17.556308746337890625 17.5879669189453125 17.608972549438476562 17.634878158569335938 18.052152633666992188 18.371030807495117188 18.271371841430664062 18.165807723999023438 18.052698135375976562 17.941038131713867188 17.82234954833984375 17.707241058349609375 17.587009429931640625 17.471727371215820312 17.352130889892578125 17.23822021484375 17.120067596435546875 17.007699966430664062 16.891193389892578125 16.780963897705078125 16.667018890380859375 16.560153961181640625 16.450582504272460938 16.34819793701171875 16.24306488037109375 16.144906997680664062 16.044017791748046875 15.950267791748046875 15.854683876037597656 15.766946792602539062 15.678345680236816406 15.597470283508300781 15.515583992004394531 15.440794944763183594 15.364888191223144531 15.29555511474609375 15.225049018859863281 15.160676002502441406 15.095118522644042969 15.035393714904785156 14.974724769592285156 14.919786453247070312 14.864183425903320312 14.814015388488769531 14.7632293701171875 14.717499732971191406 14.671216964721679688 14.629652023315429688 14.587619781494140625 14.549999237060546875 14.511986732482910156 14.478051185607910156 14.443815231323242188 14.4134521484375 14.383073806762695312 14.356386184692382812 14.329803466796875 14.306567192077636719 14.283395767211914062 14.263186454772949219 14.24314117431640625 14.225824356079101562 14.208729743957519531 14.193835258483886719 14.178946495056152344 14.166031837463378906 14.153209686279296875 14.142077445983886719 14.130916595458984375 14.121251106262207031 14.111643791198730469 14.103460311889648438 14.09549713134765625 14.088871002197265625 14.082566261291503906 14.077466964721679688 14.072511672973632812 14.068224906921386719 14.063921928405761719 14.060232162475585938 14.056566238403320312 14.053467750549316406 14.050436973571777344 14.047931671142578125 14.045609474182128906 14.043877601623535156 14.042456626892089844 14.041568756103515625 14.0410308837890625 14.040814399719238281 14.040860176086425781 14.041162490844726562 14.041773796081542969 14.0426025390625 14.043784141540527344 14.045148849487304688 14.046902656555175781 14.048760414123535156 14.050995826721191406 14.053286552429199219 14.055977821350097656 14.058703422546386719 14.061901092529296875 14.065174102783203125 14.069056510925292969 14.073065757751464844 14.077867507934570312 14.082872390747070312 14.087100028991699219 14.087915420532226562 14.085236549377441406 14.079433441162109375 14.069409370422363281 14.055919647216796875 14.036356925964355469 14.012025833129882812 13.979874610900878906 13.947782516479492188 13.914225578308105469 13.882841110229492188 13.849356651306152344 13.817875862121582031 13.784490585327148438 13.753177642822265625 13.720082283020019531 13.689063072204589844 13.656355857849121094 13.625699043273925781 13.593439102172851562 13.563205718994140625 13.531485557556152344 13.501771926879882812 13.470644950866699219 13.441461563110351562 13.410930633544921875 13.382283210754394531 13.352352142333984375 13.324243545532226562 13.294916152954101562 13.267354011535644531 13.238634109497070312 13.211623191833496094 13.183516502380371094 13.157063484191894531 13.12957763671875 13.103689193725585938 13.076829910278320312 13.051516532897949219 13.02529144287109375 13.000561714172363281 12.974977493286132812 12.950827598571777344 12.925871849060058594 12.902299880981445312 12.877986907958984375 12.85501861572265625 12.8313751220703125 12.809037208557128906 12.786089897155761719 12.764407157897949219 12.74217987060546875 12.721175193786621094 12.699683189392089844 12.679370880126953125 12.65862274169921875 12.639001846313476562 12.618984222412109375 12.600025177001953125 12.580683708190917969 12.562326431274414062 12.543620109558105469 12.525856971740722656 12.507761955261230469 12.490480422973632812 12.472737312316894531 12.455608367919921875 12.437833786010742188 12.420365333557128906 12.401744842529296875 12.383131027221679688 12.364040374755859375 12.345628738403320312 12.3501434326171875 12.199353218078613281 12.025895118713378906 11.868748664855957031 11.720306396484375 11.589129447937011719 11.46933746337890625 11.367296218872070312 11.27700042724609375 11.200924873352050781 11.133625030517578125 11.076303482055664062 11.024478912353515625 10.978306770324707031 10.933284759521484375 10.8888397216796875 10.840504646301269531 10.787840843200683594 10.727047920227050781 10.661752700805664062 10.592065811157226562 10.523205757141113281 10.455464363098144531 10.393584251403808594 10.336498260498046875 10.285109519958496094 10.236651420593261719 10.1913604736328125 10.146726608276367188 10.102942466735839844 10.058116912841796875 10.0128936767578125 9.965595245361328125 9.916858673095703125 9.8651571273803710938 9.812221527099609375 9.7585153579711914062 9.7067766189575195312 9.6578073501586914062 9.614078521728515625 
12.77996063232421875 12.763216018676757812 12.747528076171875 12.732502937316894531 12.718303680419921875 12.70477294921875 12.691954612731933594 12.679677009582519531 12.667937278747558594 12.656576156616210938 12.645578384399414062 12.634825706481933594 12.624288558959960938 12.613880157470703125 12.603559494018554688 12.593266487121582031 12.58293914794921875 12.572538375854492188 12.561979293823242188 12.551242828369140625 12.540207862854003906 12.528788566589355469 12.516816139221191406 12.504330635070800781 12.491005897521972656 12.476465225219726562 12.460214614868164062 12.442501068115234375 12.424549102783203125 12.412844657897949219 12.41188812255859375 12.421961784362792969 12.438456535339355469 12.459041595458984375 12.482213973999023438 12.50909423828125 12.541523933410644531 12.577871322631835938 12.617116928100585938 12.656972885131835938 12.698999404907226562 12.743711471557617188 12.7947235107421875 12.85182952880859375 12.914279937744140625 12.980544090270996094 13.053896903991699219 13.133329391479492188 13.2249603271484375 13.330839157104492188 13.455641746520996094 13.600183486938476562 13.792107582092285156 14.017016410827636719 14.255745887756347656 14.493340492248535156 14.738451957702636719 14.965361595153808594 15.172658920288085938 15.358563423156738281 15.53704833984375 15.701891899108886719 15.861383438110351562 16.003025054931640625 16.136568069458007812 16.257610321044921875 16.374536514282226562 16.482732772827148438 16.589677810668945312 16.69019317626953125 16.790874481201171875 16.886331558227539062 16.982816696166992188 17.075037002563476562 17.169622421264648438 17.260919570922851562 17.3549346923828125 17.445482254028320312 17.52942657470703125 17.583070755004882812 17.614480972290039062 17.63191986083984375 17.649049758911132812 17.943866729736328125 18.398809432983398438 18.302211761474609375 18.198413848876953125 18.094949722290039062 17.984148025512695312 17.874803543090820312 17.7586669921875 17.646146774291992188 17.528535842895507812 17.415721893310546875 17.298656463623046875 17.187108993530273438 17.071367263793945312 16.961259841918945312 16.847070693969726562 16.738986968994140625 16.627223968505859375 16.5223846435546875 16.4148712158203125 16.31439208984375 16.211198806762695312 16.114841461181640625 16.015779495239257812 15.923572540283203125 15.829405784606933594 15.742873191833496094 15.655437469482421875 15.575596809387207031 15.494729042053222656 15.420847892761230469 15.345843315124511719 15.277318000793457031 15.20761871337890625 15.143969535827636719 15.079133987426757812 15.020007133483886719 14.959901809692382812 14.905482292175292969 14.850407600402832031 14.800716400146484375 14.750413894653320312 14.705121040344238281 14.65927886962890625 14.618111610412597656 14.576483726501464844 14.539227485656738281 14.501597404479980469 14.468008995056152344 14.434121131896972656 14.4040374755859375 14.373920440673828125 14.347466468811035156 14.321123123168945312 14.298126220703125 14.275217056274414062 14.255242347717285156 14.235433578491210938 14.218327522277832031 14.201480865478515625 14.186859130859375 14.172251701354980469 14.159588813781738281 14.147035598754882812 14.136176109313964844 14.125303268432617188 14.115896224975585938 14.106557846069335938 14.098608016967773438 14.090888023376464844 14.084486961364746094 14.078423500061035156 14.073554039001464844 14.0688934326171875 14.064883232116699219 14.06087493896484375 14.057455062866210938 14.054076194763183594 14.051241874694824219 14.048492431640625 14.046243667602539062 14.044186592102050781 14.042699813842773438 14.041543006896972656 14.040900230407714844 14.040632247924804688 14.040673255920410156 14.040996551513671875 14.041558265686035156 14.042447090148925781 14.043536186218261719 14.044999122619628906 14.046624183654785156 14.0486602783203125 14.050780296325683594 14.053296089172363281 14.055846214294433594 14.058826446533203125 14.061861038208007812 14.065448760986328125 14.069126129150390625 14.073472976684570312 14.077955245971679688 14.083313941955566406 14.088782310485839844 14.092905044555664062 14.0934906005859375 14.090606689453125 14.084647178649902344 14.074484825134277344 14.060915946960449219 14.041330337524414062 14.01705169677734375 13.984866142272949219 13.952315330505371094 13.918196678161621094 13.88665008544921875 13.853085517883300781 13.821494102478027344 13.7879638671875 13.756495475769042969 13.723223686218261719 13.692027091979980469 13.65912628173828125 13.628279685974121094 13.595813751220703125 13.565369606018066406 13.533397674560546875 13.503437995910644531 13.472050666809082031 13.442621231079101562 13.411829948425292969 13.382936477661132812 13.352746009826660156 13.324393272399902344 13.294806480407714844 13.267000198364257812 13.238023757934570312 13.210770606994628906 13.18241119384765625 13.155717849731445312 13.127981185913085938 13.101856231689453125 13.074748992919921875 13.04920196533203125 13.022731781005859375 12.9977569580078125 12.971899986267089844 12.947482109069824219 12.922246932983398438 12.898412704467773438 12.873830795288085938 12.85060882568359375 12.826707839965820312 12.804129600524902344 12.780940055847167969 12.759033203125 12.736582756042480469 12.715375900268554688 12.693689346313476562 12.673203468322753906 12.652297019958496094 12.632543563842773438 12.612415313720703125 12.593380928039550781 12.573996543884277344 12.555619239807128906 12.536873817443847656 12.51903533935546875 12.500859260559082031 12.483525276184082031 12.465744972229003906 12.448591232299804688 12.430795669555664062 12.413288116455078125 12.394579887390136719 12.3756561279296875 12.356081008911132812 12.349833488464355469 12.325107574462890625 12.152660369873046875 11.981187820434570312 11.826543807983398438 11.681115150451660156 11.553150177001953125 11.436786651611328125 11.338065147399902344 11.250966072082519531 11.177622795104980469 11.112519264221191406 11.056572914123535156 11.005174636840820312 10.958472251892089844 10.912171363830566406 10.866039276123046875 10.81581878662109375 10.761423110961914062 10.699215888977050781 10.632906913757324219 10.562516212463378906 10.49323272705078125 10.425271034240722656 10.363329887390136719 10.306348800659179688 10.25530242919921875 10.207531929016113281 10.163327217102050781 10.120310783386230469 10.078623771667480469 10.036233901977539062 9.9934263229370117188 9.9482746124267578125 9.9010677337646484375 9.850032806396484375 9.7968664169311523438 9.7422266006469726562 9.6891183853149414062 9.6385602951049804688 9.5932970046997070312 
12.787478446960449219 12.770726203918457031 12.754937171936035156 12.739602088928222656 12.724847793579101562 12.710529327392578125 12.696845054626464844 12.683693885803222656 12.671093940734863281 12.658886909484863281 12.647067070007324219 12.635517120361328125 12.62421417236328125 12.613077163696289062 12.602065086364746094 12.591122627258300781 12.580190658569335938 12.569237709045410156 12.55818939208984375 12.547040939331054688 12.535708427429199219 12.524176597595214844 12.512189865112304688 12.499588966369628906 12.485980033874511719 12.471317291259765625 12.455512046813964844 12.439214706420898438 12.4252166748046875 12.418176651000976562 12.41866302490234375 12.428133010864257812 12.442987442016601562 12.459430694580078125 12.478352546691894531 12.498632431030273438 12.522073745727539062 12.549889564514160156 12.582365989685058594 12.618247032165527344 12.657957077026367188 12.700892448425292969 12.750598907470703125 12.810117721557617188 12.87805938720703125 12.949655532836914062 13.03037261962890625 13.128452301025390625 13.250822067260742188 13.389940261840820312 13.553307533264160156 13.737886428833007812 13.949998855590820312 14.170091629028320312 14.400782585144042969 14.63079071044921875 14.86560821533203125 15.078739166259765625 15.280065536499023438 15.465147018432617188 15.64556884765625 15.813567161560058594 15.974080085754394531 16.1163177490234375 16.251184463500976562 16.373302459716796875 16.49141693115234375 16.600788116455078125 16.708881378173828125 16.810430526733398438 16.912088394165039062 17.0084075927734375 17.105701446533203125 17.198451995849609375 17.293111801147460938 17.384401321411132812 17.47824859619140625 17.560327529907226562 17.615636825561523438 17.643842697143554688 17.65886688232421875 17.672290802001953125 17.840526580810546875 18.350616455078125 18.321416854858398438 18.22591400146484375 18.1237335205078125 18.022294998168945312 17.913755416870117188 17.806684494018554688 17.693044662475585938 17.583044052124023438 17.468069076538085938 17.357696533203125 17.243091583251953125 17.133853912353515625 17.020479202270507812 16.912599563598632812 16.800693511962890625 16.694732666015625 16.585123062133789062 16.48227691650390625 16.37679290771484375 16.278200149536132812 16.176937103271484375 16.08237457275390625 15.9851531982421875 15.894585609436035156 15.801898956298828125 15.71659088134765625 15.630340576171875 15.551554679870605469 15.471731185913085938 15.398785591125488281 15.324712753295898438 15.25702667236328125 15.188167572021484375 15.125276565551757812 15.061204910278320312 15.002742767333984375 14.943253517150878906 14.889395713806152344 14.83489227294921875 14.7857208251953125 14.7359466552734375 14.691131591796875 14.645777702331542969 14.605051994323730469 14.563874244689941406 14.527025222778320312 14.4898223876953125 14.456624031066894531 14.423135757446289062 14.39339447021484375 14.363593101501464844 14.337421417236328125 14.311368942260742188 14.288647651672363281 14.266049385070800781 14.2463531494140625 14.22682952880859375 14.2099761962890625 14.193408012390136719 14.179089546203613281 14.164798736572265625 14.152421951293945312 14.140166282653808594 14.129602432250976562 14.119046211242675781 14.10992431640625 14.100884437561035156 14.093195915222167969 14.085747718811035156 14.079591751098632812 14.073786735534667969 14.069162368774414062 14.0648040771484375 14.061084747314453125 14.057387351989746094 14.054251670837402344 14.051176071166992188 14.048620223999023438 14.046166419982910156 14.044189453125 14.042417526245117188 14.041190147399902344 14.040315628051757812 14.039931297302246094 14.039950370788574219 14.040259361267089844 14.040874481201171875 14.041705131530761719 14.042886734008789062 14.044246673583984375 14.046002388000488281 14.0478973388671875 14.050226211547851562 14.052618980407714844 14.055438995361328125 14.058300971984863281 14.061658859252929688 14.065077781677246094 14.069106101989746094 14.073220252990722656 14.078072547912597656 14.083067893981933594 14.089035987854003906 14.094940185546875 14.098997116088867188 14.099431991577148438 14.096406936645507812 14.090328216552734375 14.08003997802734375 14.066374778747558594 14.046689987182617188 14.022347450256347656 13.990018844604492188 13.957002639770507812 13.922300338745117188 13.890287399291992188 13.856595993041992188 13.824901580810546875 13.791228294372558594 13.75960540771484375 13.7261505126953125 13.69477081298828125 13.661664962768554688 13.630620002746582031 13.597936630249023438 13.567282676696777344 13.535071372985839844 13.504858970642089844 13.473195075988769531 13.443503379821777344 13.412435531616210938 13.383279800415039062 13.352811813354492188 13.324197769165039062 13.294337272644042969 13.266269683837890625 13.237020492553710938 13.209507942199707031 13.180877685546875 13.153928756713867188 13.12592315673828125 13.099545478820800781 13.072175025939941406 13.046368598937988281 13.019604682922363281 12.994336128234863281 12.968170166015625 12.943461418151855469 12.917924880981445312 12.893805503845214844 12.868929862976074219 12.845433235168457031 12.821249961853027344 12.79840850830078125 12.774952888488769531 12.752799034118652344 12.7301025390625 12.708669662475585938 12.686761856079101562 12.666079521179199219 12.644988059997558594 12.6250762939453125 12.6048126220703125 12.585677146911621094 12.566226959228515625 12.547831535339355469 12.52912139892578125 12.511339187622070312 12.493165016174316406 12.475793838500976562 12.457990646362304688 12.440830230712890625 12.423038482666015625 12.405522346496582031 12.38674163818359375 12.367495536804199219 12.347339630126953125 12.376985549926757812 12.268781661987304688 12.094358444213867188 11.927743911743164062 11.778835296630859375 11.639824867248535156 11.518118858337402344 11.40766143798828125 11.313780784606933594 11.230532646179199219 11.159870147705078125 11.096400260925292969 11.040981292724609375 10.989037513732910156 10.940882682800292969 10.892443656921386719 10.843899726867675781 10.791220664978027344 10.734731674194335938 10.670961380004882812 10.60367584228515625 10.532748222351074219 10.463255882263183594 10.39528656005859375 10.333425521850585938 10.276585578918457031 10.225795745849609375 10.178488731384277344 10.135018348693847656 10.093107223510742188 10.052885055541992188 10.012224197387695312 9.971157073974609375 9.9275941848754882812 9.88158416748046875 9.8311834335327148438 9.7780542373657226562 9.7229709625244140625 9.66910552978515625 9.61760711669921875 9.5713815689086914062 
12.794346809387207031 12.777509689331054688 12.761422157287597656 12.745810508728027344 12.730693817138671875 12.715879440307617188 12.701565742492675781 12.687672615051269531 12.674294471740722656 12.661313056945800781 12.648743629455566406 12.636472702026367188 12.624483108520507812 12.612692832946777344 12.601069450378417969 12.589560508728027344 12.578115463256835938 12.566713333129882812 12.555289268493652344 12.543855667114257812 12.532306671142578125 12.520585060119628906 12.508347511291503906 12.49547576904296875 12.481786727905273438 12.46746063232421875 12.452533721923828125 12.438332557678222656 12.428232192993164062 12.423234939575195312 12.424830436706542969 12.434026718139648438 12.448518753051757812 12.464000701904296875 12.480071067810058594 12.497171401977539062 12.515398025512695312 12.534806251525878906 12.557565689086914062 12.583941459655761719 12.614409446716308594 12.648674964904785156 12.689913749694824219 12.744266510009765625 12.813872337341308594 12.897747993469238281 13.017247200012207031 13.161223411560058594 13.32556915283203125 13.500934600830078125 13.687305450439453125 13.8826141357421875 14.095354080200195312 14.311345100402832031 14.536885261535644531 14.761567115783691406 14.98687744140625 15.192231178283691406 15.390270233154296875 15.574579238891601562 15.755618095397949219 15.924604415893554688 16.084798812866210938 16.227687835693359375 16.363332748413085938 16.486103057861328125 16.60501861572265625 16.715181350708007812 16.824052810668945312 16.926303863525390625 17.028621673583984375 17.125528335571289062 17.223377227783203125 17.316614151000976562 17.4115142822265625 17.502737045288085938 17.589931488037109375 17.645111083984375 17.6737518310546875 17.685491561889648438 17.695882797241210938 17.846393585205078125 18.367078781127929688 18.344818115234375 18.249197006225585938 18.154649734497070312 18.053661346435546875 17.953817367553710938 17.8473052978515625 17.74228668212890625 17.630893707275390625 17.52313995361328125 17.4105377197265625 17.302423477172851562 17.19004058837890625 17.082883834838867188 16.971649169921875 16.86579132080078125 16.75595855712890625 16.651927947998046875 16.544277191162109375 16.443233489990234375 16.339590072631835938 16.24271392822265625 16.143215179443359375 16.050298690795898438 15.954771995544433594 15.865750312805175781 15.774510383605957031 15.690357208251953125 15.605213165283203125 15.527416229248046875 15.448576927185058594 15.376517295837402344 15.303330421447753906 15.236443519592285156 15.168390274047851562 15.106226921081542969 15.042889595031738281 14.985089302062988281 14.926220893859863281 14.87291717529296875 14.818980216979980469 14.770323753356933594 14.72107696533203125 14.6767425537109375 14.631879806518554688 14.591600418090820312 14.55088043212890625 14.514446258544921875 14.4776763916015625 14.444879531860351562 14.41180419921875 14.382428169250488281 14.352972030639648438 14.327106475830078125 14.30136871337890625 14.278939247131347656 14.256669998168945312 14.237273216247558594 14.218056678771972656 14.201478958129882812 14.185200691223144531 14.171187400817871094 14.157221794128417969 14.145138740539550781 14.133188247680664062 14.122920036315917969 14.112679481506347656 14.103846549987792969 14.095107078552246094 14.087686538696289062 14.080515861511230469 14.074610710144042969 14.069070816040039062 14.064685821533203125 14.060610771179199219 14.057162284851074219 14.0537567138671875 14.050892829895019531 14.048110008239746094 14.045821189880371094 14.0436553955078125 14.041939735412597656 14.040445327758789062 14.039472579956054688 14.038873672485351562 14.038743972778320312 14.03903961181640625 14.039607048034667969 14.040499687194824219 14.041588783264160156 14.043049812316894531 14.044668197631835938 14.046704292297363281 14.048865318298339844 14.05149078369140625 14.054181098937988281 14.057346343994140625 14.060550689697265625 14.064299583435058594 14.0680999755859375 14.072566032409667969 14.077115058898925781 14.082470893859863281 14.087977409362792969 14.09456634521484375 14.100856781005859375 14.104912757873535156 14.105282783508300781 14.102184295654296875 14.096029281616210938 14.085631370544433594 14.071858406066894531 14.052004814147949219 14.027492523193359375 13.994910240173339844 13.961437225341796875 13.926217079162597656 13.893651008605957031 13.859597206115722656 13.827801704406738281 13.794002532958984375 13.762236595153808594 13.728610992431640625 13.697055816650390625 13.663754463195800781 13.632516860961914062 13.599623680114746094 13.568766593933105469 13.536335945129394531 13.505903244018554688 13.473979949951171875 13.444033622741699219 13.412693977355957031 13.383281707763671875 13.352543830871582031 13.323674201965332031 13.293542861938476562 13.265221595764160156 13.235704421997070312 13.20793914794921875 13.179042816162109375 13.151842117309570312 13.123575210571289062 13.096947669982910156 13.069298744201660156 13.043204307556152344 13.016132354736328125 12.990570068359375 12.964100837707519531 12.9391021728515625 12.913267135620117188 12.888865470886230469 12.863698005676269531 12.839925765991210938 12.815461158752441406 12.792355537414550781 12.7686309814453125 12.746228218078613281 12.723278999328613281 12.701616287231445312 12.679480552673339844 12.65859222412109375 12.637305259704589844 12.617224693298339844 12.59680938720703125 12.577554702758789062 12.558017730712890625 12.539579391479492188 12.520878791809082031 12.503170967102050781 12.485141754150390625 12.467885017395019531 12.450102806091308594 12.43296051025390625 12.415203094482421875 12.397715568542480469 12.378873825073242188 12.359283447265625 12.344248771667480469 12.360804557800292969 12.201139450073242188 12.031270027160644531 11.871246337890625 11.729999542236328125 11.599402427673339844 11.485691070556640625 11.382479667663574219 11.294155120849609375 11.214915275573730469 11.146687507629394531 11.084347724914550781 11.028885841369628906 10.975885391235351562 10.925944328308105469 10.875194549560546875 10.824225425720214844 10.769217491149902344 10.710886955261230469 10.645916938781738281 10.57807159423828125 10.507033348083496094 10.437704086303710938 10.369990348815917969 10.308307647705078125 10.25151824951171875 10.200715065002441406 10.153428077697753906 10.110096931457519531 10.06854248046875 10.028931617736816406 9.9890880584716796875 9.94891357421875 9.906219482421875 9.8609209060668945312 9.8109827041625976562 9.7580327987670898438 9.7028913497924804688 9.6487970352172851562 9.5969533920288085938 9.5503368377685546875 
12.801184654235839844 12.784373283386230469 12.767907142639160156 12.751795768737792969 12.736247062683105469 12.72100067138671875 12.706196784973144531 12.691740989685058594 12.67772674560546875 12.664045333862304688 12.650752067565917969 12.637767791748046875 12.625102043151855469 12.612684249877929688 12.6004791259765625 12.588441848754882812 12.576523780822753906 12.56470489501953125 12.552899360656738281 12.541089057922363281 12.529149055480957031 12.517067909240722656 12.50460052490234375 12.49172210693359375 12.478351593017578125 12.464739799499511719 12.451228141784667969 12.4398345947265625 12.432012557983398438 12.428280830383300781 12.43093109130859375 12.440026283264160156 12.454324722290039062 12.469794273376464844 12.485422134399414062 12.500935554504394531 12.516948699951171875 12.533184051513671875 12.549846649169921875 12.566893577575683594 12.585641860961914062 12.606316566467285156 12.630520820617675781 12.668555259704589844 12.76708221435546875 12.920304298400878906 13.095770835876464844 13.275243759155273438 13.460662841796875 13.643210411071777344 13.833249092102050781 14.031438827514648438 14.242246627807617188 14.454656600952148438 14.676043510437011719 14.895811080932617188 15.113216400146484375 15.313948631286621094 15.509973526000976562 15.693864822387695312 15.87543487548828125 16.044219970703125 16.203609466552734375 16.346868515014648438 16.482862472534179688 16.606075286865234375 16.725538253784179688 16.836240768432617188 16.945638656616210938 17.048360824584960938 17.151121139526367188 17.248418807983398438 17.3466339111328125 17.440202713012695312 17.535371780395507812 17.621656417846679688 17.680669784545898438 17.707029342651367188 17.716278076171875 17.722412109375 17.883337020874023438 18.383924484252929688 18.359159469604492188 18.270153045654296875 18.175348281860351562 18.081750869750976562 17.98192596435546875 17.88341522216796875 17.7787322998046875 17.675741195678710938 17.566553115844726562 17.4609832763671875 17.35070037841796875 17.244817733764648438 17.134677886962890625 17.029573440551757812 16.9204559326171875 16.816602706909179688 16.708829879760742188 16.606723785400390625 16.501024246215820312 16.401758193969726562 16.2999420166015625 16.20477294921875 16.107034683227539062 16.015768051147460938 15.921942710876464844 15.834486007690429688 15.744774818420410156 15.661830902099609375 15.577816963195800781 15.501034736633300781 15.42321014404296875 15.352065086364746094 15.279798507690429688 15.2137451171875 15.146533012390136719 15.085133552551269531 15.022571563720703125 14.965473175048828125 14.907289505004882812 14.854579925537109375 14.801252365112304688 14.753152847290039062 14.704478263854980469 14.660666465759277344 14.616341590881347656 14.5765533447265625 14.536337852478027344 14.500365257263183594 14.46407318115234375 14.431723594665527344 14.39910888671875 14.370151519775390625 14.341100692749023438 14.315592765808105469 14.29022216796875 14.26812744140625 14.246232986450195312 14.227182388305664062 14.208322525024414062 14.192064285278320312 14.176118850708007812 14.162443161010742188 14.148838996887207031 14.137083053588867188 14.1254730224609375 14.115527153015136719 14.105633735656738281 14.097115516662597656 14.088706016540527344 14.081582069396972656 14.074719429016113281 14.069094657897949219 14.063848495483398438 14.059732437133789062 14.055958747863769531 14.052791595458984375 14.049687385559082031 14.047100067138671875 14.044614791870117188 14.042601585388183594 14.04073333740234375 14.039290428161621094 14.038088798522949219 14.037386894226074219 14.037079811096191406 14.037220954895019531 14.037810325622558594 14.038647651672363281 14.039834976196289062 14.041197776794433594 14.042960166931152344 14.044864654541015625 14.047221183776855469 14.049694061279296875 14.052669525146484375 14.055697441101074219 14.05924224853515625 14.062817573547363281 14.066986083984375 14.071203231811523438 14.076142311096191406 14.081162452697753906 14.087065696716308594 14.093142509460449219 14.100403785705566406 14.107096672058105469 14.111233711242675781 14.111616134643554688 14.108499526977539062 14.102298736572265625 14.091791152954101562 14.077887535095214844 14.057774543762207031 14.032972335815429688 13.999987602233886719 13.966015815734863281 13.930255889892578125 13.897176742553710938 13.862509727478027344 13.830432891845703125 13.796506881713867188 13.764600753784179688 13.730802536010742188 13.699069023132324219 13.665563583374023438 13.634124755859375 13.601010322570800781 13.569937705993652344 13.537274360656738281 13.506617546081542969 13.474448204040527344 13.444242477416992188 13.412617683410644531 13.382930755615234375 13.351904869079589844 13.322760581970214844 13.292341232299804688 13.263747215270996094 13.233942985534667969 13.205905914306640625 13.176725387573242188 13.149255752563476562 13.12070465087890625 13.093786239624023438 13.065806388854980469 13.039393424987792969 13.011989593505859375 12.986110687255859375 12.959311485290527344 12.934000015258789062 12.907840728759765625 12.883131980895996094 12.857646942138671875 12.833575248718261719 12.808803558349609375 12.78540802001953125 12.761387825012207031 12.738707542419433594 12.715480804443359375 12.693558692932128906 12.671167373657226562 12.650046348571777344 12.62853240966796875 12.60825347900390625 12.587656021118164062 12.568253517150878906 12.548597335815429688 12.530083656311035156 12.51136016845703125 12.4936981201171875 12.475804328918457031 12.458788871765136719 12.441267967224121094 12.424230575561523438 12.406546592712402344 12.389111518859863281 12.370207786560058594 12.350255966186523438 12.344386100769042969 12.305823326110839844 12.123889923095703125 11.959710121154785156 11.807848930358886719 11.676016807556152344 11.555673599243164062 11.451593399047851562 11.356944084167480469 11.274964332580566406 11.200066566467285156 11.134270668029785156 11.072862625122070312 11.017116546630859375 10.962901115417480469 10.9111785888671875 10.858294486999511719 10.805218696594238281 10.74834442138671875 10.688742637634277344 10.623255729675292969 10.555550575256347656 10.485074996948242188 10.416445732116699219 10.349341392517089844 10.2879180908203125 10.230966567993164062 10.179700851440429688 10.13177490234375 10.087793350219726562 10.045701026916503906 10.005779266357421875 9.9658422470092773438 9.9257354736328125 9.8832187652587890625 9.8381519317626953125 9.7884511947631835938 9.735706329345703125 9.6807384490966796875 9.6267795562744140625 9.5750274658203125 9.5284576416015625 
12.807345390319824219 12.79071807861328125 12.773975372314453125 12.757386207580566406 12.741274833679199219 12.72548675537109375 12.710193634033203125 12.695247650146484375 12.680714607238769531 12.666482925415039062 12.652616500854492188 12.639039039611816406 12.625782012939453125 12.612798690795898438 12.600071907043457031 12.587542533874511719 12.575155258178710938 12.562886238098144531 12.550654411315917969 12.538454055786132812 12.526187896728515625 12.513917922973632812 12.501503944396972656 12.488913536071777344 12.476107597351074219 12.463531494140625 12.451909065246582031 12.442393302917480469 12.435479164123535156 12.432895660400390625 12.436418533325195312 12.445545196533203125 12.459871292114257812 12.475341796875 12.490968704223632812 12.5063934326171875 12.52184295654296875 12.536985397338867188 12.552312850952148438 12.567486763000488281 12.583191871643066406 12.603267669677734375 12.636885643005371094 12.711106300354003906 12.870274543762207031 13.049196243286132812 13.233279228210449219 13.414484977722167969 13.599077224731445312 13.7810516357421875 13.972936630249023438 14.170632362365722656 14.379097938537597656 14.588531494140625 14.806616783142089844 15.022000312805175781 15.234181404113769531 15.432250022888183594 15.627152442932128906 15.810925483703613281 15.992907524108886719 16.160984039306640625 16.319833755493164062 16.463075637817382812 16.599063873291015625 16.72251129150390625 16.842266082763671875 16.95325469970703125 17.062921524047851562 17.165876388549804688 17.26885223388671875 17.366336822509765625 17.46472930908203125 17.558458328247070312 17.65090179443359375 17.7127227783203125 17.740903854370117188 17.747529983520507812 17.749559402465820312 17.890630722045898438 18.39473724365234375 18.37728118896484375 18.288560867309570312 18.200082778930664062 18.10605621337890625 18.01336669921875 17.914617538452148438 17.817287445068359375 17.714040756225585938 17.612810134887695312 17.505603790283203125 17.401979446411132812 17.293766021728515625 17.189882278442382812 17.081798553466796875 16.978572845458984375 16.871372222900390625 16.769346237182617188 16.663450241088867188 16.563097000122070312 16.459180831909179688 16.3615264892578125 16.261363983154296875 16.167751312255859375 16.071619033813476562 15.98186492919921875 15.889604568481445312 15.803597450256347656 15.715330123901367188 15.633562088012695312 15.550606727600097656 15.4747772216796875 15.397909164428710938 15.327630043029785156 15.256237030029296875 15.190978050231933594 15.124570846557617188 15.06390380859375 15.002086639404296875 14.945667266845703125 14.88816070556640625 14.836034774780273438 14.783306121826171875 14.735754966735839844 14.687645912170410156 14.644351959228515625 14.60056304931640625 14.5612640380859375 14.521555900573730469 14.486047744750976562 14.450237274169921875 14.418337821960449219 14.386191368103027344 14.357663154602050781 14.329038619995117188 14.303907394409179688 14.278924942016601562 14.257184028625488281 14.235671043395996094 14.216980934143066406 14.198493003845214844 14.182570457458496094 14.166974067687988281 14.153636932373046875 14.140399932861328125 14.12897491455078125 14.117710113525390625 14.10808563232421875 14.098537445068359375 14.090333938598632812 14.082254409790039062 14.075428962707519531 14.068878173828125 14.063536643981933594 14.058588981628417969 14.054743766784667969 14.051265716552734375 14.048372268676757812 14.045558929443359375 14.043238639831542969 14.041039466857910156 14.039287567138671875 14.037699699401855469 14.036515235900878906 14.035594940185546875 14.035153388977050781 14.035131454467773438 14.0355377197265625 14.036414146423339844 14.037516593933105469 14.038996696472167969 14.040636062622070312 14.042703628540039062 14.044899940490722656 14.047579765319824219 14.050362586975097656 14.053683280944824219 14.057043075561523438 14.060961723327636719 14.064902305603027344 14.069486618041992188 14.074112892150878906 14.07952117919921875 14.085009574890136719 14.091469764709472656 14.098119735717773438 14.106036186218261719 14.113139152526855469 14.117447853088378906 14.11791229248046875 14.114831924438476562 14.108613967895507812 14.098003387451171875 14.083948135375976562 14.063504219055175781 14.038315773010253906 14.004805564880371094 13.970333099365234375 13.934058189392089844 13.900498390197753906 13.865292549133300781 13.83267974853515625 13.798511505126953125 13.766478538513183594 13.732522010803222656 13.700618743896484375 13.666917800903320312 13.635284423828125 13.601955413818359375 13.570675849914550781 13.53778839111328125 13.506916046142578125 13.474514007568359375 13.444085121154785156 13.412202835083007812 13.382253646850585938 13.350945472717285156 13.321533203125 13.29083251953125 13.26197052001953125 13.231886863708496094 13.203584671020507812 13.174124717712402344 13.146389007568359375 13.117535591125488281 13.090304374694824219 13.0619964599609375 13.03527069091796875 13.007536888122558594 12.981347084045410156 12.954222679138183594 12.928603172302246094 12.90212249755859375 12.877107620239257812 12.851307868957519531 12.826938629150390625 12.801858901977539062 12.778172492980957031 12.753854751586914062 12.73089599609375 12.707385063171386719 12.685200691223144531 12.662545204162597656 12.64118194580078125 12.619432449340820312 12.598941802978515625 12.578145027160644531 12.558574676513671875 12.538776397705078125 12.520162582397460938 12.501382827758789062 12.483724594116210938 12.465920448303222656 12.449099540710449219 12.431935310363769531 12.415279388427734375 12.397751808166503906 12.38039398193359375 12.361495018005371094 12.341212272644042969 12.343287467956542969 12.224640846252441406 12.046345710754394531 11.887966156005859375 11.744382858276367188 11.622059822082519531 11.51202392578125 11.417568206787109375 11.331386566162109375 11.255576133728027344 11.184793472290039062 11.121235847473144531 11.060678482055664062 11.004746437072753906 10.949683189392089844 10.896805763244628906 10.842657089233398438 10.788484573364257812 10.730864524841308594 10.671115875244140625 10.606213569641113281 10.539631843566894531 10.470559120178222656 10.4032440185546875 10.337092399597167969 10.27594757080078125 10.218525886535644531 10.166229248046875 10.116883277893066406 10.071345329284667969 10.027727127075195312 9.9865102767944335938 9.945522308349609375 9.904628753662109375 9.861560821533203125 9.8161783218383789062 9.7663812637329101562 9.713733673095703125 9.659008026123046875 9.60538482666015625 9.5540246963500976562 9.507843017578125 
12.813052177429199219 12.797066688537597656 12.780191421508789062 12.763184547424316406 12.746521949768066406 12.730100631713867188 12.71414947509765625 12.698575973510742188 12.683458328247070312 12.668653488159179688 12.654211044311523438 12.640047073364257812 12.626199722290039062 12.612627983093261719 12.599343299865722656 12.586316108703613281 12.573469161987304688 12.560781478881835938 12.548192977905273438 12.535738945007324219 12.523356437683105469 12.511137008666992188 12.498986244201660156 12.486911773681640625 12.475002288818359375 12.463939666748046875 12.453927040100097656 12.445062637329101562 12.439004898071289062 12.437559127807617188 12.441752433776855469 12.451101303100585938 12.465683937072753906 12.481133460998535156 12.496485710144042969 12.511235237121582031 12.525916099548339844 12.540378570556640625 12.556176185607910156 12.579327583312988281 12.618765830993652344 12.677175521850585938 12.7603912353515625 12.882799148559570312 13.041624069213867188 13.21030426025390625 13.388475418090820312 13.566918373107910156 13.749346733093261719 13.930044174194335938 14.121138572692871094 14.315989494323730469 14.520730018615722656 14.726650238037109375 14.941509246826171875 15.152826309204101562 15.361424446105957031 15.557778358459472656 15.752049446105957031 15.935918807983398438 16.118194580078125 16.28545379638671875 16.443998336791992188 16.586988449096679688 16.722787857055664062 16.846288681030273438 16.9661407470703125 17.07720947265625 17.186939239501953125 17.289936065673828125 17.392938613891601562 17.490442276000976562 17.5888519287109375 17.68109130859375 17.750719070434570312 17.77857208251953125 17.783172607421875 17.780422210693359375 17.81060028076171875 18.366415023803710938 18.385919570922851562 18.304124832153320312 18.215700149536132812 18.127779006958007812 18.034547805786132812 17.942804336547851562 17.845172882080078125 17.7490386962890625 17.647165298461914062 17.547502517700195312 17.442220687866210938 17.340497970581054688 17.234310150146484375 17.132389068603515625 17.026338577270507812 16.925018310546875 16.819730758666992188 16.719526290893554688 16.615510940551757812 16.516918182373046875 16.414794921875 16.3187408447265625 16.22022247314453125 16.128162384033203125 16.033639907836914062 15.945404052734375 15.854722976684570312 15.770190238952636719 15.683396339416503906 15.6028900146484375 15.521027565002441406 15.446180343627929688 15.370301246643066406 15.300922393798828125 15.230440139770507812 15.166011810302734375 15.1004486083984375 15.040553092956542969 14.979521751403808594 14.923822402954101562 14.86704254150390625 14.81554412841796875 14.763456344604492188 14.716497421264648438 14.66899871826171875 14.626267433166503906 14.583060264587402344 14.544298171997070312 14.505146026611328125 14.470149040222167969 14.434869766235351562 14.403466224670410156 14.371840476989746094 14.343789100646972656 14.315649032592773438 14.290947914123535156 14.266411781311035156 14.245075225830078125 14.223995208740234375 14.205705642700195312 14.187639236450195312 14.172100067138671875 14.156901359558105469 14.143940925598144531 14.131108283996582031 14.120050430297851562 14.109168052673339844 14.099896430969238281 14.090724945068359375 14.08286285400390625 14.075142860412597656 14.068646430969238281 14.06243896484375 14.05741119384765625 14.052794456481933594 14.049251556396484375 14.046091079711914062 14.043487548828125 14.040983200073242188 14.038946151733398438 14.037051200866699219 14.035577774047851562 14.034288406372070312 14.033380508422851562 14.0327606201171875 14.03260040283203125 14.032886505126953125 14.033580780029296875 14.034766197204589844 14.036154747009277344 14.0379486083984375 14.039884567260742188 14.0422821044921875 14.044790267944335938 14.047820091247558594 14.050937652587890625 14.054629325866699219 14.058345794677734375 14.0626678466796875 14.067003250122070312 14.0720367431640625 14.077108383178710938 14.083026885986328125 14.089039802551269531 14.0961151123046875 14.103382110595703125 14.112002372741699219 14.119593620300292969 14.124189376831054688 14.124812126159667969 14.121826171875 14.115609169006347656 14.104892730712890625 14.090639114379882812 14.069750785827636719 14.044035911560058594 14.009815216064453125 13.974795341491699219 13.937977790832519531 13.903913497924804688 13.868175506591796875 13.835012435913085938 13.800274848937988281 13.768004417419433594 13.733877182006835938 13.7017974853515625 13.667893409729003906 13.636056900024414062 13.602505683898925781 13.571007728576660156 13.537884712219238281 13.506785392761230469 13.474140167236328125 13.443478584289550781 13.411345481872558594 13.381148338317871094 13.34955596923828125 13.319861412048339844 13.288859367370605469 13.259710311889648438 13.2293243408203125 13.200736045837402344 13.170975685119628906 13.142930984497070312 13.113725662231445312 13.086156845092773438 13.057494163513183594 13.030429840087890625 13.00234222412109375 12.9758148193359375 12.948337554931640625 12.922382354736328125 12.895552635192871094 12.870206832885742188 12.844061851501464844 12.819365501403808594 12.793948173522949219 12.769942283630371094 12.745296478271484375 12.722028732299804688 12.698203086853027344 12.675723075866699219 12.652770042419433594 12.631132125854492188 12.609109878540039062 12.588372230529785156 12.567338943481445312 12.547563552856445312 12.52758026123046875 12.508824348449707031 12.489943504333496094 12.472245216369628906 12.454480171203613281 12.437801361083984375 12.420928001403808594 12.404744148254394531 12.387772560119628906 12.370668411254882812 12.351898193359375 12.331355094909667969 12.308999061584472656 12.13824462890625 11.963711738586425781 11.81127166748046875 11.676118850708007812 11.56345367431640625 11.463861465454101562 11.379125595092773438 11.301455497741699219 11.23180389404296875 11.165118217468261719 11.103847503662109375 11.044330596923828125 10.988619804382324219 10.93341827392578125 10.880382537841796875 10.826239585876464844 10.7723846435546875 10.715575218200683594 10.657237052917480469 10.594460487365722656 10.530394554138183594 10.463919639587402344 10.398797988891601562 10.334086418151855469 10.273235321044921875 10.214876174926757812 10.160722732543945312 10.108852386474609375 10.060528755187988281 10.014102935791015625 9.9703893661499023438 9.92724609375 9.8846044540405273438 9.8401746749877929688 9.7938528060913085938 9.7435359954833984375 9.6907567977905273438 9.6362247467041015625 9.5830287933349609375 9.5322637557983398438 9.4867572784423828125 
12.817789077758789062 12.802565574645996094 12.785923957824707031 12.768604278564453125 12.751438140869140625 12.734430313110351562 12.717853546142578125 12.701647758483886719 12.685915946960449219 12.670516014099121094 12.655497550964355469 12.640765190124511719 12.626355171203613281 12.61223602294921875 12.598429679870605469 12.584940910339355469 12.571735382080078125 12.558772087097167969 12.545992851257324219 12.533450126647949219 12.521100997924804688 12.509076118469238281 12.497347831726074219 12.486010551452636719 12.475270271301269531 12.465359687805175781 12.455900192260742188 12.447653770446777344 12.442339897155761719 12.441857337951660156 12.446381568908691406 12.456259727478027344 12.471186637878417969 12.486063003540039062 12.500310897827148438 12.514096260070800781 12.528116226196289062 12.547211647033691406 12.583218574523925781 12.6380615234375 12.710052490234375 12.797085762023925781 12.907052040100097656 13.044186592102050781 13.201640129089355469 13.365221023559570312 13.537707328796386719 13.712235450744628906 13.893016815185546875 14.073340415954589844 14.263474464416503906 14.455861091613769531 14.657010078430175781 14.858778953552246094 15.069482803344726562 15.276988029479980469 15.483252525329589844 15.678616523742675781 15.87264251708984375 16.056764602661132812 16.23918914794921875 16.4058837890625 16.564275741577148438 16.706897735595703125 16.842449188232421875 16.965854644775390625 17.085618972778320312 17.196580886840820312 17.306182861328125 17.409044265747070312 17.511905670166015625 17.60927581787109375 17.707134246826171875 17.782884597778320312 17.816349029541015625 17.819963455200195312 17.81244659423828125 17.82387542724609375 18.251953125 18.39852142333984375 18.31708526611328125 18.23520660400390625 18.147100448608398438 18.059709548950195312 17.967212677001953125 17.876352310180664062 17.779794692993164062 17.684772491455078125 17.58415985107421875 17.4858245849609375 17.382173538208007812 17.282140731811523438 17.177759170532226562 17.0775909423828125 16.973367691040039062 16.873788833618164062 16.770257949829101562 16.671710968017578125 16.569414138793945312 16.472429275512695312 16.371953964233398438 16.277355194091796875 16.180322647094726562 16.089673995971679688 15.99662017822265625 15.9097747802734375 15.820542335510253906 15.737374305725097656 15.651953697204589844 15.572664260864257812 15.491839408874511719 15.41791534423828125 15.342967987060546875 15.274441719055175781 15.204824447631835938 15.141186714172363281 15.076430320739746094 15.01727294921875 14.956998825073242188 14.901991844177246094 14.845915794372558594 14.795032501220703125 14.74356842041015625 14.697186470031738281 14.650286674499511719 14.608109474182128906 14.565477371215820312 14.527246475219726562 14.4886474609375 14.454159736633300781 14.419412612915039062 14.3885040283203125 14.357399940490722656 14.329828262329101562 14.302186012268066406 14.277929306030273438 14.25385284423828125 14.232935905456542969 14.212298393249511719 14.194418907165527344 14.176777839660644531 14.161629676818847656 14.146840095520019531 14.134260177612304688 14.121832847595214844 14.111142158508300781 14.100645065307617188 14.091724395751953125 14.08292388916015625 14.07540130615234375 14.068039894104003906 14.061868667602539062 14.056006431579589844 14.05129241943359375 14.047007560729980469 14.043766975402832031 14.040917396545410156 14.038593292236328125 14.036388397216796875 14.034625053405761719 14.033021926879882812 14.031818389892578125 14.030818939208984375 14.030178070068359375 14.029854774475097656 14.029971122741699219 14.030560493469238281 14.031538963317871094 14.033024787902832031 14.03469085693359375 14.036790847778320312 14.039017677307128906 14.041734695434570312 14.044550895690917969 14.047921180725097656 14.051365852355957031 14.055421829223632812 14.059489250183105469 14.064208030700683594 14.068929672241210938 14.074405670166015625 14.079918861389160156 14.086359024047851562 14.0928955078125 14.100573539733886719 14.108446121215820312 14.11775970458984375 14.125894546508789062 14.130871772766113281 14.131719589233398438 14.128873825073242188 14.122673988342285156 14.111853599548339844 14.097356796264648438 14.075946807861328125 14.049599647521972656 14.014547348022460938 13.978992462158203125 13.941657066345214844 13.907108306884765625 13.870851516723632812 13.837195396423339844 13.801867485046386719 13.769083976745605469 13.734710693359375 13.7024688720703125 13.668379783630371094 13.636354446411132812 13.602593421936035156 13.570890426635742188 13.537543296813964844 13.506227493286132812 13.473348617553710938 13.442461967468261719 13.410088539123535156 13.379660606384277344 13.347819328308105469 13.317874908447265625 13.286592483520507812 13.257165908813476562 13.226485252380371094 13.197615623474121094 13.167544364929199219 13.139174461364746094 13.109622001647949219 13.081721305847167969 13.052710533142089844 13.025313377380371094 12.996877670288085938 12.970017433166503906 12.942193984985351562 12.915906906127929688 12.888731956481933594 12.863056182861328125 12.836569786071777344 12.811547279357910156 12.785792350769042969 12.761466026306152344 12.736490249633789062 12.712910652160644531 12.688764572143554688 12.665985107421875 12.642726898193359375 12.6208038330078125 12.598496437072753906 12.577497482299804688 12.556208610534667969 12.536205291748046875 12.516009330749511719 12.497076988220214844 12.478053092956542969 12.460263252258300781 12.442460060119628906 12.425813674926757812 12.40909576416015625 12.393263816833496094 12.37700653076171875 12.360681533813476562 12.342280387878417969 12.329082489013671875 12.233208656311035156 12.056516647338867188 11.885402679443359375 11.738241195678710938 11.610504150390625 11.50629425048828125 11.415822029113769531 11.339563369750976562 11.269316673278808594 11.205046653747558594 11.142002105712890625 11.082894325256347656 11.024624824523925781 10.969649314880371094 10.915154457092285156 10.863058090209960938 10.810247421264648438 10.75812530517578125 10.703600883483886719 10.648068428039550781 10.588717460632324219 10.528261184692382812 10.465277671813964844 10.40296173095703125 10.340008735656738281 10.279429435729980469 10.219780921936035156 10.16316986083984375 10.107995033264160156 10.056026458740234375 10.005917549133300781 9.9589023590087890625 9.9128713607788085938 9.867847442626953125 9.8215122222900390625 9.773815155029296875 9.7226457595825195312 9.669513702392578125 9.6150503158569335938 9.5622539520263671875 9.5121431350708007812 9.4674482345581054688 
12.823338508605957031 12.807597160339355469 12.791234970092773438 12.773892402648925781 12.756322860717773438 12.738762855529785156 12.721575736999511719 12.704739570617675781 12.688390731811523438 12.672390937805175781 12.656794548034667969 12.641503334045410156 12.626545906066894531 12.611879348754882812 12.597551345825195312 12.583598136901855469 12.570035934448242188 12.556852340698242188 12.543955802917480469 12.531422615051269531 12.519240379333496094 12.507593154907226562 12.496530532836914062 12.486138343811035156 12.476191520690917969 12.466734886169433594 12.458020210266113281 12.450620651245117188 12.445986747741699219 12.446096420288085938 12.45075225830078125 12.461637496948242188 12.47611236572265625 12.489410400390625 12.502427101135253906 12.5162506103515625 12.5415802001953125 12.588841438293457031 12.654839515686035156 12.733926773071289062 12.826924324035644531 12.932597160339355469 13.059271812438964844 13.203184127807617188 13.360011100769042969 13.521250724792480469 13.69075775146484375 13.86219024658203125 14.04083251953125 14.221038818359375 14.410532951354980469 14.601318359375 14.800090789794921875 14.998762130737304688 15.205395698547363281 15.408474922180175781 15.611933708190917969 15.806476593017578125 16.00051116943359375 16.18503570556640625 16.367605209350585938 16.534002304077148438 16.692295074462890625 16.834497451782226562 16.96973419189453125 17.092905044555664062 17.2124176025390625 17.32308197021484375 17.432363510131835938 17.534912109375 17.63745880126953125 17.73443603515625 17.820283889770507812 17.857564926147460938 17.86092376708984375 17.849147796630859375 17.867704391479492188 18.26915740966796875 18.404176712036132812 18.327487945556640625 18.245632171630859375 18.163646697998046875 18.075826644897460938 17.988986968994140625 17.897237777709960938 17.807277679443359375 17.71183013916015625 17.617977142333984375 17.518648147583007812 17.421644210815429688 17.319488525390625 17.221080780029296875 17.118474960327148438 17.020032882690429688 16.91761016845703125 16.819765090942382812 16.718015670776367188 16.621133804321289062 16.520566940307617188 16.425203323364257812 16.3264007568359375 16.233266830444335938 16.137716293334960938 16.0484771728515625 15.956897735595703125 15.871454238891601562 15.783686637878417969 15.701908111572265625 15.617897987365722656 15.539886474609375 15.46016693115234375 15.387195587158203125 15.313218116760253906 15.245578765869140625 15.176866531372070312 15.1140594482421875 15.050152778625488281 14.991776466369628906 14.932302474975585938 14.878031730651855469 14.822705268859863281 14.772480964660644531 14.721684455871582031 14.675922393798828125 14.629669189453125 14.588089942932128906 14.546082496643066406 14.508429527282714844 14.470433235168457031 14.436505317687988281 14.402342796325683594 14.371978759765625 14.341448783874511719 14.314409255981445312 14.287322044372558594 14.263566017150878906 14.240010261535644531 14.219569206237792969 14.199430465698242188 14.182011604309082031 14.164847373962402344 14.150134086608886719 14.135801315307617188 14.123642921447753906 14.111659049987792969 14.101373672485351562 14.091300010681152344 14.082764625549316406 14.074368476867675781 14.0672149658203125 14.060242652893066406 14.0544281005859375 14.048943519592285156 14.044575691223144531 14.04065704345703125 14.037750244140625 14.0352325439453125 14.033205986022949219 14.03131866455078125 14.02984619140625 14.028554916381835938 14.027637481689453125 14.026947975158691406 14.026591300964355469 14.026587486267089844 14.027004241943359375 14.027922630310058594 14.029208183288574219 14.031017303466796875 14.032980918884277344 14.035409927368164062 14.037946701049804688 14.041009902954101562 14.044155120849609375 14.047894477844238281 14.051692962646484375 14.056140899658203125 14.06058502197265625 14.065732002258300781 14.070874214172363281 14.076839447021484375 14.082850456237792969 14.089859962463378906 14.096963882446289062 14.10529327392578125 14.113817214965820312 14.123884201049804688 14.132699012756347656 14.138201713562011719 14.139368057250976562 14.136723518371582031 14.130552291870117188 14.119618415832519531 14.104781150817871094 14.082715988159179688 14.055546760559082031 14.019454002380371094 13.983340263366699219 13.945453643798828125 13.910374641418457031 13.873544692993164062 13.839356422424316406 13.803471565246582031 13.770105361938476562 13.735172271728515625 13.702672004699707031 13.668392181396484375 13.636178016662597656 13.602202415466308594 13.570287704467773438 13.536705970764160156 13.505162239074707031 13.472037315368652344 13.440911293029785156 13.408282279968261719 13.377607345581054688 13.345502853393554688 13.315305709838867188 13.283749580383300781 13.25405120849609375 13.223065376281738281 13.193887710571289062 13.163454055786132812 13.134729385375976562 13.104801177978515625 13.076542854309082031 13.047154426574707031 13.019397735595703125 12.990583419799804688 12.963362693786621094 12.935160636901855469 12.908512115478515625 12.880959510803222656 12.854924201965332031 12.828062057495117188 12.802681922912597656 12.776555061340332031 12.751875877380371094 12.726533889770507812 12.702606201171875 12.678102493286132812 12.654984474182128906 12.631379127502441406 12.609131813049316406 12.586493492126464844 12.565187454223632812 12.543593406677246094 12.523310661315917969 12.502846717834472656 12.483675956726074219 12.464427947998046875 12.446443557739257812 12.428479194641113281 12.411745071411132812 12.395052909851074219 12.379431724548339844 12.363755226135253906 12.348654747009277344 12.331580162048339844 12.301115989685058594 12.148253440856933594 11.972409248352050781 11.804806709289550781 11.662825584411621094 11.542197227478027344 11.446003913879394531 11.364133834838867188 11.295869827270507812 11.232653617858886719 11.173548698425292969 11.11411285400390625 11.057326316833496094 11.000655174255371094 10.946935653686523438 10.893862724304199219 10.84356689453125 10.7930908203125 10.743764877319335938 10.692653656005859375 10.641035079956054688 10.586194992065429688 10.530322074890136719 10.471659660339355469 10.412759780883789062 10.351910591125488281 10.291621208190917969 10.230386734008789062 10.170789718627929688 10.111612319946289062 10.055245399475097656 10.000701904296875 9.9497241973876953125 9.9002370834350585938 9.8523654937744140625 9.8037424087524414062 9.7543783187866210938 9.7021417617797851562 9.6485195159912109375 9.5940570831298828125 9.5416631698608398438 9.4922809600830078125 9.4485340118408203125 
12.829715728759765625 12.812498092651367188 12.795441627502441406 12.778112411499023438 12.760509490966796875 12.742634773254394531 12.724949836730957031 12.707545280456542969 12.69063568115234375 12.6740875244140625 12.657964706420898438 12.642168045043945312 12.626733779907226562 12.611613273620605469 12.596834182739257812 12.582459449768066406 12.568559646606445312 12.555202484130859375 12.542278289794921875 12.529863357543945312 12.517974853515625 12.506829261779785156 12.496348381042480469 12.486307144165039062 12.476648330688476562 12.467804908752441406 12.459994316101074219 12.453739166259765625 12.449843406677246094 12.449720382690429688 12.454526901245117188 12.4662322998046875 12.478893280029296875 12.490753173828125 12.503972053527832031 12.532213211059570312 12.585664749145507812 12.655981063842773438 12.740199089050292969 12.834888458251953125 12.941804885864257812 13.059952735900878906 13.196077346801757812 13.342746734619140625 13.499432563781738281 13.659815788269042969 13.828169822692871094 13.998396873474121094 14.175936698913574219 14.356008529663085938 14.545765876770019531 14.736304283142089844 14.934118270874023438 15.131049156188964844 15.335214614868164062 15.535426139831542969 15.736193656921386719 15.929159164428710938 16.1230926513671875 16.308101654052734375 16.490888595581054688 16.657299041748046875 16.815534591674804688 16.957353591918945312 17.0922393798828125 17.215066909790039062 17.334196090698242188 17.444417953491210938 17.553226470947265625 17.655321121215820312 17.757425308227539062 17.848733901977539062 17.898204803466796875 17.902957916259765625 17.887491226196289062 17.8867340087890625 18.281824111938476562 18.41527557373046875 18.337673187255859375 18.26044464111328125 18.178281784057617188 18.096254348754882812 18.008632659912109375 17.92227935791015625 17.831220626831054688 17.742086410522460938 17.647674560546875 17.554925918579101562 17.4568023681640625 17.361024856567382812 17.260181427001953125 17.163145065307617188 17.062108993530273438 16.9652099609375 16.864400863647460938 16.768115997314453125 16.667993545532226562 16.5726318359375 16.473649978637695312 16.379772186279296875 16.282510757446289062 16.19072723388671875 16.0965118408203125 16.008550643920898438 15.91831207275390625 15.834146499633789062 15.747723579406738281 15.667223930358886719 15.584529876708984375 15.50772857666015625 15.429086685180664062 15.357008934020996094 15.283944129943847656 15.217144012451171875 15.149291038513183594 15.087274551391601562 15.024178504943847656 14.966548919677734375 14.907843589782714844 14.854281425476074219 14.799679756164550781 14.750091552734375 14.699942588806152344 14.654782295227050781 14.609158515930175781 14.568164825439453125 14.526768684387207031 14.48968505859375 14.452284812927246094 14.418910980224609375 14.385328292846679688 14.355505943298339844 14.325549125671386719 14.299039840698242188 14.272510528564453125 14.249263763427734375 14.226237297058105469 14.206281661987304688 14.186649322509765625 14.169695854187011719 14.15301513671875 14.138741493225097656 14.124867439270019531 14.113125801086425781 14.101579666137695312 14.091696739196777344 14.082045555114746094 14.073891639709472656 14.065892219543457031 14.059102058410644531 14.05251312255859375 14.047051429748535156 14.041942596435546875 14.0379180908203125 14.034363746643066406 14.031787872314453125 14.029591560363769531 14.027850151062011719 14.026267051696777344 14.025075912475585938 14.024085044860839844 14.023444175720214844 14.023050308227539062 14.022971153259277344 14.023280143737792969 14.023990631103515625 14.025231361389160156 14.026818275451660156 14.028940200805664062 14.031191825866699219 14.033939361572265625 14.036779403686523438 14.040178298950195312 14.043645858764648438 14.047743797302246094 14.051888465881347656 14.0567169189453125 14.061532020568847656 14.067099571228027344 14.072668075561523438 14.079128265380859375 14.085628509521484375 14.093197822570800781 14.100855827331542969 14.109821319580078125 14.118982315063476562 14.129792213439941406 14.139369010925292969 14.1455078125 14.147063255310058594 14.144659996032714844 14.138523101806640625 14.127467155456542969 14.112206459045410156 14.089406013488769531 14.061270713806152344 14.024044990539550781 13.987414360046386719 13.948971748352050781 13.913362503051757812 13.875980377197265625 13.841284751892089844 13.804871559143066406 13.771015167236328125 13.735501289367675781 13.702487945556640625 13.667918205261230469 13.635524749755859375 13.601352691650390625 13.569239616394042969 13.535439491271972656 13.503679275512695312 13.470318794250488281 13.43896484375 13.406088829040527344 13.375176429748535156 13.342816352844238281 13.312373161315917969 13.280554771423339844 13.250603675842285156 13.2193450927734375 13.189869880676269531 13.159085273742675781 13.130015373229980469 13.099720954895019531 13.071111679077148438 13.041354179382324219 13.013242721557617188 12.984057426452636719 12.956480979919433594 12.927905082702636719 12.900899887084960938 12.872973442077636719 12.84658050537109375 12.819345474243164062 12.793608665466308594 12.767110824584960938 12.742075920104980469 12.716365814208984375 12.692087173461914062 12.667220115661621094 12.643754005432128906 12.619793891906738281 12.597208023071289062 12.574223518371582031 12.552592277526855469 12.530666351318359375 12.51007080078125 12.489283561706542969 12.4698028564453125 12.450239181518554688 12.431967735290527344 12.413733482360839844 12.396779060363769531 12.379921913146972656 12.364245414733886719 12.348738670349121094 12.334392547607421875 12.320890426635742188 12.249542236328125 12.068447113037109375 11.894743919372558594 11.730551719665527344 11.593253135681152344 11.478796958923339844 11.389437675476074219 11.314848899841308594 11.253355026245117188 11.196149826049804688 11.141574859619140625 11.085462570190429688 11.030992507934570312 10.976110458374023438 10.923935890197753906 10.872601509094238281 10.824382781982421875 10.776482582092285156 10.73014068603515625 10.682584762573242188 10.634963035583496094 10.584662437438964844 10.533356666564941406 10.478979110717773438 10.423455238342285156 10.364687919616699219 10.304705619812011719 10.241942405700683594 10.179459571838378906 10.116420745849609375 10.055828094482421875 9.9970541000366210938 9.9423437118530273438 9.8896417617797851562 9.8391551971435546875 9.7884511947631835938 9.737583160400390625 9.6843852996826171875 9.63031768798828125 9.5758619308471679688 9.5238447189331054688 9.4751529693603515625 9.4323225021362304688 
12.837491989135742188 12.818393707275390625 12.800016403198242188 12.781869888305664062 12.764021873474121094 12.746069908142089844 12.728161811828613281 12.7103118896484375 12.692870140075683594 12.675774574279785156 12.65911865234375 12.642812728881835938 12.626897811889648438 12.611332893371582031 12.596148490905761719 12.581385612487792969 12.56716156005859375 12.553647994995117188 12.540782928466796875 12.528567314147949219 12.516957283020019531 12.506054878234863281 12.495734214782714844 12.48596954345703125 12.476847648620605469 12.468726158142089844 12.461877822875976562 12.457003593444824219 12.454183578491210938 12.453135490417480469 12.458163261413574219 12.469008445739746094 12.479613304138183594 12.491449356079101562 12.520478248596191406 12.576823234558105469 12.651231765747070312 12.737633705139160156 12.83556365966796875 12.941799163818359375 13.059285163879394531 13.187104225158691406 13.329085350036621094 13.477458953857421875 13.634746551513671875 13.795248031616210938 13.963504791259765625 14.133568763732910156 14.310975074768066406 14.490863800048828125 14.680850028991699219 14.871814727783203125 15.070012092590332031 15.267055511474609375 15.4704742431640625 15.6693115234375 15.868710517883300781 16.060167312622070312 16.253137588500976562 16.43848419189453125 16.621679306030273438 16.788394927978515625 16.94661712646484375 17.088085174560546875 17.222539901733398438 17.344869613647460938 17.463430404663085938 17.573022842407226562 17.68115997314453125 17.782621383666992188 17.881975173950195312 17.94167327880859375 17.949480056762695312 17.931261062622070312 17.9351348876953125 18.302186965942382812 18.420831680297851562 18.346370697021484375 18.268032073974609375 18.1903228759765625 18.107913970947265625 18.02591705322265625 17.93851470947265625 17.852575302124023438 17.762210845947265625 17.67391204833984375 17.580568313598632812 17.488958358764648438 17.392095565795898438 17.297576904296875 17.198062896728515625 17.102296829223632812 17.002786636352539062 16.90740966796875 16.808195114135742188 16.713459014892578125 16.614971160888671875 16.521152496337890625 16.423770904541015625 16.331401824951171875 16.23571014404296875 16.145318984985351562 16.05243682861328125 15.96575164794921875 15.876860618591308594 15.793988227844238281 15.708926200866699219 15.629727363586425781 15.548390388488769531 15.472844123840332031 15.395383834838867188 15.324235916137695312 15.252122879028320312 15.186202049255371094 15.119250297546386719 15.05806732177734375 14.995828628540039062 14.938991546630859375 14.881101608276367188 14.828294754028320312 14.774469375610351562 14.72556304931640625 14.676105499267578125 14.631590843200683594 14.586643218994140625 14.546280860900878906 14.505548477172851562 14.469081878662109375 14.432332038879394531 14.399561882019042969 14.366618156433105469 14.337390899658203125 14.308063507080078125 14.282139778137207031 14.256228446960449219 14.233550071716308594 14.211117744445800781 14.191706657409667969 14.172642707824707031 14.156206130981445312 14.140066146850585938 14.126283645629882812 14.11292266845703125 14.101640701293945312 14.090566635131835938 14.081118583679199219 14.071928977966308594 14.064189910888671875 14.056621551513671875 14.050226211547851562 14.044054985046386719 14.038980484008789062 14.034282684326171875 14.030634880065917969 14.0274810791015625 14.025265693664550781 14.023409843444824219 14.021971702575683594 14.020712852478027344 14.019819259643554688 14.019146919250488281 14.018799781799316406 14.018724441528320312 14.018941879272460938 14.019590377807617188 14.020619392395019531 14.022210121154785156 14.024121284484863281 14.026575088500976562 14.02913665771484375 14.032227516174316406 14.035393714904785156 14.039155960083007812 14.042969703674316406 14.047455787658691406 14.051973342895507812 14.057215690612792969 14.06243896484375 14.0684814453125 14.074520111083984375 14.081519126892089844 14.088549613952636719 14.096722602844238281 14.10498046875 14.114634513854980469 14.124484062194824219 14.136101722717285156 14.146613121032714844 14.15358734130859375 14.155659675598144531 14.153558731079101562 14.147469520568847656 14.136248588562011719 14.120418548583984375 14.096703529357910156 14.067305564880371094 14.028798103332519531 13.991594314575195312 13.952542304992675781 13.916372299194335938 13.878406524658203125 13.843175888061523438 13.806204795837402344 13.771833419799804688 13.735777854919433594 13.70220184326171875 13.667046546936035156 13.634317398071289062 13.599923133850097656 13.567607879638671875 13.533580780029296875 13.501596450805664062 13.467988967895507812 13.436392784118652344 13.403254508972167969 13.372087478637695312 13.33945465087890625 13.308747291564941406 13.276645660400390625 13.246422767639160156 13.214859962463378906 13.185061454772949219 13.153922080993652344 13.124500274658203125 13.093822479248046875 13.064840316772460938 13.034684181213378906 13.006189346313476562 12.976598739624023438 12.948634147644042969 12.919650077819824219 12.892253875732421875 12.863917350769042969 12.837131500244140625 12.809484481811523438 12.783352851867675781 12.756443023681640625 12.731014251708984375 12.704892158508300781 12.680218696594238281 12.654941558837890625 12.631082534790039062 12.606714248657226562 12.583735466003417969 12.560343742370605469 12.5383148193359375 12.515970230102539062 12.494962692260742188 12.473744392395019531 12.453844070434570312 12.433842658996582031 12.415144920349121094 12.396462440490722656 12.379056930541992188 12.361698150634765625 12.345472335815429688 12.329278945922851562 12.31363677978515625 12.292906761169433594 12.169665336608886719 11.987284660339355469 11.8163299560546875 11.655956268310546875 11.523432731628417969 11.414902687072753906 11.331915855407714844 11.264035224914550781 11.208788871765136719 11.15723419189453125 11.107097625732421875 11.054468154907226562 11.002621650695800781 10.949906349182128906 10.899616241455078125 10.850243568420410156 10.80416107177734375 10.758765220642089844 10.715252876281738281 10.671046257019042969 10.62722015380859375 10.581285476684570312 10.534423828125 10.484251022338867188 10.43207550048828125 10.375408172607421875 10.315800666809082031 10.251634597778320312 10.186435699462890625 10.1197662353515625 10.05522918701171875 9.992572784423828125 9.9345197677612304688 9.879032135009765625 9.8263502120971679688 9.77396392822265625 9.7219228744506835938 9.668003082275390625 9.6136407852172851562 9.5592641830444335938 9.5076503753662109375 9.4596433639526367188 9.4177150726318359375 
12.846009254455566406 12.8247833251953125 12.804944992065429688 12.785701751708984375 12.767032623291015625 12.748600006103515625 12.730470657348632812 12.712403297424316406 12.694638252258300781 12.677154541015625 12.660073280334472656 12.643330574035644531 12.626989364624023438 12.611025810241699219 12.595480918884277344 12.580401420593261719 12.565878868103027344 12.552163124084472656 12.539244651794433594 12.527016639709472656 12.515442848205566406 12.504729270935058594 12.49474334716796875 12.485431671142578125 12.476873397827148438 12.469466209411621094 12.463592529296875 12.459897041320800781 12.457541465759277344 12.456124305725097656 12.460101127624511719 12.4688568115234375 12.478463172912597656 12.502631187438964844 12.558187484741210938 12.632532119750976562 12.720749855041503906 12.817964553833007812 12.925325393676757812 13.0402374267578125 13.166001319885253906 13.300313949584960938 13.445441246032714844 13.595460891723632812 13.753831863403320312 13.915081977844238281 14.083945274353027344 14.25455474853515625 14.432520866394042969 14.612656593322753906 14.8027801513671875 14.994287490844726562 15.19310760498046875 15.390843391418457031 15.59505462646484375 15.794865608215332031 15.994662284851074219 16.185842514038085938 16.37807464599609375 16.563070297241210938 16.746746063232421875 16.914005279541015625 17.072290420532226562 17.213466644287109375 17.347442626953125 17.469167709350585938 17.587017059326171875 17.695856094360351562 17.803190231323242188 17.903644561767578125 17.982036590576171875 17.996988296508789062 17.977329254150390625 17.949222564697265625 18.247503280639648438 18.434232711791992188 18.356409072875976562 18.281072616577148438 18.202127456665039062 18.124040603637695312 18.041463851928710938 17.959554672241210938 17.872406005859375 17.786794662475585938 17.69702911376953125 17.609487533569335938 17.5171356201171875 17.426584243774414062 17.330900192260742188 17.237560272216796875 17.139293670654296875 17.04461669921875 16.946422576904296875 16.85239410400390625 16.754604339599609375 16.6612548828125 16.564239501953125 16.471826553344726562 16.375909805297851562 16.284925460815429688 16.190671920776367188 16.101594924926757812 16.009918212890625 15.924384117126464844 15.836713790893554688 15.755016326904296875 15.671199798583984375 15.593195915222167969 15.513117790222167969 15.438744544982910156 15.362447738647460938 15.292189598083496094 15.220973968505859375 15.1558837890625 15.089786529541015625 15.02939605712890625 14.967974662780761719 14.911894798278808594 14.85478973388671875 14.802708625793457031 14.749632835388183594 14.701387405395507812 14.652594566345214844 14.608702659606933594 14.564411163330078125 14.524662971496582031 14.484576225280761719 14.4487152099609375 14.412602424621582031 14.380429267883300781 14.348114013671875 14.319476127624511719 14.290770530700683594 14.265428543090820312 14.240134239196777344 14.218027114868164062 14.196192741394042969 14.17733001708984375 14.158837318420410156 14.142918586730957031 14.1273193359375 14.114031791687011719 14.101184844970703125 14.090357780456542969 14.079749107360839844 14.070727348327636719 14.061985015869140625 14.05464935302734375 14.0475006103515625 14.041491508483886719 14.035730361938476562 14.031035423278808594 14.026743888854980469 14.023468017578125 14.020709037780761719 14.018845558166503906 14.017313003540039062 14.016164779663085938 14.015216827392578125 14.014608383178710938 14.014243125915527344 14.014178276062011719 14.014405250549316406 14.014912605285644531 14.015892982482910156 14.017233848571777344 14.019165992736816406 14.021390914916992188 14.024164199829101562 14.027026176452636719 14.030447959899902344 14.033930778503417969 14.038044929504394531 14.042197227478027344 14.047063827514648438 14.051949501037597656 14.057607650756835938 14.063241004943847656 14.069750785827636719 14.076250076293945312 14.083774566650390625 14.091322898864746094 14.100086212158203125 14.108929634094238281 14.11925506591796875 14.1297760009765625 14.142182350158691406 14.153702735900878906 14.161663055419921875 14.164343833923339844 14.162566184997558594 14.156540870666503906 14.145089149475097656 14.12860107421875 14.103852272033691406 14.072947502136230469 14.033207893371582031 13.995443344116210938 13.955807685852050781 13.919103622436523438 13.880581855773925781 13.844839096069335938 13.807335853576660156 13.772473335266113281 13.735905647277832031 13.701852798461914062 13.666150093078613281 13.632876396179199219 13.598079681396484375 13.565537452697753906 13.531297683715820312 13.499103546142578125 13.465262413024902344 13.433437347412109375 13.400048255920410156 13.3686370849609375 13.335740089416503906 13.304777145385742188 13.272400856018066406 13.241909980773925781 13.210033416748046875 13.1799163818359375 13.148435592651367188 13.118680953979492188 13.087639808654785156 13.0583038330078125 13.027770042419433594 12.998909950256347656 12.968929290771484375 12.940586090087890625 12.911203384399414062 12.883421897888183594 12.854679107666015625 12.827503204345703125 12.799447059631347656 12.772920608520507812 12.74559783935546875 12.719770431518554688 12.693231582641601562 12.668155670166015625 12.642455101013183594 12.61818695068359375 12.593384742736816406 12.569981575012207031 12.546139717102050781 12.523668289184570312 12.500855445861816406 12.479386329650878906 12.457672119140625 12.437275886535644531 12.416731834411621094 12.39746856689453125 12.378133773803710938 12.359987258911132812 12.341649055480957031 12.324129104614257812 12.305392265319824219 12.28427886962890625 12.246057510375976562 12.093153953552246094 11.913451194763183594 11.745730400085449219 11.589341163635253906 11.461298942565917969 11.357914924621582031 11.280226707458496094 11.217830657958984375 11.167706489562988281 11.120922088623046875 11.074767112731933594 11.02552032470703125 10.976403236389160156 10.926008224487304688 10.877641677856445312 10.829998970031738281 10.785505294799804688 10.741771697998046875 10.700064659118652344 10.658031463623046875 10.616788864135742188 10.574007034301757812 10.530492782592773438 10.483587265014648438 10.434085845947265625 10.379172325134277344 10.319988250732421875 10.254878997802734375 10.187740325927734375 10.118474006652832031 10.051157951354980469 9.9858646392822265625 9.9256849288940429688 9.8685779571533203125 9.8147535324096679688 9.7616052627563476562 9.7091245651245117188 9.6550130844116210938 9.600666046142578125 9.5465040206909179688 9.4952821731567382812 9.4478464126586914062 9.4066457748413085938 
12.85648345947265625 12.832523345947265625 12.810866355895996094 12.790293693542480469 12.770598411560058594 12.751334190368652344 12.732550621032714844 12.713994979858398438 12.69579315185546875 12.67790985107421875 12.660444259643554688 12.643305778503417969 12.626561164855957031 12.610187530517578125 12.594237327575683594 12.578765869140625 12.563859939575195312 12.5498046875 12.536745071411132812 12.524586677551269531 12.513293266296386719 12.503038406372070312 12.493503570556640625 12.484708786010742188 12.476793289184570312 12.470228195190429688 12.465423583984375 12.461978912353515625 12.458987236022949219 12.454969406127929688 12.456058502197265625 12.464986801147460938 12.48291778564453125 12.534724235534667969 12.6096038818359375 12.697271347045898438 12.795729637145996094 12.901781082153320312 13.017512321472167969 13.140080451965332031 13.272325515747070312 13.410857200622558594 13.55870819091796875 13.710652351379394531 13.870545387268066406 14.033043861389160156 14.203050613403320312 14.374744415283203125 14.553813934326171875 14.734658241271972656 14.925168037414550781 15.117357254028320312 15.317049980163574219 15.515757560729980469 15.721108436584472656 15.922875404357910156 16.125398635864257812 16.318311691284179688 16.510953903198242188 16.695644378662109375 16.8795166015625 17.047574996948242188 17.2060699462890625 17.3469696044921875 17.480352401733398438 17.601282119750976562 17.718181610107421875 17.826036453247070312 17.932353973388671875 18.02155303955078125 18.04944610595703125 18.02951812744140625 17.993558883666992188 18.151697158813476562 18.43741607666015625 18.3673095703125 18.288442611694335938 18.212249755859375 18.132747650146484375 18.0543365478515625 17.971635818481445312 17.889873504638671875 17.803041458129882812 17.7177734375 17.628551483154296875 17.541761398315429688 17.450420379638671875 17.360963821411132812 17.26650238037109375 17.174388885498046875 17.077423095703125 16.983839035034179688 16.8868865966796875 16.794179916381835938 16.6977996826171875 16.605825424194335938 16.510278701782226562 16.419286727905273438 16.324850082397460938 16.23528289794921875 16.142496109008789062 16.054796218872070312 15.964351654052734375 15.879965782165527344 15.793521881103515625 15.713010787963867188 15.630456924438476562 15.553669929504394531 15.474884033203125 15.401732444763183594 15.326688766479492188 15.257409095764160156 15.187131881713867188 15.122914314270019531 15.057719230651855469 14.998167037963867188 14.937611579895019531 14.882338523864746094 14.826068878173828125 14.774764060974121094 14.722494125366210938 14.674962997436523438 14.626880645751953125 14.58365631103515625 14.540069580078125 14.50098419189453125 14.461596488952636719 14.426392555236816406 14.390974044799804688 14.359452247619628906 14.327828407287597656 14.299837112426757812 14.271816253662109375 14.247115135192871094 14.222501754760742188 14.201031684875488281 14.179863929748535156 14.16161346435546875 14.143754959106445312 14.128411293029785156 14.11341094970703125 14.100673675537109375 14.088399887084960938 14.078070640563964844 14.067971229553222656 14.059415817260742188 14.051163673400878906 14.044259071350097656 14.037558555603027344 14.031963348388671875 14.026643753051757812 14.022364616394042969 14.018517494201660156 14.015648841857910156 14.013323783874511719 14.011835098266601562 14.010642051696777344 14.009802818298339844 14.009184837341308594 14.008878707885742188 14.008840560913085938 14.009076118469238281 14.009627342224121094 14.010450363159179688 14.011791229248046875 14.013468742370605469 14.015773773193359375 14.018329620361328125 14.021445274353027344 14.024628639221191406 14.028409957885742188 14.032233238220214844 14.036731719970703125 14.041257858276367188 14.046548843383789062 14.051842689514160156 14.057954788208007812 14.064034461975097656 14.071051597595214844 14.078050613403320312 14.086145401000976562 14.094254493713378906 14.103657722473144531 14.11313629150390625 14.1241912841796875 14.135441780090332031 14.148693084716796875 14.161390304565429688 14.1706390380859375 14.174111366271972656 14.17272186279296875 14.166787147521972656 14.154951095581054688 14.137655258178710938 14.111572265625 14.078680038452148438 14.037730216979980469 13.999373435974121094 13.959119796752929688 13.921848297119140625 13.882739067077636719 13.846454620361328125 13.80838775634765625 13.773004531860351562 13.735892295837402344 13.701333999633789062 13.665102005004882812 13.631305694580078125 13.595902442932128906 13.562882423400878906 13.528321266174316406 13.4958953857421875 13.461810111999511719 13.429743766784667969 13.396088600158691406 13.36441802978515625 13.33123779296875 13.299999237060546875 13.26732635498046875 13.236538887023925781 13.204312324523925781 13.173850059509277344 13.142000198364257812 13.11188507080078125 13.080455780029296875 13.0507354736328125 13.0197906494140625 12.990533828735351562 12.960131645202636719 12.9313812255859375 12.9015655517578125 12.873366355895996094 12.844180107116699219 12.8165740966796875 12.788064002990722656 12.761098861694335938 12.733311653137207031 12.707033157348632812 12.680018424987792969 12.654478073120117188 12.628286361694335938 12.603535652160644531 12.578223228454589844 12.554318428039550781 12.529940605163574219 12.506937980651855469 12.483551025390625 12.461503028869628906 12.439152717590332031 12.418092727661132812 12.396787643432617188 12.376684188842773438 12.35630035400390625 12.336874008178710938 12.316716194152832031 12.296275138854980469 12.272967338562011719 12.248536109924316406 12.18169403076171875 12.015461921691894531 11.839502334594726562 11.67592620849609375 11.524183273315429688 11.400865554809570312 11.30242919921875 11.229552268981933594 11.172011375427246094 11.12645721435546875 11.0841064453125 11.041951179504394531 10.996399879455566406 10.950440406799316406 10.902747154235839844 10.856454849243164062 10.81029510498046875 10.766709327697753906 10.723577499389648438 10.682396888732910156 10.641104698181152344 10.60103607177734375 10.560063362121582031 10.518749237060546875 10.474177360534667969 10.426714897155761719 10.373265266418457031 10.314621925354003906 10.249083518981933594 10.180840492248535156 10.110074043273925781 10.041234970092773438 9.9746685028076171875 9.9137296676635742188 9.85634613037109375 9.802616119384765625 9.74981689453125 9.6978063583374023438 9.6441793441772460938 9.5902833938598632812 9.5365619659423828125 9.4857969284057617188 9.4388742446899414062 9.3982629776000976562 
12.867857933044433594 12.841027259826660156 12.81729888916015625 12.795253753662109375 12.774450302124023438 12.754303932189941406 12.734793663024902344 12.715615272521972656 12.69683074951171875 12.678334236145019531 12.660318374633789062 12.642685890197753906 12.62548065185546875 12.608664512634277344 12.592290878295898438 12.576424598693847656 12.561182975769042969 12.546876907348632812 12.533808708190917969 12.52188873291015625 12.511028289794921875 12.501273155212402344 12.492190361022949219 12.483944892883300781 12.476741790771484375 12.471079826354980469 12.466464996337890625 12.462052345275878906 12.456549644470214844 12.448729515075683594 12.449576377868652344 12.46091461181640625 12.503420829772949219 12.575840950012207031 12.663421630859375 12.760037422180175781 12.866326332092285156 12.97943115234375 13.101533889770507812 13.229339599609375 13.365861892700195312 13.507647514343261719 13.657985687255859375 13.811888694763183594 13.97347259521484375 14.137463569641113281 14.308897018432617188 14.481966018676757812 14.662451744079589844 14.8443450927734375 15.03553009033203125 15.2285003662109375 15.429203033447265625 15.629046440124511719 15.835715293884277344 16.039529800415039062 16.24524688720703125 16.441682815551757812 16.636798858642578125 16.822154998779296875 17.006227493286132812 17.175045013427734375 17.3339080810546875 17.47457122802734375 17.607288360595703125 17.727289199829101562 17.843080520629882812 17.949810028076171875 18.05222320556640625 18.100437164306640625 18.08416748046875 18.0438232421875 18.182229995727539062 18.44415283203125 18.381238937377929688 18.30376434326171875 18.223978042602539062 18.1470184326171875 18.067049026489257812 17.98839569091796875 17.905620574951171875 17.82404327392578125 17.73755645751953125 17.652635574340820312 17.563863754272460938 17.477727890014648438 17.387304306030273438 17.298864364624023438 17.205535888671875 17.114568710327148438 17.018825531005859375 16.926271438598632812 16.830364227294921875 16.738813400268554688 16.643682479858398438 16.5529327392578125 16.458698272705078125 16.368989944458007812 16.275899887084960938 16.187631607055664062 16.096189498901367188 16.009778976440429688 15.920497894287109375 15.837139129638671875 15.751797676086425781 15.672362327575683594 15.5909576416015625 15.515285491943359375 15.437687873840332031 15.365675926208496094 15.291823387145996094 15.223542213439941406 15.154150962829589844 15.090758323669433594 15.026416778564453125 14.967660903930664062 14.907932281494140625 14.853429794311523438 14.797960281372070312 14.747402191162109375 14.695909500122070312 14.649077415466308594 14.601680755615234375 14.559096336364746094 14.516188621520996094 14.477744102478027344 14.439036369323730469 14.40447235107421875 14.369732856750488281 14.338849067687988281 14.307905197143554688 14.280550003051757812 14.253204345703125 14.229137420654296875 14.205201148986816406 14.18436431884765625 14.163862228393554688 14.146223068237304688 14.128996849060058594 14.114222526550292969 14.099819183349609375 14.087626457214355469 14.075922012329101562 14.066080093383789062 14.05648040771484375 14.048382759094238281 14.04061126708984375 14.034124374389648438 14.027859687805175781 14.022665023803710938 14.017773628234863281 14.013895988464355469 14.010478973388671875 14.008008956909179688 14.006108283996582031 14.004969596862792969 14.004098892211914062 14.003553390502929688 14.0032501220703125 14.00323486328125 14.003506660461425781 14.004029273986816406 14.004892349243164062 14.006025314331054688 14.007717132568359375 14.009724617004394531 14.01239013671875 14.015259742736816406 14.018705368041992188 14.022202491760253906 14.026335716247558594 14.030499458312988281 14.035380363464355469 14.04027557373046875 14.045983314514160156 14.051671028137207031 14.058226585388183594 14.064740180969238281 14.072252273559570312 14.079740524291992188 14.088390350341796875 14.097046852111816406 14.107073783874511719 14.117171287536621094 14.128937721252441406 14.140899658203125 14.154971122741699219 14.168849945068359375 14.179594993591308594 14.183977127075195312 14.183022499084472656 14.177166938781738281 14.164814949035644531 14.14662933349609375 14.118935585021972656 14.083820343017578125 14.041895866394042969 14.002973556518554688 13.962133407592773438 13.924322128295898438 13.884653091430664062 13.8478546142578125 13.809251785278320312 13.773371696472167969 13.735741615295410156 13.700702667236328125 13.663966178894042969 13.629697799682617188 13.593787193298339844 13.560238838195800781 13.525135040283203125 13.492334365844726562 13.457973480224609375 13.425675392150878906 13.391768455505371094 13.359848976135253906 13.326396942138671875 13.294893264770507812 13.261931419372558594 13.230843544006347656 13.198275566101074219 13.16748046875 13.1352691650390625 13.104803085327148438 13.072996139526367188 13.042902946472167969 13.011555671691894531 12.981906890869140625 12.951088905334472656 12.921935081481933594 12.891690254211425781 12.86307525634765625 12.833448410034179688 12.805414199829101562 12.776450157165527344 12.749042510986328125 12.720785140991210938 12.694049835205078125 12.666548728942871094 12.640532493591308594 12.613833427429199219 12.588583946228027344 12.56273651123046875 12.538300514221191406 12.513348579406738281 12.489766120910644531 12.465742111206054688 12.443035125732421875 12.419939041137695312 12.398073196411132812 12.375799179077148438 12.354580879211425781 12.332788467407226562 12.311526298522949219 12.28857421875 12.265066146850585938 12.23848724365234375 12.214823722839355469 12.110836029052734375 11.944958686828613281 11.773191452026367188 11.614029884338378906 11.466924667358398438 11.347970962524414062 11.253736495971679688 11.1847076416015625 11.130946159362792969 11.088972091674804688 11.05027008056640625 11.011675834655761719 10.969661712646484375 10.926855087280273438 10.881871223449707031 10.837534904479980469 10.792473793029785156 10.749110221862792969 10.70560455322265625 10.66379547119140625 10.621924400329589844 10.581669807434082031 10.541129112243652344 10.500750541687011719 10.457418441772460938 10.411204338073730469 10.358800888061523438 10.300744056701660156 10.235309600830078125 10.166851997375488281 10.095758438110351562 10.026698112487792969 9.9602231979370117188 9.8998155593872070312 9.8433666229248046875 9.79080963134765625 9.7392988204956054688 9.6885213851928710938 9.6359663009643554688 9.5829133987426757812 9.5298643112182617188 9.4796457290649414062 9.433208465576171875 9.3930683135986328125 
12.879691123962402344 12.851235389709472656 12.8252105712890625 12.801320075988769531 12.779150962829589844 12.757941246032714844 12.737573623657226562 12.717673301696777344 12.698262214660644531 12.679126739501953125 12.660399436950683594 12.64208984375 12.62425994873046875 12.606859207153320312 12.589936256408691406 12.573565483093261719 12.557892799377441406 12.543292045593261719 12.530246734619140625 12.518708229064941406 12.508486747741699219 12.49927520751953125 12.490756988525390625 12.483237266540527344 12.47686767578125 12.47119140625 12.465326309204101562 12.458455085754394531 12.449709892272949219 12.441357612609863281 12.442624092102050781 12.468587875366210938 12.537339210510253906 12.623617172241210938 12.720712661743164062 12.8250732421875 12.938216209411621094 13.057206153869628906 13.184451103210449219 13.316684722900390625 13.457150459289550781 13.602103233337402344 13.755048751831054688 13.9111328125 14.074687957763671875 14.240474700927734375 14.413661003112792969 14.58843994140625 14.770704269409179688 14.954121589660644531 15.146370887756347656 15.340371131896972656 15.542300224304199219 15.743523597717285156 15.951815605163574219 16.157854080200195312 16.367305755615234375 16.567995071411132812 16.767730712890625 16.955942153930664062 17.14113616943359375 17.310724258422851562 17.470149993896484375 17.610576629638671875 17.742443084716796875 17.861238479614257812 17.975606918334960938 18.080556869506835938 18.154088973999023438 18.145395278930664062 18.099710464477539062 18.22415924072265625 18.471561431884765625 18.396518707275390625 18.314861297607421875 18.236398696899414062 18.15570831298828125 18.077981948852539062 17.997556686401367188 17.91870880126953125 17.8358917236328125 17.754547119140625 17.6684722900390625 17.583959579467773438 17.495630264282226562 17.41011810302734375 17.320590972900390625 17.233203887939453125 17.141046524047851562 17.051271438598632812 16.956808090209960938 16.865367889404296875 16.770467758178710938 16.680027008056640625 16.586122512817382812 16.496583938598632812 16.403652191162109375 16.3152313232421875 16.22350311279296875 16.136560440063476562 16.046497344970703125 15.961414337158203125 15.873403549194335938 15.791069984436035156 15.706831932067871094 15.628479957580566406 15.54824066162109375 15.473704338073730469 15.397324562072753906 15.3264923095703125 15.253890037536621094 15.186743736267089844 15.118317604064941406 15.055791854858398438 14.992353439331054688 14.934442520141601562 14.875594139099121094 14.821913719177246094 14.767302513122558594 14.717545509338378906 14.666888236999511719 14.620824813842773438 14.574168205261230469 14.532268524169921875 14.490091323852539062 14.452337265014648438 14.414365768432617188 14.380496025085449219 14.34649658203125 14.316312789916992188 14.286112785339355469 14.259458541870117188 14.232854843139648438 14.2094879150390625 14.18630218505859375 14.166169166564941406 14.146404266357421875 14.129446983337402344 14.112916946411132812 14.098772048950195312 14.085028648376464844 14.073441505432128906 14.062363624572753906 14.053048133850097656 14.043995857238769531 14.03639984130859375 14.029150962829589844 14.023116111755371094 14.017323493957519531 14.01256561279296875 14.008141517639160156 14.004703521728515625 14.001755714416503906 13.999715805053710938 13.998271942138671875 13.997488021850585938 13.996953010559082031 13.996718406677246094 13.996747970581054688 13.997040748596191406 13.99764251708984375 13.998471260070800781 13.999670028686523438 14.001145362854003906 14.003220558166503906 14.005587577819824219 14.008646011352539062 14.011850357055664062 14.015658378601074219 14.019501686096191406 14.024021148681640625 14.028554916381835938 14.033852577209472656 14.039149284362792969 14.045307159423828125 14.051418304443359375 14.058457374572753906 14.065443992614746094 14.073497772216796875 14.081516265869140625 14.090769767761230469 14.100020408630371094 14.110727310180664062 14.121500015258789062 14.13404083251953125 14.146779060363769531 14.161746978759765625 14.17685699462890625 14.18955230712890625 14.195096969604492188 14.194712638854980469 14.188863754272460938 14.175830841064453125 14.156499862670898438 14.126557350158691406 14.088929176330566406 14.046174049377441406 14.006649971008300781 13.965185165405273438 13.9268035888671875 13.886541366577148438 13.849196434020996094 13.810025215148925781 13.773619651794433594 13.735439300537109375 13.699888229370117188 13.6626129150390625 13.627842903137207031 13.591403007507324219 13.557355880737304688 13.521693229675292969 13.488327980041503906 13.453442573547363281 13.420774459838867188 13.386563301086425781 13.354374885559082031 13.320631980895996094 13.28884124755859375 13.255565643310546875 13.224144935607910156 13.191206932067871094 13.160050392150878906 13.127448081970214844 13.096598625183105469 13.064378738403320312 13.03388214111328125 13.002092361450195312 12.972012519836425781 12.940732955932617188 12.9111328125 12.880412101745605469 12.851334571838378906 12.821215629577636719 12.792702674865722656 12.763227462768554688 12.735321998596191406 12.706534385681152344 12.679279327392578125 12.651221275329589844 12.624657630920410156 12.597371101379394531 12.571538925170898438 12.5450592041015625 12.519988059997558594 12.4943389892578125 12.470041275024414062 12.445214271545410156 12.421655654907226562 12.397562026977539062 12.374593734741210938 12.351000785827636719 12.328258514404296875 12.304393768310546875 12.280702590942382812 12.255399703979492188 12.229485511779785156 12.200732231140136719 12.176128387451171875 12.035847663879394531 11.874024391174316406 11.706988334655761719 11.552637100219726562 11.410371780395507812 11.295708656311035156 11.205325126647949219 11.139623641967773438 11.089037895202636719 11.050107002258300781 11.014672279357910156 10.9795074462890625 10.941111564636230469 10.901638031005859375 10.859549522399902344 10.817234992980957031 10.773121833801269531 10.729578971862792969 10.685070991516113281 10.641863822937011719 10.598531723022460938 10.557181358337402344 10.516162872314453125 10.475909233093261719 10.433134078979492188 10.3876953125 10.336127281188964844 10.2787628173828125 10.213856697082519531 10.145859718322753906 10.07530975341796875 10.006988525390625 9.9416189193725585938 9.8827142715454101562 9.8281297683715820312 9.7775907516479492188 9.7281484603881835938 9.6792774200439453125 9.6283693313598632812 9.576618194580078125 9.5245990753173828125 9.4751806259155273438 9.429393768310546875 9.3898077011108398438 
12.88881683349609375 12.860540390014648438 12.833567619323730469 12.808016777038574219 12.784359931945800781 12.761982917785644531 12.740694046020507812 12.720034599304199219 12.699978828430175781 12.680271148681640625 12.660938262939453125 12.641901969909667969 12.623332977294921875 12.605229377746582031 12.587628364562988281 12.570608139038085938 12.554347038269042969 12.539361000061035156 12.526426315307617188 12.515524864196777344 12.506045341491699219 12.497447967529296875 12.489719390869140625 12.482870101928710938 12.476117134094238281 12.468936920166015625 12.460745811462402344 12.451711654663085938 12.44245147705078125 12.434190750122070312 12.438370704650878906 12.488877296447753906 12.573089599609375 12.668285369873046875 12.772612571716308594 12.883207321166992188 13.001804351806640625 13.125492095947265625 13.256976127624511719 13.392970085144042969 13.536846160888671875 13.684640884399414062 13.840035438537597656 13.998244285583496094 14.163774490356445312 14.331390380859375 14.506386756896972656 14.682941436767578125 14.867051124572753906 15.052229881286621094 15.245793342590332031 15.440984725952148438 15.644227981567382812 15.846895217895507812 16.056882858276367188 16.265001296997070312 16.478137969970703125 16.683269500732421875 16.8879852294921875 17.081020355224609375 17.269105911254882812 17.43988800048828125 17.599941253662109375 17.74015045166015625 17.871034622192382812 17.988435745239257812 18.101184844970703125 18.1949615478515625 18.208551406860351562 18.163068771362304688 18.26544189453125 18.4863128662109375 18.416196823120117188 18.334598541259765625 18.2518310546875 18.172491073608398438 18.09100341796875 18.012598037719726562 17.931741714477539062 17.852766036987304688 17.7699432373046875 17.688833236694335938 17.603189468383789062 17.5191192626953125 17.431192398071289062 17.346210479736328125 17.257455825805664062 17.1710357666015625 17.079959869384765625 16.991289138793945312 16.898014068603515625 16.80767822265625 16.713666915893554688 16.624174118041992188 16.531335830688476562 16.44286346435546875 16.3510894775390625 16.263814926147460938 16.173315048217773438 16.08757781982421875 15.998785972595214844 15.914918899536132812 15.828145027160644531 15.746758460998535156 15.663504600524902344 15.586126327514648438 15.5069427490234375 15.433442115783691406 15.358179092407226562 15.288434982299804688 15.216999053955078125 15.150969505310058594 15.083531379699707031 15.021822929382324219 14.959239006042480469 14.902130126953125 14.844120025634765625 14.791226387023925781 14.737436294555664062 14.688448905944824219 14.638597488403320312 14.593285560607910156 14.547356605529785156 14.506113052368164062 14.464634895324707031 14.427547454833984375 14.390287399291992188 14.357092857360839844 14.323815345764160156 14.294313430786132812 14.264845848083496094 14.238879203796386719 14.21300506591796875 14.190329551696777344 14.167885780334472656 14.148449897766113281 14.129416465759277344 14.113132476806640625 14.097287178039550781 14.083764076232910156 14.07067108154296875 14.059682846069335938 14.049215316772460938 14.040410041809082031 14.031890869140625 14.024785041809082031 14.018040657043457031 14.012441635131835938 14.007109642028808594 14.002777099609375 13.998810768127441406 13.995801925659179688 13.993311882019042969 13.991693496704101562 13.990687370300292969 13.990221023559570312 13.9900054931640625 13.990064620971679688 13.99040985107421875 13.990992546081542969 13.991909980773925781 13.993027687072753906 13.994556427001953125 13.996371269226074219 13.998820304870605469 14.0015411376953125 14.004973411560058594 14.008495330810546875 14.012653350830078125 14.0168304443359375 14.021724700927734375 14.026618003845214844 14.032318115234375 14.038006782531738281 14.044595718383789062 14.051119804382324219 14.058628082275390625 14.066077232360839844 14.074658393859863281 14.083193778991699219 14.093034744262695312 14.102864265441894531 14.114233016967773438 14.12566375732421875 14.138963699340820312 14.152461051940917969 14.168303489685058594 14.184507369995117188 14.1993865966796875 14.206288337707519531 14.20658111572265625 14.2006072998046875 14.18682098388671875 14.166104316711425781 14.133351325988769531 14.093507766723632812 14.050098419189453125 14.010004043579101562 13.967947006225585938 13.929024696350097656 13.888200759887695312 13.850339889526367188 13.810629844665527344 13.773724555969238281 13.735021591186523438 13.69898223876953125 13.661195755004882812 13.625946998596191406 13.589001655578613281 13.554479598999023438 13.518316268920898438 13.484471321105957031 13.449040412902832031 13.415845870971679688 13.381151199340820312 13.348602294921875 13.314543724060058594 13.282472610473632812 13.248888015747070312 13.217143058776855469 13.183848381042480469 13.152339935302734375 13.119356155395507812 13.088133811950683594 13.055509567260742188 13.024617195129394531 12.992397308349609375 12.96189117431640625 12.930156707763671875 12.900112152099609375 12.868917465209960938 12.83937835693359375 12.808765411376953125 12.779770851135253906 12.749781608581542969 12.721371650695800781 12.692044258117675781 12.664257049560546875 12.635628700256347656 12.608496665954589844 12.580597877502441406 12.554149627685546875 12.526997566223144531 12.501239776611328125 12.474825859069824219 12.44972991943359375 12.423984527587890625 12.399442672729492188 12.374217987060546875 12.350022315979003906 12.324883460998535156 12.300370216369628906 12.27471160888671875 12.249439239501953125 12.222226142883300781 12.193818092346191406 12.166651725769042969 12.123799324035644531 11.968506813049316406 11.810566902160644531 11.647930145263671875 11.497918128967285156 11.359872817993164062 11.248785018920898438 11.161416053771972656 11.09818267822265625 11.049890518188476562 11.013194084167480469 10.980291366577148438 10.94797515869140625 10.912734031677246094 10.876256942749023438 10.836808204650878906 10.79633331298828125 10.753025054931640625 10.709181785583496094 10.663534164428710938 10.618757247924804688 10.573720932006835938 10.530950546264648438 10.489020347595214844 10.448411941528320312 10.405719757080078125 10.360684394836425781 10.309734344482421875 10.253079414367675781 10.188961982727050781 10.121852874755859375 10.052385330200195312 9.9853687286376953125 9.9216279983520507812 9.8646554946899414062 9.8122806549072265625 9.7640361785888671875 9.7169055938720703125 9.6701822280883789062 9.6211805343627929688 9.571010589599609375 9.5203065872192382812 9.4719533920288085938 9.4270410537719726562 9.3881635665893554688 
12.896285057067871094 12.868488311767578125 12.841641426086425781 12.815580368041992188 12.790761947631835938 12.767107009887695312 12.74471282958984375 12.723140716552734375 12.702326774597167969 12.681965827941894531 12.662049293518066406 12.64240264892578125 12.623053550720214844 12.604025840759277344 12.585453987121582031 12.567437171936035156 12.550184249877929688 12.534516334533691406 12.522046089172363281 12.512394905090332031 12.504031181335449219 12.496516227722167969 12.489251136779785156 12.481676101684570312 12.473406791687011719 12.464329719543457031 12.454572677612304688 12.4445953369140625 12.434819221496582031 12.426373481750488281 12.442125320434570312 12.516149520874023438 12.610955238342285156 12.713654518127441406 12.824560165405273438 12.94073486328125 13.064296722412109375 13.192385673522949219 13.327908515930175781 13.46752166748046875 13.614716529846191406 13.765389442443847656 13.923346519470214844 14.08383941650390625 14.251540184020996094 14.421216964721679688 14.598265647888183594 14.776827812194824219 14.96300506591796875 15.150257110595703125 15.345568656921386719 15.542185783386230469 15.746957778930664062 15.951296806335449219 16.163204193115234375 16.373523712158203125 16.5903167724609375 16.800563812255859375 17.0111236572265625 17.210222244262695312 17.404039382934570312 17.577531814575195312 17.738445281982421875 17.878406524658203125 18.007999420166015625 18.123579025268554688 18.2323455810546875 18.2758026123046875 18.231977462768554688 18.22037506103515625 18.520204544067382812 18.43854522705078125 18.3514556884765625 18.268650054931640625 18.184743881225585938 18.104524612426757812 18.022247314453125 17.943166732788085938 17.861835479736328125 17.78276824951171875 17.699975967407226562 17.619115829467773438 17.533964157104492188 17.45043182373046875 17.362943649291992188 17.278474807739257812 17.190448760986328125 17.104997634887695312 17.015041351318359375 16.927511215209960938 16.835474014282226562 16.74634552001953125 16.653285980224609375 16.564685821533203125 16.472871780395507812 16.385442733764648438 16.29480743408203125 16.208675384521484375 16.119411468505859375 16.0348968505859375 15.947413444519042969 15.864796638488769531 15.779344558715820312 15.699000358581542969 15.616724967956542969 15.540323257446289062 15.462206840515136719 15.389761924743652344 15.315644264221191406 15.247022628784179688 15.176801681518554688 15.111963272094726562 15.045690536499023438 14.984867095947265625 14.923187255859375 14.866932868957519531 14.809818267822265625 14.757765769958496094 14.704859733581542969 14.656702041625976562 14.607722282409667969 14.563232421875 14.518117904663085938 14.477578163146972656 14.43685150146484375 14.400483131408691406 14.363993644714355469 14.331533432006835938 14.299043655395507812 14.270291328430175781 14.241627693176269531 14.216416358947753906 14.191349029541015625 14.169438362121582031 14.14781951904296875 14.129155158996582031 14.110933303833007812 14.095394134521484375 14.080300331115722656 14.067461967468261719 14.055088996887207031 14.04476165771484375 14.034951210021972656 14.026700019836425781 14.018764495849609375 14.012195587158203125 14.005991935729980469 14.000864028930664062 13.996033668518066406 13.992163658142089844 13.98870086669921875 13.986162185668945312 13.984173774719238281 13.9830169677734375 13.982465744018554688 13.98232269287109375 13.982446670532226562 13.982818603515625 13.983499526977539062 13.984393119812011719 13.985645294189453125 13.987073898315429688 13.988972663879394531 13.991156578063964844 13.994013786315917969 13.997118949890136719 14.000940322875976562 14.004801750183105469 14.009339332580566406 14.013880729675292969 14.019179344177246094 14.024463653564453125 14.030603408813476562 14.036716461181640625 14.04376983642578125 14.050745010375976562 14.058767318725585938 14.066722869873046875 14.075880050659179688 14.084979057312011719 14.095460891723632812 14.105923652648925781 14.118017196655273438 14.130169868469238281 14.144300460815429688 14.158632278442382812 14.175440788269042969 14.192684173583984375 14.210124969482421875 14.218895912170410156 14.220044136047363281 14.213823318481445312 14.199077606201171875 14.176404953002929688 14.139800071716308594 14.098204612731933594 14.054128646850585938 14.013425827026367188 13.97074127197265625 13.931246757507324219 13.889828681945800781 13.851420402526855469 13.811138153076171875 13.773703575134277344 13.734444618225097656 13.697885513305664062 13.659552574157714844 13.623789787292480469 13.586304664611816406 13.551273345947265625 13.5145721435546875 13.480219841003417969 13.444251060485839844 13.410534858703613281 13.375258445739746094 13.342156410217285156 13.307569503784179688 13.275073051452636719 13.241089820861816406 13.208974838256835938 13.175289154052734375 13.143397331237792969 13.109997749328613281 13.078364372253417969 13.045296669006347656 13.013966560363769531 12.981273651123046875 12.950296401977539062 12.91805267333984375 12.887513160705566406 12.855787277221679688 12.8257293701171875 12.794560432434082031 12.765021324157714844 12.734446525573730469 12.705461502075195312 12.67551422119140625 12.647113800048828125 12.617819786071777344 12.590024948120117188 12.561399459838867188 12.534214973449707031 12.50624847412109375 12.479649543762207031 12.452289581298828125 12.426210403442382812 12.399370193481445312 12.373674392700195312 12.347079277038574219 12.321379661560058594 12.294691085815429688 12.268817901611328125 12.241700172424316406 12.214724540710449219 12.185278892517089844 12.154016494750976562 12.142459869384765625 12.053403854370117188 11.901572227478027344 11.747469902038574219 11.589014053344726562 11.442998886108398438 11.308719635009765625 11.200695037841796875 11.115782737731933594 11.054456710815429688 11.007899284362792969 10.972933769226074219 10.942116737365722656 10.912301063537597656 10.879961013793945312 10.846317291259765625 10.809428215026855469 10.770791053771972656 10.728353500366210938 10.684329986572265625 10.637684822082519531 10.591467857360839844 10.544814109802246094 10.500630378723144531 10.457698822021484375 10.416581153869628906 10.373801231384277344 10.329031944274902344 10.278654098510742188 10.222795486450195312 10.159698486328125 10.09380340576171875 10.025799751281738281 9.9604663848876953125 9.8986911773681640625 9.8439016342163085938 9.7939233779907226562 9.7481431961059570312 9.7035150527954101562 9.6591825485229492188 9.6124286651611328125 9.564273834228515625 9.5153760910034179688 9.4685869216918945312 9.425018310546875 9.387237548828125 
12.901169776916503906 12.873927116394042969 12.847304344177246094 12.821328163146972656 12.796403884887695312 12.772278785705566406 12.749173164367675781 12.726793289184570312 12.705221176147460938 12.684214591979980469 12.663786888122558594 12.643719673156738281 12.623953819274902344 12.604346275329589844 12.584882736206054688 12.565601348876953125 12.546681404113769531 12.529474258422851562 12.518769264221191406 12.510955810546875 12.503450393676757812 12.49579620361328125 12.48775482177734375 12.479308128356933594 12.470367431640625 12.460996627807617188 12.451007843017578125 12.440407752990722656 12.429107666015625 12.419529914855957031 12.453770637512207031 12.543161392211914062 12.645478248596191406 12.754301071166992188 12.870443344116210938 12.991164207458496094 13.118869781494140625 13.250684738159179688 13.389654159545898438 13.532362937927246094 13.682428359985351562 13.835693359375 13.996037483215332031 14.158727645874023438 14.32855987548828125 14.500252723693847656 14.67929840087890625 14.859807014465332031 15.047984123229980469 15.237253189086914062 15.434544563293457031 15.632662773132324219 15.838956832885742188 16.044973373413085938 16.258825302124023438 16.471311569213867188 16.691083908081054688 16.906259536743164062 17.122829437255859375 17.328374862670898438 17.529201507568359375 17.70772552490234375 17.87003326416015625 18.009698867797851562 18.137744903564453125 18.251157760620117188 18.334852218627929688 18.308551788330078125 18.272247314453125 18.482608795166015625 18.465450286865234375 18.378282546997070312 18.29000091552734375 18.2061004638671875 18.12115478515625 18.040128707885742188 17.957157135009765625 17.87747955322265625 17.79567718505859375 17.7165374755859375 17.633817672729492188 17.5531768798828125 17.46851348876953125 17.385547637939453125 17.298513412475585938 17.2144927978515625 17.12708282470703125 17.042461395263671875 16.953533172607421875 16.867052078247070312 16.776159286499023438 16.688169479370117188 16.596097946166992188 16.508241653442382812 16.417293548583984375 16.330759048461914062 16.241121292114257812 16.155994415283203125 16.067831039428710938 15.984416007995605469 15.898126602172851562 15.816658973693847656 15.732431411743164062 15.653156280517578125 15.5717620849609375 15.496227264404296875 15.419071197509765625 15.347580909729003906 15.274509429931640625 15.206919670104980469 15.137821197509765625 15.074099540710449219 15.009001731872558594 14.949088096618652344 14.888265609741210938 14.832819938659667969 14.776556968688964844 14.725309371948242188 14.673249244689941406 14.625888824462890625 14.577747344970703125 14.5340576171875 14.4897613525390625 14.4499053955078125 14.409897804260253906 14.374217987060546875 14.338472366333007812 14.306723594665527344 14.274999618530273438 14.246978759765625 14.219101905822753906 14.194629669189453125 14.170354843139648438 14.149199485778808594 14.128396987915039062 14.110491752624511719 14.093069076538085938 14.078258514404296875 14.063897132873535156 14.051731109619140625 14.040063858032226562 14.030385017395019531 14.021196365356445312 14.01348114013671875 14.006114006042480469 14.000065803527832031 13.994374275207519531 13.989703178405761719 13.985358238220214844 13.981939315795898438 13.978969573974609375 13.976888656616210938 13.9753875732421875 13.974679946899414062 13.974529266357421875 13.974687576293945312 13.975131988525390625 13.975800514221191406 13.976799964904785156 13.977987289428710938 13.979557037353515625 13.981286048889160156 13.983553886413574219 13.986097335815429688 13.989350318908691406 13.992823600769042969 13.997002601623535156 14.001192092895507812 14.006096839904785156 14.010986328125 14.0166778564453125 14.022339820861816406 14.02890777587890625 14.035428047180175781 14.04293060302734375 14.050344467163085938 14.058868408203125 14.067319869995117188 14.077035903930664062 14.086682319641113281 14.097787857055664062 14.108867645263671875 14.121669769287109375 14.134528160095214844 14.149474143981933594 14.164626121520996094 14.182384490966796875 14.200564384460449219 14.220302581787109375 14.231484413146972656 14.233551979064941406 14.227078437805175781 14.211175918579101562 14.185930252075195312 14.14510345458984375 14.102517127990722656 14.057806015014648438 14.016530990600585938 13.973256111145019531 13.933222770690917969 13.891244888305664062 13.852321624755859375 13.81150054931640625 13.773565292358398438 13.733778953552246094 13.696727752685546875 13.65787506103515625 13.621624946594238281 13.583622932434082031 13.548105239868164062 13.510890007019042969 13.476050376892089844 13.439566612243652344 13.405363082885742188 13.369568824768066406 13.335965156555175781 13.3008270263671875 13.267801284790039062 13.233271598815917969 13.200673103332519531 13.166523933410644531 13.134218215942382812 13.100394248962402344 13.068353652954101562 13.034846305847167969 13.003087043762207031 12.969926834106445312 12.938485145568847656 12.905735969543457031 12.874701499938964844 12.842444419860839844 12.811863899230957031 12.780134201049804688 12.750042915344238281 12.718873023986816406 12.689298629760742188 12.658715248107910156 12.629677772521972656 12.599690437316894531 12.571196556091308594 12.541803359985351562 12.5138397216796875 12.485016822814941406 12.457555770874023438 12.429250717163085938 12.402189254760742188 12.374215126037597656 12.347340583801269531 12.319535255432128906 12.292751312255859375 12.26493072509765625 12.2378387451171875 12.209233283996582031 12.180512428283691406 12.148797988891601562 12.114740371704101562 12.111931800842285156 11.991794586181640625 11.842996597290039062 11.691997528076171875 11.536731719970703125 11.393635749816894531 11.261997222900390625 11.156033515930175781 11.072684288024902344 11.012516021728515625 10.9669952392578125 10.933104515075683594 10.903689384460449219 10.875672340393066406 10.845509529113769531 10.814075469970703125 10.779263496398925781 10.742228507995605469 10.700732231140136719 10.656895637512207031 10.609854698181152344 10.562892913818359375 10.515328407287597656 10.470320701599121094 10.426798820495605469 10.385394096374511719 10.342616081237792969 10.298122406005859375 10.248293876647949219 10.193221092224121094 10.131160736083984375 10.066493034362792969 9.9999294281005859375 9.9361753463745117188 9.876148223876953125 9.823200225830078125 9.7751941680908203125 9.7314453125 9.6889438629150390625 9.64676666259765625 9.6022243499755859375 9.556247711181640625 9.5094728469848632812 9.4646463394165039062 9.4228420257568359375 9.3865404129028320312 
12.904305458068847656 12.877124786376953125 12.850831031799316406 12.8250274658203125 12.8001861572265625 12.776098251342773438 12.7529754638671875 12.730554580688476562 12.708972930908203125 12.688013076782226562 12.667620658874511719 12.647588729858398438 12.627894401550292969 12.608401298522949219 12.589072227478027344 12.569870948791503906 12.5509033203125 12.533965110778808594 12.522194862365722656 12.512739181518554688 12.503875732421875 12.495298385620117188 12.486783981323242188 12.478168487548828125 12.4691619873046875 12.459729194641113281 12.449658393859863281 12.438920974731445312 12.427224159240722656 12.418123245239257812 12.472704887390136719 12.571681976318359375 12.680636405944824219 12.794884681701660156 12.915787696838378906 13.040747642517089844 13.172358512878417969 13.307697296142578125 13.449914932250976562 13.595561981201171875 13.748385429382324219 13.904273033142089844 14.067188262939453125 14.232279777526855469 14.404422760009765625 14.578290939331054688 14.759484291076660156 14.942081451416015625 15.132396697998046875 15.32381439208984375 15.523348808288574219 15.723311424255371094 15.931288719177246094 16.139141082763671875 16.355133056640625 16.570034027099609375 16.79271697998046875 17.012577056884765625 17.23595428466796875 17.449094772338867188 17.6584625244140625 17.845310211181640625 18.010662078857421875 18.149919509887695312 18.27581787109375 18.38108062744140625 18.390752792358398438 18.351156234741210938 18.528699874877929688 18.494756698608398438 18.402112960815429688 18.313829421997070312 18.22435760498046875 18.139341354370117188 18.053323745727539062 17.9714508056640625 17.887784957885742188 17.807516098022460938 17.725200653076171875 17.645948410034179688 17.563344955444335938 17.48293304443359375 17.3987884521484375 17.316463470458984375 17.230014801025390625 17.146440505981445312 17.059617996215820312 16.9757537841796875 16.887874603271484375 16.802476882934570312 16.7127685546875 16.62596893310546875 16.535070419311523438 16.44795989990234375 16.35781097412109375 16.272127151489257812 16.183450698852539062 16.09931182861328125 16.012247085571289062 15.929942131042480469 15.844865798950195312 15.764589309692382812 15.681626319885253906 15.603556632995605469 15.523130416870117188 15.448456764221191406 15.372263908386230469 15.301746368408203125 15.229746818542480469 15.1632232666015625 15.095295906066894531 15.032740592956542969 14.968907356262207031 14.910096168518066406 14.850206375122070312 14.795625686645507812 14.740275382995605469 14.689893722534179688 14.638746261596679688 14.592248916625976562 14.545020103454589844 14.502205848693847656 14.458826065063476562 14.419741630554199219 14.380505561828613281 14.345571517944335938 14.310632705688476562 14.279659271240234375 14.248774528503417969 14.221558570861816406 14.194548606872558594 14.170891761779785156 14.147496223449707031 14.1271820068359375 14.107283592224121094 14.090220451354980469 14.073682785034179688 14.059666633605957031 14.046110153198242188 14.034684181213378906 14.023797035217285156 14.01482391357421875 14.006293296813964844 13.999166488647460938 13.992419242858886719 13.986932754516601562 13.981787681579589844 13.977613449096679688 13.973798751831054688 13.970875740051269531 13.968447685241699219 13.966868400573730469 13.965901374816894531 13.965672492980957031 13.965907096862792969 13.966383934020996094 13.96717071533203125 13.9681549072265625 13.969492912292480469 13.970993995666503906 13.972903251647949219 13.974967002868652344 13.977647781372070312 13.980584144592285156 13.984271049499511719 13.988126754760742188 13.992682456970214844 13.997227668762207031 14.002529144287109375 14.007801055908203125 14.013920783996582031 14.019995689392089844 14.027029991149902344 14.03398895263671875 14.041983604431152344 14.049880027770996094 14.058957099914550781 14.067946434020996094 14.078269004821777344 14.088512420654296875 14.100300788879394531 14.112061500549316406 14.12564849853515625 14.139292716979980469 14.155145645141601562 14.171209335327148438 14.19002532958984375 14.209179878234863281 14.230893135070800781 14.245433807373046875 14.248754501342773438 14.242066383361816406 14.224483489990234375 14.195051193237304688 14.150243759155273438 14.106960296630859375 14.061574935913085938 14.019692420959472656 13.975793838500976562 13.935193061828613281 13.892625808715820312 13.853157997131347656 13.811766624450683594 13.773299217224121094 13.732953071594238281 13.695377349853515625 13.655969619750976562 13.619195938110351562 13.580640792846679688 13.544599533081054688 13.506829261779785156 13.471463203430175781 13.434422492980957031 13.399687767028808594 13.363332748413085938 13.329195022583007812 13.293490409851074219 13.259920120239257812 13.224790573120117188 13.191603660583496094 13.156831741333007812 13.123949050903320312 13.08953857421875 13.056963920593261719 13.022909164428710938 12.990633010864257812 12.956928253173828125 12.924956321716308594 12.891631126403808594 12.860033035278320312 12.82717132568359375 12.795996665954589844 12.763627052307128906 12.73290252685546875 12.7010498046875 12.670798301696777344 12.639478683471679688 12.609710693359375 12.578932762145996094 12.549653053283691406 12.519410133361816406 12.490597724914550781 12.460843086242675781 12.432423591613769531 12.403054237365722656 12.374937057495117188 12.345890045166015625 12.318007469177246094 12.289132118225097656 12.26123809814453125 12.232147216796875 12.203667640686035156 12.173359870910644531 12.142656326293945312 12.108417510986328125 12.088051795959472656 12.060158729553222656 11.931170463562011719 11.785401344299316406 11.637221336364746094 11.484628677368164062 11.343812942504882812 11.214089393615722656 11.109485626220703125 11.027031898498535156 10.967411994934082031 10.922333717346191406 10.888955116271972656 10.860365867614746094 10.833578109741210938 10.805051803588867188 10.775387763977050781 10.742368698120117188 10.706869125366210938 10.666530609130859375 10.623362541198730469 10.576617240905761719 10.529688835144042969 10.482015609741210938 10.436887741088867188 10.393332481384277344 10.352032661437988281 10.309534072875976562 10.265503883361816406 10.21636962890625 10.162213325500488281 10.101313591003417969 10.037972450256347656 9.9728870391845703125 9.910663604736328125 9.8522176742553710938 9.800830841064453125 9.7544374465942382812 9.7123737335205078125 9.6717319488525390625 9.6316022872924804688 9.5893955230712890625 9.5459423065185546875 9.501811981201171875 9.4595499038696289062 9.4201374053955078125 9.3858690261840820312 
12.906285285949707031 12.878125190734863281 12.851578712463378906 12.825943946838378906 12.801276206970214844 12.777326583862304688 12.75466156005859375 12.733127593994140625 12.712449073791503906 12.69228363037109375 12.672632217407226562 12.653310775756835938 12.634305000305175781 12.615498542785644531 12.596892356872558594 12.578589439392089844 12.561155319213867188 12.54634857177734375 12.5335693359375 12.521634101867675781 12.510417938232421875 12.499654769897460938 12.489235877990722656 12.479411125183105469 12.469961166381835938 12.46044158935546875 12.450399398803710938 12.439891815185546875 12.429055213928222656 12.427869796752929688 12.494107246398925781 12.598201751708984375 12.712185859680175781 12.830669403076171875 12.95543670654296875 13.083831787109375 13.218576431274414062 13.356751441955566406 13.501654624938964844 13.649799346923828125 13.805024147033691406 13.96327972412109375 14.128621101379394531 14.295988082885742188 14.4703521728515625 14.646334648132324219 14.829619407653808594 15.014218330383300781 15.206546783447265625 15.399965286254882812 15.601549148559570312 15.803392410278320312 16.013109207153320312 16.222703933715820312 16.44071197509765625 16.657907485961914062 16.883340835571289062 17.106767654418945312 17.336458206176757812 17.557435989379882812 17.775903701782226562 17.972879409790039062 18.14376068115234375 18.282581329345703125 18.405767440795898438 18.469125747680664062 18.432111740112304688 18.568805694580078125 18.529069900512695312 18.435758590698242188 18.34197235107421875 18.252712249755859375 18.162206649780273438 18.076175689697265625 17.989185333251953125 17.906499862670898438 17.82221221923828125 17.741420745849609375 17.658632278442382812 17.579196929931640625 17.496732711791992188 17.416543960571289062 17.332853317260742188 17.251161575317382812 17.165370941162109375 17.082223892211914062 16.995906829833984375 16.912637710571289062 16.825666427612304688 16.7412567138671875 16.6526336669921875 16.56693267822265625 16.47721099853515625 16.390869140625 16.301357269287109375 16.21636962890625 16.128505706787109375 16.045217514038085938 15.959116935729980469 15.877798080444335938 15.793808937072753906 15.714620590209960938 15.632815361022949219 15.55588531494140625 15.476497650146484375 15.402586936950683594 15.32724761962890625 15.257601737976074219 15.186575889587402344 15.121029853820800781 15.054183006286621094 14.992712974548339844 14.930050849914550781 14.872364044189453125 14.813449859619140625 14.759688377380371094 14.705206871032714844 14.655650138854980469 14.605378150939941406 14.559710502624511719 14.513363838195800781 14.471399307250976562 14.428920745849609375 14.390625953674316406 14.35213470458984375 14.317914009094238281 14.283751487731933594 14.253528594970703125 14.223459243774414062 14.19702911376953125 14.170866012573242188 14.148006439208984375 14.125476837158203125 14.105993270874023438 14.08698272705078125 14.070743560791015625 14.055071830749511719 14.041820526123046875 14.029048919677734375 14.018345832824707031 14.008219718933105469 13.999914169311523438 13.992005348205566406 13.985446929931640625 13.979302406311035156 13.974343299865722656 13.96971893310546875 13.966025352478027344 13.962723731994628906 13.960286140441894531 13.958383560180664062 13.957289695739746094 13.956839561462402344 13.957036972045898438 13.957607269287109375 13.958386421203613281 13.959494590759277344 13.960776329040527344 13.962434768676757812 13.964231491088867188 13.966462135314941406 13.968869209289550781 13.971953392028808594 13.975269317626953125 13.979372978210449219 13.983572959899902344 13.988488197326660156 13.993375778198242188 13.99906158447265625 14.004700660705566406 14.011235237121582031 14.017712593078613281 14.025193214416503906 14.032574653625488281 14.041044235229492188 14.049405097961425781 14.059006690979003906 14.068501472473144531 14.079397201538085938 14.090206146240234375 14.102648735046386719 14.1150665283203125 14.129426002502441406 14.14385986328125 14.160642623901367188 14.177641868591308594 14.197495460510253906 14.217528343200683594 14.240588188171386719 14.258715629577636719 14.263883590698242188 14.257081985473632812 14.237155914306640625 14.20209503173828125 14.154920578002929688 14.1110076904296875 14.064990043640136719 14.022539138793945312 13.978062629699707031 13.936932563781738281 13.893815040588378906 13.853838920593261719 13.811913490295410156 13.772948265075683594 13.732074737548828125 13.694003105163574219 13.654069900512695312 13.616799354553222656 13.577717781066894531 13.541176795959472656 13.502874374389648438 13.467004776000976562 13.429427146911621094 13.394183158874511719 13.357286453247070312 13.3226318359375 13.286380767822265625 13.252286911010742188 13.216594696044921875 13.182862281799316406 13.147505760192871094 13.114055633544921875 13.079036712646484375 13.045878410339355469 13.011209487915039062 12.978352546691894531 12.944039344787597656 12.911485671997070312 12.877544403076171875 12.845353126525878906 12.811862945556640625 12.780078887939453125 12.747059822082519531 12.715701103210449219 12.683169364929199219 12.652251243591308594 12.62021636962890625 12.589741706848144531 12.558198928833007812 12.528154373168945312 12.49707794189453125 12.467432975769042969 12.436789512634277344 12.407509803771972656 12.37725067138671875 12.348269462585449219 12.318286895751953125 12.289453506469726562 12.259523391723632812 12.230527877807617188 12.20017242431640625 12.170301437377929688 12.138289451599121094 12.105625152587890625 12.068960189819335938 12.069154739379882812 12.005582809448242188 11.87720489501953125 11.734414100646972656 11.5888671875 11.438630104064941406 11.299683570861816406 11.171366691589355469 11.067561149597167969 10.985364913940429688 10.925634384155273438 10.880279541015625 10.846688270568847656 10.81815338134765625 10.791838645935058594 10.764208793640136719 10.735691070556640625 10.703989982604980469 10.669777870178222656 10.630634307861328125 10.588448524475097656 10.542531967163085938 10.496283531188964844 10.449205398559570312 10.404599189758300781 10.361551284790039062 10.320772171020507812 10.278864860534667969 10.235520362854003906 10.187236785888671875 10.134105682373046875 10.074429512023925781 10.012412071228027344 9.9487209320068359375 9.887859344482421875 9.830707550048828125 9.7804813385009765625 9.7352228164672851562 9.6943502426147460938 9.6551084518432617188 9.6166667938232421875 9.5765810012817382812 9.5355968475341796875 9.4941730499267578125 9.4546155929565429688 9.4177684783935546875 9.3857088088989257812 
12.907240867614746094 12.877812385559082031 12.85041046142578125 12.824341773986816406 12.799741744995117188 12.776799201965332031 12.755646705627441406 12.735507965087890625 12.716092109680175781 12.697093963623046875 12.67850494384765625 12.660141944885253906 12.641998291015625 12.624057769775390625 12.606489181518554688 12.589596748352050781 12.573950767517089844 12.560330390930175781 12.547394752502441406 12.53461456298828125 12.521981239318847656 12.509575843811035156 12.497196197509765625 12.485076904296875 12.473576545715332031 12.46315765380859375 12.453206062316894531 12.443338394165039062 12.433642387390136719 12.440294265747070312 12.518841743469238281 12.626120567321777344 12.744050979614257812 12.866209983825683594 12.994273185729980469 13.125591278076171875 13.263163566589355469 13.404024124145507812 13.5515289306640625 13.702129364013671875 13.859795570373535156 14.020396232604980469 14.188213348388671875 14.357989311218261719 14.534714698791503906 14.712967872619628906 14.89852142333984375 15.085309982299804688 15.279815673828125 15.475327491760253906 15.678913116455078125 15.882672309875488281 16.094442367553710938 16.305973052978515625 16.526082992553710938 16.745647430419921875 16.973941802978515625 17.200756072998046875 17.435777664184570312 17.66547393798828125 17.894918441772460938 18.104839324951171875 18.285726547241210938 18.424224853515625 18.531925201416015625 18.528682708740234375 18.623140335083007812 18.56655120849609375 18.466836929321289062 18.372400283813476562 18.277460098266601562 18.187221527099609375 18.095714569091796875 18.008647918701171875 17.920650482177734375 17.83708953857421875 17.75214385986328125 17.670833587646484375 17.5875701904296875 17.50783538818359375 17.425512313842773438 17.34558868408203125 17.26232147216796875 17.181314468383789062 17.096311569213867188 17.013708114624023438 16.927873611450195312 16.845148086547851562 16.758983612060546875 16.675584793090820312 16.588079452514648438 16.503519058227539062 16.415050506591796875 16.329713821411132812 16.240797042846679688 16.156427383422851562 16.069309234619140625 15.986834526062011719 15.901682853698730469 15.821345329284667969 15.738451957702636719 15.660372734069824219 15.579773902893066406 15.504023551940917969 15.42586517333984375 15.352811813354492188 15.2783203125 15.209553718566894531 15.139523506164550781 15.074990272521972656 15.00927734375 14.948943138122558594 14.88748931884765625 14.831007957458496094 14.773296356201171875 14.720444679260253906 14.666897773742675781 14.618233680725097656 14.568910598754882812 14.524145126342773438 14.478765487670898438 14.437738418579101562 14.396250724792480469 14.358869552612304688 14.321224212646484375 14.287772178649902344 14.25445556640625 14.225053787231445312 14.195881843566894531 14.170320510864257812 14.145089149475097656 14.12311553955078125 14.101553916931152344 14.082998275756835938 14.064971923828125 14.04964447021484375 14.034922599792480469 14.022500038146972656 14.010591506958007812 14.000685691833496094 13.991395950317382812 13.983783721923828125 13.976549148559570312 13.970613479614257812 13.965124130249023438 13.960719108581542969 13.956660270690917969 13.9534912109375 13.950753211975097656 13.9488525390625 13.947526931762695312 13.946964263916015625 13.947071075439453125 13.947664260864257812 13.948582649230957031 13.949681282043457031 13.951132774353027344 13.952731132507324219 13.954729080200195312 13.956841468811035156 13.959432601928710938 13.962231636047363281 13.965758323669433594 13.969492912292480469 13.974030494689941406 13.978585243225097656 13.983892440795898438 13.989153861999511719 13.995258331298828125 14.001299858093261719 14.008290290832519531 14.015208244323730469 14.02317047119140625 14.031002998352050781 14.039981842041015625 14.048841476440429688 14.0590057373046875 14.069042205810546875 14.080552101135253906 14.091969490051269531 14.105112075805664062 14.118234634399414062 14.133421897888183594 14.148711204528808594 14.166524887084960938 14.184614181518554688 14.205638885498046875 14.226695060729980469 14.250719070434570312 14.272204399108886719 14.280863761901855469 14.274051666259765625 14.249758720397949219 14.208130836486816406 14.159729957580566406 14.115148544311523438 14.068464279174804688 14.025424003601074219 13.980341911315917969 13.93865966796875 13.894968032836914062 13.854458808898925781 13.811970710754394531 13.772477149963378906 13.731045722961425781 13.692445755004882812 13.651949882507324219 13.614148139953613281 13.574498176574707031 13.537418365478515625 13.498540878295898438 13.462124824523925781 13.423964500427246094 13.388164520263671875 13.350675582885742188 13.315456390380859375 13.278604507446289062 13.243935585021972656 13.207629203796386719 13.173303604125976562 13.137312889099121094 13.103249549865722656 13.067577362060546875 13.033785820007324219 12.998440742492675781 12.964928627014160156 12.929919242858886719 12.896693229675292969 12.862032890319824219 12.829149246215820312 12.794927597045898438 12.762439727783203125 12.728673934936523438 12.696591377258300781 12.663287162780761719 12.631613731384277344 12.598772048950195312 12.567506790161132812 12.535122871398925781 12.504256248474121094 12.472311973571777344 12.441820144653320312 12.410279273986816406 12.380112648010253906 12.348901748657226562 12.318965911865234375 12.287945747375488281 12.258054733276367188 12.226950645446777344 12.196722984313964844 12.164953231811523438 12.133511543273925781 12.099597930908203125 12.064785003662109375 12.034757614135742188 12.054986953735351562 11.946148872375488281 11.821415901184082031 11.682310104370117188 11.540073394775390625 11.392808914184570312 11.256175041198730469 11.129469871520996094 11.026357650756835938 10.943981170654296875 10.883462905883789062 10.836977005004882812 10.802274703979492188 10.772902488708496094 10.746301651000976562 10.718937873840332031 10.691113471984863281 10.6604461669921875 10.627444267272949219 10.589618682861328125 10.548727035522460938 10.504111289978027344 10.459097862243652344 10.413227081298828125 10.369739532470703125 10.327763557434082031 10.287993431091308594 10.247132301330566406 10.2048797607421875 10.157822608947753906 10.106054306030273438 10.047914505004882812 9.9874744415283203125 9.9253644943237304688 9.8659496307373046875 9.8100605010986328125 9.7608470916748046875 9.7164888381958007812 9.6765499114990234375 9.6384735107421875 9.601573944091796875 9.5635929107666015625 9.5252027511596679688 9.4867124557495117188 9.4501504898071289062 9.4161729812622070312 9.3865900039672851562 
12.906601905822753906 12.875926017761230469 12.847752571105957031 12.821315765380859375 12.797603607177734375 12.7763671875 12.756784439086914062 12.738110542297363281 12.720025062561035156 12.702233314514160156 12.684719085693359375 12.667333602905273438 12.650193214416503906 12.633368492126464844 12.617043495178222656 12.601492881774902344 12.587169647216796875 12.574027061462402344 12.561036109924316406 12.548064231872558594 12.53497314453125 12.521779060363769531 12.5083465576171875 12.494752883911132812 12.481156349182128906 12.468547821044921875 12.457616806030273438 12.447997093200683594 12.438436508178710938 12.451951026916503906 12.540469169616699219 12.6519317626953125 12.772429466247558594 12.896999359130859375 13.027335166931152344 13.160997390747070312 13.3009796142578125 13.444172859191894531 13.593932151794433594 13.746689796447753906 13.906483650207519531 14.069081306457519531 14.238973617553710938 14.410970687866210938 14.589920997619628906 14.770310401916503906 14.957982063293457031 15.146816253662109375 15.3433837890625 15.540834426879882812 15.746122360229492188 15.951567649841308594 16.165182113647460938 16.378633499145507812 16.600717544555664062 16.822378158569335938 17.0531768798828125 17.282968521118164062 17.521886825561523438 17.758209228515625 17.99896240234375 18.223218917846679688 18.418596267700195312 18.55682373046875 18.60223388671875 18.666250228881835938 18.60906982421875 18.508481979370117188 18.407762527465820312 18.312349319458007812 18.216400146484375 18.125276565551757812 18.032930374145507812 17.944942474365234375 17.856021881103515625 17.771636962890625 17.68604278564453125 17.604269027709960938 17.520587921142578125 17.440523147583007812 17.35823822021484375 17.278593063354492188 17.195695877075195312 17.115293502807617188 17.031070709228515625 16.949131011962890625 16.86371612548828125 16.781435012817382812 16.69586181640625 16.613332748413085938 16.5268402099609375 16.443323135375976562 16.356006622314453125 16.2717437744140625 16.183450698852539062 16.09954071044921875 16.013004302978515625 15.93119049072265625 15.846852302551269531 15.767369270324707031 15.685443878173828125 15.608354568481445312 15.528852462768554688 15.454184532165527344 15.377206802368164062 15.305128097534179688 15.231394767761230469 15.163407325744628906 15.094272613525390625 15.030661582946777344 14.966000556945800781 14.906714439392089844 14.846365928649902344 14.790981292724609375 14.734478950500488281 14.6826171875 14.629962921142578125 14.582149505615234375 14.533735275268554688 14.489840507507324219 14.445403099060058594 14.405285835266113281 14.364762306213378906 14.328291893005371094 14.291527748107910156 14.258820533752441406 14.226315498352050781 14.1977081298828125 14.169409751892089844 14.144695281982421875 14.120371818542480469 14.099270820617675781 14.07866668701171875 14.0610198974609375 14.04395294189453125 14.029515266418457031 14.0157012939453125 14.004076957702636719 13.993006706237792969 13.983876228332519531 13.975381851196289062 13.968401908874511719 13.961818695068359375 13.956484794616699219 13.951610565185546875 13.947721481323242188 13.944208145141601562 13.941545486450195312 13.939359664916992188 13.937979698181152344 13.9372100830078125 13.937158584594726562 13.937765121459960938 13.938678741455078125 13.939923286437988281 13.94132232666015625 13.943095207214355469 13.944990158081054688 13.947307586669921875 13.949716567993164062 13.952679634094238281 13.955867767333984375 13.959822654724121094 13.963957786560058594 13.968878746032714844 13.973771095275878906 13.979454994201660156 13.985075950622558594 13.991586685180664062 13.998019218444824219 14.005452156066894531 14.012786865234375 14.021195411682128906 14.029459953308105469 14.038930892944335938 14.048272132873535156 14.058968544006347656 14.069518089294433594 14.08161163330078125 14.093605995178222656 14.10741424560546875 14.121206283569335938 14.137181282043457031 14.15328216552734375 14.172075271606445312 14.191152572631835938 14.213219642639160156 14.235360145568847656 14.260123252868652344 14.283501625061035156 14.297544479370117188 14.290778160095214844 14.2591705322265625 14.213200569152832031 14.164056777954101562 14.118854522705078125 14.071563720703125 14.027985572814941406 13.98235321044921875 13.940169334411621094 13.895951271057128906 13.854949951171875 13.811942100524902344 13.771959304809570312 13.730004310607910156 13.690909385681152344 13.649884223937988281 13.611578941345214844 13.571390151977539062 13.533797264099121094 13.494371414184570312 13.457429885864257812 13.418709754943847656 13.382373809814453125 13.344313621520996094 13.308547019958496094 13.271112442016601562 13.2358856201171875 13.198986053466796875 13.164089202880859375 13.127485275268554688 13.092830657958984375 13.056525230407714844 13.022120475769042969 12.986121177673339844 12.951974868774414062 12.916287422180175781 12.882403373718261719 12.84703826904296875 12.813470840454101562 12.778525352478027344 12.745339393615722656 12.710833549499511719 12.678034782409667969 12.64397430419921875 12.611566543579101562 12.577947616577148438 12.545926094055175781 12.512740135192871094 12.481090545654296875 12.448313713073730469 12.417004585266113281 12.38459014892578125 12.353559494018554688 12.32141876220703125 12.290552139282226562 12.258518218994140625 12.22759246826171875 12.195339202880859375 12.163905143737792969 12.130741119384765625 12.097750663757324219 12.061992645263671875 12.025147438049316406 12.015766143798828125 12.008256912231445312 11.88974761962890625 11.769007682800292969 11.634189605712890625 11.496016502380371094 11.352547645568847656 11.218931198120117188 11.09433746337890625 10.99205780029296875 10.909237861633300781 10.847362518310546875 10.798946380615234375 10.762255668640136719 10.731151580810546875 10.703489303588867188 10.675739288330078125 10.648104667663574219 10.618099212646484375 10.586075782775878906 10.549478530883789062 10.509921073913574219 10.46675872802734375 10.423221588134765625 10.378873825073242188 10.336854934692382812 10.296330451965332031 10.257956504821777344 10.218518257141113281 10.177705764770507812 10.132196426391601562 10.082056045532226562 10.025660514831542969 9.9669389724731445312 9.9064779281616210938 9.8485012054443359375 9.7937841415405273438 9.7454156875610351562 9.7017116546630859375 9.6624135971069335938 9.6251783370971679688 9.5894861221313476562 9.5532846450805664062 9.517185211181640625 9.481349945068359375 9.4475231170654296875 9.4161901473999023438 9.3888912200927734375 
12.903581619262695312 12.871602058410644531 12.842836380004882812 12.817502021789550781 12.796326637268066406 12.77722930908203125 12.759447097778320312 12.742319107055664062 12.725607872009277344 12.709058761596679688 12.692667007446289062 12.676410675048828125 12.660441398620605469 12.64483642578125 12.629778861999511719 12.615527153015136719 12.602187156677246094 12.589201927185058594 12.576181411743164062 12.563118934631347656 12.549867630004882812 12.53638458251953125 12.522475242614746094 12.508139610290527344 12.493223190307617188 12.478281974792480469 12.464379310607910156 12.453211784362792969 12.443549156188964844 12.462384223937988281 12.559587478637695312 12.677435874938964844 12.800630569458007812 12.926741600036621094 13.05925750732421875 13.195390701293945312 13.337813377380371094 13.483263969421386719 13.635180473327636719 13.790022850036621094 13.951822280883789062 14.116283416748046875 14.287994384765625 14.462023735046386719 14.643260002136230469 14.825901031494140625 15.015812873840332031 15.206815719604492188 15.405538558959960938 15.604842185974121094 15.811865806579589844 16.018991470336914062 16.234384536743164062 16.449687957763671875 16.673799514770507812 16.897558212280273438 17.130723953247070312 17.36327362060546875 17.605745315551757812 17.84696197509765625 18.09735870361328125 18.339023590087890625 18.557750701904296875 18.68297576904296875 18.6928253173828125 18.654300689697265625 18.547376632690429688 18.445835113525390625 18.34413909912109375 18.247770309448242188 18.150829315185546875 18.0587921142578125 17.965639114379882812 17.87676239013671875 17.786874771118164062 17.701627731323242188 17.6152801513671875 17.533018112182617188 17.448917388916015625 17.368503570556640625 17.2860870361328125 17.206737518310546875 17.124240875244140625 17.044397354125976562 16.961019515991210938 16.8799285888671875 16.795032501220703125 16.713148117065429688 16.628068923950195312 16.546281814575195312 16.460819244384765625 16.378383636474609375 16.292257308959960938 16.209136962890625 16.121782302856445312 16.038267135620117188 15.952210426330566406 15.870981216430664062 15.78740692138671875 15.708757400512695312 15.627788543701171875 15.551692962646484375 15.473311424255371094 15.399773597717285156 15.324026107788085938 15.253141403198242188 15.180322647094726562 15.113110542297363281 15.044885635375976562 14.982228279113769531 14.91867828369140625 14.860475540161132812 14.801280021667480469 14.747019767761230469 14.691786766052246094 14.641139030456542969 14.589532852172851562 14.542642593383789062 14.495220184326171875 14.45227813720703125 14.408887863159179688 14.36977386474609375 14.330318450927734375 14.294862747192382812 14.259149551391601562 14.227297782897949219 14.195679664611816406 14.167946815490722656 14.140615463256835938 14.116837501525878906 14.093522071838378906 14.073401451110839844 14.053873062133789062 14.037233352661132812 14.021225929260253906 14.007769584655761719 13.994929313659667969 13.984182357788085938 13.97403717041015625 13.965761184692382812 13.958089828491210938 13.951784133911132812 13.945913314819335938 13.941236495971679688 13.937002182006835938 13.933670997619628906 13.930754661560058594 13.92864990234375 13.927076339721679688 13.926267623901367188 13.926104545593261719 13.926609039306640625 13.927663803100585938 13.92890167236328125 13.930492401123046875 13.932209968566894531 13.934325218200683594 13.936533927917480469 13.939191818237304688 13.941935539245605469 13.945339202880859375 13.948953628540039062 13.953379631042480469 13.957927703857421875 13.9632415771484375 13.968502998352050781 13.974598884582519531 13.980616569519042969 13.987573623657226562 13.99443817138671875 14.002351760864257812 14.010126113891601562 14.019021987915039062 14.027762413024902344 14.037777900695800781 14.047638893127441406 14.058905601501464844 14.070012092590332031 14.082737922668457031 14.095356941223144531 14.109885215759277344 14.124402999877929688 14.141231536865234375 14.158214569091796875 14.178050994873046875 14.198052406311035156 14.221165657043457031 14.24413299560546875 14.269598960876464844 14.29399871826171875 14.315150260925292969 14.308217048645019531 14.265955924987792969 14.218308448791503906 14.168379783630371094 14.122545242309570312 14.074643135070800781 14.030529022216796875 13.984346389770507812 13.941653251647949219 13.8968963623046875 13.855388641357421875 13.811839103698730469 13.771341323852539062 13.728835105895996094 13.689214706420898438 13.647625923156738281 13.6087799072265625 13.568011283874511719 13.529863357543945312 13.489840507507324219 13.452328681945800781 13.412996292114257812 13.376074790954589844 13.337386131286621094 13.30101776123046875 13.262938499450683594 13.227095603942871094 13.189542770385742188 13.154017448425292969 13.116741180419921875 13.0814361572265625 13.04443359375 13.009354591369628906 12.97263336181640625 12.937786102294921875 12.901348114013671875 12.866735458374023438 12.830590248107910156 12.796265602111816406 12.76052093505859375 12.7265625 12.691240310668945312 12.657650947570800781 12.622753143310546875 12.589533805847167969 12.555055618286132812 12.522198677062988281 12.488126754760742188 12.4556121826171875 12.421915054321289062 12.389702796936035156 12.3563232421875 12.324337959289550781 12.291170120239257812 12.259274482727050781 12.226119041442871094 12.194050788879394531 12.160523414611816406 12.12775421142578125 12.093034744262695312 12.058335304260253906 12.020583152770996094 11.981626510620117188 11.998547554016113281 11.941220283508300781 11.827139854431152344 11.711432456970214844 11.582438468933105469 11.450148582458496094 11.3124237060546875 11.183544158935546875 11.0623779296875 10.961533546447753906 10.87811279296875 10.814139366149902344 10.762646675109863281 10.722692489624023438 10.688618659973144531 10.658925056457519531 10.630080223083496094 10.602186203002929688 10.5725860595703125 10.541438102722167969 10.506076812744140625 10.467945098876953125 10.426416397094726562 10.384612083435058594 10.342134475708007812 10.302013397216796875 10.263459205627441406 10.227055549621582031 10.189671516418457031 10.150930404663085938 10.107596397399902344 10.05966949462890625 10.005548477172851562 9.94899749755859375 9.8905611038208007812 9.8342943191528320312 9.7809095382690429688 9.7334270477294921875 9.6903257369995117188 9.6515455245971679688 9.6149854660034179688 9.5803279876708984375 9.5457468032836914062 9.5118036270141601562 9.4785099029541015625 9.447330474853515625 9.4185571670532226562 9.3934650421142578125 
12.897778511047363281 12.864687919616699219 12.836575508117675781 12.814699172973632812 12.796390533447265625 12.779392242431640625 12.763322830200195312 12.747584342956542969 12.732102394104003906 12.716633796691894531 12.701302528381347656 12.686145782470703125 12.671299934387207031 12.656840324401855469 12.642940521240234375 12.629747390747070312 12.616845130920410156 12.603917121887207031 12.590910911560058594 12.577816009521484375 12.564497947692871094 12.55091094970703125 12.536807060241699219 12.522138595581054688 12.506619453430175781 12.490365028381347656 12.473859786987304688 12.459212303161621094 12.448348045349121094 12.46897125244140625 12.573339462280273438 12.697351455688476562 12.824122428894042969 12.952562332153320312 13.087156295776367188 13.225256919860839844 13.369557380676269531 13.516770362854003906 13.670445442199707031 13.827006340026855469 13.990468978881835938 14.156492233276367188 14.329728126525878906 14.505268096923828125 14.688303947448730469 14.872900009155273438 15.064885139465332031 15.257893562316894531 15.458404541015625 15.659274101257324219 15.867870330810546875 16.07649993896484375 16.293394088745117188 16.510194778442382812 16.73589324951171875 16.961297988891601562 17.19628143310546875 17.430826187133789062 17.675752639770507812 17.920183181762695312 18.17577362060546875 18.429592132568359375 18.67919921875 18.773389816284179688 18.704860687255859375 18.596975326538085938 18.488809585571289062 18.3864593505859375 18.283929824829101562 18.186748504638671875 18.088964462280273438 17.9961090087890625 17.902246475219726562 17.81266021728515625 17.721891403198242188 17.635839462280273438 17.548746109008789062 17.4659881591796875 17.38150787353515625 17.30078125 17.21813201904296875 17.138959884643554688 17.056859970092773438 16.977474212646484375 16.894838333129882812 16.814594268798828125 16.730371475219726562 16.648801803588867188 16.564098358154296875 16.482797622680664062 16.398195266723632812 16.316740036010742188 16.231685638427734375 16.149580001831054688 16.063287734985351562 15.980279922485351562 15.894530296325683594 15.81372833251953125 15.730752944946289062 15.652796745300292969 15.572649955749511719 15.497423171997070312 15.420035362243652344 15.347521781921386719 15.272906303405761719 15.203157424926757812 15.131439208984375 15.064951896667480469 14.997534751892089844 14.9357452392578125 14.873218536376953125 14.815991401672363281 14.757847785949707031 14.704615592956542969 14.650515556335449219 14.601037025451660156 14.55059814453125 14.504618644714355469 14.458147048950195312 14.416131973266601562 14.373761177062988281 14.335623741149902344 14.297210693359375 14.26274871826171875 14.228095054626464844 14.19716644287109375 14.166417121887207031 14.139531135559082031 14.113142013549804688 14.090272903442382812 14.067948341369628906 14.048799514770507812 14.030327796936035156 14.0146636962890625 13.99968719482421875 13.987163543701171875 13.975245475769042969 13.965346336364746094 13.956097602844238281 13.948632240295410156 13.941692352294921875 13.936033248901367188 13.930848121643066406 13.926786422729492188 13.923138618469238281 13.920345306396484375 13.918004989624023438 13.916444778442382812 13.915463447570800781 13.915203094482421875 13.915624618530273438 13.916609764099121094 13.918013572692871094 13.919554710388183594 13.921466827392578125 13.923480987548828125 13.925913810729980469 13.928417205810546875 13.931394577026367188 13.934496879577636719 13.938337326049804688 13.942366600036621094 13.947237968444824219 13.95214080810546875 13.957827568054199219 13.963443756103515625 13.969939231872558594 13.97634124755859375 13.983732223510742188 13.991013526916503906 13.999376296997070312 14.007568359375 14.016940116882324219 14.026146888732910156 14.036687850952148438 14.04703521728515625 14.058847427368164062 14.070484161376953125 14.083812713623046875 14.097028732299804688 14.112245559692382812 14.127458572387695312 14.145108222961425781 14.162939071655273438 14.183660507202148438 14.204443931579589844 14.228337287902832031 14.251649856567382812 14.277575492858886719 14.302773475646972656 14.329174041748046875 14.320539474487304688 14.270885467529296875 14.222519874572753906 14.171909332275390625 14.125561714172363281 14.077177047729492188 14.032637596130371094 13.986009597778320312 13.942895889282226562 13.897680282592773438 13.855726242065429688 13.811687469482421875 13.770720481872558594 13.7277069091796875 13.687597274780273438 13.645480155944824219 13.606126785278320312 13.564809799194335938 13.526132583618164062 13.485543251037597656 13.447484016418457031 13.407563209533691406 13.370075225830078125 13.330779075622558594 13.293827056884765625 13.255122184753417969 13.218676567077636719 13.180491447448730469 13.144359588623046875 13.106431961059570312 13.07049560546875 13.032816886901855469 12.997081756591796875 12.959656715393066406 12.924127578735351562 12.886959075927734375 12.851635932922363281 12.814729690551757812 12.779669761657714844 12.743146896362304688 12.708436965942382812 12.672319412231445312 12.637960433959960938 12.602250099182128906 12.568242073059082031 12.532929420471191406 12.49925994873046875 12.464328765869140625 12.430973052978515625 12.396384239196777344 12.363294601440429688 12.328980445861816406 12.296070098876953125 12.261906623840332031 12.229014396667480469 12.194773674011230469 12.161597251892089844 12.12683868408203125 12.092772483825683594 12.056539535522460938 12.02021026611328125 11.980604171752929688 11.939805984497070312 11.974003791809082031 11.874368667602539062 11.764801979064941406 11.654580116271972656 11.532369613647460938 11.407269477844238281 11.276815414428710938 11.154099464416503906 11.037542343139648438 10.938797950744628906 10.854866981506347656 10.788427352905273438 10.733163833618164062 10.689131736755371094 10.651267051696777344 10.618882179260253906 10.58843994140625 10.55992889404296875 10.530465126037597656 10.499995231628417969 10.465685844421386719 10.428808212280273438 10.388766288757324219 10.348605155944824219 10.307988166809082031 10.269850730895996094 10.233475685119628906 10.199339866638183594 10.164377212524414062 10.128098487854003906 10.087331771850585938 10.041961669921875 9.9904117584228515625 9.9362668991088867188 9.8800325393676757812 9.8256006240844726562 9.7736263275146484375 9.7270555496215820312 9.6845188140869140625 9.6461582183837890625 9.6100864410400390625 9.5761852264404296875 9.5428371429443359375 9.5105838775634765625 9.4793043136596679688 9.4502239227294921875 9.423480987548828125 9.4001226425170898438 
12.88913726806640625 12.853656768798828125 12.830036163330078125 12.813190460205078125 12.797878265380859375 12.7831268310546875 12.768743515014648438 12.754435539245605469 12.740192413330078125 12.725884437561035156 12.711727142333984375 12.697757720947265625 12.684121131896972656 12.670899391174316406 12.6581878662109375 12.64569854736328125 12.6329803466796875 12.620135307312011719 12.60718536376953125 12.594112396240234375 12.580784797668457031 12.56717681884765625 12.55301666259765625 12.538206100463867188 12.522390365600585938 12.505468368530273438 12.487292289733886719 12.46904754638671875 12.453995704650878906 12.472241401672363281 12.583477020263671875 12.713911056518554688 12.845846176147460938 12.978200912475585938 13.115064620971679688 13.25475311279296875 13.400590896606445312 13.549321174621582031 13.704599380493164062 13.86273956298828125 14.027760505676269531 14.195277214050292969 14.370008468627929688 14.546971321105957031 14.731476783752441406 14.917825698852539062 15.111780166625976562 15.306639671325683594 15.508870124816894531 15.711368560791015625 15.92157745361328125 16.131731033325195312 16.350067138671875 16.56821441650390625 16.795248031616210938 17.021924972534179688 17.258174896240234375 17.49393463134765625 17.740087509155273438 17.985738754272460938 18.242731094360351562 18.498498916625976562 18.747358322143554688 18.756383895874023438 18.64247894287109375 18.534173965454101562 18.425441741943359375 18.322330474853515625 18.219007492065429688 18.1210479736328125 18.02245330810546875 17.92879486083984375 17.8341827392578125 17.743968963623046875 17.652341842651367188 17.565425872802734375 17.477519989013671875 17.394136428833007812 17.3092498779296875 17.228200912475585938 17.145273208618164062 17.066072463989257812 16.984376907348632812 16.905475616455078125 16.823513031005859375 16.74416351318359375 16.660814285278320312 16.579685211181640625 16.495279312133789062 16.414346694946289062 16.330425262451171875 16.249963760375976562 16.165983200073242188 16.084890365600585938 15.999735832214355469 15.917638778686523438 15.832177162170410156 15.751692771911621094 15.669208526611328125 15.591872215270996094 15.512508392333984375 15.438134193420410156 15.361741065979003906 15.290268898010253906 15.21683502197265625 15.148281097412109375 15.077878952026367188 15.012396812438964844 14.94580841064453125 14.884922027587890625 14.823445320129394531 14.767209053039550781 14.710153579711914062 14.657995223999023438 14.605063438415527344 14.556772232055664062 14.507688522338867188 14.462859153747558594 14.417445182800292969 14.376466751098632812 14.335228919982910156 14.298176765441894531 14.260928153991699219 14.227581024169921875 14.194124221801757812 14.164319038391113281 14.134611129760742188 14.108664512634277344 14.083323478698730469 14.061461448669433594 14.040258407592773438 14.022212028503417969 14.00490570068359375 13.990320205688476562 13.976477622985839844 13.964946746826171875 13.954037666320800781 13.945074081420898438 13.936810493469238281 13.930172920227050781 13.924001693725585938 13.919051170349121094 13.914612770080566406 13.911182403564453125 13.908167839050292969 13.905965805053710938 13.904261589050292969 13.903306961059570312 13.90297698974609375 13.903316497802734375 13.904356956481933594 13.905749320983886719 13.907502174377441406 13.90936279296875 13.911616325378417969 13.913945198059082031 13.916714668273925781 13.919528007507324219 13.922881126403808594 13.92641448974609375 13.930739402770996094 13.935223579406738281 13.940540313720703125 13.945812225341796875 13.951908111572265625 13.957916259765625 13.964854240417480469 13.971681594848632812 13.97955322265625 13.987285614013671875 13.996133804321289062 14.004793167114257812 14.014698982238769531 14.024428367614746094 14.035528182983398438 14.046403884887695312 14.058810234069824219 14.071026802062988281 14.085015296936035156 14.098882675170898438 14.114856719970703125 14.13083648681640625 14.149394035339355469 14.168081283569335938 14.189603805541992188 14.211119651794433594 14.235321044921875 14.2587432861328125 14.284827232360839844 14.310198783874511719 14.335437774658203125 14.3232879638671875 14.273797035217285156 14.2256622314453125 14.174773216247558594 14.128111839294433594 14.079384803771972656 14.03450775146484375 13.987500190734863281 13.944009780883789062 13.898370742797851562 13.855996131896972656 13.811480522155761719 13.770035743713378906 13.726491928100585938 13.685870170593261719 13.643192291259765625 13.603295326232910156 13.561388015747070312 13.5221405029296875 13.480932235717773438 13.442275047302246094 13.401708602905273438 13.363597869873046875 13.323630332946777344 13.286030769348144531 13.246628761291503906 13.209511756896972656 13.170621871948242188 13.133817672729492188 13.095168113708496094 13.058530807495117188 13.020100593566894531 12.983636856079101562 12.945429801940917969 12.909138679504394531 12.871155738830566406 12.835038185119628906 12.797284126281738281 12.76140594482421875 12.724017143249511719 12.688471794128417969 12.651472091674804688 12.616259574890136719 12.579646110534667969 12.544762611389160156 12.508524894714355469 12.473957061767578125 12.43807220458984375 12.403786659240722656 12.368210792541503906 12.334154129028320312 12.298807144165039062 12.264876365661621094 12.229616165161132812 12.195627212524414062 12.160191535949707031 12.125798225402832031 12.089688301086425781 12.054187774658203125 12.016303062438964844 11.978235244750976562 11.936730384826660156 11.93413543701171875 11.901808738708496094 11.79811859130859375 11.693612098693847656 11.589846611022949219 11.475976943969726562 11.359989166259765625 11.238951683044433594 11.124378204345703125 11.014075279235839844 10.9184112548828125 10.834231376647949219 10.765004158020019531 10.705251693725585938 10.65625762939453125 10.61370849609375 10.57794189453125 10.545415878295898438 10.515988349914550781 10.486486434936523438 10.456606864929199219 10.423309326171875 10.387677192687988281 10.349152565002441406 10.310718536376953125 10.272127151489257812 10.236236572265625 10.202420234680175781 10.1710205078125 10.139031410217285156 10.105803489685058594 10.06822967529296875 10.026029586791992188 9.97765350341796875 9.9264688491821289062 9.8729467391967773438 9.82077789306640625 9.7705583572387695312 9.7251415252685546875 9.6833209991455078125 9.6454305648803710938 9.6098279953002929688 9.5765943527221679688 9.5443277359008789062 9.5135669708251953125 9.484066009521484375 9.4568309783935546875 9.4318513870239257812 9.40996551513671875 
12.887246131896972656 12.842432022094726562 12.826521873474121094 12.81368255615234375 12.800827980041503906 12.787821769714355469 12.774846076965332031 12.761818885803222656 12.748721122741699219 12.735571861267089844 12.722593307495117188 12.709797859191894531 12.697305679321289062 12.685158729553222656 12.673158645629882812 12.6609649658203125 12.648467063903808594 12.6357421875 12.6228790283203125 12.6098785400390625 12.596605300903320312 12.583036422729492188 12.5689239501953125 12.554123878479003906 12.538245201110839844 12.521090507507324219 12.502160072326660156 12.481894493103027344 12.4617156982421875 12.472573280334472656 12.589257240295410156 12.726984977722167969 12.863576889038085938 12.999105453491210938 13.138418197631835938 13.279831886291503906 13.426946640014648438 13.576822280883789062 13.733330726623535156 13.8927154541015625 14.059000015258789062 14.227770805358886719 14.403776168823242188 14.581954002380371094 14.767618179321289062 14.955061912536621094 15.15024566650390625 15.346536636352539062 15.550350189208984375 15.7543487548828125 15.965999603271484375 16.177471160888671875 16.397022247314453125 16.616207122802734375 16.844165802001953125 17.071584701538085938 17.308374404907226562 17.54434967041015625 17.79022216796875 18.0347137451171875 18.288679122924804688 18.5379486083984375 18.753488540649414062 18.697282791137695312 18.583047866821289062 18.474462509155273438 18.365404129028320312 18.261735916137695312 18.157762527465820312 18.059164047241210938 17.959897994995117188 17.865571975708007812 17.770275115966796875 17.679531097412109375 17.5872650146484375 17.499538421630859375 17.410860061645507812 17.326814651489257812 17.241483688354492188 17.160139083862304688 17.076953887939453125 16.997579574584960938 16.916109085083007812 16.837671279907226562 16.756254196166992188 16.677639007568359375 16.595125198364257812 16.514654159545898438 16.43048858642578125 16.34979248046875 16.266286849975585938 16.186594009399414062 16.103521347045898438 16.023309707641601562 15.939161300659179688 15.85808563232421875 15.773224830627441406 15.692911148071289062 15.610734939575195312 15.533835411071777344 15.455092430114746094 15.381434440612792969 15.305898666381835938 15.235346794128417969 15.162977218627929688 15.095524787902832031 15.026360511779785156 14.962080001831054688 14.896403312683105469 14.83634185791015625 14.775766372680664062 14.720406532287597656 14.664330482482910156 14.613146781921386719 14.561284065246582031 14.514047622680664062 14.466188430786132812 14.422596931457519531 14.378322601318359375 14.338360786437988281 14.298223495483398438 14.262232780456542969 14.22612762451171875 14.193878173828125 14.161608695983886719 14.132943153381347656 14.10439300537109375 14.079397201538085938 14.055067062377929688 14.034196853637695312 14.014109611511230469 13.997144699096679688 13.98095703125 13.967412948608398438 13.954641342163085938 13.944036483764648438 13.9340972900390625 13.926034927368164062 13.918691635131835938 13.91277313232421875 13.9073333740234375 13.903062820434570312 13.899312973022460938 13.896454811096191406 13.894048690795898438 13.892415046691894531 13.891331672668457031 13.890962600708007812 13.891254425048828125 13.892167091369628906 13.893704414367675781 13.895406723022460938 13.897480010986328125 13.89963531494140625 13.902203559875488281 13.904822349548339844 13.907901763916015625 13.911015510559082031 13.914786338806152344 13.918745040893554688 13.923539161682128906 13.928438186645507812 13.934137344360351562 13.939763069152832031 13.946254730224609375 13.952642440795898438 13.960010528564453125 13.967254638671875 13.975589752197265625 13.983746528625488281 13.993066787719726562 14.002187728881835938 14.012622833251953125 14.022843360900878906 14.034470558166503906 14.0458526611328125 14.058828353881835938 14.071599006652832031 14.086222648620605469 14.100720405578613281 14.117427825927734375 14.134156227111816406 14.153550148010253906 14.17288970947265625 14.195087432861328125 14.216869354248046875 14.24100494384765625 14.264284133911132812 14.289959907531738281 14.313515663146972656 14.326653480529785156 14.3128662109375 14.272624969482421875 14.226588249206542969 14.176415443420410156 14.129772186279296875 14.080933570861816406 14.035877227783203125 13.988620758056640625 13.944853782653808594 13.8988800048828125 13.856159210205078125 13.811244010925292969 13.769392967224121094 13.725378990173339844 13.684288978576660156 13.641093254089355469 13.600690841674804688 13.558228492736816406 13.518441200256347656 13.476643562316894531 13.437415122985839844 13.396226882934570312 13.357513427734375 13.316896438598632812 13.278665542602539062 13.238584518432617188 13.200809478759765625 13.161226272583007812 13.123767852783203125 13.084413528442382812 13.047093391418457031 13.007929801940917969 12.970752716064453125 12.931780815124511719 12.894745826721191406 12.855962753295898438 12.819066047668457031 12.780480384826660156 12.743803977966308594 12.705571174621582031 12.669211387634277344 12.631352424621582031 12.595308303833007812 12.557817459106445312 12.522084236145019531 12.484948158264160156 12.449506759643554688 12.412699699401855469 12.377515792846679688 12.340984344482421875 12.305993080139160156 12.269650459289550781 12.234737396240234375 12.198422431945800781 12.163379669189453125 12.126800537109375 12.091245651245117188 12.053839683532714844 12.016962051391601562 11.97753143310546875 11.937879562377929688 11.894747734069824219 11.905794143676757812 11.822832107543945312 11.722241401672363281 11.622500419616699219 11.525019645690917969 11.419491767883300781 11.312796592712402344 11.201505661010742188 11.095498085021972656 10.991955757141113281 10.899885177612304688 10.81597900390625 10.744441986083984375 10.680635452270507812 10.627031326293945312 10.580066680908203125 10.541072845458984375 10.506516456604003906 10.47614288330078125 10.446514129638671875 10.417099952697753906 10.384664535522460938 10.35012054443359375 10.312957763671875 10.276108741760253906 10.239412307739257812 10.205658912658691406 10.174319267272949219 10.145602226257324219 10.116566658020019531 10.086403846740722656 10.052071571350097656 10.013126373291015625 9.9680433273315429688 9.9199581146240234375 9.869312286376953125 9.8195810317993164062 9.7712984085083007812 9.727203369140625 9.6862430572509765625 9.6489229202270507812 9.6138086318969726562 9.5811662673950195312 9.5497894287109375 9.5202169418334960938 9.4921054840087890625 9.4662837982177734375 9.4426164627075195312 9.4217777252197265625 
12.900195121765136719 12.847108840942382812 12.831557273864746094 12.819153785705566406 12.807152748107910156 12.795113563537597656 12.783168792724609375 12.771183967590332031 12.759206771850585938 12.7472991943359375 12.7355804443359375 12.724025726318359375 12.712621688842773438 12.701130867004394531 12.689463615417480469 12.67757415771484375 12.66539764404296875 12.652905464172363281 12.640183448791503906 12.627313613891601562 12.614163398742675781 12.600711822509765625 12.586734771728515625 12.572077751159667969 12.556315422058105469 12.539205551147460938 12.520076751708984375 12.498850822448730469 12.4752349853515625 12.473904609680175781 12.59515380859375 12.739502906799316406 12.879714012145996094 13.017910003662109375 13.159426689147949219 13.302686691284179688 13.451382637023925781 13.602605819702148438 13.760385513305664062 13.920965194702148438 14.088438034057617188 14.258388519287109375 14.435559272766113281 14.614798545837402344 14.801464080810546875 14.989839553833007812 15.185940742492675781 15.383263587951660156 15.588492393493652344 15.794019699096679688 16.007137298583984375 16.219907760620117188 16.44060516357421875 16.660673141479492188 16.889286041259765625 17.117034912109375 17.353734970092773438 17.588998794555664062 17.833202362060546875 18.074777603149414062 18.324483871459960938 18.56485748291015625 18.711526870727539062 18.632501602172851562 18.5181884765625 18.409452438354492188 18.300210952758789062 18.196201324462890625 18.091650009155273438 17.992464065551757812 17.892578125 17.79763031005859375 17.701665878295898438 17.6103515625 17.517574310302734375 17.429073333740234375 17.339536666870117188 17.254743576049804688 17.168796539306640625 17.087106704711914062 17.003641128540039062 16.924047470092773438 16.842540740966796875 16.764530181884765625 16.683685302734375 16.60565185546875 16.523946762084960938 16.444326400756835938 16.360658645629882812 16.280107498168945312 16.196910858154296875 16.117725372314453125 16.035434722900390625 15.956090927124023438 15.872943878173828125 15.792924880981445312 15.709162712097167969 15.629220008850097656 15.547192573547363281 15.470590591430664062 15.39234161376953125 15.319339752197265625 15.244632720947265625 15.174996376037597656 15.1037139892578125 15.037411689758300781 14.969562530517578125 14.906638145446777344 14.842333793640136719 14.783212661743164062 14.723490715026855469 14.669005393981933594 14.613924026489257812 14.563745498657226562 14.51300048828125 14.466872215270996094 14.420243263244628906 14.377958297729492188 14.335148811340332031 14.296410560607910156 14.257506370544433594 14.222707748413085938 14.187893867492675781 14.156893730163574219 14.125978469848632812 14.098620414733886719 14.071481704711914062 14.047697067260742188 14.024509429931640625 14.004770278930664062 13.985958099365234375 13.970175743103027344 13.955218315124511719 13.94281768798828125 13.931171417236328125 13.921576499938964844 13.912705421447753906 13.905630111694335938 13.899197578430175781 13.89403533935546875 13.889398574829101562 13.885862350463867188 13.882808685302734375 13.880575180053710938 13.878839492797851562 13.877839088439941406 13.877446174621582031 13.877717018127441406 13.878688812255859375 13.880169868469238281 13.882101058959960938 13.884120941162109375 13.886531829833984375 13.888998031616210938 13.891897201538085938 13.894820213317871094 13.89823150634765625 13.901731491088867188 13.906000137329101562 13.910430908203125 13.915728569030761719 13.921024322509765625 13.927132606506347656 13.933150291442871094 13.940083503723144531 13.946897506713867188 13.954749107360839844 13.962459564208984375 13.971299171447753906 13.97992706298828125 13.98978424072265625 13.999436378479003906 14.010453224182128906 14.0211944580078125 14.033399581909179688 14.045337677001953125 14.058940887451171875 14.072327613830566406 14.087653160095214844 14.102855682373046875 14.120387077331542969 14.137926101684570312 14.158048629760742188 14.17800140380859375 14.200517654418945312 14.222141265869140625 14.245941162109375 14.268613815307617188 14.292400360107421875 14.308495521545410156 14.311449050903320312 14.297347068786621094 14.26457977294921875 14.224228858947753906 14.176454544067382812 14.130560874938964844 14.081920623779296875 14.036869049072265625 13.989496231079101562 13.945536613464355469 13.899289131164550781 13.856258392333984375 13.81096649169921875 13.768719673156738281 13.724246025085449219 13.682677268981933594 13.638939857482910156 13.598000526428222656 13.554944038391113281 13.5145721435546875 13.472133636474609375 13.432277679443359375 13.390405654907226562 13.351025581359863281 13.309683799743652344 13.270749092102050781 13.229906082153320312 13.191391944885253906 13.151020050048828125 13.112824440002441406 13.072680473327636719 13.034592628479003906 12.994603157043457031 12.956622123718261719 12.916788101196289062 12.878912925720214844 12.839226722717285156 12.801448822021484375 12.761927604675292969 12.724356651306152344 12.685177803039550781 12.647908210754394531 12.609086990356445312 12.572115898132324219 12.533644676208496094 12.496964454650878906 12.458828926086425781 12.422418594360351562 12.384586334228515625 12.348404884338378906 12.310819625854492188 12.2747955322265625 12.23735809326171875 12.201363563537597656 12.163892745971679688 12.127699851989746094 12.089874267578125 12.053053855895996094 12.014225006103515625 11.975870132446289062 11.934821128845214844 11.893575668334960938 11.858843803405761719 11.843946456909179688 11.733320236206054688 11.635985374450683594 11.541181564331054688 11.450346946716308594 11.353802680969238281 11.257246017456054688 11.156729698181152344 11.060352325439453125 10.964646339416503906 10.877118110656738281 10.794310569763183594 10.721116065979003906 10.653780937194824219 10.595951080322265625 10.544838905334472656 10.502773284912109375 10.466260910034179688 10.434955596923828125 10.405182838439941406 10.3762054443359375 10.344621658325195312 10.311190605163574219 10.275437355041503906 10.240244865417480469 10.205533981323242188 10.174020767211914062 10.145274162292480469 10.119380950927734375 10.093481063842773438 10.066621780395507812 10.035851478576660156 10.000563621520996094 9.9592714309692382812 9.9148359298706054688 9.867641448974609375 9.8209047317504882812 9.7750797271728515625 9.7327566146850585938 9.693023681640625 9.656558990478515625 9.6221399307250976562 9.5902128219604492188 9.5597629547119140625 9.5313367843627929688 9.5045042037963867188 9.4799289703369140625 9.457355499267578125 9.43730926513671875 
12.910941123962402344 12.868603706359863281 12.847533226013183594 12.831327438354492188 12.817575454711914062 12.805268287658691406 12.793649673461914062 12.782169342041015625 12.770860671997070312 12.759799003601074219 12.748984336853027344 12.738170623779296875 12.727271080017089844 12.716177940368652344 12.704851150512695312 12.693288803100585938 12.681456565856933594 12.669302940368652344 12.656795501708984375 12.644100189208984375 12.631128311157226562 12.617859840393066406 12.604092597961425781 12.589687347412109375 12.574197769165039062 12.557379722595214844 12.538522720336914062 12.517375946044921875 12.493536949157714844 12.485806465148925781 12.602863311767578125 12.749416351318359375 12.89194488525390625 13.032029151916503906 13.175188064575195312 13.319888114929199219 13.469888687133789062 13.622305870056152344 13.781246185302734375 13.942911148071289062 14.111431121826171875 14.282391548156738281 14.460542678833007812 14.640703201293945312 14.828297615051269531 15.017560005187988281 15.214520454406738281 15.412675857543945312 15.618792533874511719 15.825358390808105469 16.03955841064453125 16.253328323364257812 16.4748992919921875 16.695577621459960938 16.92450714111328125 17.152200698852539062 17.388383865356445312 17.622646331787109375 17.86534881591796875 18.105066299438476562 18.35236358642578125 18.568536758422851562 18.684888839721679688 18.57073974609375 18.456485748291015625 18.347757339477539062 18.238477706909179688 18.134387969970703125 18.02948760986328125 17.929853439331054688 17.829486846923828125 17.73404693603515625 17.637548446655273438 17.54570770263671875 17.4525146484375 17.363508224487304688 17.273160934448242188 17.18762969970703125 17.10100555419921875 17.018873214721679688 16.935131072998046875 16.855318069458007812 16.773639678955078125 16.695772171020507812 16.615428924560546875 16.53780364990234375 16.456653594970703125 16.37779998779296875 16.294889450073242188 16.21459197998046875 16.1315765380859375 16.052610397338867188 15.970698356628417969 15.892060279846191406 15.809773445129394531 15.730681419372558594 15.648042678833007812 15.568998336791992188 15.48711395263671875 15.410612106323242188 15.332643508911132812 15.260102272033691406 15.186066627502441406 15.11721038818359375 15.046879768371582031 14.981614112854003906 14.914981842041015625 14.85333251953125 14.790506362915039062 14.732546806335449219 14.673575401306152344 14.619832038879394531 14.565616607666015625 14.516331672668457031 14.466596603393554688 14.421483039855957031 14.3759765625 14.334837913513183594 14.293438911437988281 14.256067276000976562 14.218433380126953125 14.184809684753417969 14.151277542114257812 14.121521949768066406 14.091963768005371094 14.065924644470214844 14.040225028991699219 14.017778396606445312 13.9958343505859375 13.977232933044433594 13.959658622741699219 13.944990158081054688 13.931211471557617188 13.919863700866699219 13.909257888793945312 13.900629043579101562 13.892782211303710938 13.886586189270019531 13.880941390991210938 13.876498222351074219 13.872625350952148438 13.869738578796386719 13.8673248291015625 13.865691184997558594 13.864603996276855469 13.864218711853027344 13.864485740661621094 13.865365982055664062 13.866956710815429688 13.868824958801269531 13.871072769165039062 13.873382568359375 13.876102447509765625 13.878850936889648438 13.882051467895507812 13.885251998901367188 13.889020919799804688 13.89295196533203125 13.897705078125 13.902588844299316406 13.9083099365234375 13.913962364196777344 13.920468330383300781 13.926867485046386719 13.934232711791992188 13.941464424133300781 13.949792861938476562 13.957951545715332031 13.967273712158203125 13.976372718811035156 13.986773490905761719 13.996943473815917969 14.008492469787597656 14.019732475280761719 14.032492637634277344 14.0449676513671875 14.059177398681640625 14.073159217834472656 14.08917236328125 14.105066299438476562 14.12339019775390625 14.141546249389648438 14.1622314453125 14.182468414306640625 14.204777717590332031 14.226027488708496094 14.249136924743652344 14.270445823669433594 14.28932952880859375 14.297929763793945312 14.296979904174804688 14.282742500305175781 14.252613067626953125 14.217316627502441406 14.173840522766113281 14.129931449890136719 14.082025527954101562 14.037240982055664062 13.989949226379394531 13.945940017700195312 13.899541854858398438 13.856296539306640625 13.810713768005371094 13.768141746520996094 13.723276138305664062 13.681294441223144531 13.637072563171386719 13.595641136169433594 13.552032470703125 13.511111259460449219 13.468064308166503906 13.427609443664550781 13.385080337524414062 13.345055580139160156 13.303009986877441406 13.263387680053710938 13.221797943115234375 13.182554244995117188 13.141398429870605469 13.102471351623535156 13.061547279357910156 13.022702217102050781 12.981898307800292969 12.943124771118164062 12.902437210083007812 12.863730430603027344 12.823148727416992188 12.784496307373046875 12.74405670166015625 12.705607414245605469 12.66550445556640625 12.627343177795410156 12.587583541870117188 12.549707412719726562 12.510283470153808594 12.472682952880859375 12.433576583862304688 12.396226882934570312 12.357404708862304688 12.320261955261230469 12.281661033630371094 12.244647026062011719 12.206158638000488281 12.169134140014648438 12.130564689636230469 12.093281745910644531 12.054282188415527344 12.016262054443359375 11.976099967956542969 11.936396598815917969 11.893915176391601562 11.851308822631835938 11.824731826782226562 11.754448890686035156 11.645321846008300781 11.550766944885253906 11.460234642028808594 11.37522125244140625 11.286625862121582031 11.199137687683105469 11.10839080810546875 11.020920753479003906 10.93274688720703125 10.850038528442382812 10.769230842590332031 10.69568634033203125 10.626394271850585938 10.565876007080078125 10.511988639831542969 10.467822074890136719 10.429958343505859375 10.398015022277832031 10.368174552917480469 10.339583396911621094 10.308750152587890625 10.276323318481445312 10.241854667663574219 10.208163261413574219 10.175226211547851562 10.145680427551269531 10.119168281555175781 10.095699310302734375 10.072514533996582031 10.048573493957519531 10.021047592163085938 9.9892168045043945312 9.9516315460205078125 9.9108724594116210938 9.8672533035278320312 9.82370758056640625 9.7805938720703125 9.740325927734375 9.7021207809448242188 9.6667814254760742188 9.633274078369140625 9.6021871566772460938 9.5726757049560546875 9.5452909469604492188 9.5195293426513671875 9.4959268569946289062 9.47412872314453125 9.4545431137084960938 
12.926698684692382812 12.889235496520996094 12.865914344787597656 12.847588539123535156 12.832266807556152344 12.819022178649902344 12.807269096374511719 12.795916557312011719 12.784873008728027344 12.774137496948242188 12.763706207275390625 12.753378868103027344 12.74297332763671875 12.73236846923828125 12.721508026123046875 12.710353851318359375 12.698934555053710938 12.687212944030761719 12.675097465515136719 12.662670135498046875 12.649949073791503906 12.636958122253417969 12.623515129089355469 12.609523773193359375 12.59453582763671875 12.57834625244140625 12.560313224792480469 12.540417671203613281 12.519318580627441406 12.514157295227050781 12.613114356994628906 12.757548332214355469 12.901676177978515625 13.043243408203125 13.187761306762695312 13.333724021911621094 13.484919548034667969 13.638456344604492188 13.798516273498535156 13.96126556396484375 14.130861282348632812 14.30287933349609375 14.482079505920410156 14.663250923156738281 14.851879119873046875 15.04213714599609375 15.240083694458007812 15.439205169677734375 15.646292686462402344 15.853868484497070312 16.069032669067382812 16.283617019653320312 16.505870819091796875 16.727022171020507812 16.956203460693359375 17.18389129638671875 17.4197845458984375 17.653436660766601562 17.895128250122070312 18.13343048095703125 18.378808975219726562 18.569522857666015625 18.616949081420898438 18.503017425537109375 18.388975143432617188 18.280416488647460938 18.171247482299804688 18.067247390747070312 17.962293624877929688 17.862325668334960938 17.761552810668945312 17.665689468383789062 17.568721771240234375 17.476390838623046875 17.38272857666015625 17.293376922607421875 17.202335357666015625 17.115945816040039062 17.028520584106445312 16.94573974609375 16.861593246459960938 16.78151702880859375 16.699617385864257812 16.621629714965820312 16.541543960571289062 16.464258193969726562 16.38350677490234375 16.305286407470703125 16.223236083984375 16.143686294555664062 16.060878753662109375 15.981890678405761719 15.900023460388183594 15.821833610534667969 15.740358352661132812 15.662209510803222656 15.580736160278320312 15.502905845642089844 15.421834945678710938 15.345337867736816406 15.267455101013183594 15.195199966430664062 15.121714591979980469 15.053594589233398438 14.984210968017578125 14.920010566711425781 14.8546600341796875 14.794396400451660156 14.733170509338378906 14.67661285400390625 14.618763923645019531 14.565754890441894531 14.51238250732421875 14.46399688720703125 14.415299415588378906 14.371246337890625 14.326938629150390625 14.287034034729003906 14.247049331665039062 14.211202621459960938 14.175207138061523438 14.14298248291015625 14.11092376708984375 14.082609176635742188 14.054631233215332031 14.030137062072753906 14.006114959716796875 13.985266685485839844 13.965003013610839844 13.947790145874023438 13.931535720825195312 13.918082237243652344 13.905570030212402344 13.8953094482421875 13.885837554931640625 13.878270149230957031 13.871502876281738281 13.866143226623535156 13.861341476440429688 13.857687950134277344 13.854605674743652344 13.852379798889160156 13.850670814514160156 13.849702835083007812 13.849338531494140625 13.84963226318359375 13.850619316101074219 13.85214996337890625 13.854246139526367188 13.856431961059570312 13.859007835388183594 13.861619949340820312 13.864658355712890625 13.867700576782226562 13.871212959289550781 13.874744415283203125 13.879003524780273438 13.883426666259765625 13.8887176513671875 13.894045829772949219 13.900187492370605469 13.906236648559570312 13.913190841674804688 13.92002105712890625 13.927876472473144531 13.935585975646972656 13.94445037841796875 13.95310211181640625 13.962985038757324219 13.972637176513671875 13.983658790588378906 13.994370460510253906 14.006497383117675781 14.018289566040039062 14.031667709350585938 14.044740676879882812 14.05963134765625 14.074286460876464844 14.091081619262695312 14.107748985290527344 14.126764297485351562 14.145438194274902344 14.166414260864257812 14.186408042907714844 14.208219528198242188 14.228733062744140625 14.250353813171386719 14.268230438232421875 14.280328750610351562 14.285330772399902344 14.281975746154785156 14.267618179321289062 14.239080429077148438 14.205025672912597656 14.166780471801757812 14.126543045043945312 14.080804824829101562 14.036797523498535156 13.989904403686523438 13.946043968200683594 13.899641990661621094 13.856278419494628906 13.810472488403320312 13.767619132995605469 13.722385406494140625 13.68000030517578125 13.63529205322265625 13.593350410461425781 13.549158096313476562 13.507647514343261719 13.463939666748046875 13.422827720642089844 13.37957000732421875 13.338827133178710938 13.295991897583007812 13.255594253540039062 13.213159561157226562 13.173087120056152344 13.131031036376953125 13.091252326965332031 13.049436569213867188 13.009723663330078125 12.967985153198242188 12.928301811218261719 12.88663482666015625 12.846971511840820312 12.805360794067382812 12.765704154968261719 12.724223136901855469 12.684780120849609375 12.643630027770996094 12.604464530944824219 12.563646316528320312 12.524753570556640625 12.484259605407714844 12.445627212524414062 12.405436515808105469 12.367040634155273438 12.327117919921875 12.288908958435058594 12.249186515808105469 12.21108245849609375 12.171443939208984375 12.133296966552734375 12.093536376953125 12.055080413818359375 12.014812469482421875 11.975501060485839844 11.933947563171386719 11.892874717712402344 11.848967552185058594 11.805138587951660156 11.760491371154785156 11.653674125671386719 11.5463409423828125 11.454417228698730469 11.367917060852050781 11.288416862487792969 11.207399368286132812 11.128636360168457031 11.047445297241210938 10.968922615051269531 10.888705253601074219 10.81169891357421875 10.734293937683105469 10.662077903747558594 10.592679977416992188 10.531213760375976562 10.476061820983886719 10.430863380432128906 10.392331123352050781 10.360105514526367188 10.330347061157226562 10.302182197570800781 10.272123336791992188 10.240752220153808594 10.207638740539550781 10.175500869750976562 10.144345283508300781 10.116693496704101562 10.092249870300292969 10.070982933044433594 10.050296783447265625 10.029127120971679688 10.004822731018066406 9.9766111373901367188 9.9431009292602539062 9.9065332412719726562 9.8671207427978515625 9.82744598388671875 9.7877397537231445312 9.75018310546875 9.714111328125 9.6804265975952148438 9.6482782363891601562 9.6183872222900390625 9.5900630950927734375 9.5638551712036132812 9.5392026901245117188 9.516510009765625 9.4953355789184570312 9.4759798049926757812 
12.939897537231445312 12.905225753784179688 12.8812255859375 12.861950874328613281 12.845879554748535156 12.832059860229492188 12.820061683654785156 12.808809280395507812 12.797968864440917969 12.78749847412109375 12.777376174926757812 12.767466545104980469 12.757572174072265625 12.747472763061523438 12.737109184265136719 12.726410865783691406 12.715417861938476562 12.704132080078125 12.692446708679199219 12.680407524108886719 12.668041229248046875 12.655407905578613281 12.642381668090820312 12.628916740417480469 12.614610671997070312 12.59935760498046875 12.582683563232421875 12.564656257629394531 12.545804023742675781 12.544281959533691406 12.625660896301269531 12.762522697448730469 12.907135963439941406 13.049698829650878906 13.195164680480957031 13.342072486877441406 13.4942169189453125 13.64865875244140625 13.809652328491210938 13.973346710205078125 14.143911361694335938 14.31690216064453125 14.497092247009277344 14.679239273071289062 14.868879318237304688 15.060126304626464844 15.259076118469238281 15.45919036865234375 15.667279243469238281 15.875864028930664062 16.092016220092773438 16.307432174682617188 16.530384063720703125 16.752048492431640625 16.981565475463867188 17.209379196166992188 17.445159912109375 17.678434371948242188 17.919481277465820312 18.157136917114257812 18.391063690185546875 18.577306747436523438 18.55214691162109375 18.438562393188476562 18.32486724853515625 18.21661376953125 18.107707977294921875 18.003938674926757812 17.899183273315429688 17.799173355102539062 17.698144912719726562 17.601991653442382812 17.504690170288085938 17.411996841430664062 17.317930221557617188 17.228269577026367188 17.136882781982421875 17.0497283935546875 16.961467742919921875 16.877965927124023438 16.793237686157226562 16.712841033935546875 16.630689620971679688 16.552501678466796875 16.472194671630859375 16.395009994506835938 16.314531326293945312 16.23665618896484375 16.155284881591796875 16.076663970947265625 15.994449615478515625 15.915268898010253906 15.833233833312988281 15.755077362060546875 15.674098014831542969 15.596782684326171875 15.516331672668457031 15.439594268798828125 15.359737396240234375 15.283811569213867188 15.205846786499023438 15.133655548095703125 15.060464859008789062 14.992885589599609375 14.924296379089355469 14.861035346984863281 14.796856880187988281 14.737911224365234375 14.678043365478515625 14.622731208801269531 14.566220283508300781 14.514153480529785156 14.461496353149414062 14.413874626159667969 14.3660888671875 14.322993278503417969 14.27980804443359375 14.241069793701171875 14.202385902404785156 14.167866706848144531 14.133482933044433594 14.1028289794921875 14.072309494018554688 14.045458793640136719 14.019098281860351562 13.996185302734375 13.973866462707519531 13.954682350158691406 13.936250686645507812 13.920574188232421875 13.905597686767578125 13.893283843994140625 13.881887435913085938 13.872632980346679688 13.864233970642089844 13.857654571533203125 13.851769447326660156 13.847154617309570312 13.843152046203613281 13.840218544006347656 13.837817192077636719 13.836216926574707031 13.835186004638671875 13.834859848022460938 13.835187911987304688 13.836121559143066406 13.837778091430664062 13.839789390563964844 13.842206954956054688 13.844668388366699219 13.847537994384765625 13.850417137145996094 13.853740692138671875 13.857043266296386719 13.860867500305175781 13.86481475830078125 13.869579315185546875 13.874480247497558594 13.880237579345703125 13.885935783386230469 13.892481803894042969 13.898920059204101562 13.906313896179199219 13.913573265075683594 13.921918869018554688 13.9300994873046875 13.939481735229492188 13.948630332946777344 13.959090232849121094 13.969302177429199219 13.980885505676269531 13.992101669311523438 14.004787445068359375 14.01711273193359375 14.031091690063476562 14.044750213623046875 14.06031036376953125 14.075633049011230469 14.093187332153320312 14.110428810119628906 14.12992095947265625 14.148810386657714844 14.169505119323730469 14.18902587890625 14.210070610046386719 14.229364395141601562 14.248255729675292969 14.26148223876953125 14.270554542541503906 14.273625373840332031 14.268720626831054688 14.25424957275390625 14.226715087890625 14.192685127258300781 14.155472755432128906 14.119654655456542969 14.0773162841796875 14.035174369812011719 13.98912811279296875 13.945692062377929688 13.899500846862792969 13.856176376342773438 13.810284614562988281 13.767252922058105469 13.721746444702148438 13.679037094116210938 13.633917808532714844 13.591528892517089844 13.54680633544921875 13.504751205444335938 13.460422515869140625 13.4186859130859375 13.374729156494140625 13.333291053771972656 13.289687156677246094 13.248528480529785156 13.205258369445800781 13.164364814758300781 13.121411323547363281 13.080763816833496094 13.038045883178710938 12.997460365295410156 12.954781532287597656 12.914183616638183594 12.871529579162597656 12.830902099609375 12.788251876831054688 12.747593879699707031 12.705083847045898438 12.664658546447753906 12.622477531433105469 12.582322120666503906 12.540467262268066406 12.500578880310058594 12.459040641784667969 12.419404983520507812 12.378163337707519531 12.338753700256347656 12.297770500183105469 12.258539199829101562 12.217745780944824219 12.178606033325195312 12.137883186340332031 12.098681449890136719 12.057813644409179688 12.018269538879394531 11.976825714111328125 11.936353683471679688 11.893586158752441406 11.85134124755859375 11.806173324584960938 11.761803627014160156 11.674868583679199219 11.55735015869140625 11.451535224914550781 11.361725807189941406 11.278411865234375 11.203248023986816406 11.128214836120605469 11.056421279907226562 10.983007431030273438 10.912004470825195312 10.838848114013671875 10.7674713134765625 10.694283485412597656 10.624828338623046875 10.557171821594238281 10.496630668640136719 10.441926002502441406 10.396933555603027344 10.358533859252929688 10.326448440551757812 10.296934127807617188 10.26918792724609375 10.239825248718261719 10.209418296813964844 10.177534103393554688 10.146768569946289062 10.11712646484375 10.091005325317382812 10.06813812255859375 10.048505783081054688 10.029699325561523438 10.01070404052734375 9.98908233642578125 9.964061737060546875 9.9343252182006835938 9.9017782211303710938 9.8665189743041992188 9.8307657241821289062 9.7946214675903320312 9.7600069046020507812 9.7263593673706054688 9.6946287155151367188 9.6641340255737304688 9.6356658935546875 9.6086711883544921875 9.5836877822875976562 9.5601015090942382812 9.5382175445556640625 9.5175161361694335938 9.49820709228515625 
12.951177597045898438 12.919095993041992188 12.895312309265136719 12.875822067260742188 12.859541893005371094 12.845578193664550781 12.833506584167480469 12.822422027587890625 12.811868667602539062 12.801751136779785156 12.792028427124023438 12.782567977905273438 12.773247718811035156 12.763746261596679688 12.753966331481933594 12.743828773498535156 12.733341217041015625 12.722539901733398438 12.711342811584472656 12.699791908264160156 12.68795013427734375 12.675889015197753906 12.66350555419921875 12.650799751281738281 12.637423515319824219 12.62332916259765625 12.608049392700195312 12.591643333435058594 12.57491302490234375 12.576478958129882812 12.643507957458496094 12.766246795654296875 12.908408164978027344 13.051815032958984375 13.198095321655273438 13.345819473266601562 13.498815536499023438 13.654083251953125 13.8159637451171875 13.980625152587890625 14.152211189270019531 14.326250076293945312 14.507539749145507812 14.690794944763183594 14.881593704223632812 15.074004173278808594 15.274155616760253906 15.475469589233398438 15.684792518615722656 15.894596099853515625 16.111942291259765625 16.328386306762695312 16.552225112915039062 16.774595260620117188 17.004648208618164062 17.232786178588867188 17.468685150146484375 17.701887130737304688 17.942840576171875 18.181060791015625 18.3744049072265625 18.563446044921875 18.480691909790039062 18.367662429809570312 18.254520416259765625 18.146770477294921875 18.03833770751953125 17.93499755859375 17.8306427001953125 17.730930328369140625 17.629888534545898438 17.533548355102539062 17.436010360717773438 17.34304046630859375 17.2486419677734375 17.158641815185546875 17.067007064819335938 16.9793853759765625 16.890157699584960938 16.80574798583984375 16.720190048217773438 16.6392059326171875 16.556684494018554688 16.478147506713867188 16.397272109985351562 16.319704055786132812 16.239307403564453125 16.161663055419921875 16.080804824829101562 16.003099441528320312 15.921731948852539062 15.842779159545898438 15.760416984558105469 15.682039260864257812 15.601155281066894531 15.524497032165527344 15.445046424865722656 15.369415283203125 15.290860176086425781 15.216226577758789062 15.138813018798828125 15.066494941711425781 14.993371963500976562 14.926136016845703125 14.858242034912109375 14.79592132568359375 14.732993125915527344 14.675365447998046875 14.616740226745605469 14.562679290771484375 14.507581710815429688 14.456888198852539062 14.405297279357910156 14.358428001403808594 14.311544418334960938 14.269450187683105469 14.227482795715332031 14.190003395080566406 14.152741432189941406 14.119653701782226562 14.0869140625 14.058053016662597656 14.029535293579101562 14.004490852355957031 13.980067253112792969 13.9590301513671875 13.938772201538085938 13.921628952026367188 13.905321121215820312 13.891451835632324219 13.878153800964355469 13.867038726806640625 13.856790542602539062 13.848621368408203125 13.841372489929199219 13.835717201232910156 13.830692291259765625 13.8268890380859375 13.82373046875 13.821496963500976562 13.819822311401367188 13.818915367126464844 13.818637847900390625 13.819019317626953125 13.820096969604492188 13.82171630859375 13.823950767517089844 13.826281547546386719 13.829004287719726562 13.831747055053710938 13.834912300109863281 13.838062286376953125 13.841671943664550781 13.845267295837402344 13.849564552307128906 13.854028701782226562 13.859360694885253906 13.864742279052734375 13.870940208435058594 13.877047538757324219 13.884055137634277344 13.890941619873046875 13.898844718933105469 13.906602859497070312 13.9155120849609375 13.924224853515625 13.934214591979980469 13.943965911865234375 13.955106735229492188 13.965897560119628906 13.978079795837402344 13.989858627319335938 14.003172874450683594 14.016101837158203125 14.030760765075683594 14.045087814331054688 14.061419486999511719 14.077482223510742188 14.095661163330078125 14.113332748413085938 14.132985115051269531 14.151541709899902344 14.171644210815429688 14.19036865234375 14.21002197265625 14.226897239685058594 14.241646766662597656 14.252542495727539062 14.260003089904785156 14.261500358581542969 14.255389213562011719 14.240751266479492188 14.213955879211425781 14.179865837097167969 14.141627311706542969 14.107311248779296875 14.069532394409179688 14.030776023864746094 13.986948013305664062 13.944500923156738281 13.898908615112304688 13.855876922607421875 13.810090065002441406 13.767007827758789062 13.721320152282714844 13.678341865539550781 13.632844924926757812 13.590020179748535156 13.544758796691894531 13.502131462097167969 13.457135200500488281 13.414714813232421875 13.369983673095703125 13.32776641845703125 13.283293724060058594 13.241271018981933594 13.19704437255859375 13.155203819274902344 13.111208915710449219 13.069537162780761719 13.025740623474121094 12.98412322998046875 12.940336227416992188 12.898654937744140625 12.854836463928222656 12.813069343566894531 12.769189834594726562 12.727377891540527344 12.683685302734375 12.642130851745605469 12.598768234252929688 12.557484626770019531 12.514449119567871094 12.473430633544921875 12.430711746215820312 12.38994598388671875 12.347524642944335938 12.306985855102539062 12.264824867248535156 12.22446441650390625 12.182496070861816406 12.142230033874511719 12.100335121154785156 12.060009956359863281 12.017970085144042969 11.977277755737304688 11.934636116027832031 11.893019676208496094 11.849071502685546875 11.805540084838867188 11.759697914123535156 11.698096275329589844 11.571370124816894531 11.4541778564453125 11.349926948547363281 11.262085914611816406 11.181608200073242188 11.110285758972167969 11.040581703186035156 10.975073814392089844 10.908833503723144531 10.844983100891113281 10.778889656066894531 10.713632583618164062 10.645680427551269531 10.58034515380859375 10.516002655029296875 10.457905769348144531 10.405004501342773438 10.361201286315917969 10.323583602905273438 10.292000770568847656 10.262904167175292969 10.23563385009765625 10.206991195678710938 10.177576065063476562 10.146936416625976562 10.117531776428222656 10.089335441589355469 10.064604759216308594 10.043089866638183594 10.024815559387207031 10.007594108581542969 9.9905261993408203125 9.9714174270629882812 9.9495496749877929688 9.9236974716186523438 9.8954038619995117188 9.8646421432495117188 9.8332309722900390625 9.8011322021484375 9.769969940185546875 9.7392740249633789062 9.7100162506103515625 9.6816644668579101562 9.6550579071044921875 9.6297664642333984375 9.6062994003295898438 9.5839948654174804688 9.5630474090576171875 9.5428609848022460938 9.5235605239868164062 
12.958750724792480469 12.929166793823242188 12.90622711181640625 12.887104988098144531 12.871059417724609375 12.857332229614257812 12.845516204833984375 12.834747314453125 12.824538230895996094 12.814821243286132812 12.8055419921875 12.796561241149902344 12.787790298461914062 12.77889251708984375 12.769701957702636719 12.760130882263183594 12.750146865844726562 12.7398223876953125 12.729108810424804688 12.718048095703125 12.706739425659179688 12.695278167724609375 12.683584213256835938 12.671660423278808594 12.659166336059570312 12.646070480346679688 12.631920814514160156 12.616953849792480469 12.602207183837890625 12.605566024780273438 12.6640777587890625 12.770256996154785156 12.905591011047363281 13.048952102661132812 13.195978164672851562 13.344304084777832031 13.497922897338867188 13.653767585754394531 13.816251754760742188 13.981730461120605469 14.154269218444824219 14.329303741455078125 14.511670112609863281 14.696028709411621094 14.887997627258300781 15.081606864929199219 15.283019065856933594 15.485613822937011719 15.6962738037109375 15.907393455505371094 16.126003265380859375 16.343557357788085938 16.568391799926757812 16.791601181030273438 17.022373199462890625 17.251064300537109375 17.487400054931640625 17.721004486083984375 17.962739944458007812 18.201459884643554688 18.390209197998046875 18.523431777954101562 18.412517547607421875 18.300199508666992188 18.187768936157226562 18.0806732177734375 17.9728851318359375 17.870134353637695312 17.766338348388671875 17.667112350463867188 17.56642913818359375 17.470119476318359375 17.372493743896484375 17.279378890991210938 17.184793472290039062 17.094554901123046875 17.002656936645507812 16.914852142333984375 16.825016021728515625 16.7396087646484375 16.653100967407226562 16.57131195068359375 16.488183975219726562 16.409038543701171875 16.327425003051757812 16.249195098876953125 16.168355941772460938 16.090787887573242188 16.010362625122070312 15.933138847351074219 15.852360725402832031 15.774074554443359375 15.691866874694824219 15.613142967224121094 15.532114028930664062 15.455598831176757812 15.376811981201171875 15.302123069763183594 15.224714279174804688 15.15132904052734375 15.075264930725097656 15.00344085693359375 14.930182456970214844 14.863036155700683594 14.795556068420410156 14.733992576599121094 14.672165870666503906 14.61545562744140625 14.5578155517578125 14.504802703857421875 14.45092010498046875 14.401487350463867188 14.351271629333496094 14.305391311645507812 14.259305953979492188 14.218121528625488281 14.177266120910644531 14.140958786010742188 14.105051040649414062 14.0733489990234375 14.042180061340332031 14.014935493469238281 13.988396644592285156 13.965392112731933594 13.943060874938964844 13.923999786376953125 13.905958175659179688 13.890918731689453125 13.876608848571777344 13.864525794982910156 13.852976799011230469 13.84317779541015625 13.834029197692871094 13.826854705810546875 13.820521354675292969 13.815599441528320312 13.811366081237792969 13.808297157287597656 13.805835723876953125 13.804234504699707031 13.803254127502441406 13.803009033203125 13.803440093994140625 13.804476737976074219 13.806243896484375 13.8083648681640625 13.81090545654296875 13.813482284545898438 13.816465377807617188 13.819444656372070312 13.822861671447753906 13.826239585876464844 13.830126762390136719 13.834131240844726562 13.838959693908691406 13.843928337097167969 13.849750518798828125 13.855518341064453125 13.8621368408203125 13.868651390075683594 13.876122474670410156 13.883460044860839844 13.891881942749023438 13.900140762329101562 13.909605026245117188 13.918866157531738281 13.929501533508300781 13.939875602722167969 13.951621055603027344 13.962938308715820312 13.975699424743652344 13.988028526306152344 14.001955986022949219 14.015478134155273438 14.030814170837402344 14.045809745788574219 14.06285858154296875 14.079410552978515625 14.097966194152832031 14.115679740905761719 14.134936332702636719 14.15294647216796875 14.172224044799804688 14.189763069152832031 14.207169532775878906 14.220847129821777344 14.234014511108398438 14.244179725646972656 14.250496864318847656 14.250905990600585938 14.243956565856933594 14.229114532470703125 14.202737808227539062 14.168420791625976562 14.1290740966796875 14.093889236450195312 14.057712554931640625 14.022734642028808594 13.982346534729003906 13.942038536071777344 13.897601127624511719 13.85521697998046875 13.809815406799316406 13.766887664794921875 13.721194267272949219 13.678080558776855469 13.632326126098632812 13.589160919189453125 13.543444633483886719 13.500308990478515625 13.454701423645019531 13.411640167236328125 13.366169929504394531 13.323199272155761719 13.2778778076171875 13.2350006103515625 13.189822196960449219 13.147031784057617188 13.101987838745117188 13.05927276611328125 13.014345169067382812 12.971652984619140625 12.926711082458496094 12.883906364440917969 12.83887481689453125 12.79592132568359375 12.750779151916503906 12.707818031311035156 12.662938117980957031 12.620255470275878906 12.575716018676757812 12.533311843872070312 12.489109992980957031 12.446980476379394531 12.403106689453125 12.361240386962890625 12.317677497863769531 12.276050567626953125 12.232764244079589844 12.191333770751953125 12.148262977600097656 12.106950759887695312 12.063983917236328125 12.02264404296875 11.979557991027832031 11.937877655029296875 11.894251823425292969 11.851719856262207031 11.806604385375976562 11.762379646301269531 11.674102783203125 11.542607307434082031 11.477191925048828125 11.361588478088378906 11.258825302124023438 11.172580718994140625 11.094241142272949219 11.025773048400878906 10.9600677490234375 10.89936065673828125 10.838726043701171875 10.780637741088867188 10.720485687255859375 10.660710334777832031 10.597873687744140625 10.536931037902832031 10.476457595825195312 10.421471595764160156 10.371038436889648438 10.328937530517578125 10.292454719543457031 10.261580467224121094 10.2329864501953125 10.20618438720703125 10.178175926208496094 10.1496124267578125 10.120023727416992188 10.091739654541015625 10.064700126647949219 10.041031837463378906 10.020488739013671875 10.003160476684570312 9.98706817626953125 9.9714374542236328125 9.9543094635009765625 9.9350452423095703125 9.9125013351440429688 9.8879184722900390625 9.8611545562744140625 9.8336801528930664062 9.8053407669067382812 9.7774953842163085938 9.7497434616088867188 9.7230396270751953125 9.6969728469848632812 9.672389984130859375 9.6489582061767578125 9.62713623046875 9.60622406005859375 9.58631134033203125 9.5667324066162109375 9.5475311279296875 
12.964021682739257812 12.937299728393554688 12.91579437255859375 12.897571563720703125 12.882152557373046875 12.869004249572753906 12.857752799987792969 12.847556114196777344 12.837843894958496094 12.828648567199707031 12.819935798645019531 12.811559677124023438 12.803437232971191406 12.795240402221679688 12.786730766296386719 12.777808189392089844 12.768404006958007812 12.758635520935058594 12.748476982116699219 12.737986564636230469 12.727305412292480469 12.716546058654785156 12.70565032958984375 12.694592475891113281 12.683049201965332031 12.670961380004882812 12.657902717590332031 12.644430160522460938 12.631683349609375 12.636057853698730469 12.689059257507324219 12.77820587158203125 12.901058197021484375 13.04035186767578125 13.187790870666503906 13.336686134338378906 13.490870475769042969 13.647263526916503906 13.810189247131347656 13.976320266723632812 14.149852752685546875 14.326008796691894531 14.509625434875488281 14.695291519165039062 14.888652801513671875 15.083725929260253906 15.286699295043945312 15.490908622741699219 15.703281402587890625 15.916073799133300781 16.136251449584960938 16.355215072631835938 16.581354141235351562 16.805738449096679688 17.037601470947265625 17.267253875732421875 17.504556655883789062 17.739347457885742188 17.983379364013671875 18.213878631591796875 18.358327865600585938 18.454229354858398438 18.336870193481445312 18.2255706787109375 18.114168167114257812 18.008028030395507812 17.90120697021484375 17.799345016479492188 17.696390151977539062 17.597902297973632812 17.497892379760742188 17.402048110961914062 17.304555892944335938 17.211435317993164062 17.116790771484375 17.026418685913085938 16.934293746948242188 16.846254348754882812 16.756185531616210938 16.669940948486328125 16.582149505615234375 16.499223709106445312 16.414915084838867188 16.334581375122070312 16.25189971923828125 16.172712326049804688 16.090982437133789062 16.013105392456054688 15.932939529418945312 15.8558502197265625 15.775341033935546875 15.697691917419433594 15.616309165954589844 15.537885665893554688 15.456561088562011719 15.379865646362304688 15.301218032836914062 15.227221488952636719 15.150941848754882812 15.078848838806152344 15.004342079162597656 14.934077262878417969 14.861577987670898438 14.79437255859375 14.727087020874023438 14.666121482849121094 14.60495758056640625 14.548885345458984375 14.492093086242675781 14.440041542053222656 14.387318611145019531 14.339125633239746094 14.290363311767578125 14.245957374572753906 14.201196670532226562 14.161002159118652344 14.121303558349609375 14.086266517639160156 14.051868438720703125 14.021747589111328125 13.992407798767089844 13.967039108276367188 13.942667007446289062 13.92197418212890625 13.902350425720214844 13.885910987854003906 13.870610237121582031 13.857853889465332031 13.845801353454589844 13.835697174072265625 13.826061248779296875 13.8179779052734375 13.810357093811035156 13.804120063781738281 13.798574447631835938 13.794406890869140625 13.790979385375976562 13.788588523864746094 13.786835670471191406 13.78592681884765625 13.785704612731933594 13.786166191101074219 13.787346839904785156 13.789063453674316406 13.791369438171386719 13.793764114379882812 13.796555519104003906 13.799364089965820312 13.802590370178222656 13.805791854858398438 13.809441566467285156 13.813086509704589844 13.817457199096679688 13.822010993957519531 13.827437400817871094 13.832899093627929688 13.839182853698730469 13.845383644104003906 13.8524932861328125 13.859488487243652344 13.8675079345703125 13.875387191772460938 13.884421348571777344 13.893262863159179688 13.903409004211425781 13.913360595703125 13.924762725830078125 13.935760498046875 13.948142051696777344 13.960055351257324219 13.973474502563476562 13.986431121826171875 14.001064300537109375 14.0152740478515625 14.031391143798828125 14.04705810546875 14.064602851867675781 14.081447601318359375 14.099897384643554688 14.117152214050292969 14.135728836059570312 14.152872085571289062 14.170750617980957031 14.186126708984375 14.200369834899902344 14.212773323059082031 14.22577667236328125 14.235399246215820312 14.240841865539550781 14.240408897399902344 14.232767105102539062 14.217637062072753906 14.191343307495117188 14.156668663024902344 14.116032600402832031 14.079729080200195312 14.0427093505859375 14.009140968322753906 13.972728729248046875 13.936069488525390625 13.894483566284179688 13.853566169738769531 13.80912017822265625 13.766727447509765625 13.721317291259765625 13.678264617919921875 13.632396697998046875 13.588982582092285156 13.5428619384765625 13.49922943115234375 13.452988624572753906 13.409238815307617188 13.362957000732421875 13.319142341613769531 13.272853851318359375 13.228994369506835938 13.182709693908691406 13.138806343078613281 13.09252166748046875 13.048564910888671875 13.002264022827148438 12.958230018615722656 12.911856651306152344 12.867658615112304688 12.821125984191894531 12.776703834533691406 12.730072021484375 12.685760498046875 12.639479637145996094 12.595475196838378906 12.549562454223632812 12.505861282348632812 12.460314750671386719 12.416913032531738281 12.371724128723144531 12.328615188598632812 12.283782005310058594 12.240970611572265625 12.196475982666015625 12.153903007507324219 12.109653472900390625 12.067225456237792969 12.023127555847167969 11.980748176574707031 11.936662673950195312 11.894108772277832031 11.849622726440429688 11.805980682373046875 11.76010894775390625 11.715826988220214844 11.371502876281738281 11.5168304443359375 11.38201141357421875 11.268621444702148438 11.167601585388183594 11.082886695861816406 11.006366729736328125 10.940250396728515625 10.877908706665039062 10.821337699890136719 10.765653610229492188 10.712799072265625 10.658236503601074219 10.603853225708007812 10.546322822570800781 10.49017333984375 10.434117317199707031 10.382819175720214844 10.335407257080078125 10.295446395874023438 10.26042938232421875 10.230479240417480469 10.202518463134765625 10.176241874694824219 10.148875236511230469 10.121129035949707031 10.092517852783203125 10.065250396728515625 10.039228439331054688 10.016458511352539062 9.9966974258422851562 9.98011016845703125 9.9649209976196289062 9.9504976272583007812 9.93511199951171875 9.918216705322265625 9.8987579345703125 9.8777017593383789062 9.8548135757446289062 9.831241607666015625 9.8067388534545898438 9.7824048995971679688 9.757900238037109375 9.7341318130493164062 9.7107934951782226562 9.6886997222900390625 9.6675968170166015625 9.6478681564331054688 9.628765106201171875 9.6102571487426757812 9.5916042327880859375 9.5727510452270507812 
12.966711044311523438 12.942645072937011719 12.922825813293457031 12.905801773071289062 12.891249656677246094 12.878896713256835938 12.868390083312988281 12.858896255493164062 12.849786758422851562 12.841169357299804688 12.833075523376464844 12.825352668762207031 12.81790924072265625 12.810410499572753906 12.80257415771484375 12.794283866882324219 12.785456657409667969 12.776247978210449219 12.766638755798339844 12.7567291259765625 12.746698379516601562 12.736660957336425781 12.7265777587890625 12.716371536254882812 12.705751419067382812 12.694537162780761719 12.682355880737304688 12.670156478881835938 12.659193992614746094 12.664011955261230469 12.713720321655273438 12.791159629821777344 12.897961616516113281 13.0291748046875 13.173972129821777344 13.323241233825683594 13.477910041809082031 13.634819984436035156 13.798105239868164062 13.964694976806640625 14.1390380859375 14.316293716430664062 14.501181602478027344 14.688212394714355469 14.883025169372558594 15.079657554626464844 15.284326553344726562 15.490314483642578125 15.704598426818847656 15.919214248657226562 16.14107513427734375 16.361585617065429688 16.58921051025390625 16.815006256103515625 17.048248291015625 17.27923583984375 17.518056869506835938 17.754957199096679688 18.00365447998046875 18.202569961547851562 18.384784698486328125 18.379579544067382812 18.264276504516601562 18.154294967651367188 18.044153213500976562 17.939207077026367188 17.833608627319335938 17.732860565185546875 17.630956649780273438 17.53339385986328125 17.434236526489257812 17.339139938354492188 17.242204666137695312 17.149311065673828125 17.054761886596679688 16.964385986328125 16.872159957885742188 16.783924102783203125 16.69362640380859375 16.607112884521484375 16.518285751342773438 16.433885574340820312 16.347814559936523438 16.26580810546875 16.181657791137695312 16.10126495361328125 16.018598556518554688 15.940174102783203125 15.859473228454589844 15.78220367431640625 15.701761245727539062 15.624401092529296875 15.543806076049804688 15.466385841369628906 15.385540962219238281 15.308558464050292969 15.229683876037597656 15.155780792236328125 15.080169677734375 15.009184837341308594 14.936098098754882812 14.867424964904785156 14.796751022338867188 14.73061370849609375 14.663516998291015625 14.602536201477050781 14.541261672973632812 14.485368728637695312 14.429062843322753906 14.377679824829101562 14.325839996337890625 14.27864837646484375 14.231112480163574219 14.188080787658691406 14.144929885864257812 14.106118202209472656 14.067586898803710938 14.0337371826171875 14.000809669494628906 13.9722747802734375 13.944813728332519531 13.921410560607910156 13.899288177490234375 13.880878448486328125 13.8639984130859375 13.850433349609375 13.837824821472167969 13.827289581298828125 13.817401885986328125 13.809147834777832031 13.801404953002929688 13.795026779174804688 13.788959503173828125 13.783788681030273438 13.778998374938964844 13.775447845458984375 13.772615432739257812 13.770792007446289062 13.769692420959472656 13.769414901733398438 13.769860267639160156 13.770943641662597656 13.772757530212402344 13.77486419677734375 13.777379989624023438 13.77994537353515625 13.782919883728027344 13.785894393920898438 13.789297103881835938 13.792658805847167969 13.796567916870117188 13.800654411315917969 13.805593490600585938 13.810673713684082031 13.816585540771484375 13.822451591491699219 13.829186439514160156 13.835829734802246094 13.843445777893066406 13.850939750671386719 13.859536170959472656 13.867970466613769531 13.877633094787597656 13.887110710144042969 13.898012161254882812 13.908652305603027344 13.920699119567871094 13.932264328002929688 13.945268630981445312 13.957766532897949219 13.971835136413574219 13.985415458679199219 14.000756263732910156 14.0156402587890625 14.032346725463867188 14.048366546630859375 14.066070556640625 14.082675933837890625 14.100603103637695312 14.1172332763671875 14.134901046752929688 14.150813102722167969 14.16656494140625 14.179535865783691406 14.192840576171875 14.205226898193359375 14.218217849731445312 14.227634429931640625 14.232611656188964844 14.231665611267089844 14.223527908325195312 14.208041191101074219 14.181398391723632812 14.146206855773925781 14.104523658752441406 14.067030906677246094 14.028956413269042969 13.994623184204101562 13.959171295166015625 13.92572021484375 13.88793182373046875 13.850052833557128906 13.807483673095703125 13.766191482543945312 13.721508979797363281 13.678836822509765625 13.633121490478515625 13.589658737182617188 13.543298721313476562 13.499287605285644531 13.452511787414550781 13.408144950866699219 13.361104011535644531 13.316479682922363281 13.269246101379394531 13.224410057067871094 13.177011489868164062 13.131975173950195312 13.084414482116699219 13.039170265197753906 12.991428375244140625 12.945950508117675781 12.897998809814453125 12.852265357971191406 12.804080009460449219 12.758090019226074219 12.7099456787109375 12.664236068725585938 12.616517066955566406 12.571162223815917969 12.523861885070800781 12.478856086730957031 12.43196868896484375 12.387309074401855469 12.340838432312011719 12.296566009521484375 12.250580787658691406 12.206699371337890625 12.161113739013671875 12.117520332336425781 12.072237968444824219 12.028852462768554688 11.983804702758789062 11.940573692321777344 11.895725250244140625 11.852556228637695312 11.807094573974609375 11.762862205505371094 11.716954231262207031 11.672673225402832031 11.292479515075683594 11.433228492736816406 11.302302360534667969 11.191568374633789062 11.092381477355957031 11.008967399597167969 10.933719635009765625 10.869169235229492188 10.809139251708984375 10.755519866943359375 10.703467369079589844 10.654542922973632812 10.604281425476074219 10.554168701171875 10.500963211059570312 10.44882965087890625 10.396561622619628906 10.348497390747070312 10.303798675537109375 10.265812873840332031 10.232193946838378906 10.203162193298339844 10.175848007202148438 10.15007781982421875 10.123261451721191406 10.096154212951660156 10.068272590637207031 10.041738510131835938 10.016428947448730469 9.9942712783813476562 9.9750270843505859375 9.9589185714721679688 9.944332122802734375 9.9307460784912109375 9.9166011810302734375 9.9014272689819335938 9.8842554092407226562 9.8658580780029296875 9.8459596633911132812 9.8254861831665039062 9.8041486740112304688 9.7828531265258789062 9.7613124847412109375 9.7403564453125 9.7197427749633789062 9.7002267837524414062 9.6816034317016601562 9.6641597747802734375 9.647098541259765625 9.630260467529296875 9.6128320693969726562 9.5946502685546875 
12.967660903930664062 12.946169853210449219 12.928548812866210938 12.913225173950195312 12.899896621704101562 12.888628005981445312 12.87908935546875 12.870471000671386719 12.862188339233398438 12.854308128356933594 12.846990585327148438 12.840085029602050781 12.833477020263671875 12.826784133911132812 12.819719314575195312 12.812146186828613281 12.8040008544921875 12.795454978942871094 12.78649139404296875 12.777299880981445312 12.768075942993164062 12.758936882019042969 12.749867439270019531 12.740694999694824219 12.731097221374511719 12.720728874206542969 12.709496498107910156 12.698717117309570312 12.689511299133300781 12.695013046264648438 12.742853164672851562 12.809825897216796875 12.900115013122558594 13.016666412353515625 13.154195785522460938 13.300873756408691406 13.455682754516601562 13.613210678100585938 13.777049064636230469 13.944041252136230469 14.119208335876464844 14.297738075256347656 14.484149932861328125 14.672883033752441406 14.869508743286132812 15.06810760498046875 15.274968147277832031 15.483287811279296875 15.700075149536132812 15.916965484619140625 16.140941619873046875 16.363452911376953125 16.59307861328125 16.820837020874023438 17.056079864501953125 17.289144515991210938 17.530591964721679688 17.772325515747070312 18.029184341430664062 18.182794570922851562 18.406225204467773438 18.294675827026367188 18.182157516479492188 18.074474334716796875 17.966127395629882812 17.862966537475585938 17.759172439575195312 17.660045623779296875 17.559663772583007812 17.46343231201171875 17.36551666259765625 17.271512985229492188 17.175579071044921875 17.083446502685546875 16.98928070068359375 16.89905548095703125 16.80684661865234375 16.718494415283203125 16.627943038940429688 16.541120529174804688 16.451784133911132812 16.365568161010742188 16.276788711547851562 16.192293167114257812 16.105762481689453125 16.023586273193359375 15.93982696533203125 15.860333442687988281 15.778425216674804688 15.700322151184082031 15.619638442993164062 15.5425262451171875 15.4625244140625 15.386071205139160156 15.306522369384765625 15.230351448059082031 15.151329994201660156 15.077162742614746094 15.001648902893066406 14.931363105773925781 14.859689712524414062 14.792779922485351562 14.724314689636230469 14.660597801208496094 14.595094680786132812 14.533687591552734375 14.471585273742675781 14.415223121643066406 14.358828544616699219 14.307753562927246094 14.256549835205078125 14.2102203369140625 14.16387939453125 14.122212409973144531 14.080722808837890625 14.043699264526367188 14.007074356079101562 13.974812507629394531 13.943623542785644531 13.917012214660644531 13.891893386840820312 13.870961189270019531 13.851716995239257812 13.836332321166992188 13.82279205322265625 13.812005996704101562 13.802245140075683594 13.794305801391601562 13.786873817443847656 13.780787467956542969 13.775203704833984375 13.770563125610351562 13.766143798828125 13.762457847595214844 13.758937835693359375 13.756043434143066406 13.753751754760742188 13.752493858337402344 13.75202178955078125 13.752330780029296875 13.753408432006835938 13.755010604858398438 13.757108688354492188 13.759322166442871094 13.761943817138671875 13.764613151550292969 13.767699241638183594 13.770777702331542969 13.774309158325195312 13.777950286865234375 13.782408714294433594 13.787083625793457031 13.792624473571777344 13.79817962646484375 13.804581642150878906 13.810925483703613281 13.818208694458007812 13.825395584106445312 13.833642959594726562 13.841760635375976562 13.851061820983886719 13.860194206237792969 13.870693206787109375 13.881002426147460938 13.892724037170410156 13.904008865356445312 13.916747093200683594 13.928967475891113281 13.942689895629882812 13.955866813659667969 13.970694541931152344 13.985002517700195312 14.001070022583007812 14.016425132751464844 14.033416748046875 14.049396514892578125 14.066670417785644531 14.082698822021484375 14.099842071533203125 14.115500450134277344 14.131659507751464844 14.145473480224609375 14.159027099609375 14.171406745910644531 14.1846923828125 14.197077751159667969 14.210157394409179688 14.219761848449707031 14.22464752197265625 14.223432540893554688 14.214878082275390625 14.198854446411132812 14.17125701904296875 14.1350250244140625 14.092851638793945312 14.053996086120605469 14.014540672302246094 13.979159355163574219 13.942844390869140625 13.909779548645019531 13.875025749206542969 13.841081619262695312 13.802724838256835938 13.764115333557128906 13.721208572387695312 13.679615974426269531 13.63459014892578125 13.591436386108398438 13.545084953308105469 13.500838279724121094 13.453599929809570312 13.408623695373535156 13.360779762268066406 13.315262794494628906 13.266953468322753906 13.220982551574707031 13.172266006469726562 13.125868797302246094 13.076755523681640625 13.029924392700195312 12.980389595031738281 12.933085441589355469 12.883078575134277344 12.8352813720703125 12.78490447998046875 12.73700714111328125 12.686998367309570312 12.639566421508789062 12.590090751647949219 12.5431060791015625 12.494146347045898438 12.447597503662109375 12.399143218994140625 12.353045463562011719 12.305199623107910156 12.259702682495117188 12.212495803833007812 12.167494773864746094 12.120802879333496094 12.076212882995605469 12.029986381530761719 11.985805511474609375 11.940069198608398438 11.896327018737792969 11.850850105285644531 11.806577682495117188 11.760526657104492188 11.716261863708496094 11.670353889465332031 11.32010650634765625 11.4472503662109375 11.353116989135742188 11.227553367614746094 11.120368003845214844 11.023430824279785156 10.94132232666015625 10.867047309875488281 10.803575515747070312 10.745244026184082031 10.693925857543945312 10.64479827880859375 10.599110603332519531 10.552455902099609375 10.505970954895019531 10.456490516662597656 10.407861709594726562 10.35894012451171875 10.313786506652832031 10.271584510803222656 10.235484123229980469 10.203273773193359375 10.17522430419921875 10.148639678955078125 10.1234283447265625 10.097150802612304688 10.070593833923339844 10.043284416198730469 10.017298698425292969 9.9925031661987304688 9.970783233642578125 9.9519071578979492188 9.9361515045166015625 9.92201995849609375 9.909069061279296875 9.89588165283203125 9.8820352554321289062 9.8666400909423828125 9.8503589630126953125 9.832916259765625 9.8150997161865234375 9.7966289520263671875 9.7782745361328125 9.7597856521606445312 9.7418794631958007812 9.7243604660034179688 9.70787811279296875 9.6922588348388671875 9.6776523590087890625 9.6632099151611328125 9.6486082077026367188 9.6329545974731445312 9.6159524917602539062 
12.967035293579101562 12.947377204895019531 12.931987762451171875 12.918691635131835938 12.906938552856445312 12.896833419799804688 12.888227462768554688 12.880479812622070312 12.873154640197753906 12.866070747375488281 12.859576225280761719 12.853534698486328125 12.847789764404296875 12.841883659362792969 12.835558891296386719 12.828687667846679688 12.821254730224609375 12.813391685485839844 12.805104255676269531 12.796717643737792969 12.78839111328125 12.780266761779785156 12.772260665893554688 12.764096260070800781 12.755329132080078125 12.745614051818847656 12.735474586486816406 12.726320266723632812 12.719644546508789062 12.730762481689453125 12.773545265197753906 12.830681800842285156 12.908452033996582031 13.008478164672851562 13.13408660888671875 13.27484893798828125 13.426741600036621094 13.584145545959472656 13.748782157897949219 13.916311264038085938 14.09223175048828125 14.2721099853515625 14.460127830505371094 14.650692939758300781 14.849339485168457031 15.050088882446289062 15.259428024291992188 15.470415115356445312 15.689965248107910156 15.909229278564453125 16.135511398315429688 16.360265731811523438 16.592220306396484375 16.822298049926757812 17.059991836547851562 17.29590606689453125 17.542509078979492188 17.79279327392578125 18.047029495239257812 18.1765594482421875 18.320501327514648438 18.211565017700195312 18.101957321166992188 17.996992111206054688 17.891080856323242188 17.7901153564453125 17.688627243041992188 17.591554641723632812 17.493076324462890625 17.398504257202148438 17.302145004272460938 17.209489822387695312 17.114824295043945312 17.02376556396484375 16.930454254150390625 16.8406524658203125 16.748594284057617188 16.660221099853515625 16.569486618041992188 16.482288360595703125 16.392057418823242188 16.304485321044921875 16.21321868896484375 16.125528335571289062 16.036037445068359375 15.951859474182128906 15.866291999816894531 15.785164833068847656 15.701832771301269531 15.622618675231933594 15.5412139892578125 15.4640350341796875 15.384441375732421875 15.308624267578125 15.230106353759765625 15.155316352844238281 15.0775909423828125 15.003699302673339844 14.927997589111328125 14.857865333557128906 14.78696441650390625 14.721578598022460938 14.655359268188476562 14.593689918518066406 14.529797554016113281 14.469511032104492188 14.407134056091308594 14.349659919738769531 14.292376518249511719 14.240884780883789062 14.1897430419921875 14.143919944763183594 14.098437309265136719 14.057850837707519531 14.017765045166015625 13.982336997985839844 13.947702407836914062 13.917555809020996094 13.888593673706054688 13.864152908325195312 13.841635704040527344 13.823530197143554688 13.807717323303222656 13.795682907104492188 13.785109519958496094 13.776797294616699219 13.769433021545410156 13.763696670532226562 13.75873565673828125 13.75482940673828125 13.75116729736328125 13.748164176940917969 13.74542236328125 13.743178367614746094 13.741072654724121094 13.739357948303222656 13.737837791442871094 13.736949920654296875 13.736853599548339844 13.737530708312988281 13.738856315612792969 13.740459442138671875 13.742488861083984375 13.744655609130859375 13.747242927551269531 13.749888420104980469 13.752954483032226562 13.756082534790039062 13.759938240051269531 13.764093399047851562 13.769139289855957031 13.774305343627929688 13.780310630798339844 13.786307334899902344 13.79322052001953125 13.800075531005859375 13.807955741882324219 13.81574249267578125 13.824677467346191406 13.833474159240722656 13.843583106994628906 13.853552818298339844 13.864956855773925781 13.8759613037109375 13.888341903686523438 13.900235176086425781 13.913651466369628906 13.926524162292480469 13.940964698791503906 13.954825401306152344 13.970371246337890625 13.985193252563476562 14.001588821411132812 14.017017364501953125 14.033739089965820312 14.049244880676269531 14.065891265869140625 14.081191062927246094 14.097295761108398438 14.111580848693847656 14.125738143920898438 14.138197898864746094 14.151490211486816406 14.163869857788085938 14.177154541015625 14.189540863037109375 14.202736854553222656 14.212946891784667969 14.218216896057128906 14.217041969299316406 14.208193778991699219 14.191447257995605469 14.162199020385742188 14.124632835388183594 14.082398414611816406 14.042878150939941406 14.001852989196777344 13.965236663818359375 13.927882194519042969 13.894021987915039062 13.85907745361328125 13.826940536499023438 13.792311668395996094 13.758034706115722656 13.718969345092773438 13.67966461181640625 13.63623809814453125 13.594012260437011719 13.548137664794921875 13.503976821899414062 13.456522941589355469 13.411107063293457031 13.362584114074707031 13.316246986389160156 13.266900062561035156 13.219794273376464844 13.169729232788085938 13.12191009521484375 13.071146011352539062 13.022600173950195312 12.971097946166992188 12.921763420104980469 12.86943817138671875 12.819243431091308594 12.766443252563476562 12.716481208801269531 12.664415359497070312 12.615108489990234375 12.563752174377441406 12.515048027038574219 12.464362144470214844 12.416234970092773438 12.366213798522949219 12.318785667419433594 12.269696235656738281 12.223090171813964844 12.174813270568847656 12.128877639770507812 12.081329345703125 12.036075592041015625 11.989359855651855469 11.944931983947753906 11.89917755126953125 11.855105400085449219 11.808744430541992188 11.763950347900390625 11.717549324035644531 11.673157691955566406 11.627248764038085938 11.224658012390136719 11.408362388610839844 11.288836479187011719 11.168950080871582031 11.065464019775390625 10.970739364624023438 10.8897247314453125 10.816005706787109375 10.753015518188476562 10.695566177368164062 10.645588874816894531 10.598276138305664062 10.5546722412109375 10.510401725769042969 10.466372489929199219 10.419472694396972656 10.373314857482910156 10.326806068420410156 10.283792495727539062 10.243485450744628906 10.208878517150878906 10.177847862243652344 10.150671958923339844 10.124764442443847656 10.100067138671875 10.074228286743164062 10.048054695129394531 10.021099090576171875 9.9954175949096679688 9.97089385986328125 9.9493970870971679688 9.9307193756103515625 9.9151706695556640625 9.9013166427612304688 9.8887653350830078125 9.8761701583862304688 9.8631420135498046875 9.8488569259643554688 9.8339385986328125 9.818157196044921875 9.8022413253784179688 9.78597259521484375 9.770038604736328125 9.75421905517578125 9.7391042709350585938 9.7245168685913085938 9.7109832763671875 9.6983394622802734375 9.6865901947021484375 9.674839019775390625 9.662609100341796875 9.64893341064453125 9.63338470458984375 
12.964895248413085938 12.946676254272460938 12.93335723876953125 12.922778129577636719 12.9134063720703125 12.904820442199707031 12.89728546142578125 12.890562057495117188 12.8843841552734375 12.878373146057128906 12.87287139892578125 12.867879867553710938 12.863125801086425781 12.858071327209472656 12.852548599243164062 12.846502304077148438 12.839983940124511719 12.832967758178710938 12.825624465942382812 12.818367958068847656 12.811293601989746094 12.804498672485351562 12.797672271728515625 12.790491104125976562 12.782319068908691406 12.77335357666015625 12.764783859252929688 12.757884979248046875 12.756688117980957031 12.775696754455566406 12.81159210205078125 12.858889579772949219 12.922669410705566406 13.006936073303222656 13.114511489868164062 13.243411064147949219 13.389089584350585938 13.542760848999023438 13.706517219543457031 13.874990463256835938 14.051959037780761719 14.233536720275878906 14.423679351806640625 14.616553306579589844 14.81792449951171875 15.021552085876464844 15.234247207641601562 15.448847770690917969 15.671761512756347656 15.893946647644042969 16.123228073120117188 16.35100555419921875 16.586147308349609375 16.819547653198242188 17.0616455078125 17.304500579833984375 17.561161041259765625 17.822336196899414062 18.047456741333007812 18.182596206665039062 18.221097946166992188 18.11576080322265625 18.00971221923828125 17.908094406127929688 17.805624008178710938 17.70787811279296875 17.609548568725585938 17.515621185302734375 17.420068740844726562 17.328037261962890625 17.234003067016601562 17.143369674682617188 17.050539016723632812 16.960992813110351562 16.868986129760742188 16.780160903930664062 16.688650131225585938 16.600378036499023438 16.509386062622070312 16.421234130859375 16.329339981079101562 16.239892959594726562 16.146419525146484375 16.0557403564453125 15.962677001953125 15.8751068115234375 15.786211967468261719 15.702427864074707031 15.617015838623046875 15.536419868469238281 15.454003334045410156 15.376178741455078125 15.296436309814453125 15.22110748291015625 15.143530845642089844 15.070032119750976562 14.994199752807617188 14.922389984130859375 14.848143577575683594 14.778449058532714844 14.708110809326171875 14.643901824951171875 14.578961372375488281 14.518255233764648438 14.455593109130859375 14.396697044372558594 14.335765838623046875 14.278614044189453125 14.220071792602539062 14.167141914367675781 14.115077018737792969 14.068984031677246094 14.023838043212890625 13.984068870544433594 13.945295333862304688 13.911529541015625 13.879102706909179688 13.851531028747558594 13.825810432434082031 13.8047943115234375 13.786237716674804688 13.772368431091308594 13.760938644409179688 13.752268791198730469 13.744843482971191406 13.739213943481445312 13.734530448913574219 13.7311859130859375 13.728496551513671875 13.726628303527832031 13.725236892700195312 13.7242889404296875 13.723513603210449219 13.72301483154296875 13.722718238830566406 13.722570419311523438 13.7224578857421875 13.722370147705078125 13.722392082214355469 13.722754478454589844 13.723601341247558594 13.72479248046875 13.726444244384765625 13.728302955627441406 13.730592727661132812 13.733025550842285156 13.736128807067871094 13.739652633666992188 13.744103431701660156 13.748803138732910156 13.754367828369140625 13.760005950927734375 13.766565322875976562 13.773129463195800781 13.780713081359863281 13.7882537841796875 13.796935081481933594 13.805525779724121094 13.815416336059570312 13.8252105712890625 13.836455345153808594 13.847348213195800781 13.859555244445800781 13.871246337890625 13.884372711181640625 13.89696502685546875 13.911161422729492188 13.924796104431152344 13.940039634704589844 13.954503059387207031 13.970438957214355469 13.985380172729492188 14.001569747924804688 14.016549110412597656 14.032648086547851562 14.047460556030273438 14.063176155090332031 14.077335357666015625 14.091756820678710938 14.104364395141601562 14.117669105529785156 14.130042076110839844 14.14333343505859375 14.155713081359863281 14.168997764587402344 14.181384086608886719 14.194654464721679688 14.205881118774414062 14.212282180786132812 14.211571693420410156 14.202486038208007812 14.184504508972167969 14.152254104614257812 14.113347053527832031 14.071111679077148438 14.031523704528808594 13.989414215087890625 13.950990676879882812 13.912090301513671875 13.877119064331054688 13.841240882873535156 13.808556556701660156 13.774801254272460938 13.74352264404296875 13.7095794677734375 13.67572784423828125 13.636685371398925781 13.597058296203613281 13.552831649780273438 13.509493827819824219 13.4623260498046875 13.416750907897949219 13.367687225341796875 13.320538520812988281 13.270054817199707031 13.221629142761230469 13.169924736022949219 13.12032318115234375 13.067435264587402344 13.016633987426757812 12.962487220764160156 12.910366058349609375 12.85483551025390625 12.801656723022460938 12.745869636535644531 12.69305419921875 12.638172149658203125 12.586360931396484375 12.532553672790527344 12.481657981872558594 12.428824424743652344 12.378783226013183594 12.327004432678222656 12.278174400329589844 12.227793693542480469 12.180105209350585938 12.130880355834960938 12.084268569946289062 12.036342620849609375 11.991093635559082031 11.94483184814453125 11.900956153869628906 11.854996681213378906 11.810323715209960938 11.763580322265625 11.718384742736816406 11.671446800231933594 11.626587867736816406 11.477545738220214844 11.305136680603027344 11.3498382568359375 11.2299041748046875 11.116399765014648438 11.017026901245117188 10.924674034118652344 10.84466552734375 10.771200180053710938 10.708227157592773438 10.651033401489257812 10.601689338684082031 10.555394172668457031 10.513082504272460938 10.470409393310546875 10.428140640258789062 10.383194923400878906 10.339003562927246094 10.294492721557617188 10.253315925598144531 10.214694023132324219 10.181471824645996094 10.151587486267089844 10.125299453735351562 10.100096702575683594 10.075927734375 10.050494194030761719 10.024616241455078125 9.9978809356689453125 9.972354888916015625 9.9479465484619140625 9.9265432357788085938 9.9079618453979492188 9.8925342559814453125 9.8788700103759765625 9.8665990829467773438 9.85442352294921875 9.8419742584228515625 9.8284826278686523438 9.8145847320556640625 9.800128936767578125 9.7858371734619140625 9.7715854644775390625 9.7580156326293945312 9.7449254989624023438 9.7327585220336914062 9.7213354110717773438 9.7110280990600585938 9.70166778564453125 9.6930980682373046875 9.6843776702880859375 9.6748752593994140625 9.6635637283325195312 9.6498746871948242188 
12.962088584899902344 12.944631576538085938 12.932057380676269531 12.923967361450195312 12.917421340942382812 12.911174774169921875 12.905011177062988281 12.899322509765625 12.894144058227539062 12.889379501342773438 12.884924888610839844 12.880946159362792969 12.877023696899414062 12.872692108154296875 12.867857933044433594 12.862687110900878906 12.857199668884277344 12.851209640502929688 12.845168113708496094 12.839379310607910156 12.833878517150878906 12.828350067138671875 12.822499275207519531 12.815767288208007812 12.807864189147949219 12.799957275390625 12.793040275573730469 12.788312911987304688 12.793725967407226562 12.817402839660644531 12.851006507873535156 12.891361236572265625 12.942080497741699219 13.011109352111816406 13.102393150329589844 13.214970588684082031 13.349546432495117188 13.497769355773925781 13.65801239013671875 13.825205802917480469 14.002942085266113281 14.18599700927734375 14.378396987915039062 14.57390594482421875 14.778394699096679688 14.985583305358886719 15.202241897583007812 15.420728683471679688 15.646945953369140625 15.8723602294921875 16.10511016845703125 16.336643218994140625 16.57636260986328125 16.815771102905273438 17.066137313842773438 17.319105148315429688 17.587404251098632812 17.855770111083984375 18.033834457397460938 18.180700302124023438 18.122312545776367188 18.020763397216796875 17.91846466064453125 17.820465087890625 17.721866607666015625 17.6278076171875 17.533023834228515625 17.44258880615234375 17.35100555419921875 17.262510299682617188 17.171644210815429688 17.083654403686523438 16.9931182861328125 16.905412673950195312 16.814947128295898438 16.727291107177734375 16.636661529541015625 16.548679351806640625 16.456874847412109375 16.367113113403320312 16.273153305053710938 16.181339263916015625 16.085580825805664062 15.993501663208007812 15.898059844970703125 15.8063201904296875 15.712851524353027344 15.625532150268554688 15.537352561950683594 15.454840660095214844 15.371045112609863281 15.29233551025390625 15.2120513916015625 15.136639595031738281 15.059644699096679688 14.987355232238769531 14.913312911987304688 14.843812942504882812 14.772695541381835938 14.706175804138183594 14.637980461120605469 14.573678016662597656 14.507687568664550781 14.44637298583984375 14.383760452270507812 14.325495719909667969 14.265601158142089844 14.209715843200683594 14.152271270751953125 14.098994255065917969 14.045252799987792969 13.997645378112792969 13.951674461364746094 13.911899566650390625 13.873917579650878906 13.84160614013671875 13.8114166259765625 13.786639213562011719 13.764655113220214844 13.748099327087402344 13.7349700927734375 13.72559356689453125 13.717883110046386719 13.712319374084472656 13.707932472229003906 13.705027580261230469 13.70294952392578125 13.701738357543945312 13.701152801513671875 13.701188087463378906 13.701746940612792969 13.702722549438476562 13.704156875610351562 13.705641746520996094 13.707147598266601562 13.708456993103027344 13.709650039672851562 13.710397720336914062 13.710688591003417969 13.710538864135742188 13.710338592529296875 13.710561752319335938 13.711301803588867188 13.712423324584960938 13.714243888854980469 13.716708183288574219 13.720191001892089844 13.72412872314453125 13.728999137878417969 13.734091758728027344 13.740142822265625 13.746305465698242188 13.753507614135742188 13.760748863220214844 13.769145965576171875 13.777520179748535156 13.787211418151855469 13.796874046325683594 13.80802154541015625 13.818866729736328125 13.830994606018066406 13.84258270263671875 13.85552215576171875 13.867888450622558594 13.881747245788574219 13.89502716064453125 13.909931182861328125 13.924109458923339844 13.939725875854492188 13.954280853271484375 13.970036506652832031 13.98458099365234375 14.000222206115722656 14.014609336853027344 14.029944419860839844 14.043878555297851562 14.05834197998046875 14.071107864379882812 14.084468841552734375 14.096834182739257812 14.110133171081542969 14.122506141662597656 14.135797500610351562 14.148176193237304688 14.161461830139160156 14.173847198486328125 14.187125205993652344 14.199208259582519531 14.207602500915527344 14.207927703857421875 14.198690414428710938 14.178704261779785156 14.142418861389160156 14.102918624877929688 14.060683250427246094 14.02109527587890625 13.9788818359375 13.939365386962890625 13.898400306701660156 13.861886978149414062 13.824810028076171875 13.791280746459960938 13.756865501403808594 13.725506782531738281 13.693196296691894531 13.6631622314453125 13.630426406860351562 13.596791267395019531 13.556973457336425781 13.516107559204101562 13.470399856567382812 13.425414085388183594 13.376331329345703125 13.328680038452148438 13.277225494384765625 13.227512359619140625 13.17407989501953125 13.122499465942382812 13.067155838012695312 13.013654708862304688 12.956238746643066406 12.900633811950683594 12.841592788696289062 12.785409927368164062 12.7264556884765625 12.670415878295898438 12.612023353576660156 12.557131767272949219 12.500420570373535156 12.447027206420898438 12.391842842102050781 12.339819908142089844 12.286442756652832031 12.236414909362792969 12.185054779052734375 12.136734962463378906 12.087285041809082031 12.040963172912597656 11.994001388549804688 11.950188636779785156 11.9048309326171875 11.860860824584960938 11.814637184143066406 11.769761085510253906 11.7226715087890625 11.676999092102050781 11.629408836364746094 11.583827972412109375 11.512408256530761719 11.390346527099609375 11.298549652099609375 11.185247421264648438 11.077380180358886719 10.981614112854003906 10.891265869140625 10.811984062194824219 10.73845672607421875 10.675083160400390625 10.617518424987792969 10.568024635314941406 10.521818161010742188 10.479838371276855469 10.437775611877441406 10.396367073059082031 10.352558135986328125 10.309639930725097656 10.266524314880371094 10.226703643798828125 10.189377784729003906 10.157258987426757812 10.128320693969726562 10.102785110473632812 10.078183174133300781 10.05445098876953125 10.029321670532226562 10.003620147705078125 9.9769716262817382812 9.9514665603637695312 9.9270448684692382812 9.9056253433227539062 9.8870477676391601562 9.871669769287109375 9.858112335205078125 9.8460187911987304688 9.8341121673583984375 9.8220272064208984375 9.8090467453002929688 9.7958421707153320312 9.782344818115234375 9.7693004608154296875 9.7566900253295898438 9.745128631591796875 9.734424591064453125 9.72487640380859375 9.7162914276123046875 9.708889007568359375 9.7024869918823242188 9.6967868804931640625 9.6908292770385742188 9.6838521957397460938 9.6747980117797851562 9.662990570068359375 
12.956998825073242188 12.939975738525390625 12.927045822143554688 12.920293807983398438 12.917802810668945312 12.915988922119140625 12.912884712219238281 12.908648490905761719 12.904500961303710938 12.901011466979980469 12.897988319396972656 12.894876480102539062 12.891459465026855469 12.887615203857421875 12.883469581604003906 12.87937164306640625 12.875316619873046875 12.871338844299316406 12.867643356323242188 12.864348411560058594 12.860833168029785156 12.856389999389648438 12.850741386413574219 12.843783378601074219 12.836429595947265625 12.829682350158691406 12.823728561401367188 12.822196006774902344 12.835167884826660156 12.860899925231933594 12.895414352416992188 12.932354927062988281 12.974123954772949219 13.024547576904296875 13.0954132080078125 13.18871307373046875 13.305344581604003906 13.441521644592285156 13.595935821533203125 13.760786056518554688 13.938694953918457031 14.122841835021972656 14.316264152526855469 14.514240264892578125 14.722622871398925781 14.934882164001464844 15.156801223754882812 15.379426002502441406 15.610032081604003906 15.840632438659667969 16.079742431640625 16.318744659423828125 16.567602157592773438 16.817834854125976562 17.081562042236328125 17.34906005859375 17.62686920166015625 17.889142990112304688 18.03719329833984375 18.098766326904296875 18.0055389404296875 17.90920257568359375 17.811857223510742188 17.718797683715820312 17.625234603881835938 17.535879135131835938 17.445734024047851562 17.359663009643554688 17.272798538208007812 17.189800262451171875 17.104486465454101562 17.020921707153320312 16.93402099609375 16.849079132080078125 16.760801315307617188 16.674625396728515625 16.584589004516601562 16.495969772338867188 16.402605056762695312 16.310537338256835938 16.213489532470703125 16.119150161743164062 16.0215911865234375 15.9274139404296875 15.829584121704101562 15.735297203063964844 15.637570381164550781 15.54482269287109375 15.451549530029296875 15.36531829833984375 15.278737068176269531 15.1983184814453125 15.117095947265625 15.041469573974609375 14.964936256408691406 14.893895149230957031 14.822248458862304688 14.756190299987792969 14.689727783203125 14.627576828002929688 14.562378883361816406 14.499471664428710938 14.4329986572265625 14.369818687438964844 14.305080413818359375 14.245430946350097656 14.185047149658203125 14.129511833190917969 14.073019027709960938 14.020982742309570312 13.968084335327148438 13.919744491577148438 13.871845245361328125 13.830554008483886719 13.792254447937011719 13.761104583740234375 13.733753204345703125 13.713347434997558594 13.697626113891601562 13.687230110168457031 13.679220199584960938 13.673799514770507812 13.669981956481933594 13.667981147766113281 13.6672515869140625 13.667575836181640625 13.668735504150390625 13.670436859130859375 13.672788619995117188 13.675492286682128906 13.678791046142578125 13.682102203369140625 13.685635566711425781 13.68886566162109375 13.692057609558105469 13.694571495056152344 13.696565628051757812 13.697758674621582031 13.698315620422363281 13.69815826416015625 13.697253227233886719 13.695924758911132812 13.694857597351074219 13.694959640502929688 13.696397781372070312 13.698808670043945312 13.702363014221191406 13.706494331359863281 13.711733818054199219 13.717327117919921875 13.724071502685546875 13.731024742126464844 13.739231109619140625 13.747555732727050781 13.75731658935546875 13.767159461975097656 13.778529167175292969 13.789587974548339844 13.801891326904296875 13.813609123229980469 13.826616287231445312 13.838994026184082031 13.852766036987304688 13.865866661071777344 13.880417823791503906 13.894146919250488281 13.909265518188476562 13.923403739929199219 13.938760757446289062 13.952889442443847656 13.968068122863769531 13.982000350952148438 13.996869087219238281 14.010403633117675781 14.02459716796875 14.037294387817382812 14.050653457641601562 14.063013076782226562 14.076319694519042969 14.088685035705566406 14.101984024047851562 14.11435699462890625 14.127648353576660156 14.140027999877929688 14.153311729431152344 14.165697097778320312 14.178975105285644531 14.191366195678710938 14.202722549438476562 14.205499649047851562 14.196148872375488281 14.171664237976074219 14.131207466125488281 14.091641426086425781 14.049406051635742188 14.009818077087402344 13.967603683471679688 13.927994728088378906 13.885831832885742188 13.846903800964355469 13.807544708251953125 13.772552490234375 13.737112998962402344 13.7052001953125 13.67278289794921875 13.643545150756835938 13.613160133361816406 13.584215164184570312 13.552338600158691406 13.519367218017578125 13.479878425598144531 13.438344955444335938 13.391048431396484375 13.343841552734375 13.291832923889160156 13.240782737731933594 13.185158729553222656 13.130782127380371094 13.071695327758789062 13.013834953308105469 12.951305389404296875 12.891293525695800781 12.828127861022949219 12.768035888671875 12.704920768737792969 12.644845008850097656 12.581862449645996094 12.52219390869140625 12.460865020751953125 12.403764724731445312 12.345369338989257812 12.290998458862304688 12.236145973205566406 12.185387611389160156 12.134027481079101562 12.086606025695800781 12.039273262023925781 11.995752334594726562 11.951195716857910156 11.908160209655761719 11.862858772277832031 11.818848609924316406 11.772475242614746094 11.727305412292480469 11.679728507995605469 11.633386611938476562 11.584855079650878906 11.538145065307617188 11.374032974243164062 11.375460624694824219 11.254567146301269531 11.147488594055175781 11.044895172119140625 10.952481269836425781 10.863932609558105469 10.785161972045898438 10.711273193359375 10.647067070007324219 10.588500022888183594 10.538079261779785156 10.491070747375488281 10.448548316955566406 10.40625762939453125 10.36502838134765625 10.321836471557617188 10.279837608337402344 10.237875938415527344 10.199265480041503906 10.163149833679199219 10.132082939147949219 10.104050636291503906 10.079234123229980469 10.055203437805175781 10.03186798095703125 10.006983757019042969 9.98138427734375 9.954730987548828125 9.9291582107543945312 9.9046373367309570312 9.8831300735473632812 9.8645076751708984375 9.8491430282592773438 9.8356733322143554688 9.8237390518188476562 9.812084197998046875 9.80034637451171875 9.7878541946411132812 9.7753200531005859375 9.7627649307250976562 9.7509698867797851562 9.7400159835815429688 9.7305002212524414062 9.7222394943237304688 9.7153720855712890625 9.709682464599609375 9.70522308349609375 9.7017917633056640625 9.6989545822143554688 9.6957645416259765625 9.6913614273071289062 9.684688568115234375 9.6749858856201171875 
12.949228286743164062 12.931825637817382812 12.918437004089355469 12.911905288696289062 12.912262916564941406 12.916316986083984375 12.918619155883789062 12.917887687683105469 12.915374755859375 12.912791252136230469 12.91045379638671875 12.907501220703125 12.903643608093261719 12.899569511413574219 12.895946502685546875 12.892940521240234375 12.891237258911132812 12.891061782836914062 12.891510963439941406 12.891297340393066406 12.889348030090332031 12.884755134582519531 12.877982139587402344 12.870653152465820312 12.86312103271484375 12.855336189270019531 12.851238250732421875 12.856902122497558594 12.872759819030761719 12.898692131042480469 12.9349212646484375 12.974649429321289062 13.012585639953613281 13.052161216735839844 13.101009368896484375 13.169208526611328125 13.264815330505371094 13.383632659912109375 13.527243614196777344 13.689261436462402344 13.868535995483398438 14.0543670654296875 14.250308036804199219 14.450776100158691406 14.662942886352539062 14.87969207763671875 15.105668067932128906 15.332816123962402344 15.569226264953613281 15.807180404663085938 16.05577850341796875 16.306186676025390625 16.569158554077148438 16.836151123046875 17.116277694702148438 17.3909454345703125 17.665740966796875 17.906423568725585938 17.91126251220703125 17.978910446166992188 17.88504791259765625 17.794921875 17.7041473388671875 17.617204666137695312 17.529443740844726562 17.445444107055664062 17.360637664794921875 17.27959442138671875 17.197679519653320312 17.119451522827148438 17.0401763916015625 16.963438034057617188 16.882551193237304688 16.801740646362304688 16.716062545776367188 16.630643844604492188 16.539819717407226562 16.449327468872070312 16.352964401245117188 16.2578582763671875 16.158855438232421875 16.0630035400390625 15.963344573974609375 15.867066383361816406 15.767248153686523438 15.671220779418945312 15.571685791015625 15.476070404052734375 15.377244949340820312 15.284389495849609375 15.192243576049804688 15.10837554931640625 15.025223731994628906 14.949231147766113281 14.873775482177734375 14.805215835571289062 14.737787246704101562 14.676328659057617188 14.613083839416503906 14.552499771118164062 14.48883819580078125 14.427682876586914062 14.363262176513671875 14.301403999328613281 14.236216545104980469 14.174258232116699219 14.110535621643066406 14.052201271057128906 13.993834495544433594 13.941033363342285156 13.888306617736816406 13.840963363647460938 13.794252395629882812 13.753404617309570312 13.715190887451171875 13.685351371765136719 13.662388801574707031 13.647805213928222656 13.637266159057617188 13.630471229553222656 13.625895500183105469 13.623587608337402344 13.622928619384765625 13.623838424682617188 13.626336097717285156 13.63011932373046875 13.635587692260742188 13.64188385009765625 13.649010658264160156 13.65545654296875 13.661785125732421875 13.667153358459472656 13.672184944152832031 13.676215171813964844 13.679752349853515625 13.682351112365722656 13.684321403503417969 13.685333251953125 13.685451507568359375 13.684905052185058594 13.683996200561523438 13.683061599731445312 13.682030677795410156 13.68115997314453125 13.6809234619140625 13.682082176208496094 13.684990882873535156 13.6890411376953125 13.694636344909667969 13.700910568237304688 13.708729743957519531 13.717005729675292969 13.727011680603027344 13.737246513366699219 13.748979568481445312 13.76030731201171875 13.772835731506347656 13.784741401672363281 13.797908782958984375 13.810420036315917969 13.824255943298339844 13.837329864501953125 13.851696014404296875 13.865117073059082031 13.879738807678222656 13.893259048461914062 13.907928466796875 13.921534538269042969 13.936308860778808594 13.949892044067382812 13.964391708374023438 13.9775848388671875 13.991499900817871094 14.004076957702636719 14.017446517944335938 14.029799461364746094 14.043111801147460938 14.055472373962402344 14.068778038024902344 14.081144332885742188 14.094442367553710938 14.106815338134765625 14.120106697082519531 14.132486343383789062 14.145771026611328125 14.158156394958496094 14.171433448791503906 14.183825492858886719 14.196875572204589844 14.204217910766601562 14.194602012634277344 14.162880897521972656 14.120769500732421875 14.081202507019042969 14.038966178894042969 13.999378204345703125 13.957163810729980469 13.917554855346679688 13.875363349914550781 13.835734367370605469 13.79388427734375 13.756011962890625 13.718586921691894531 13.685891151428222656 13.653700828552246094 13.624913215637207031 13.594573020935058594 13.565954208374023438 13.535625457763671875 13.506856918334960938 13.475733757019042969 13.444211959838867188 13.40628814697265625 13.364437103271484375 13.314492225646972656 13.263013839721679688 13.204854965209960938 13.146212577819824219 13.080872535705566406 13.016979217529296875 12.949236869812011719 12.884760856628417969 12.816885948181152344 12.75226593017578125 12.684342384338378906 12.619630813598632812 12.551708221435546875 12.486962318420410156 12.419363975524902344 12.356326103210449219 12.293505668640136719 12.237115859985351562 12.182438850402832031 12.133657455444335938 12.086561203002929688 12.043917655944824219 12.000347137451171875 11.958452224731445312 11.914306640625 11.871450424194335938 11.826210975646972656 11.782135009765625 11.735551834106445312 11.690030097961425781 11.641897201538085938 11.594781875610351562 11.545103073120117188 11.496851921081542969 11.45233917236328125 11.340867042541503906 11.224598884582519531 11.121941566467285156 11.023079872131347656 10.933017730712890625 10.845667839050292969 10.767095565795898438 10.692639350891113281 10.627364158630371094 10.567374229431152344 10.515448570251464844 10.466928482055664062 10.423121452331542969 10.379874229431152344 10.338207244873046875 10.295122146606445312 10.253659248352050781 10.21254730224609375 10.174915313720703125 10.139806747436523438 10.109608650207519531 10.082308769226074219 10.058056831359863281 10.034449577331542969 10.011391639709472656 9.9866533279418945312 9.9610815048217773438 9.9343671798706054688 9.9086856842041015625 9.8840351104736328125 9.8624162673950195312 9.8437290191650390625 9.82836151123046875 9.8149690628051757812 9.8031988143920898438 9.791812896728515625 9.78044891357421875 9.7684841156005859375 9.7566471099853515625 9.745029449462890625 9.7344255447387695312 9.7249965667724609375 9.7173166275024414062 9.7111978530883789062 9.7066373825073242188 9.7033939361572265625 9.7013835906982421875 9.7003679275512695312 9.6998310089111328125 9.6988668441772460938 9.69657135009765625 9.6919298171997070312 9.6841526031494140625 
12.933649063110351562 12.914140701293945312 12.902278900146484375 12.898938179016113281 12.901697158813476562 12.907773017883300781 12.916810989379882812 12.926440238952636719 12.932620048522949219 12.93271636962890625 12.927723884582519531 12.920270919799804688 12.91291046142578125 12.906824111938476562 12.903473854064941406 12.904354095458984375 12.909138679504394531 12.91619110107421875 12.923074722290039062 12.926917076110839844 12.926006317138671875 12.920365333557128906 12.909780502319335938 12.895755767822265625 12.883279800415039062 12.879773139953613281 12.887707710266113281 12.898721694946289062 12.910113334655761719 12.934803009033203125 12.974399566650390625 13.020253181457519531 13.061673164367675781 13.096251487731933594 13.130077362060546875 13.1710662841796875 13.228593826293945312 13.314101219177246094 13.436442375183105469 13.591940879821777344 13.772097587585449219 13.965061187744140625 14.171339035034179688 14.380693435668945312 14.596527099609375 14.81240081787109375 15.038418769836425781 15.269563674926757812 15.515645980834960938 15.768910408020019531 16.039327621459960938 16.31613922119140625 16.606122970581054688 16.888982772827148438 17.170221328735351562 17.437608718872070312 17.704471588134765625 17.811431884765625 17.685564041137695312 17.825296401977539062 17.738599777221679688 17.657537460327148438 17.576648712158203125 17.49982452392578125 17.42195892333984375 17.346706390380859375 17.269865036010742188 17.195592880249023438 17.11968231201171875 17.046464920043945312 16.971714019775390625 16.899785995483398438 16.82605743408203125 16.753152847290039062 16.672941207885742188 16.587860107421875 16.493190765380859375 16.397617340087890625 16.2975311279296875 16.200565338134765625 16.099943161010742188 16.002614974975585938 15.901665687561035156 15.804211616516113281 15.703022956848144531 15.605434417724609375 15.504067420959472656 15.406506538391113281 15.305133819580078125 15.207754135131835938 15.106907844543457031 15.013018608093261719 14.922219276428222656 14.845391273498535156 14.775308609008789062 14.713780403137207031 14.651729583740234375 14.592429161071777344 14.530317306518554688 14.47076416015625 14.408318519592285156 14.348543167114257812 14.285825729370117188 14.225790023803710938 14.162642478942871094 14.102243423461914062 14.0386199951171875 13.977746009826660156 13.914102554321289062 13.854882240295410156 13.795450210571289062 13.74292755126953125 13.693955421447753906 13.658596038818359375 13.633557319641113281 13.616965293884277344 13.601930618286132812 13.58879852294921875 13.576859474182128906 13.56855010986328125 13.563289642333984375 13.562969207763671875 13.566892623901367188 13.57303619384765625 13.5816802978515625 13.591145515441894531 13.602042198181152344 13.612590789794921875 13.62389373779296875 13.634431838989257812 13.644945144653320312 13.65367889404296875 13.661214828491210938 13.665714263916015625 13.668110847473144531 13.669047355651855469 13.669193267822265625 13.668965339660644531 13.668744087219238281 13.66860198974609375 13.668470382690429688 13.668339729309082031 13.668138504028320312 13.6678924560546875 13.667529106140136719 13.667098045349121094 13.667226791381835938 13.669115066528320312 13.67498016357421875 13.683569908142089844 13.694350242614746094 13.705176353454589844 13.717240333557128906 13.728667259216308594 13.741211891174316406 13.753102302551269531 13.76618194580078125 13.778562545776367188 13.792189598083496094 13.805027008056640625 13.819110870361328125 13.832323074340820312 13.846768379211425781 13.86025238037109375 13.874957084655761719 13.88860321044921875 13.903362274169921875 13.916846275329589844 13.931240081787109375 13.944245338439941406 13.957902908325195312 13.970310211181640625 13.983640670776367188 13.9959869384765625 14.009306907653808594 14.02165985107421875 14.03497314453125 14.047332763671875 14.060638427734375 14.07300567626953125 14.0863037109375 14.098676681518554688 14.111968040466308594 14.124347686767578125 14.137631416320800781 14.150017738342285156 14.163294792175292969 14.175685882568359375 14.188955307006835938 14.200891494750976562 14.190201759338378906 14.151758193969726562 14.109498977661132812 14.0699310302734375 14.0276947021484375 13.98810577392578125 13.945892333984375 13.906282424926757812 13.864091873168945312 13.824460983276367188 13.782292366027832031 13.742641448974609375 13.701013565063476562 13.665568351745605469 13.634463310241699219 13.606442451477050781 13.576678276062011719 13.54850006103515625 13.518445968627929688 13.489866256713867188 13.459421157836914062 13.430481910705566406 13.399753570556640625 13.37038421630859375 13.336234092712402344 13.295770645141601562 13.234273910522460938 13.165667533874511719 13.091732978820800781 13.021870613098144531 12.948777198791503906 12.879660606384277344 12.807250022888183594 12.738470077514648438 12.666100502014160156 12.596846580505371094 12.523590087890625 12.45310211181640625 12.378739356994628906 12.307333946228027344 12.234152793884277344 12.176774978637695312 12.130290985107421875 12.089953422546386719 12.047916412353515625 12.007294654846191406 11.964407920837402344 11.92279052734375 11.878798484802246094 11.835977554321289062 11.790669441223144531 11.746427536010742188 11.699564933776855469 11.653653144836425781 11.604954719543457031 11.557084083557128906 11.506275177001953125 11.462624549865722656 11.431610107421875 11.313912391662597656 11.201320648193359375 11.102094650268554688 11.006105422973632812 10.917848587036132812 10.831377983093261719 10.752820014953613281 10.677630424499511719 10.611047744750976562 10.549222946166992188 10.495241165161132812 10.444546699523925781 10.398808479309082031 10.353992462158203125 10.311419486999511719 10.268125534057617188 10.227019309997558594 10.186670303344726562 10.149976730346679688 10.115848541259765625 10.0864715576171875 10.059824943542480469 10.036043167114257812 10.01276397705078125 9.9898929595947265625 9.9652299880981445312 9.9396429061889648438 9.9128446578979492188 9.887035369873046875 9.8622388839721679688 9.840488433837890625 9.8217029571533203125 9.8063001632690429688 9.7929639816284179688 9.78136444091796875 9.7702999114990234375 9.7594194412231445312 9.7481393814086914062 9.7371921539306640625 9.7267179489135742188 9.7174959182739257812 9.7097530364990234375 9.704006195068359375 9.7000703811645507812 9.6977987289428710938 9.69692230224609375 9.6972131729125976562 9.6984167098999023438 9.6999444961547851562 9.7009735107421875 9.70061492919921875 9.69793701171875 9.6921606063842773438 
12.919786453247070312 12.880548477172851562 12.881981849670410156 12.8939666748046875 12.897631645202636719 12.901593208312988281 12.91278076171875 12.930479049682617188 12.950623512268066406 12.963770866394042969 12.958462715148925781 12.94001007080078125 12.919018745422363281 12.908936500549316406 12.911875724792480469 12.922472000122070312 12.934465408325195312 12.946504592895507812 12.958531379699707031 12.970123291015625 12.975528717041015625 12.963221549987792969 12.939242362976074219 12.914125442504882812 12.906093597412109375 12.918121337890625 12.932896614074707031 12.94316864013671875 12.9488525390625 12.971448898315429688 13.017808914184570312 13.06563568115234375 13.1113128662109375 13.146907806396484375 13.177906990051269531 13.208298683166503906 13.243399620056152344 13.294464111328125 13.388042449951171875 13.523035049438476562 13.70970916748046875 13.914437294006347656 14.128870964050292969 14.344769477844238281 14.566067695617675781 14.782603263854980469 15.003077507019042969 15.232472419738769531 15.492611885070800781 15.769975662231445312 16.085973739624023438 16.387630462646484375 16.672891616821289062 16.9470367431640625 17.227968215942382812 17.492046356201171875 17.752199172973632812 17.345090866088867188 17.671436309814453125 17.725984573364257812 17.652408599853515625 17.587900161743164062 17.523092269897460938 17.460252761840820312 17.394489288330078125 17.328693389892578125 17.259061813354492188 17.1892852783203125 17.115734100341796875 17.042621612548828125 16.965761184692382812 16.889801025390625 16.810354232788085938 16.73197174072265625 16.648502349853515625 16.558988571166992188 16.459369659423828125 16.361400604248046875 16.26039886474609375 16.1631927490234375 16.062597274780273438 15.965250968933105469 15.864109992980957031 15.766259193420410156 15.664445877075195312 15.566027641296386719 15.463505744934082031 15.364522933959960938 15.261370658874511719 15.162108421325683594 15.060677528381347656 14.966485023498535156 14.873899459838867188 14.798145294189453125 14.731149673461914062 14.671045303344726562 14.610830307006835938 14.553758621215820312 14.493930816650390625 14.436412811279296875 14.375894546508789062 14.317708969116210938 14.256377220153808594 14.197460174560546875 14.135305404663085938 14.0756988525390625 14.0128173828125 13.953072547912597656 13.891202926635742188 13.833300590515136719 13.774413108825683594 13.722228050231933594 13.673679351806640625 13.637778282165527344 13.61060333251953125 13.591428756713867188 13.574985504150390625 13.562909126281738281 13.552434921264648438 13.544649124145507812 13.539676666259765625 13.539422035217285156 13.543178558349609375 13.549043655395507812 13.5573577880859375 13.566463470458984375 13.576921463012695312 13.587591171264648438 13.599356651306152344 13.610403060913085938 13.621751785278320312 13.6316986083984375 13.640694618225097656 13.646488189697265625 13.65026092529296875 13.652452468872070312 13.653702735900878906 13.654315948486328125 13.654430389404296875 13.654404640197753906 13.654375076293945312 13.654351234436035156 13.654334068298339844 13.654324531555175781 13.654321670532226562 13.654334068298339844 13.654607772827148438 13.656262397766113281 13.66197967529296875 13.670643806457519531 13.681742668151855469 13.69295501708984375 13.705576896667480469 13.717429161071777344 13.730319976806640625 13.742447853088378906 13.755713462829589844 13.768201828002929688 13.781876564025878906 13.7947235107421875 13.80878448486328125 13.821954727172851562 13.836344718933105469 13.849761009216308594 13.864367485046386719 13.877882957458496094 13.892497062683105469 13.905988693237304688 13.920656204223632812 13.934466361999511719 13.949210166931152344 13.962419509887695312 13.976083755493164062 13.988438606262207031 14.001759529113769531 14.014111518859863281 14.027424812316894531 14.039785385131835938 14.053091049194335938 14.065457344055175781 14.078755378723144531 14.091129302978515625 14.104419708251953125 14.116799354553222656 14.130084037780761719 14.142469406127929688 14.1557464599609375 14.168137550354003906 14.181406021118164062 14.192067146301269531 14.179284095764160156 14.141298294067382812 14.099040031433105469 14.059472084045410156 14.017235755920410156 13.977646827697753906 13.935433387756347656 13.895823478698730469 13.853631973266601562 13.814002037048339844 13.77184295654296875 13.732646942138671875 13.69312286376953125 13.659496307373046875 13.628012657165527344 13.599625587463378906 13.5695953369140625 13.541250228881835938 13.511112213134765625 13.482441902160644531 13.451601028442382812 13.421837806701660156 13.388829231262207031 13.353964805603027344 13.310758590698242188 13.26258087158203125 13.203174591064453125 13.1407318115234375 13.071143150329589844 13.003849029541015625 12.932924270629882812 12.865567207336425781 12.794839859008789062 12.727684974670410156 12.657255172729492188 12.590294837951660156 12.520135879516601562 12.453371047973632812 12.383534431457519531 12.317242622375488281 12.248117446899414062 12.183976173400878906 12.124402046203613281 12.073763847351074219 12.026156425476074219 11.983594894409179688 11.939771652221679688 11.897540092468261719 11.853075027465820312 11.809908866882324219 11.764328956604003906 11.719910621643066406 11.672979354858398438 11.627186775207519531 11.579020500183105469 11.5325927734375 11.484806060791015625 11.484011650085449219 11.412874221801757812 11.293997764587402344 11.184140205383300781 11.08736419677734375 10.993408203125 10.906457901000976562 10.820636749267578125 10.742082595825195312 10.666280746459960938 10.598561286926269531 10.535064697265625 10.479144096374511719 10.426352500915527344 10.378710746765136719 10.332311630249023438 10.288777351379394531 10.245175361633300781 10.204297065734863281 10.164546966552734375 10.128612518310546875 10.095261573791503906 10.066496849060058594 10.040291786193847656 10.016787528991699219 9.9936695098876953125 9.9708662033081054688 9.9462118148803710938 9.9205961227416992188 9.8937358856201171875 9.8678407669067382812 9.8429327011108398438 9.8210535049438476562 9.80213165283203125 9.7866230010986328125 9.77325439453125 9.76174163818359375 9.7509355545043945312 9.7405195236206054688 9.7299518585205078125 9.7199296951293945312 9.7106199264526367188 9.7027559280395507812 9.6965970993041992188 9.692592620849609375 9.6905527114868164062 9.6902151107788085938 9.6912832260131835938 9.6934175491333007812 9.6963405609130859375 9.6994352340698242188 9.7019796371459960938 9.7031316757202148438 9.7020730972290039062 9.6980714797973632812 
12.960027694702148438 12.942399978637695312 12.937921524047851562 12.942868232727050781 12.951671600341796875 12.961594581604003906 12.97188568115234375 12.980764389038085938 12.985850334167480469 12.987645149230957031 12.987200736999511719 12.985703468322753906 12.984378814697265625 12.983530998229980469 12.984236717224121094 12.987980842590332031 12.9957427978515625 13.006739616394042969 13.019014358520507812 13.029070854187011719 13.034016609191894531 13.032784461975097656 13.024170875549316406 13.010258674621582031 12.998991012573242188 12.997629165649414062 13.00675201416015625 13.017731666564941406 13.031280517578125 13.057758331298828125 13.096799850463867188 13.141701698303222656 13.182604789733886719 13.217952728271484375 13.2532958984375 13.296978950500488281 13.360569000244140625 13.453028678894042969 13.579446792602539062 13.732511520385742188 13.906253814697265625 14.089639663696289062 14.285797119140625 14.487778663635253906 14.700610160827636719 14.919034957885742188 15.152510643005371094 15.395401954650878906 15.655368804931640625 15.922031402587890625 16.202808380126953125 16.483760833740234375 16.770826339721679688 17.049343109130859375 17.328069686889648438 17.594209671020507812 17.854900360107421875 17.671600341796875 17.940782546997070312 17.863706588745117188 17.787115097045898438 17.713800430297851562 17.639287948608398438 17.566606521606445312 17.491558074951171875 17.417205810546875 17.339305877685546875 17.261953353881835938 17.180681228637695312 17.099834442138671875 17.01434326171875 16.928974151611328125 16.83843231201171875 16.7483367919921875 16.653299331665039062 16.559337615966796875 16.460376739501953125 16.3626861572265625 16.259624481201171875 16.158758163452148438 16.054164886474609375 15.953760147094726562 15.850494384765625 15.751372337341308594 15.648964881896972656 15.551115036010742188 15.451185226440429688 15.357557296752929688 15.263898849487304688 15.177903175354003906 15.092041969299316406 15.01264190673828125 14.932828903198242188 14.858892440795898438 14.784440994262695312 14.715620040893554688 14.646437644958496094 14.582952499389648438 14.519289970397949219 14.460116386413574219 14.3992462158203125 14.341642379760742188 14.281737327575683594 14.225285530090332031 14.167120933532714844 14.11309814453125 14.058161735534667969 14.007462501525878906 13.955923080444335938 13.908580780029296875 13.860467910766601562 13.816446304321289062 13.772236824035644531 13.732804298400878906 13.694547653198242188 13.662052154541015625 13.632252693176269531 13.608583450317382812 13.588848114013671875 13.575387954711914062 13.5658721923828125 13.560909271240234375 13.558650970458984375 13.558803558349609375 13.560660362243652344 13.563776969909667969 13.5682373046875 13.573362350463867188 13.57958984375 13.585965156555175781 13.593104362487792969 13.599821090698242188 13.606827735900878906 13.613001823425292969 13.619022369384765625 13.624042510986328125 13.628708839416503906 13.632406234741210938 13.635577201843261719 13.637734413146972656 13.639142990112304688 13.639863967895507812 13.640188217163085938 13.640320777893066406 13.6406097412109375 13.64163970947265625 13.644251823425292969 13.648089408874511719 13.653537750244140625 13.659759521484375 13.66762542724609375 13.676061630249023438 13.686405181884765625 13.697278976440429688 13.710062026977539062 13.722578048706054688 13.736390113830566406 13.749316215515136719 13.763357162475585938 13.776459693908691406 13.790713310241699219 13.803998947143554688 13.818459510803222656 13.831910133361816406 13.846582412719726562 13.860277175903320312 13.875306129455566406 13.889425277709960938 13.905049324035644531 13.919646263122558594 13.935358047485351562 13.9498291015625 13.965383529663085938 13.979359626770019531 13.993500709533691406 14.005983352661132812 14.019297599792480469 14.031657218933105469 14.044962882995605469 14.057328224182128906 14.070627212524414062 14.08300018310546875 14.096291542053222656 14.108671188354492188 14.12195587158203125 14.134341239929199219 14.147618293762207031 14.160010337829589844 14.172501564025878906 14.176579475402832031 14.163117408752441406 14.129953384399414062 14.0877685546875 14.0482025146484375 14.005967140197753906 13.966378211975097656 13.924164772033691406 13.884554862976074219 13.842371940612792969 13.803071975708007812 13.762848854064941406 13.727341651916503906 13.691716194152832031 13.65985870361328125 13.62770843505859375 13.598741531372070312 13.568129539489746094 13.538578987121582031 13.506223678588867188 13.474361419677734375 13.438089370727539062 13.399816513061523438 13.354351997375488281 13.307578086853027344 13.255066871643066406 13.202872276306152344 13.145488739013671875 13.089013099670410156 13.027300834655761719 12.966585159301757812 12.9009857177734375 12.838162422180175781 12.772149085998535156 12.709489822387695312 12.64385986328125 12.581580162048339844 12.516490936279296875 12.454731941223144531 12.390374183654785156 12.329387664794921875 12.266024589538574219 12.206213951110839844 12.1454925537109375 12.089399337768554688 12.032909393310546875 11.981136322021484375 11.930596351623535156 11.885033607482910156 11.839068412780761719 11.795177459716796875 11.749344825744628906 11.705209732055664062 11.659204483032226562 11.615035057067871094 11.569245338439941406 11.525180816650390625 11.483145713806152344 11.4978790283203125 11.388586997985839844 11.272620201110839844 11.165647506713867188 11.07135009765625 10.979447364807128906 10.893879890441894531 10.808856964111328125 10.730493545532226562 10.654316902160644531 10.5857086181640625 10.520800590515136719 10.46318817138671875 10.408539772033691406 10.359197616577148438 10.311391830444335938 10.267018318176269531 10.223179817199707031 10.182547569274902344 10.143366813659667969 10.108115196228027344 10.075418472290039062 10.047107696533203125 10.021158218383789062 9.99774932861328125 9.974628448486328125 9.9517793655395507812 9.92708587646484375 9.9014596939086914062 9.8745985031127929688 9.8486852645874023438 9.8237104415893554688 9.8016939163208007812 9.7825469970703125 9.7667932510375976562 9.7532243728637695312 9.7416515350341796875 9.7310094833374023438 9.72104644775390625 9.7112646102905273438 9.7023019790649414062 9.69432830810546875 9.6879825592041015625 9.6835355758666992188 9.6813421249389648438 9.6812009811401367188 9.6827392578125 9.68564605712890625 9.6894741058349609375 9.6939296722412109375 9.6983880996704101562 9.7022571563720703125 9.7047786712646484375 9.705272674560546875 9.7030858993530273438 
13.014184951782226562 13.007006645202636719 13.00377655029296875 13.006215095520019531 13.012495040893554688 13.018780708312988281 13.023371696472167969 13.026947021484375 13.030225753784179688 13.033778190612792969 13.037647247314453125 13.041632652282714844 13.045609474182128906 13.049716949462890625 13.054210662841796875 13.059199333190917969 13.064948081970214844 13.0719757080078125 13.079894065856933594 13.087909698486328125 13.0945587158203125 13.098247528076171875 13.098993301391601562 13.097214698791503906 13.092405319213867188 13.08611297607421875 13.08515167236328125 13.093945503234863281 13.112687110900878906 13.140466690063476562 13.176623344421386719 13.215234756469726562 13.253514289855957031 13.293820381164550781 13.344014167785644531 13.415403366088867188 13.512805938720703125 13.63085174560546875 13.768921852111816406 13.921491622924804688 14.090656280517578125 14.267985343933105469 14.456616401672363281 14.652310371398925781 14.862901687622070312 15.081878662109375 15.314790725708007812 15.553318977355957031 15.805080413818359375 16.060827255249023438 16.329105377197265625 16.598703384399414062 16.87735748291015625 17.151813507080078125 17.4310455322265625 17.7009429931640625 17.951475143432617188 18.117963790893554688 18.091094970703125 18.010038375854492188 17.926103591918945312 17.8430328369140625 17.756868362426757812 17.67212677001953125 17.584547042846679688 17.498674392700195312 17.409511566162109375 17.321407318115234375 17.229280471801757812 17.138355255126953125 17.043535232543945312 16.95046234130859375 16.853597640991210938 16.758808135986328125 16.660144805908203125 16.563720703125 16.46321868896484375 16.36504364013671875 16.262544631958007812 16.162462234497070312 16.057809829711914062 15.9560394287109375 15.851404190063476562 15.753003120422363281 15.654621124267578125 15.563577651977539062 15.472515106201171875 15.387811660766601562 15.302381515502929688 15.222493171691894531 15.141481399536132812 15.065562248229980469 14.988293647766113281 14.91583251953125 14.841935157775878906 14.772687911987304688 14.702020645141601562 14.635952949523925781 14.568781852722167969 14.506685256958007812 14.444339752197265625 14.387408256530761719 14.330323219299316406 14.277742385864257812 14.224001884460449219 14.173871040344238281 14.122359275817871094 14.074329376220703125 14.024942398071289062 13.979228019714355469 13.932928085327148438 13.891016006469726562 13.849280357360839844 13.811983108520507812 13.775075912475585938 13.742383003234863281 13.710355758666992188 13.682458877563476562 13.655695915222167969 13.633129119873046875 13.612421989440917969 13.596155166625976562 13.582784652709960938 13.573894500732421875 13.568235397338867188 13.565870285034179688 13.565593719482421875 13.566896438598632812 13.569416999816894531 13.572400093078613281 13.575947761535644531 13.579633712768554688 13.583942413330078125 13.588372230529785156 13.593436241149902344 13.598392486572265625 13.603646278381347656 13.608315467834472656 13.612826347351074219 13.616568565368652344 13.620018959045410156 13.622692108154296875 13.6249542236328125 13.626794815063476562 13.629003524780273438 13.631554603576660156 13.635004043579101562 13.639020919799804688 13.644185066223144531 13.649791717529296875 13.656675338745117188 13.663881301879882812 13.672506332397460938 13.681368827819824219 13.691873550415039062 13.702596664428710938 13.715264320373535156 13.727925300598144531 13.742204666137695312 13.75563812255859375 13.770264625549316406 13.783917427062988281 13.798817634582519531 13.812735557556152344 13.827975273132324219 13.842237472534179688 13.857926368713378906 13.872685432434082031 13.888947486877441406 13.904024124145507812 13.920310020446777344 13.935383796691894531 13.951668739318847656 13.966747283935546875 13.982941627502441406 13.997406005859375 14.011664390563964844 14.024102210998535156 14.037408828735351562 14.049774169921875 14.063073158264160156 14.075446128845214844 14.08873748779296875 14.101117134094238281 14.114401817321777344 14.126787185668945312 14.140065193176269531 14.152384757995605469 14.161824226379394531 14.161174774169921875 14.147417068481445312 14.118785858154296875 14.077289581298828125 14.037723541259765625 13.995488166809082031 13.955900192260742188 13.913686752319335938 13.874115943908691406 13.832833290100097656 13.795978546142578125 13.758759498596191406 13.725225448608398438 13.690883636474609375 13.65959930419921875 13.6268463134765625 13.595714569091796875 13.561918258666992188 13.528776168823242188 13.49109649658203125 13.451979637145996094 13.406859397888183594 13.361453056335449219 13.311161041259765625 13.261816978454589844 13.208128929138183594 13.155965805053710938 13.099665641784667969 13.045147895812988281 12.986512184143066406 12.929721832275390625 12.868677139282226562 12.809513092041015625 12.746685028076171875 12.687010765075683594 12.624579429626464844 12.565412521362304688 12.503666877746582031 12.445165634155273438 12.384257316589355469 12.326561927795410156 12.266655921936035156 12.210019111633300781 12.151841163635253906 12.097397804260253906 12.041735649108886719 11.989597320556640625 11.936415672302246094 11.886725425720214844 11.836795806884765625 11.791075706481933594 11.745038986206054688 11.701021194458007812 11.655217170715332031 11.611176490783691406 11.565396308898925781 11.521330833435058594 11.491467475891113281 11.494012832641601562 11.360605239868164062 11.248016357421875 11.144260406494140625 11.05267333984375 10.963030815124511719 10.879065513610839844 10.795114517211914062 10.717291831970214844 10.641213417053222656 10.572316169738769531 10.506781578063964844 10.448351860046386719 10.392782211303710938 10.342608451843261719 10.294149398803710938 10.249468803405761719 10.205694198608398438 10.165394783020019531 10.126705169677734375 10.091951370239257812 10.059658050537109375 10.031534194946289062 10.005578994750976562 9.9820413589477539062 9.95873260498046875 9.935726165771484375 9.9109659194946289062 9.8853807449340820312 9.8586187362670898438 9.8327932357788085938 9.8078317642211914062 9.7856912612915039062 9.7662448883056640625 9.7500905990600585938 9.7361230850219726562 9.7242803573608398438 9.7136077880859375 9.7039585113525390625 9.6948795318603515625 9.6869306564331054688 9.6802425384521484375 9.6753454208374023438 9.6724786758422851562 9.6718921661376953125 9.6733751296997070312 9.6764669418334960938 9.6808538436889648438 9.6860055923461914062 9.691623687744140625 9.6970949172973632812 9.7019557952880859375 9.705547332763671875 9.7073240280151367188 9.7067270278930664062 
13.072043418884277344 13.067632675170898438 13.066171646118164062 13.067076683044433594 13.06934356689453125 13.073153495788574219 13.077500343322753906 13.082095146179199219 13.086997032165527344 13.092313766479492188 13.097936630249023438 13.103840827941894531 13.110015869140625 13.1164398193359375 13.123011589050292969 13.129741668701171875 13.136622428894042969 13.14315032958984375 13.149272918701171875 13.15544891357421875 13.162041664123535156 13.168500900268554688 13.173717498779296875 13.1772003173828125 13.178856849670410156 13.178149223327636719 13.174928665161132812 13.178461074829101562 13.19655609130859375 13.224501609802246094 13.258652687072753906 13.295077323913574219 13.336962699890136719 13.389234542846679688 13.463732719421386719 13.55986785888671875 13.6765899658203125 13.807085990905761719 13.951470375061035156 14.105059623718261719 14.271784782409667969 14.447462081909179688 14.635378837585449219 14.830709457397460938 15.039124488830566406 15.254144668579101562 15.482367515563964844 15.715609550476074219 15.960947036743164062 16.20868682861328125 16.467647552490234375 16.728359222412109375 17.000585556030273438 17.27130126953125 17.548692703247070312 17.818735122680664062 18.04302215576171875 18.268001556396484375 18.228086471557617188 18.134784698486328125 18.03838348388671875 17.943696975708007812 17.846105575561523438 17.750558853149414062 17.652191162109375 17.556121826171875 17.4572601318359375 17.361078262329101562 17.261976242065429688 17.165302276611328125 17.0653533935546875 16.967931747436523438 16.867109298706054688 16.768926620483398438 16.66718292236328125 16.568180084228515625 16.465442657470703125 16.365566253662109375 16.262159347534179688 16.16283416748046875 16.061628341674804688 15.966128349304199219 15.869337081909179688 15.777960777282714844 15.685369491577148438 15.598749160766601562 15.511620521545410156 15.430303573608398438 15.348146438598632812 15.271181106567382812 15.19284820556640625 15.119078636169433594 15.043607711791992188 14.972463607788085938 14.899579048156738281 14.831126213073730469 14.761373519897460938 14.696486473083496094 14.630715370178222656 14.569737434387207031 14.507920265197753906 14.450771331787109375 14.392930984497070312 14.339710235595703125 14.285998344421386719 14.236507415771484375 14.186008453369140625 14.139310836791992188 14.092005729675292969 14.048815727233886719 14.005209922790527344 13.965455055236816406 13.925312042236328125 13.888813018798828125 13.852016448974609375 13.818727493286132812 13.785319328308105469 13.755357742309570312 13.725554466247558594 13.699199676513671875 13.673396110534667969 13.651120185852050781 13.629963874816894531 13.612445831298828125 13.596634864807128906 13.584524154663085938 13.574878692626953125 13.568727493286132812 13.56488037109375 13.563447952270507812 13.563796043395996094 13.565404891967773438 13.5679168701171875 13.570680618286132812 13.573911666870117188 13.577222824096679688 13.581065177917480469 13.584970474243164062 13.589409828186035156 13.593606948852539062 13.597900390625 13.601696968078613281 13.605782508850097656 13.609745979309082031 13.614136695861816406 13.618353843688964844 13.622990608215332031 13.627465248107910156 13.63262939453125 13.637956619262695312 13.644345283508300781 13.650936126708984375 13.658724784851074219 13.666635513305664062 13.675904273986816406 13.685251235961914062 13.696177482604980469 13.707165718078613281 13.720040321350097656 13.73297119140625 13.747724533081054688 13.761731147766113281 13.777060508728027344 13.791400909423828125 13.807126998901367188 13.821865081787109375 13.838091850280761719 13.853360176086425781 13.870096206665039062 13.885606765747070312 13.902415275573730469 13.91802215576171875 13.934945106506347656 13.95069122314453125 13.967736244201660156 13.983568191528320312 14.00048065185546875 14.015169143676757812 14.029248237609863281 14.041656494140625 14.054955482482910156 14.067327499389648438 14.08061981201171875 14.092999458312988281 14.106284141540527344 14.118670463562011719 14.131946563720703125 14.143404006958007812 14.149099349975585938 14.145816802978515625 14.131608009338378906 14.105969429016113281 14.066026687622070312 14.026462554931640625 13.984227180480957031 13.944639205932617188 13.902601242065429688 13.864383697509765625 13.8257904052734375 13.791120529174804688 13.75554656982421875 13.7230377197265625 13.688620567321777344 13.655399322509765625 13.619123458862304688 13.584154129028320312 13.545368194580078125 13.505885124206542969 13.460925102233886719 13.416197776794433594 13.366972923278808594 13.319017410278320312 13.267064094543457031 13.216902732849121094 13.163000106811523438 13.1111602783203125 13.055707931518554688 13.002448081970214844 12.945623397827148438 12.891035079956054688 12.832866668701171875 12.776907920837402344 12.717299461364746094 12.660104751586914062 12.600127220153808594 12.543324470520019531 12.484095573425292969 12.428028106689453125 12.369709968566894531 12.314524650573730469 12.257272720336914062 12.203122138977050781 12.147187232971191406 12.094550132751464844 12.040493965148925781 11.989640235900878906 11.937496185302734375 11.888409614562988281 11.838132858276367188 11.790674209594726562 11.742135047912597656 11.697031021118164062 11.651080131530761719 11.607038497924804688 11.561259269714355469 11.517193794250488281 11.5210723876953125 11.44716644287109375 11.319035530090332031 11.211335182189941406 11.112245559692382812 11.024609565734863281 10.938291549682617188 10.856739044189453125 10.774558067321777344 10.697897911071777344 10.622601509094238281 10.554211616516113281 10.489079475402832031 10.430991172790527344 10.375761032104492188 10.325937271118164062 10.277894973754882812 10.233699798583984375 10.190501213073730469 10.150778770446777344 10.11261749267578125 10.078246116638183594 10.046122550964355469 10.017912864685058594 9.9916515350341796875 9.9677095413208007812 9.9439897537231445312 9.920688629150390625 9.895839691162109375 9.8703851699829101562 9.8438787460327148438 9.8183002471923828125 9.7934656143188476562 9.77120208740234375 9.7513093948364257812 9.7344942092895507812 9.719799041748046875 9.7073640823364257812 9.696392059326171875 9.686901092529296875 9.6784982681274414062 9.6716241836547851562 9.6663331985473632812 9.6630029678344726562 9.6618070602416992188 9.6628522872924804688 9.6659212112426757812 9.670482635498046875 9.6762218475341796875 9.682552337646484375 9.689182281494140625 9.695522308349609375 9.7012462615966796875 9.7058095932006835938 9.7088193893432617188 9.7098169326782226562 
13.123457908630371094 13.120116233825683594 13.118258476257324219 13.118603706359863281 13.121137619018554688 13.125407218933105469 13.130687713623046875 13.136438369750976562 13.142398834228515625 13.148650169372558594 13.155238151550292969 13.162243843078613281 13.169614791870117188 13.17726898193359375 13.185097694396972656 13.193024635314941406 13.200865745544433594 13.208096504211425781 13.214653968811035156 13.220799446105957031 13.226986885070800781 13.233615875244140625 13.240805625915527344 13.247157096862792969 13.252209663391113281 13.255829811096191406 13.2572479248046875 13.25862884521484375 13.272806167602539062 13.300192832946777344 13.333712577819824219 13.372551918029785156 13.422132492065429688 13.492102622985839844 13.58535003662109375 13.697153091430664062 13.824509620666503906 13.961565017700195312 14.109754562377929688 14.265317916870117188 14.432647705078125 14.608425140380859375 14.797008514404296875 14.991713523864746094 15.198070526123046875 15.409954071044921875 15.634123802185058594 15.862544059753417969 16.102357864379882812 16.344875335693359375 16.598209381103515625 16.85297393798828125 17.119157791137695312 17.385881423950195312 17.66159820556640625 17.9280242919921875 18.121709823608398438 18.389375686645507812 18.321563720703125 18.21823883056640625 18.112157821655273438 18.008672714233398438 17.902944564819335938 17.80034637451171875 17.69549560546875 17.593778610229492188 17.489597320556640625 17.388536453247070312 17.284952163696289062 17.184576034545898438 17.081209182739257812 16.9806976318359375 16.876903533935546875 16.776060104370117188 16.671815872192382812 16.57073211669921875 16.466962814331054688 16.368124008178710938 16.268083572387695312 16.173526763916015625 16.077791213989257812 15.987440109252929688 15.895879745483398438 15.809418678283691406 15.721441268920898438 15.638195037841796875 15.553373336791992188 15.47359466552734375 15.392685890197753906 15.316738128662109375 15.239484786987304688 15.1668701171875 15.092734336853027344 15.023101806640625 14.952160835266113281 14.885828971862792969 14.818238258361816406 14.755074501037597656 14.690631866455078125 14.630488395690917969 14.569095611572265625 14.511906623840332031 14.453543663024902344 14.399366378784179688 14.344434738159179688 14.294275283813476562 14.244205474853515625 14.198895454406738281 14.15332794189453125 14.111494064331054688 14.068922996520996094 14.029802322387695312 13.98998260498046875 13.953471183776855469 13.9163360595703125 13.882410049438476562 13.847977638244628906 13.816686630249023438 13.785074234008789062 13.756608963012695312 13.728178977966308594 13.703001022338867188 13.678198814392089844 13.656592369079589844 13.635693550109863281 13.617975234985351562 13.601422309875488281 13.588110923767089844 13.576600074768066406 13.568410873413085938 13.56243896484375 13.559107780456542969 13.557633399963378906 13.557989120483398438 13.559764862060546875 13.56214141845703125 13.564959526062011719 13.567830085754394531 13.571145057678222656 13.574502944946289062 13.57852935791015625 13.582819938659667969 13.58783721923828125 13.592729568481445312 13.598074913024902344 13.603168487548828125 13.608773231506347656 13.614145278930664062 13.620065689086914062 13.625732421875 13.6320648193359375 13.638339996337890625 13.645668983459472656 13.653065681457519531 13.661676406860351562 13.670305252075195312 13.680328369140625 13.690340042114257812 13.701982498168945312 13.713606834411621094 13.727153778076171875 13.740667343139648438 13.756117820739746094 13.770779609680175781 13.786871910095214844 13.801961898803710938 13.818582534790039062 13.834211349487304688 13.851297378540039062 13.867156028747558594 13.884381294250488281 13.900411605834960938 13.917835235595703125 13.934091567993164062 13.951757431030273438 13.968252182006835938 13.986108779907226562 14.002661705017089844 14.019804000854492188 14.033865928649902344 14.047392845153808594 14.059766769409179688 14.073058128356933594 14.085438728332519531 14.098723411560058594 14.111109733581542969 14.124320030212402344 14.134264945983886719 14.137618064880371094 14.132906913757324219 14.118244171142578125 14.093860626220703125 14.055522918701171875 14.015971183776855469 13.973736763000488281 13.934329032897949219 13.89379119873046875 13.857674598693847656 13.820798873901367188 13.787321090698242188 13.752139091491699219 13.718057632446289062 13.680417060852050781 13.644089698791503906 13.604331016540527344 13.56478118896484375 13.520296096801757812 13.476325035095214844 13.427968025207519531 13.380975723266601562 13.330097198486328125 13.281113624572753906 13.228527069091796875 13.178118705749511719 13.124273300170898438 13.072755813598632812 13.017905235290527344 12.965453147888183594 12.909729957580566406 12.856427192687988281 12.799885749816894531 12.745747566223144531 12.688370704650878906 12.63335418701171875 12.575246810913085938 12.520068168640136719 12.462549209594726562 12.408118247985839844 12.351522445678710938 12.297985076904296875 12.242462158203125 12.189965248107910156 12.135678291320800781 12.084444046020507812 12.031685829162597656 11.981959342956542969 11.930910110473632812 11.8828125 11.833542823791503906 11.787104606628417969 11.739535331726074219 11.694349288940429688 11.647602081298828125 11.603188514709472656 11.557405471801757812 11.513688087463378906 11.510279655456542969 11.3890380859375 11.267205238342285156 11.165425300598144531 11.072050094604492188 10.989290237426757812 10.907103538513183594 10.828592300415039062 10.748737335205078125 10.673781394958496094 10.599926948547363281 10.532858848571777344 10.469224929809570312 10.412741661071777344 10.359238624572753906 10.311067581176757812 10.264605522155761719 10.221741676330566406 10.179639816284179688 10.140707969665527344 10.103068351745605469 10.068920135498046875 10.036731719970703125 10.008185386657714844 9.9813852310180664062 9.9568471908569335938 9.9325733184814453125 9.9089097976684570312 9.8839883804321289062 9.8587541580200195312 9.8326425552368164062 9.8074502944946289062 9.7828378677368164062 9.76047515869140625 9.7400522232055664062 9.7224035263061523438 9.7067480087280273438 9.6934642791748046875 9.681941986083984375 9.6724081039428710938 9.6645221710205078125 9.6585988998413085938 9.6545915603637695312 9.6527004241943359375 9.65300750732421875 9.6554670333862304688 9.6598577499389648438 9.6656017303466796875 9.6724004745483398438 9.6796293258666992188 9.6870107650756835938 9.6939945220947265625 9.700374603271484375 9.7057085037231445312 9.70973968505859375 9.7121038436889648438 
13.176228523254394531 13.172724723815917969 13.171930313110351562 13.173846244812011719 13.177620887756347656 13.182696342468261719 13.188515663146972656 13.194791793823242188 13.201419830322265625 13.208455085754394531 13.215945243835449219 13.223929405212402344 13.232302665710449219 13.240997314453125 13.249904632568359375 13.258943557739257812 13.267821311950683594 13.276220321655273438 13.28403472900390625 13.2911529541015625 13.297821998596191406 13.304472923278808594 13.311671257019042969 13.319604873657226562 13.327150344848632812 13.333709716796875 13.339367866516113281 13.343729019165039062 13.353758811950683594 13.379832267761230469 13.414923667907714844 13.4586944580078125 13.522963523864746094 13.611085891723632812 13.720500946044921875 13.843204498291015625 13.978075027465820312 14.120084762573242188 14.271857261657714844 14.429942131042480469 14.599039077758789062 14.775751113891601562 14.964269638061523438 15.157958984375 15.362551689147949219 15.571770668029785156 15.79212188720703125 16.016172409057617188 16.251142501831054688 16.4887237548828125 16.737384796142578125 16.9874267578125 17.248693466186523438 17.510942459106445312 17.783967971801757812 18.036500930786132812 18.28429412841796875 18.507989883422851562 18.39292144775390625 18.2811279296875 18.167720794677734375 18.05825042724609375 17.947107315063476562 17.8397064208984375 17.730304718017578125 17.624467849731445312 17.516321182250976562 17.411571502685546875 17.304187774658203125 17.200208663940429688 17.09357452392578125 16.99028778076171875 16.883884429931640625 16.781084060668945312 16.676296234130859375 16.57691192626953125 16.476593017578125 16.381727218627929688 16.285932540893554688 16.19559478759765625 16.104223251342773438 16.017862319946289062 15.930093765258789062 15.846960067749023438 15.762155532836914062 15.681729316711425781 15.5994415283203125 15.521373748779296875 15.4415435791015625 15.366357803344726562 15.289919853210449219 15.218418121337890625 15.145978927612304688 15.07834625244140625 15.009497642517089844 14.944916725158691406 14.878849029541015625 14.816847801208496094 14.753314971923828125 14.693751335144042969 14.6326751708984375 14.575570106506347656 14.517328262329101562 14.463590621948242188 14.409316062927246094 14.359543800354003906 14.309350967407226562 14.263523101806640625 14.217458724975585938 14.175593376159667969 14.133238792419433594 14.094221115112304688 14.05428314208984375 14.01744842529296875 13.979752540588378906 13.945082664489746094 13.909642219543457031 13.877192497253417969 13.844203948974609375 13.814312934875488281 13.78412628173828125 13.756953239440917969 13.729651451110839844 13.705294609069824219 13.681036949157714844 13.659687995910644531 13.638744354248046875 13.620717048645019531 13.603503227233886719 13.589264869689941406 13.576385498046875 13.566605567932128906 13.55883026123046875 13.553829193115234375 13.550648689270019531 13.549597740173339844 13.550341606140136719 13.552198410034179688 13.554769515991210938 13.557582855224609375 13.561107635498046875 13.564907073974609375 13.569522857666015625 13.574366569519042969 13.580047607421875 13.585659027099609375 13.591861724853515625 13.597784042358398438 13.604295730590820312 13.610508918762207031 13.617349624633789062 13.62387847900390625 13.631113052368164062 13.638176918029785156 13.646315574645996094 13.654431343078613281 13.663812637329101562 13.673139572143554688 13.683926582336425781 13.694643974304199219 13.707074165344238281 13.719426155090332031 13.733780860900878906 13.748048782348632812 13.764310836791992188 13.7797088623046875 13.796669960021972656 13.812603950500488281 13.830008506774902344 13.84619140625 13.863802909851074219 13.880223274230957031 13.898107528686523438 13.914829254150390625 13.933053016662597656 13.950128555297851562 13.968716621398925781 13.986114501953125 14.004899978637695312 14.022057533264160156 14.038593292236328125 14.051638603210449219 14.064950942993164062 14.077330589294433594 14.090615272521972656 14.103001594543457031 14.115970611572265625 14.124414443969726562 14.126264572143554688 14.1205596923828125 14.105367660522460938 14.081360816955566406 14.044217109680175781 14.004721641540527344 13.962696075439453125 13.92470550537109375 13.886263847351074219 13.851673126220703125 13.815822601318359375 13.781510353088378906 13.743011474609375 13.705516815185546875 13.664702415466308594 13.624842643737792969 13.580303192138671875 13.536503791809082031 13.488512992858886719 13.442065238952636719 13.391798973083496094 13.343518257141113281 13.2917022705078125 13.242156028747558594 13.189257621765136719 13.138781547546386719 13.085078239440917969 13.03387451171875 12.979534149169921875 12.927725791931152344 12.872851371765136719 12.820513725280761719 12.765161514282226562 12.712330818176269531 12.656525611877441406 12.603205680847167969 12.546942710876464844 12.493222236633300781 12.437092781066894531 12.383976936340332031 12.3287506103515625 12.276506423950195312 12.222322463989257812 12.171088218688964844 12.118093490600585938 12.068020820617675781 12.016393661499023438 11.967657089233398438 11.9175567626953125 11.870325088500976562 11.821938514709472656 11.776370048522949219 11.729830741882324219 11.686024665832519531 11.641286849975585938 11.598458290100097656 11.553224563598632812 11.525908470153808594 11.444139480590820312 11.314470291137695312 11.200518608093261719 11.106159210205078125 11.01996612548828125 10.943356513977050781 10.866414070129394531 10.791806221008300781 10.715023040771484375 10.642442703247070312 10.570763587951660156 10.505869865417480469 10.444812774658203125 10.391147613525390625 10.340684890747070312 10.295400619506835938 10.251635551452636719 10.2109375 10.170484542846679688 10.132625579833984375 10.095591545104980469 10.061615943908691406 10.029219627380371094 10.000174522399902344 9.9726705551147460938 9.9474020004272460938 9.9224834442138671875 9.8984251022338867188 9.8734836578369140625 9.8485965728759765625 9.8230419158935546875 9.7983884811401367188 9.77410888671875 9.7516565322875976562 9.730587005615234375 9.7118902206420898438 9.6949949264526367188 9.680576324462890625 9.6682519912719726562 9.6584939956665039062 9.6510381698608398438 9.6460437774658203125 9.6433362960815429688 9.6429090499877929688 9.6447238922119140625 9.6485643386840820312 9.654205322265625 9.6610326766967773438 9.6687765121459960938 9.6767892837524414062 9.6848163604736328125 9.6923503875732421875 9.6993055343627929688 9.7053403854370117188 9.7103300094604492188 9.7139959335327148438 
13.223215103149414062 13.22122955322265625 13.222464561462402344 13.225744247436523438 13.23004150390625 13.235355377197265625 13.241495132446289062 13.248292922973632812 13.255597114562988281 13.26342010498046875 13.271753311157226562 13.280597686767578125 13.289834022521972656 13.299410820007324219 13.309218406677246094 13.319171905517578125 13.328992843627929688 13.3384552001953125 13.347514152526855469 13.355978965759277344 13.363828659057617188 13.371146202087402344 13.378397941589355469 13.386165618896484375 13.394887924194335938 13.403415679931640625 13.411536216735839844 13.419419288635253906 13.428800582885742188 13.45369720458984375 13.490871429443359375 13.54407501220703125 13.624289512634277344 13.727465629577636719 13.847489356994628906 13.97750091552734375 14.117587089538574219 14.263261795043945312 14.418005943298339844 14.578279495239257812 14.749264717102050781 14.92661285400390625 15.114866256713867188 15.307744979858398438 15.510923385620117188 15.718005180358886719 15.935451507568359375 16.156068801879882812 16.38730621337890625 16.620965957641601562 16.86572265625 17.112215042114257812 17.369842529296875 17.628721237182617188 17.8990020751953125 18.127956390380859375 18.4844970703125 18.560998916625976562 18.439844131469726562 18.323507308959960938 18.206048965454101562 18.092901229858398438 17.978206634521484375 17.867532730102539062 17.754924774169921875 17.646060943603515625 17.534879684448242188 17.427288055419921875 17.317127227783203125 17.210504531860351562 17.10120391845703125 16.996080398559570312 16.889629364013671875 16.788707733154296875 16.686901092529296875 16.590616226196289062 16.493671417236328125 16.402261734008789062 16.309978485107421875 16.222738265991210938 16.13423919677734375 16.050386428833007812 15.964994430541992188 15.883973121643066406 15.801203727722167969 15.722612380981445312 15.642119407653808594 15.565704345703125 15.487504959106445312 15.41375732421875 15.338804244995117188 15.268639564514160156 15.197344779968261719 15.130604743957519531 15.062648773193359375 14.998998641967773438 14.933862686157226562 14.872602462768554688 14.809679985046386719 14.750557899475097656 14.690037727355957031 14.633809089660644531 14.576689720153808594 14.523856163024902344 14.470180511474609375 14.420633316040039062 14.370313644409179688 14.324015617370605469 14.277083396911621094 14.234101295471191406 14.190672874450683594 14.151052474975585938 14.110739707946777344 14.07347869873046875 14.035184860229492188 13.99981689453125 13.96356201171875 13.930347442626953125 13.896493911743164062 13.865622520446777344 13.834196090698242188 13.805644035339355469 13.776647567749023438 13.750455856323242188 13.723992347717285156 13.700295448303222656 13.676555633544921875 13.655574798583984375 13.63484954833984375 13.616906166076660156 13.599609375 13.585154533386230469 13.571858406066894531 13.56151580810546875 13.552951812744140625 13.547197341918945312 13.543218612670898438 13.5414276123046875 13.541695594787597656 13.543672561645507812 13.546804428100585938 13.55020904541015625 13.554314613342285156 13.558621406555175781 13.56378173828125 13.569132804870605469 13.575397491455078125 13.581584930419921875 13.588418006896972656 13.594929695129394531 13.602091789245605469 13.608921051025390625 13.616455078125 13.62364959716796875 13.631650924682617188 13.639439582824707031 13.648386001586914062 13.657251358032226562 13.667467117309570312 13.677580833435058594 13.689263343811035156 13.700836181640625 13.714250564575195312 13.727540969848632812 13.742970466613769531 13.758194923400878906 13.775377273559570312 13.791547775268554688 13.809210777282714844 13.825657844543457031 13.8435821533203125 13.860317230224609375 13.878570556640625 13.895665168762207031 13.91432952880859375 13.931859970092773438 13.951004981994628906 13.969012260437011719 13.988615036010742188 14.006945610046386719 14.026409149169921875 14.042851448059082031 14.057359695434570312 14.069761276245117188 14.08304595947265625 14.095432281494140625 14.108105659484863281 14.115651130676269531 14.1167144775390625 14.110377311706542969 14.094628334045410156 14.070412635803222656 14.033642768859863281 13.994304656982421875 13.953469276428222656 13.917185783386230469 13.880163192749023438 13.846086502075195312 13.807969093322753906 13.7700347900390625 13.728410720825195312 13.688338279724121094 13.644102096557617188 13.60068511962890625 13.553046226501464844 13.507016181945800781 13.457205772399902344 13.409440994262695312 13.3581390380859375 13.309161186218261719 13.256848335266113281 13.207020759582519531 13.153995513916015625 13.10353851318359375 13.049986839294433594 12.999040603637695312 12.9450836181640625 12.893741607666015625 12.839461326599121094 12.787783622741699219 12.733232498168945312 12.681262016296386719 12.626477241516113281 12.574240684509277344 12.519243240356445312 12.466757774353027344 12.411693572998046875 12.359517097473144531 12.305263519287109375 12.253936767578125 12.200697898864746094 12.150345802307128906 12.098246574401855469 12.048995018005371094 11.998171806335449219 11.950155258178710938 11.900742530822753906 11.854099273681640625 11.806272506713867188 11.761204719543457031 11.715172767639160156 11.671885490417480469 11.627875328063964844 11.586592674255371094 11.544629096984863281 11.489919662475585938 11.359786033630371094 11.237804412841796875 11.13182830810546875 11.044911384582519531 10.965880393981933594 10.895402908325195312 10.8237152099609375 10.753081321716308594 10.679510116577148438 10.609509468078613281 10.540293693542480469 10.477924346923828125 10.419892311096191406 10.369523048400878906 10.322606086730957031 10.280673027038574219 10.240008354187011719 10.201766014099121094 10.163134574890136719 10.126423835754394531 10.090012550354003906 10.056197166442871094 10.023603439331054688 9.9941053390502929688 9.9659891128540039062 9.9401044845581054688 9.9146709442138671875 9.8903417587280273438 9.8654832839965820312 9.8410186767578125 9.8160753250122070312 9.791996002197265625 9.7680721282958984375 9.7455530166625976562 9.7238597869873046875 9.704132080078125 9.68599700927734375 9.670421600341796875 9.6572322845458984375 9.6471538543701171875 9.6399793624877929688 9.6357336044311523438 9.6341114044189453125 9.634918212890625 9.6379957199096679688 9.6429738998413085938 9.6496181488037109375 9.6572999954223632812 9.6657724380493164062 9.674381256103515625 9.6828947067260742188 9.6908473968505859375 9.6982431411743164062 9.704822540283203125 9.7105703353881835938 9.7152729034423828125 
13.273261070251464844 13.273773193359375 13.276346206665039062 13.279886245727539062 13.284495353698730469 13.290301322937011719 13.297013282775878906 13.304531097412109375 13.312684059143066406 13.321457862854003906 13.330773353576660156 13.340589523315429688 13.350768089294433594 13.361255645751953125 13.371951103210449219 13.382781028747558594 13.393540382385253906 13.404058456420898438 13.414334297180175781 13.424151420593261719 13.433419227600097656 13.442026138305664062 13.450100898742675781 13.457856178283691406 13.466238975524902344 13.475800514221191406 13.485743522644042969 13.496035575866699219 13.50756072998046875 13.531910896301269531 13.573534965515136719 13.641480445861816406 13.738841056823730469 13.854276657104492188 13.982885360717773438 14.118813514709472656 14.262895584106445312 14.411878585815429688 14.569212913513183594 14.731940269470214844 14.904505729675292969 15.082505226135253906 15.270499229431152344 15.462643623352050781 15.664469718933105469 15.869642257690429688 16.084568023681640625 16.30217742919921875 16.530012130737304688 16.760128021240234375 17.001157760620117188 17.24428558349609375 17.49864959716796875 17.754520416259765625 18.02045440673828125 18.224674224853515625 18.603967666625976562 18.602064132690429688 18.477224349975585938 18.35760498046875 18.236949920654296875 18.120807647705078125 18.003137588500976562 17.889600753784179688 17.774078369140625 17.6624603271484375 17.548578262329101562 17.438489913940429688 17.325948715209960938 17.217731475830078125 17.10845184326171875 17.005056381225585938 16.901208877563476562 16.803203582763671875 16.704835891723632812 16.612077713012695312 16.518575668334960938 16.430139541625976562 16.340587615966796875 16.2557220458984375 16.169458389282226562 16.087587356567382812 16.004091262817382812 15.924771308898925781 15.843655586242675781 15.766604423522949219 15.687846183776855469 15.613407135009765625 15.537427902221679688 15.465662956237792969 15.392263412475585938 15.323121070861816406 15.252648353576660156 15.186513900756835938 15.119017601013183594 15.055704116821289062 14.990984916687011719 14.930253028869628906 14.868032455444335938 14.809953689575195312 14.750772476196289062 14.695702552795410156 14.639514923095703125 14.587297439575195312 14.533997535705566406 14.484566688537597656 14.434116363525390625 14.387436866760253906 14.339824676513671875 14.295925140380859375 14.2512359619140625 14.210221290588378906 14.168603897094726562 14.130529403686523438 14.091578483581542969 14.055634498596191406 14.018802642822265625 13.984951972961425781 13.950275421142578125 13.918473243713378906 13.885909080505371094 13.856139183044433594 13.825694084167480469 13.797965049743652344 13.769679069519042969 13.744066238403320312 13.718070030212402344 13.694734573364257812 13.671243667602539062 13.650419235229492188 13.629732131958007812 13.611744880676269531 13.594271659851074219 13.579559326171875 13.565846443176269531 13.554993629455566406 13.54579925537109375 13.539567947387695312 13.535260200500488281 13.533316612243652344 13.533551216125488281 13.53570556640625 13.539250373840332031 13.543150901794433594 13.547803878784179688 13.552610397338867188 13.558279991149902344 13.56407928466796875 13.570839881896972656 13.577492713928222656 13.584856986999511719 13.591872215270996094 13.599605560302734375 13.606981277465820312 13.615145683288574219 13.622954368591308594 13.631666183471679688 13.640156745910644531 13.649899482727050781 13.659514427185058594 13.670581817626953125 13.68151092529296875 13.694135665893554688 13.706622123718261719 13.721094131469726562 13.735394477844238281 13.751984596252441406 13.768189430236816406 13.786095619201660156 13.802791595458984375 13.821007728576660156 13.838036537170410156 13.856631278991699219 13.874070167541503906 13.893136978149414062 13.911078453063964844 13.930719375610351562 13.949254989624023438 13.969539642333984375 13.988673210144042969 14.009451866149902344 14.028676033020019531 14.047536849975585938 14.06157684326171875 14.074947357177734375 14.08733367919921875 14.099799156188964844 14.106945991516113281 14.107634544372558594 14.100826263427734375 14.084382057189941406 14.059475898742675781 14.022440910339355469 13.983944892883300781 13.944916725158691406 13.910021781921386719 13.872864723205566406 13.835333824157714844 13.793020248413085938 13.752210617065429688 13.707777976989746094 13.664548873901367188 13.617044448852539062 13.571199417114257812 13.521574974060058594 13.474090576171875 13.423078536987304688 13.374438285827636719 13.322444915771484375 13.273006439208984375 13.220377922058105469 13.17038726806640625 13.117315292358398438 13.06691741943359375 13.013528823852539062 12.962821006774902344 12.909200668334960938 12.858250617980957031 12.804460525512695312 12.75331878662109375 12.699404716491699219 12.648110389709472656 12.5941162109375 12.542718887329101562 12.488709449768066406 12.4372711181640625 12.383305549621582031 12.332012176513671875 12.278644561767578125 12.228146553039550781 12.175749778747558594 12.126173973083496094 12.07485198974609375 12.026308059692382812 11.976181983947753906 11.928792953491210938 11.879992485046386719 11.833884239196777344 11.786545753479003906 11.741880416870117188 11.696198463439941406 11.653172492980957031 11.609354019165039062 11.568376541137695312 11.408358573913574219 11.404882431030273438 11.26654052734375 11.153201103210449219 11.055937767028808594 10.976978302001953125 10.905506134033203125 10.84146881103515625 10.775342941284179688 10.709006309509277344 10.639018058776855469 10.571992874145507812 10.505692481994628906 10.446325302124023438 10.391848564147949219 10.345311164855957031 10.302489280700683594 10.264399528503417969 10.227276802062988281 10.191826820373535156 10.155261993408203125 10.119859695434570312 10.084188461303710938 10.050632476806640625 10.017951011657714844 9.988147735595703125 9.9596052169799804688 9.933307647705078125 9.9075651168823242188 9.8831548690795898438 9.8585491180419921875 9.8346347808837890625 9.8103990554809570312 9.786960601806640625 9.7634325027465820312 9.7408580780029296875 9.7185297012329101562 9.6977443695068359375 9.6783227920532226562 9.661525726318359375 9.6473941802978515625 9.6369009017944335938 9.6299009323120117188 9.6262912750244140625 9.6256351470947265625 9.6275568008422851562 9.6317806243896484375 9.6377820968627929688 9.645328521728515625 9.6537723541259765625 9.6628932952880859375 9.67203521728515625 9.6809864044189453125 9.6893138885498046875 9.6971073150634765625 9.7041692733764648438 9.7105703353881835938 9.716156005859375 
13.320707321166992188 13.322382926940917969 13.324991226196289062 13.328869819641113281 13.334072113037109375 13.340562820434570312 13.348088264465332031 13.356565475463867188 13.365736961364746094 13.375554084777832031 13.385880470275878906 13.396665573120117188 13.407767295837402344 13.419134140014648438 13.430660247802734375 13.442276954650878906 13.453822135925292969 13.465138435363769531 13.476267814636230469 13.48711395263671875 13.497588157653808594 13.507442474365234375 13.516676902770996094 13.525177001953125 13.533322334289550781 13.542291641235351562 13.552979469299316406 13.564538002014160156 13.577755928039550781 13.6030120849609375 13.6539154052734375 13.738573074340820312 13.849354743957519531 13.973605155944824219 14.108078956604003906 14.247915267944335938 14.395285606384277344 14.547020912170410156 14.706805229187011719 14.871514320373535156 15.045358657836914062 15.223847389221191406 15.411677360534667969 15.603124618530273438 15.803808212280273438 16.007390975952148438 16.220293045043945312 16.435560226440429688 16.660724639892578125 16.8880157470703125 17.126012802124023438 17.366266250610351562 17.617967605590820312 17.871425628662109375 18.12839508056640625 18.32836151123046875 18.7575531005859375 18.63039398193359375 18.503086090087890625 18.381114959716796875 18.258115768432617188 18.139669418334960938 18.019603729248046875 17.9037628173828125 17.7859649658203125 17.672227859497070312 17.556278228759765625 17.444749832153320312 17.332349777221679688 17.225873947143554688 17.118967056274414062 17.0180511474609375 16.917161941528320312 16.822277069091796875 16.726987838745117188 16.6368865966796875 16.545825958251953125 16.459501266479492188 16.371917724609375 16.2887725830078125 16.204145431518554688 16.1237335205078125 16.041650772094726562 15.963624000549316406 15.883945465087890625 15.808531761169433594 15.731612205505371094 15.658857345581054688 15.584474563598632812 15.514107704162597656 15.4420166015625 15.373839378356933594 15.303990364074707031 15.238267898559570312 15.171076774597167969 15.107940673828125 15.043396949768066406 14.983183860778808594 14.922020912170410156 14.865049362182617188 14.806843757629394531 14.752528190612792969 14.6969451904296875 14.645121574401855469 14.592047691345214844 14.542651176452636719 14.492060661315917969 14.445082664489746094 14.396982192993164062 14.352430343627929688 14.306853294372558594 14.264795303344726562 14.221860885620117188 14.182481765747070312 14.142575263977050781 14.106143951416015625 14.068817138671875 14.03438568115234375 13.998982429504394531 13.96639251708984375 13.932886123657226562 13.9021148681640625 13.870500564575195312 13.841565132141113281 13.81188201904296875 13.784823417663574219 13.757143020629882812 13.732064247131347656 13.706546783447265625 13.683632850646972656 13.660513877868652344 13.640016555786132812 13.619610786437988281 13.60186767578125 13.584596633911132812 13.570081710815429688 13.556680679321289062 13.5462646484375 13.537586212158203125 13.53177642822265625 13.527833938598632812 13.526228904724121094 13.526875495910644531 13.529514312744140625 13.533663749694824219 13.538072586059570312 13.543261528015136719 13.548550605773925781 13.554737091064453125 13.561002731323242188 13.5682525634765625 13.57534027099609375 13.583172798156738281 13.59063720703125 13.598889350891113281 13.606770515441894531 13.615528106689453125 13.623926162719726562 13.633362770080566406 13.642594337463378906 13.653200149536132812 13.66364288330078125 13.675671577453613281 13.687537193298339844 13.701260566711425781 13.714824676513671875 13.730536460876464844 13.746030807495117188 13.763759613037109375 13.78064727783203125 13.799105644226074219 13.816372871398925781 13.835247039794921875 13.852962493896484375 13.87235260009765625 13.890621185302734375 13.910651206970214844 13.929593086242675781 13.95038604736328125 13.970094680786132812 13.991678237915039062 14.012021064758300781 14.033736228942871094 14.0520782470703125 14.067331314086914062 14.079755783081054688 14.092226982116699219 14.099474906921386719 14.100184440612792969 14.093077659606933594 14.075838088989257812 14.049859046936035156 14.012416839599609375 13.975322723388671875 13.937693595886230469 13.902191162109375 13.860706329345703125 13.819478034973144531 13.774501800537109375 13.731392860412597656 13.684173583984375 13.638569831848144531 13.589117050170898438 13.54184722900390625 13.491036415100097656 13.4426727294921875 13.390931129455566406 13.341759681701660156 13.289351463317871094 13.239643096923828125 13.186840057373046875 13.136774063110351562 13.083704948425292969 13.033379554748535156 12.980131149291992188 12.929613113403320312 12.876247406005859375 12.825587272644042969 12.772150039672851562 12.7213897705078125 12.667942047119140625 12.617165565490722656 12.563797950744628906 12.513070106506347656 12.459830284118652344 12.409189224243164062 12.356119155883789062 12.305624008178710938 12.252980232238769531 12.203153610229492188 12.151444435119628906 12.102512359619140625 12.051846504211425781 12.003908157348632812 11.954384803771972656 11.907535552978515625 11.859255790710449219 11.81360626220703125 11.766694068908691406 11.722376823425292969 11.676992416381835938 11.634194374084472656 11.5909423828125 11.448741912841796875 11.434653282165527344 11.310669898986816406 11.18123626708984375 11.076083183288574219 10.986698150634765625 10.914682388305664062 10.849649429321289062 10.791046142578125 10.729664802551269531 10.667113304138183594 10.600417137145996094 10.536226272583007812 10.472751617431640625 10.416268348693847656 10.365118980407714844 10.322092056274414062 10.282968521118164062 10.248326301574707031 10.214375495910644531 10.181430816650390625 10.146740913391113281 10.11257171630859375 10.07767486572265625 10.044514656066894531 10.011989593505859375 9.9822111129760742188 9.9536485671997070312 9.9273462295532226562 9.9016809463500976562 9.8774967193603515625 9.8533239364624023438 9.8300161361694335938 9.8064546585083007812 9.7835912704467773438 9.7604084014892578125 9.7378015518188476562 9.7149677276611328125 9.6933221817016601562 9.6728496551513671875 9.6550378799438476562 9.6400938034057617188 9.6291904449462890625 9.6222372055053710938 9.6190328598022460938 9.6190443038940429688 9.6217603683471679688 9.6268129348754882812 9.633571624755859375 9.6417942047119140625 9.6508207321166992188 9.6604518890380859375 9.6700229644775390625 9.6793422698974609375 9.687992095947265625 9.6961107254028320312 9.7035360336303710938 9.7103929519653320312 9.7165632247924804688 
13.370617866516113281 13.372168540954589844 13.375128746032714844 13.3797454833984375 13.385913848876953125 13.393534660339355469 13.402249336242675781 13.41191864013671875 13.422262191772460938 13.4332427978515625 13.444689750671386719 13.456553459167480469 13.468687057495117188 13.481042861938476562 13.493511199951171875 13.506025314331054688 13.518473625183105469 13.53067779541015625 13.542643547058105469 13.554290771484375 13.565595626831054688 13.576500892639160156 13.586944580078125 13.596577644348144531 13.605315208435058594 13.613513946533203125 13.623147010803222656 13.634827613830566406 13.647487640380859375 13.677255630493164062 13.744600296020507812 13.8467864990234375 13.968953132629394531 14.099919319152832031 14.239243507385253906 14.382857322692871094 14.533618927001953125 14.688051223754882812 14.850342750549316406 15.016816139221191406 15.191838264465332031 15.370744705200195312 15.558342933654785156 15.74908447265625 15.948625564575195312 16.150663375854492188 16.361642837524414062 16.574716567993164062 16.797397613525390625 17.022089004516601562 17.257299423217773438 17.494785308837890625 17.743928909301757812 17.995115280151367188 18.235197067260742188 18.522775650024414062 18.781049728393554688 18.652063369750976562 18.522762298583984375 18.398740768432617188 18.273563385009765625 18.152967453002929688 18.03075408935546875 17.912885665893554688 17.793096542358398438 17.677854537963867188 17.561845779418945312 17.45198822021484375 17.341951370239257812 17.23809814453125 17.134508132934570312 17.03701019287109375 16.939296722412109375 16.84706878662109375 16.754262924194335938 16.666387557983398438 16.577417373657226562 16.492925643920898438 16.407068252563476562 16.325450897216796875 16.242275238037109375 16.163175582885742188 16.082485198974609375 16.006021499633789062 15.928112983703613281 15.854338645935058594 15.778980255126953125 15.707596778869628906 15.634516716003417969 15.5652923583984375 15.494287490844726562 15.427050590515136719 15.357973098754882812 15.29267120361328125 15.225774765014648438 15.163060188293457031 15.099268913269042969 15.039822578430175781 14.979329109191894531 14.922997474670410156 14.865495681762695312 14.811742782592773438 14.756611824035644531 14.705086708068847656 14.652173042297363281 14.602783203125 14.552046775817871094 14.504785537719726562 14.456241607666015625 14.411131858825683594 14.364810943603515625 14.321888923645019531 14.277965545654296875 14.237613677978515625 14.196533203125 14.1589813232421875 14.1208038330078125 14.085745811462402344 14.049616813659667969 14.016243934631347656 13.981816291809082031 13.950090408325195312 13.917369842529296875 13.887295722961425781 13.856309890747070312 13.827930450439453125 13.798741340637207031 13.772118568420410156 13.744820594787597656 13.72008514404296875 13.694860458374023438 13.672210693359375 13.649312019348144531 13.629014015197753906 13.608798027038574219 13.591362953186035156 13.574563980102539062 13.56060791015625 13.547741889953613281 13.537750244140625 13.52945709228515625 13.523968696594238281 13.520344734191894531 13.519069671630859375 13.520134925842285156 13.523243904113769531 13.527872085571289062 13.532728195190429688 13.538394927978515625 13.544119834899902344 13.550780296325683594 13.557482719421386719 13.565201759338378906 13.572690963745117188 13.580977439880371094 13.588881492614746094 13.59764862060546875 13.606038093566894531 13.615401268005371094 13.624405860900878906 13.634600639343261719 13.644604682922363281 13.656101226806640625 13.667408943176269531 13.680456161499023438 13.693320274353027344 13.708220481872558594 13.722934722900390625 13.739835739135742188 13.756371498107910156 13.774974822998046875 13.792469978332519531 13.811602592468261719 13.8295745849609375 13.849262237548828125 13.867829322814941406 13.888209342956542969 13.907511711120605469 13.928746223449707031 13.948938369750976562 13.971169471740722656 13.992318153381347656 14.015421867370605469 14.036865234375 14.057372093200683594 14.071618080139160156 14.084343910217285156 14.092156410217285156 14.0932769775390625 14.085972785949707031 14.067653656005859375 14.040110588073730469 14.002630233764648438 13.966958045959472656 13.928208351135253906 13.887724876403808594 13.842032432556152344 13.798266410827636719 13.750876426696777344 13.705328941345214844 13.655841827392578125 13.608587265014648438 13.557764053344726562 13.5094757080078125 13.457806587219238281 13.408800125122070312 13.356526374816894531 13.306973457336425781 13.254275321960449219 13.204386711120605469 13.151477813720703125 13.10137939453125 13.048337936401367188 12.998090744018554688 12.944974899291992188 12.894622802734375 12.841473579406738281 12.791067123413085938 12.737971305847167969 12.687619209289550781 12.634675979614257812 12.584432601928710938 12.531674385070800781 12.481569290161132812 12.429030418395996094 12.379098892211914062 12.326824188232421875 12.277127265930175781 12.225247383117675781 12.176110267639160156 12.125108718872070312 12.076828956604003906 12.026812553405761719 11.979459762573242188 11.930505752563476562 11.884164810180664062 11.836371421813964844 11.791146278381347656 11.744632720947265625 11.700657844543457031 11.655584335327148438 11.613991737365722656 11.448558807373046875 11.272498130798339844 11.346156120300292969 11.216235160827636719 11.096673011779785156 11.000070571899414062 10.918393135070800781 10.852800369262695312 10.793484687805175781 10.739621162414550781 10.682457923889160156 10.623452186584472656 10.560022354125976562 10.49877166748046875 10.438265800476074219 10.384743690490722656 10.336866378784179688 10.297171592712402344 10.261476516723632812 10.229991912841796875 10.198937416076660156 10.168308258056640625 10.135416030883789062 10.102515220642089844 10.068538665771484375 10.0360260009765625 10.0040283203125 9.974727630615234375 9.9466676712036132812 9.9208850860595703125 9.8957996368408203125 9.872234344482421875 9.848766326904296875 9.8261842727661132812 9.8033170700073242188 9.7809963226318359375 9.7581300735473632812 9.7355070114135742188 9.7122735977172851562 9.6899404525756835938 9.6686105728149414062 9.6499605178833007812 9.6343135833740234375 9.62300872802734375 9.615985870361328125 9.6129913330078125 9.6134233474731445312 9.61667633056640625 9.6223249435424804688 9.629657745361328125 9.6384267807006835938 9.6479558944702148438 9.658054351806640625 9.6680469512939453125 9.6777477264404296875 9.6867399215698242188 9.695178985595703125 9.7029170989990234375 9.7100963592529296875 9.71660614013671875 
13.415263175964355469 13.417075157165527344 13.420792579650878906 13.426539421081542969 13.433966636657714844 13.442837715148925781 13.45276641845703125 13.463623046875 13.475128173828125 13.487248420715332031 13.499791145324707031 13.5127105712890625 13.525859832763671875 13.539190292358398438 13.552595138549804688 13.566003799438476562 13.579339027404785156 13.592438697814941406 13.605257034301757812 13.617699623107910156 13.629704475402832031 13.641176223754882812 13.652291297912597656 13.662904739379882812 13.672574996948242188 13.680853843688964844 13.688784599304199219 13.699010848999023438 13.711488723754882812 13.748416900634765625 13.834583282470703125 13.950651168823242188 14.080556869506835938 14.216714859008789062 14.360219001770019531 14.507248878479003906 14.660961151123046875 14.817815780639648438 14.982184410095214844 15.150111198425292969 15.326036453247070312 15.505192756652832031 15.692513465881347656 15.882623672485351562 16.081144332885742188 16.281847000122070312 16.491189956665039062 16.702417373657226562 16.923021316528320312 17.145542144775390625 17.3784637451171875 17.613664627075195312 17.860631942749023438 18.109453201293945312 18.327848434448242188 18.730493545532226562 18.795825958251953125 18.6655120849609375 18.534633636474609375 18.408916473388671875 18.282011032104492188 18.159765243530273438 18.035900115966796875 17.916601181030273438 17.796453475952148438 17.682559967041015625 17.5687103271484375 17.461217880249023438 17.35427093505859375 17.253734588623046875 17.153284072875976562 17.05846405029296875 16.963182449340820312 16.87299346923828125 16.78205108642578125 16.695859909057617188 16.6085205078125 16.525482177734375 16.441009521484375 16.360628128051757812 16.278690338134765625 16.200916290283203125 16.12176513671875 16.046754837036132812 15.9702301025390625 15.897673606872558594 15.823473930358886719 15.753111839294433594 15.681005477905273438 15.612637519836425781 15.542446136474609375 15.475920677185058594 15.407515525817871094 15.34281158447265625 15.276613235473632812 15.214677810668945312 15.151600837707519531 15.092687606811523438 15.032601356506347656 14.976528167724609375 14.919279098510742188 14.865854263305664062 14.811016082763671875 14.759670257568359375 14.70685577392578125 14.657456398010253906 14.606595039367675781 14.559103965759277344 14.510204315185546875 14.464648246765136719 14.417767524719238281 14.374311447143554688 14.329807281494140625 14.288770675659179688 14.246797561645507812 14.208235740661621094 14.168872833251953125 14.1328582763671875 14.095995903015136719 14.061944961547851562 14.026723861694335938 13.994175910949707031 13.96051788330078125 13.929490089416503906 13.8974151611328125 13.8679351806640625 13.837500572204589844 13.80963134765625 13.780913352966308594 13.754735946655273438 13.7278594970703125 13.70352935791015625 13.678699493408203125 13.6564483642578125 13.634073257446289062 13.614471435546875 13.595128059387207031 13.578542709350585938 13.562584877014160156 13.549409866333007812 13.537380218505859375 13.528207778930664062 13.520765304565429688 13.516002655029296875 13.513116836547851562 13.512598037719726562 13.514538764953613281 13.51837921142578125 13.523592948913574219 13.528903961181640625 13.535070419311523438 13.541263580322265625 13.548445701599121094 13.555633544921875 13.563838005065917969 13.571725845336914062 13.580466270446777344 13.588815689086914062 13.598114013671875 13.607034683227539062 13.617043495178222656 13.626719474792480469 13.637774467468261719 13.648634910583496094 13.661131858825683594 13.673427581787109375 13.687643051147460938 13.701672554016113281 13.717858314514160156 13.733704566955566406 13.7518310546875 13.769395828247070312 13.788744926452636719 13.806924819946289062 13.826852798461914062 13.8456573486328125 13.866314888000488281 13.885898590087890625 13.907470703125 13.928021430969238281 13.950717926025390625 13.972417831420898438 13.996350288391113281 14.019099235534667969 14.043250083923339844 14.062582015991210938 14.077028274536132812 14.085789680480957031 14.087711334228515625 14.080331802368164062 14.060662269592285156 14.03151702880859375 13.994220733642578125 13.957609176635742188 13.913272857666015625 13.868963241577148438 13.820827484130859375 13.775143623352050781 13.725638389587402344 13.678371429443359375 13.627471923828125 13.579176902770996094 13.52747344970703125 13.478522300720214844 13.426290512084960938 13.376863479614257812 13.324242591857910156 13.274444580078125 13.221571922302246094 13.171582221984863281 13.118618011474609375 13.068511962890625 13.015505790710449219 12.96532440185546875 12.912309646606445312 12.862099647521972656 12.809184074401855469 12.7590789794921875 12.706361770629882812 12.656407356262207031 12.603918075561523438 12.55413818359375 12.501896858215332031 12.452315330505371094 12.400369644165039062 12.351050376892089844 12.299468994140625 12.250467300415039062 12.199300765991210938 12.150763511657714844 12.100356101989746094 12.052616119384765625 12.003134727478027344 11.956262588500976562 11.907782554626464844 11.861864089965820312 11.814480781555175781 11.769618034362792969 11.723451614379882812 11.679787635803222656 11.636598587036132812 11.491850852966308594 11.093664169311523438 11.357588768005371094 11.254933357238769531 11.134885787963867188 11.024680137634277344 10.935732841491699219 10.860489845275878906 10.799899101257324219 10.744799613952636719 10.694353103637695312 10.640325546264648438 10.58415985107421875 10.523546218872070312 10.46494293212890625 10.407134056091308594 10.356235504150390625 10.311097145080566406 10.274050712585449219 10.240993499755859375 10.211899757385253906 10.183038711547851562 10.154203414916992188 10.122790336608886719 10.091032028198242188 10.058018684387207031 10.026327133178710938 9.9951381683349609375 9.9666652679443359375 9.9395008087158203125 9.9146137237548828125 9.890438079833984375 9.8677272796630859375 9.8450708389282226562 9.8231916427612304688 9.8009157180786132812 9.7790174484252929688 9.7563905715942382812 9.7337846755981445312 9.7103300094604492188 9.68759918212890625 9.6657609939575195312 9.646595001220703125 9.6304922103881835938 9.6188831329345703125 9.61173248291015625 9.6087656021118164062 9.60935211181640625 9.6128511428833007812 9.6188116073608398438 9.6264867782592773438 9.635623931884765625 9.645526885986328125 9.6560068130493164062 9.6663713455200195312 9.6764326095581054688 9.6857576370239257812 9.6944875717163085938 9.7024583816528320312 9.70980072021484375 9.7163848876953125 
13.460672378540039062 13.463376998901367188 13.468496322631835938 13.475785255432128906 13.4846954345703125 13.49500274658203125 13.506312370300292969 13.518515586853027344 13.531327247619628906 13.544709205627441406 13.558470726013183594 13.57257843017578125 13.586883544921875 13.601330757141113281 13.615797042846679688 13.630206108093261719 13.644494056701660156 13.658557891845703125 13.672337532043457031 13.685697555541992188 13.698536872863769531 13.710687637329101562 13.722243309020996094 13.733257293701171875 13.74378204345703125 13.752760887145996094 13.759754180908203125 13.766901016235351562 13.779576301574707031 13.827503204345703125 13.934152603149414062 14.061649322509765625 14.198357582092285156 14.339731216430664062 14.487444877624511719 14.637981414794921875 14.794617652893066406 14.953920364379882812 15.120232582092285156 15.289517402648925781 15.466137886047363281 15.645412445068359375 15.8324127197265625 16.021852493286132812 16.219329833984375 16.418699264526367188 16.62642669677734375 16.83585357666015625 17.054445266723632812 17.274862289428710938 17.505582809448242188 17.738630294799804688 17.983516693115234375 18.228475570678710938 18.419919967651367188 18.873090744018554688 18.804944992065429688 18.67334747314453125 18.541025161743164062 18.413846969604492188 18.2854461669921875 18.16180419921875 18.037187576293945312 17.918872833251953125 17.800899505615234375 17.689439773559570312 17.578792572021484375 17.474931716918945312 17.371507644653320312 17.27398681640625 17.17627716064453125 17.083820343017578125 16.99072265625 16.90241241455078125 16.813180923461914062 16.728494644165039062 16.642642974853515625 16.5609588623046875 16.477802276611328125 16.398736953735351562 16.318338394165039062 16.24207305908203125 16.16436767578125 16.09062957763671875 16.015314102172851562 15.943827629089355469 15.870649337768554688 15.801189422607421875 15.729943275451660156 15.662334442138671875 15.592865943908691406 15.526988983154296875 15.45937347412109375 15.395700454711914062 15.330563545227050781 15.269368171691894531 15.206870079040527344 15.148377418518066406 15.088603973388671875 15.032715797424316406 14.975544929504394531 14.922151565551757812 14.867447853088378906 14.816231727600097656 14.763463020324707031 14.714032173156738281 14.663049697875976562 14.615350723266601562 14.566129684448242188 14.520189285278320312 14.472931861877441406 14.429111480712890625 14.3841094970703125 14.342466354370117188 14.299713134765625 14.260268211364746094 14.219820022583007812 14.182641983032226562 14.144594192504882812 14.109700202941894531 14.073689460754394531 14.040339469909667969 14.005759239196777344 13.9738006591796875 13.940679550170898438 13.910143852233886719 13.878516197204589844 13.849453926086425781 13.81939697265625 13.791883468627929688 13.763485908508300781 13.737622261047363281 13.711041450500488281 13.687094688415527344 13.662832260131835938 13.641299247741699219 13.619701385498046875 13.600805282592773438 13.582159996032714844 13.566249847412109375 13.551011085510253906 13.538532257080078125 13.527227401733398438 13.518744468688964844 13.512009620666503906 13.507843017578125 13.505620002746582031 13.5058135986328125 13.508623123168945312 13.51312255859375 13.518824577331542969 13.524564743041992188 13.531208992004394531 13.537851333618164062 13.545545578002929688 13.553201675415039062 13.561859130859375 13.570141792297363281 13.579351425170898438 13.588165283203125 13.598028182983398438 13.607517242431640625 13.618226051330566406 13.628648757934570312 13.640628814697265625 13.652390480041503906 13.665955543518066406 13.679324150085449219 13.694756507873535156 13.709933280944824219 13.72733306884765625 13.744374275207519531 13.76372528076171875 13.782103538513183594 13.802249908447265625 13.821270942687988281 13.842177391052246094 13.862010002136230469 13.883874893188476562 13.90473175048828125 13.927809715270996094 13.949945449829101562 13.974498748779296875 13.998095512390136719 14.024051666259765625 14.047855377197265625 14.068378448486328125 14.07928466796875 14.082628250122070312 14.075298309326171875 14.053701400756835938 14.022826194763183594 13.983827590942382812 13.941057205200195312 13.892004966735839844 13.8452911376953125 13.795187950134277344 13.747673988342285156 13.696466445922851562 13.647959709167480469 13.596022605895996094 13.546947479248046875 13.494579315185546875 13.44512176513671875 13.392457962036132812 13.342709541320800781 13.289825439453125 13.239850044250488281 13.186858177185058594 13.136799812316894531 13.083806037902832031 13.033703804016113281 12.980731010437011719 12.930628776550292969 12.877794265747070312 12.827848434448242188 12.7752685546875 12.72551727294921875 12.673209190368652344 12.623669624328613281 12.571644783020019531 12.522336006164550781 12.470638275146484375 12.421622276306152344 12.370306015014648438 12.321605682373046875 12.270682334899902344 12.222315788269042969 12.171816825866699219 12.123862266540527344 12.074017524719238281 12.026789665222167969 11.977816581726074219 11.931406974792480469 11.883381843566894531 11.837873458862304688 11.790891647338867188 11.746388435363769531 11.700651168823242188 11.659917831420898438 11.491990089416503906 10.903881072998046875 11.269184112548828125 11.28749847412109375 11.164736747741699219 11.055308341979980469 10.954871177673339844 10.873563766479492188 10.804362297058105469 10.748172760009765625 10.696576118469238281 10.648913383483886719 10.597562789916992188 10.544047355651855469 10.486255645751953125 10.430410385131835938 10.375429153442382812 10.3271942138671875 10.2846832275390625 10.250036239624023438 10.219274520874023438 10.192223548889160156 10.165246963500976562 10.138019561767578125 10.108031272888183594 10.07749176025390625 10.045619010925292969 10.014983177185058594 9.9848880767822265625 9.957530975341796875 9.9315519332885742188 9.90781402587890625 9.8847608566284179688 9.8630475997924804688 9.841259002685546875 9.8200597763061523438 9.7983112335205078125 9.7767734527587890625 9.75435638427734375 9.7318162918090820312 9.7082967758178710938 9.6854028701782226562 9.6633348464965820312 9.6439142227172851562 9.6275615692138671875 9.615753173828125 9.6084699630737304688 9.6054391860961914062 9.6060342788696289062 9.6096096038818359375 9.6157178878784179688 9.6236057281494140625 9.6330194473266601562 9.6432399749755859375 9.6540784835815429688 9.66481781005859375 9.6752710342407226562 9.68495941162109375 9.6940011978149414062 9.7021770477294921875 9.7095785140991210938 9.716033935546875 
13.501645088195800781 13.505887985229492188 13.512660026550292969 13.521535873413085938 13.531950950622558594 13.543680191040039062 13.556265830993652344 13.569653511047363281 13.583614349365234375 13.598162651062011719 13.613108634948730469 13.628423690795898438 13.643939971923828125 13.6595916748046875 13.675243377685546875 13.690793037414550781 13.706142425537109375 13.721165657043457031 13.735823631286621094 13.750012397766113281 13.763682365417480469 13.776577949523925781 13.788698196411132812 13.799942970275878906 13.810583114624023438 13.820220947265625 13.827348709106445312 13.831939697265625 13.843320846557617188 13.905378341674804688 14.02928924560546875 14.165467262268066406 14.308231353759765625 14.454259872436523438 14.605761528015136719 14.759440422058105469 14.91866302490234375 15.080082893371582031 15.24797821044921875 15.418257713317871094 15.595328330993652344 15.774662017822265625 15.961354255676269531 16.150163650512695312 16.34668731689453125 16.544862747192382812 16.751165390014648438 16.959014892578125 17.175853729248046875 17.394451141357421875 17.623285293579101562 17.8545074462890625 18.097652435302734375 18.334787368774414062 18.606767654418945312 18.934459686279296875 18.8078155517578125 18.675228118896484375 18.54183197021484375 18.413562774658203125 18.284231185913085938 18.160928726196289062 18.03818511962890625 17.922101974487304688 17.806964874267578125 17.699003219604492188 17.591922760009765625 17.49111175537109375 17.390451431274414062 17.2953033447265625 17.199777603149414062 17.109226226806640625 17.017904281616210938 16.931158065795898438 16.843362808227539062 16.759931564331054688 16.675294876098632812 16.59478759765625 16.512973785400390625 16.435306549072265625 16.3562774658203125 16.281223297119140625 16.204662322998046875 16.131937026977539062 16.057588577270507812 15.986956596374511719 15.914595603942871094 15.845859527587890625 15.775307655334472656 15.708312034606933594 15.639460563659667969 15.574346542358398438 15.507729530334472656 15.444973945617675781 15.380685806274414062 15.320155143737792969 15.258115768432617188 15.199931144714355469 15.140383720397949219 15.084615707397460938 15.027476310729980469 14.974027633666992188 14.919219970703125 14.867994308471679688 14.815237998962402344 14.765753746032714844 14.714658737182617188 14.666787147521972656 14.617331504821777344 14.571208000183105469 14.523734092712402344 14.479609489440917969 14.434189796447753906 14.392063140869140625 14.348691940307617188 14.308551788330078125 14.267252922058105469 14.229151725769042969 14.190004348754882812 14.154028892517089844 14.117100715637207031 14.083037376403808594 14.047665596008300781 14.014903068542480469 13.98087310791015625 13.949435234069824219 13.9167938232421875 13.886716842651367188 13.855520248413085938 13.826875686645507812 13.797213554382324219 13.770087242126464844 13.742115020751953125 13.7168426513671875 13.691054344177246094 13.667962074279785156 13.644558906555175781 13.623827934265136719 13.603075027465820312 13.585021018981933594 13.567284584045410156 13.552252769470214844 13.537955284118652344 13.526398658752441406 13.51611328125 13.508636474609375 13.502933502197265625 13.499704360961914062 13.498589515686035156 13.499964714050292969 13.504002571105957031 13.509243965148925781 13.515456199645996094 13.521658897399902344 13.528830528259277344 13.535978317260742188 13.544246673583984375 13.552384376525878906 13.561491966247558594 13.570194244384765625 13.579912185668945312 13.589237213134765625 13.599728584289550781 13.609860420227050781 13.621394157409667969 13.63269805908203125 13.645717620849609375 13.658518791198730469 13.673299789428710938 13.687844276428222656 13.704577445983886719 13.721025466918945312 13.739830970764160156 13.758175849914550781 13.778504371643066406 13.797696113586425781 13.818798065185546875 13.838822364807128906 13.860910415649414062 13.881993293762207031 13.905344963073730469 13.927779197692871094 13.952738761901855469 13.97686004638671875 14.003717422485351562 14.029483795166015625 14.0558624267578125 14.072777748107910156 14.078488349914550781 14.071370124816894531 14.047352790832519531 14.013661384582519531 13.967644691467285156 13.9201202392578125 13.868641853332519531 13.820385932922363281 13.768723487854003906 13.719893455505371094 13.667597770690917969 13.6182861328125 13.565661430358886719 13.516062736511230469 13.4632415771484375 13.413438796997070312 13.36048126220703125 13.310515403747558594 13.25745391845703125 13.207367897033691406 13.154305458068847656 13.104207038879394531 13.051194190979003906 13.001108169555664062 12.948246955871582031 12.898350715637207031 12.845791816711425781 12.796137809753417969 12.743896484375 12.694491386413574219 12.642565727233886719 12.593419075012207031 12.541853904724121094 12.493025779724121094 12.441859245300292969 12.393352508544921875 12.342570304870605469 12.294378280639648438 12.243989944458007812 12.196135520935058594 12.14617919921875 12.098725318908691406 12.049358367919921875 12.002564430236816406 11.954026222229003906 11.908011436462402344 11.860380172729492188 11.815227508544921875 11.768597602844238281 11.724541664123535156 11.680158615112304688 11.313488960266113281 10.899690628051757812 11.050337791442871094 11.304898262023925781 11.19840240478515625 11.086375236511230469 10.986623764038085938 10.894876480102539062 10.820141792297363281 10.755892753601074219 10.703113555908203125 10.654095649719238281 10.608468055725097656 10.559212684631347656 10.507968902587890625 10.452745437622070312 10.399483680725097656 10.347147941589355469 10.301340103149414062 10.261086463928222656 10.228379249572753906 10.19939422607421875 10.173888206481933594 10.1483612060546875 10.122445106506347656 10.093730926513671875 10.064383506774902344 10.033692359924316406 10.004183769226074219 9.9752359390258789062 9.9489946365356445312 9.92413330078125 9.9014339447021484375 9.8793468475341796875 9.858455657958984375 9.8373432159423828125 9.8166408538818359375 9.7952547073364257812 9.7739620208740234375 9.7517185211181640625 9.7293033599853515625 9.705890655517578125 9.683086395263671875 9.6610898971557617188 9.641712188720703125 9.6253728866577148438 9.6135387420654296875 9.606197357177734375 9.6031055450439453125 9.6036462783813476562 9.6072034835815429688 9.6133527755737304688 9.621349334716796875 9.6309442520141601562 9.6414079666137695312 9.6525430679321289062 9.6636190414428710938 9.6744403839111328125 9.6844921112060546875 9.6938323974609375 9.7021780014038085938 9.70955657958984375 9.7157411575317382812 
13.544063568115234375 13.550310134887695312 13.558994293212890625 13.569643974304199219 13.581524848937988281 13.594460487365722656 13.608232498168945312 13.622892379760742188 13.638192176818847656 13.654126167297363281 13.670481681823730469 13.687221527099609375 13.70416259765625 13.721234321594238281 13.738286972045898438 13.755207061767578125 13.771882057189941406 13.788159370422363281 13.803973197937011719 13.819142341613769531 13.833584785461425781 13.847223281860351562 13.860071182250976562 13.871797561645507812 13.882460594177246094 13.892095565795898438 13.899975776672363281 13.903441429138183594 13.911406517028808594 13.991681098937988281 14.130781173706054688 14.275141716003417969 14.424152374267578125 14.575040817260742188 14.730452537536621094 14.887247085571289062 15.04894256591796875 15.212282180786132812 15.381550788879394531 15.552697181701660156 15.730214118957519531 15.909611701965332031 16.09601593017578125 16.284208297729492188 16.479785919189453125 16.676753997802734375 16.881608963012695312 17.087865829467773438 17.302947998046875 17.519735336303710938 17.746717453002929688 17.97617340087890625 18.217660903930664062 18.441518783569335938 18.735235214233398438 18.944416046142578125 18.805578231811523438 18.67217254638671875 18.537914276123046875 18.409389495849609375 18.281484603881835938 18.160528182983398438 18.040557861328125 17.928096771240234375 17.817010879516601562 17.712614059448242188 17.608745574951171875 17.51068878173828125 17.412548065185546875 17.319591522216796875 17.226102828979492188 17.137338638305664062 17.047698974609375 16.9624481201171875 16.876058578491210938 16.793857574462890625 16.710491180419921875 16.631380081176757812 16.5510406494140625 16.47469329833984375 16.396921157836914062 16.322978973388671875 16.247480392456054688 16.175693511962890625 16.102243423461914062 16.032411575317382812 15.9608154296875 15.892759323120117188 15.822858810424804688 15.756500244140625 15.688527107238769531 15.62438201904296875 15.558696746826171875 15.496738433837890625 15.433185577392578125 15.373270988464355469 15.311731338500976562 15.253833770751953125 15.194474220275878906 15.13880157470703125 15.081678390502929688 15.028164863586425781 14.973207473754882812 14.921793937683105469 14.86893463134765625 14.819388389587402344 14.768164634704589844 14.720143318176269531 14.67059326171875 14.624361991882324219 14.576681137084960938 14.532268524169921875 14.486451148986816406 14.443860054016113281 14.3999176025390625 14.359143257141113281 14.317071914672851562 14.27813720703125 14.237998008728027344 14.200972557067871094 14.162861824035644531 14.127835273742675781 14.091642379760742188 14.058094978332519531 14.023177146911621094 13.990847587585449219 13.957213401794433594 13.926154136657714844 13.89385223388671875 13.864111900329589844 13.833223342895507812 13.804902076721191406 13.775675773620605469 13.749162673950195312 13.721940994262695312 13.697394371032714844 13.672315597534179688 13.649904251098632812 13.627223014831542969 13.607214927673339844 13.587215423583984375 13.56988525390625 13.552912712097167969 13.538628578186035156 13.525146484375 13.514407157897949219 13.505045890808105469 13.498470306396484375 13.493677139282226562 13.491349220275878906 13.491354942321777344 13.493930816650390625 13.499056816101074219 13.504824638366699219 13.511515617370605469 13.518175125122070312 13.525868415832519531 13.5335235595703125 13.542349815368652344 13.550913810729980469 13.5604705810546875 13.569620132446289062 13.579885482788085938 13.5897674560546875 13.600953102111816406 13.611812591552734375 13.624287605285644531 13.636545181274414062 13.65067291259765625 13.664590835571289062 13.680607795715332031 13.69640350341796875 13.714558601379394531 13.7323760986328125 13.752642631530761719 13.771993637084960938 13.79326629638671875 13.813456535339355469 13.835732460021972656 13.856999397277832031 13.880567550659179688 13.903227806091308594 13.928479194641113281 13.952953338623046875 13.980375289916992188 14.007094383239746094 14.036653518676757812 14.061895370483398438 14.074382781982421875 14.067795753479003906 14.039473533630371094 13.99700164794921875 13.944258689880371094 13.894229888916015625 13.841187477111816406 13.791645050048828125 13.738701820373535156 13.6889190673828125 13.635820388793945312 13.585901260375976562 13.532751083374023438 13.482748031616210938 13.429574012756347656 13.379502296447753906 13.32631683349609375 13.276179313659667969 13.22298431396484375 13.172823905944824219 13.1197052001953125 13.069580078125 13.016617774963378906 12.966705322265625 12.914105415344238281 12.864491462707519531 12.812264442443847656 12.762946128845214844 12.711079597473144531 12.66205596923828125 12.610585212707519531 12.561914443969726562 12.510870933532714844 12.462536811828613281 12.411883354187011719 12.363859176635742188 12.313581466674804688 12.265867233276367188 12.21598052978515625 12.168605804443359375 12.119154930114746094 12.072180747985839844 12.023281097412109375 11.976911544799804688 11.928797721862792969 11.883172035217285156 11.835927963256835938 11.791131019592285156 11.745314598083496094 11.650393486022949219 11.293665885925292969 10.839448928833007812 10.855089187622070312 11.255632400512695312 11.212954521179199219 11.110808372497558594 11.009555816650390625 10.919338226318359375 10.835995674133300781 10.767475128173828125 10.707770347595214844 10.65802001953125 10.611247062683105469 10.567423820495605469 10.520171165466308594 10.471258163452148438 10.418774604797363281 10.36830902099609375 10.318819999694824219 10.275554656982421875 10.237553596496582031 10.206668853759765625 10.179276466369628906 10.155138015747070312 10.130928993225097656 10.106297492980957031 10.078957557678222656 10.050968170166015625 10.021660804748535156 9.9934473037719726562 9.9657344818115234375 9.94057464599609375 9.9166822433471679688 9.8947935104370117188 9.8733959197998046875 9.8530378341674804688 9.83233642578125 9.8119173049926757812 9.7907361984252929688 9.7696084976196289062 9.7475376129150390625 9.725337982177734375 9.7022218704223632812 9.6797695159912109375 9.6581468582153320312 9.6391172409057617188 9.6230707168579101562 9.6114282608032226562 9.6041784286499023438 9.6010999679565429688 9.6016216278076171875 9.605159759521484375 9.6113233566284179688 9.6194009780883789062 9.629146575927734375 9.6398267745971679688 9.6512470245361328125 9.66266632080078125 9.673885345458984375 9.684337615966796875 9.6940107345581054688 9.7025327682495117188 9.7098407745361328125 9.7156352996826171875 
13.583270072937011719 13.591548919677734375 13.601975440979003906 13.613840103149414062 13.626773834228515625 13.640902519226074219 13.655972480773925781 13.672006607055664062 13.688722610473632812 13.706104278564453125 13.72391510009765625 13.742120742797851562 13.760522842407226562 13.779048919677734375 13.797542572021484375 13.815882682800292969 13.833948135375976562 13.851566314697265625 13.868650436401367188 13.884966850280761719 13.900377273559570312 13.9146728515625 13.928040504455566406 13.940378189086914062 13.951428413391113281 13.960924148559570312 13.969086647033691406 13.972867012023925781 13.977407455444335938 14.076045989990234375 14.22664642333984375 14.377915382385253906 14.532421112060546875 14.687631607055664062 14.846464157104492188 15.005942344665527344 15.169810295104980469 15.334816932678222656 15.505305290222167969 15.677232742309570312 15.855157852172851562 16.034601211547851562 16.220731735229492188 16.408365249633789062 16.603116989135742188 16.799041748046875 17.00261688232421875 17.20743560791015625 17.420927047729492188 17.636106491088867188 17.86145782470703125 18.089391708374023438 18.329408645629882812 18.53656005859375 18.916620254516601562 18.93841552734375 18.799045562744140625 18.66516876220703125 18.53148651123046875 18.405008316040039062 18.279584884643554688 18.161731719970703125 18.045755386352539062 17.9370269775390625 17.829290390014648438 17.727758407592773438 17.626499176025390625 17.530704498291015625 17.43465423583984375 17.343530654907226562 17.2517547607421875 17.16451263427734375 17.076311111450195312 16.99234771728515625 16.907199859619140625 16.826227188110351562 16.744203567504882812 16.666341781616210938 16.587221145629882812 16.511962890625 16.435232162475585938 16.362216949462890625 16.287607192993164062 16.216609954833984375 16.143915176391601562 16.074756622314453125 16.003810882568359375 15.936335563659667969 15.867072105407714844 15.801523208618164062 15.734447479248046875 15.671085357666015625 15.606133460998535156 15.5447998046875 15.481824874877929688 15.422395706176757812 15.361293792724609375 15.30368804931640625 15.244482994079589844 15.188883781433105469 15.131768226623535156 15.078194618225097656 15.023107528686523438 14.971508026123046875 14.918415069580078125 14.868729591369628906 14.817409515380859375 14.769346237182617188 14.719756126403808594 14.673426628112792969 14.625565528869628906 14.58090972900390625 14.534759521484375 14.491776466369628906 14.447346687316894531 14.406048774719238281 14.363347053527832031 14.323733329772949219 14.282789230346679688 14.244915962219238281 14.205813407897949219 14.169769287109375 14.13260650634765625 14.098326683044433594 14.062636375427246094 14.029535293579101562 13.995032310485839844 13.963113784790039062 13.929861068725585938 13.899175643920898438 13.867232322692871094 13.837922096252441406 13.807636260986328125 13.780065536499023438 13.751634597778320312 13.725865364074707031 13.69939422607421875 13.675595283508300781 13.651320457458496094 13.629706382751464844 13.607854843139648438 13.588655471801757812 13.569520950317382812 13.553046226501464844 13.537015914916992188 13.523679733276367188 13.511274337768554688 13.5016326904296875 13.493533134460449219 13.488132476806640625 13.484605789184570312 13.483610153198242188 13.485266685485839844 13.489391326904296875 13.495524406433105469 13.501779556274414062 13.508996963500976562 13.516164779663085938 13.52445220947265625 13.532673835754394531 13.542042732238769531 13.551026344299316406 13.561082839965820312 13.570738792419433594 13.581634521484375 13.59217071533203125 13.604181289672851562 13.615944862365722656 13.629504203796386719 13.642856597900390625 13.658235549926757812 13.673403739929199219 13.690893173217773438 13.708163261413574219 13.727914810180664062 13.747220993041992188 13.768629074096679688 13.788941383361816406 13.811349868774414062 13.832745552062988281 13.856454849243164062 13.879255294799804688 13.90467071533203125 13.929327964782714844 13.957020759582519531 13.984152793884277344 14.014813423156738281 14.0442962646484375 14.068741798400878906 14.064412117004394531 14.025115013122558594 13.974000930786132812 13.918576240539550781 13.867384910583496094 13.813347816467285156 13.762885093688964844 13.709126472473144531 13.658736228942871094 13.605113983154296875 13.554789543151855469 13.501283645629882812 13.4510040283203125 13.397589683532714844 13.347333908081054688 13.293988227844238281 13.243731498718261719 13.190455436706542969 13.140242576599121094 13.087109565734863281 13.037087440490722656 12.984349250793457031 12.934685707092285156 12.882380485534667969 12.833069801330566406 12.781175613403320312 12.732195854187011719 12.680730819702148438 12.632135391235351562 12.581134796142578125 12.532906532287597656 12.4823150634765625 12.4344024658203125 12.384184837341308594 12.336569786071777344 12.286718368530273438 12.239408493041992188 12.189944267272949219 12.142973899841308594 12.093946456909179688 12.0473785400390625 11.998887062072753906 11.952886581420898438 11.905145645141601562 11.859862327575683594 11.81296539306640625 11.769133567810058594 11.675411224365234375 11.1095428466796875 10.838750839233398438 10.734507560729980469 11.128694534301757812 11.226996421813964844 11.12822723388671875 11.035306930541992188 10.943145751953125 10.860807418823242188 10.784306526184082031 10.720794677734375 10.664731979370117188 10.617417335510253906 10.572498321533203125 10.530260086059570312 10.484875679016113281 10.438212394714355469 10.388401031494140625 10.340657234191894531 10.293913841247558594 10.253048896789550781 10.217084884643554688 10.187771797180175781 10.161702156066894531 10.138690948486328125 10.115616798400878906 10.092183113098144531 10.066219329833984375 10.039641380310058594 10.011758804321289062 9.9848184585571289062 9.9581851959228515625 9.9337921142578125 9.9104032516479492188 9.888782501220703125 9.8674955368041992188 9.847141265869140625 9.8263950347900390625 9.8059320449829101562 9.7847452163696289062 9.76367950439453125 9.7417783737182617188 9.7198772430419921875 9.6972198486328125 9.67533111572265625 9.6543426513671875 9.6359281539916992188 9.6204366683959960938 9.6092205047607421875 9.6022586822509765625 9.599353790283203125 9.5999746322631835938 9.603572845458984375 9.6097993850708007812 9.6179666519165039062 9.627849578857421875 9.6387157440185546875 9.6503839492797851562 9.6621112823486328125 9.6737117767333984375 9.6845617294311523438 9.694568634033203125 9.7032642364501953125 9.7104959487915039062 9.7158718109130859375 
13.624169349670410156 13.634347915649414062 13.64591217041015625 13.658941268920898438 13.673238754272460938 13.688866615295410156 13.705510139465332031 13.723179817199707031 13.741559028625488281 13.760621070861816406 13.7801055908203125 13.799979209899902344 13.820037841796875 13.840209007263183594 13.8603363037109375 13.880297660827636719 13.899969100952148438 13.919165611267089844 13.937781333923339844 13.955514907836914062 13.972201347351074219 13.987551689147949219 14.001585960388183594 14.014316558837890625 14.025972366333007812 14.03577423095703125 14.043697357177734375 14.048412322998046875 14.053790092468261719 14.169309616088867188 14.328901290893554688 14.486687660217285156 14.646477699279785156 14.80579376220703125 14.968016624450683594 15.130234718322753906 15.296359062194824219 15.463069915771484375 15.634816169738769531 15.807545661926269531 15.9858856201171875 16.165357589721679688 16.3511810302734375 16.53821563720703125 16.732105255126953125 16.926958084106445312 17.12924957275390625 17.33261871337890625 17.544485092163085938 17.758022308349609375 17.981739044189453125 18.208177566528320312 18.44512939453125 18.660947799682617188 19.06694793701171875 18.927782058715820312 18.788370132446289062 18.655920028686523438 18.524847030639648438 18.401279449462890625 18.279890060424804688 18.166379928588867188 18.054401397705078125 17.949077606201171875 17.844427108764648438 17.745561599731445312 17.646753311157226562 17.5531005859375 17.45904541015625 17.369684219360351562 17.279573440551757812 17.193811416625976562 17.107023239135742188 17.024362564086914062 16.940633773803710938 16.861053466796875 16.78035736083984375 16.703668594360351562 16.625692367553710938 16.551469802856445312 16.475734710693359375 16.403608322143554688 16.329853057861328125 16.25962066650390625 16.187658309936523438 16.1191558837890625 16.048845291137695312 15.982035636901855469 15.91365814208984375 15.848978996276855469 15.782724380493164062 15.720072746276855469 15.655783653259277344 15.5950164794921875 15.532567024230957031 15.473581314086914062 15.412877082824707031 15.35558319091796875 15.296568870544433594 15.241040229797363281 15.183930397033691406 15.130299568176269531 15.075092315673828125 15.023318290710449219 14.969980239868164062 14.920042037963867188 14.868648529052734375 14.820588111877441406 14.770934104919433594 14.724489212036132812 14.676451683044433594 14.631561279296875 14.585091590881347656 14.541737556457519531 14.496842384338378906 14.455038070678710938 14.411741256713867188 14.371496200561523438 14.329805374145507812 14.291148185729980469 14.251129150390625 14.214133262634277344 14.175881385803222656 14.140643119812011719 14.104131698608398438 14.070269584655761719 14.034915924072265625 14.002150535583496094 13.967954635620117188 13.936344146728515625 13.903391838073730469 13.873147964477539062 13.84181976318359375 13.813204765319824219 13.783599853515625 13.756658554077148438 13.7288665771484375 13.703748703002929688 13.677964210510253906 13.654833793640136719 13.631245613098144531 13.610301017761230469 13.589156150817871094 13.570657730102539062 13.552283287048339844 13.536577224731445312 13.521407127380371094 13.508954048156738281 13.497569084167480469 13.488986015319824219 13.482066154479980469 13.477751731872558594 13.475518226623535156 13.475924491882324219 13.479305267333984375 13.484686851501464844 13.491438865661621094 13.498150825500488281 13.505898475646972656 13.513582229614257812 13.5224761962890625 13.531219482421875 13.541056632995605469 13.550479888916015625 13.561082839965820312 13.571300506591796875 13.582903861999511719 13.5941925048828125 13.607161521911621094 13.619939804077148438 13.63466644287109375 13.649195671081542969 13.665955543518066406 13.682566642761230469 13.701702117919921875 13.720529556274414062 13.741900444030761719 13.762316703796386719 13.784827232360839844 13.806311607360839844 13.830112457275390625 13.852990150451660156 13.878482818603515625 13.90320587158203125 13.930971145629882812 13.958199501037597656 13.989098548889160156 14.0197601318359375 14.053177833557128906 14.053213119506835938 13.99901580810546875 13.945073127746582031 13.888715744018554688 13.836904525756835938 13.782138824462890625 13.731028556823730469 13.676711082458496094 13.625888824462890625 13.571882247924804688 13.521256446838378906 13.467481613159179688 13.416993141174316406 13.363394737243652344 13.312993049621582031 13.259521484375 13.209178924560546875 13.155847549438476562 13.10565948486328125 13.052713394165039062 13.002945899963378906 12.950509071350097656 12.901160240173339844 12.849203109741210938 12.800235748291015625 12.748745918273925781 12.700201988220214844 12.649226188659667969 12.601090431213378906 12.550556182861328125 12.502756118774414062 12.452603340148925781 12.405098915100097656 12.355302810668945312 12.308083534240722656 12.25864410400390625 12.211725234985351562 12.162669181823730469 12.116087913513183594 12.067469596862792969 12.021292686462402344 11.973204612731933594 11.927571296691894531 11.880201339721679688 11.835263252258300781 11.790085792541503906 11.753224372863769531 11.233272552490234375 10.84862518310546875 10.722138404846191406 10.92815399169921875 11.222964286804199219 11.136075973510742188 11.046797752380371094 10.962541580200195312 10.878641128540039062 10.803296089172363281 10.732791900634765625 10.673682212829589844 10.620885848999023438 10.575846672058105469 10.532789230346679688 10.4922637939453125 10.448963165283203125 10.404799461364746094 10.357938766479492188 10.313172340393066406 10.269395828247070312 10.231077194213867188 10.197213172912597656 10.169464111328125 10.144675254821777344 10.122759819030761719 10.100834846496582031 10.078701972961425781 10.054309844970703125 10.029364585876464844 10.003099441528320312 9.9775133132934570312 9.9518756866455078125 9.9279575347900390625 9.9045782089233398438 9.8826379776000976562 9.8608179092407226562 9.83988189697265625 9.8186054229736328125 9.7977743148803710938 9.776393890380859375 9.755329132080078125 9.7336435317993164062 9.712177276611328125 9.6901903152465820312 9.669124603271484375 9.6490650177001953125 9.6315746307373046875 9.6169462203979492188 9.6064252853393554688 9.5999927520751953125 9.5974607467651367188 9.5983457565307617188 9.6021299362182617188 9.6085081100463867188 9.6168203353881835938 9.6268701553344726562 9.6379365921020507812 9.6498613357543945312 9.6619110107421875 9.6739139556884765625 9.6851978302001953125 9.6955785751342773438 9.70447540283203125 9.7116250991821289062 9.7165498733520507812 
13.661634445190429688 13.672816276550292969 13.685529708862304688 13.699964523315429688 13.715796470642089844 13.733063697814941406 13.751387596130371094 13.77075958251953125 13.790834426879882812 13.811591148376464844 13.832751274108886719 13.854290962219238281 13.875998497009277344 13.897809982299804688 13.919565200805664062 13.941145896911621094 13.962432861328125 13.983236312866210938 14.003451347351074219 14.022719383239746094 14.040853500366210938 14.057480812072753906 14.072541236877441406 14.085810661315917969 14.097700119018554688 14.108097076416015625 14.116166114807128906 14.12166595458984375 14.134940147399902344 14.261490821838378906 14.42624664306640625 14.589272499084472656 14.753426551818847656 14.916295051574707031 15.081561088562011719 15.246267318725585938 15.414468765258789062 15.58274078369140625 15.755645751953125 15.929105758666992188 16.107822418212890625 16.287303924560546875 16.472818374633789062 16.659273147583007812 16.852344512939453125 17.046190261840820312 17.247282028198242188 17.449316024780273438 17.659709930419921875 17.871746063232421875 18.093984603881835938 18.3191070556640625 18.550951004028320312 18.806568145751953125 19.053476333618164062 18.9147491455078125 18.777368545532226562 18.647571563720703125 18.519788742065429688 18.400455474853515625 18.28333282470703125 18.173460006713867188 18.064756393432617188 17.962253570556640625 17.860181808471679688 17.763563156127929688 17.666837692260742188 17.575021743774414062 17.48268890380859375 17.39485931396484375 17.306200027465820312 17.22174072265625 17.136249542236328125 17.0549163818359375 16.972545623779296875 16.894176483154296875 16.814615249633789062 16.738933563232421875 16.66192626953125 16.588594436645507812 16.513713836669921875 16.442361831665039062 16.36934661865234375 16.29978179931640625 16.22846221923828125 16.1605377197265625 16.090887069702148438 16.024871826171875 15.957315444946289062 15.893352508544921875 15.827773094177246094 15.765703201293945312 15.701958656311035156 15.641659736633300781 15.579644203186035156 15.521019935607910156 15.46063995361328125 15.403611183166503906 15.344807624816894531 15.28936004638671875 15.232257843017578125 15.178585052490234375 15.123281478881835938 15.071363449096679688 15.017827987670898438 14.967724800109863281 14.916196823120117188 14.868083000183105469 14.818362236022949219 14.771800994873046875 14.723597526550292969 14.678502082824707031 14.6317596435546875 14.588088035583496094 14.542799949645996094 14.500563621520996094 14.456753730773925781 14.415976524353027344 14.373663902282714844 14.334353446960449219 14.293574333190917969 14.25579071044921875 14.216628074645996094 14.180459022521972656 14.143014907836914062 14.10843658447265625 14.072336196899414062 14.038829803466796875 14.003805160522460938 13.971380233764648438 13.937577247619628906 13.906524658203125 13.87427520751953125 13.844743728637695312 13.814105033874511719 13.786149978637695312 13.757227897644042969 13.730978965759277344 13.703907966613769531 13.679490089416503906 13.654433250427246094 13.632018089294433594 13.609189033508300781 13.589002609252929688 13.568683624267578125 13.551021575927734375 13.5335845947265625 13.518837928771972656 13.504774093627929688 13.493465423583984375 13.483427047729492188 13.476213455200195312 13.470753669738769531 13.467898368835449219 13.467472076416015625 13.469817161560058594 13.475164413452148438 13.481443405151367188 13.488737106323242188 13.495960235595703125 13.504305839538574219 13.51258087158203125 13.522114753723144531 13.531322479248046875 13.541660308837890625 13.551595687866210938 13.562839508056640625 13.573741912841796875 13.586199760437011719 13.598437309265136719 13.612560272216796875 13.626503944396972656 13.642591476440429688 13.658543586730957031 13.677003860473632812 13.695299148559570312 13.71622467041015625 13.73663330078125 13.759206771850585938 13.780735015869140625 13.804568290710449219 13.827458381652832031 13.852937698364257812 13.877612113952636719 13.905272483825683594 13.932329177856445312 13.962910652160644531 13.993069648742675781 14.025384902954101562 14.022503852844238281 13.968703269958496094 13.915006637573242188 13.858636856079101562 13.806586265563964844 13.751417160034179688 13.699960708618164062 13.64532470703125 13.594242095947265625 13.539997100830078125 13.489179611206054688 13.435233116149902344 13.384607315063476562 13.330883026123046875 13.280383110046386719 13.226831436157226562 13.176449775695800781 13.123199462890625 13.073233604431152344 13.020569801330566406 12.971096992492675781 12.918992996215820312 12.869965553283691406 12.818372726440429688 12.769800186157226562 12.718770980834960938 12.670664787292480469 12.620129585266113281 12.572393417358398438 12.522264480590820312 12.474835395812988281 12.4250640869140625 12.3779144287109375 12.328485488891601562 12.281610488891601562 12.232529640197753906 12.185950279235839844 12.137248992919921875 12.091006278991699219 12.042742729187011719 11.996906280517578125 11.949172019958496094 11.903866767883300781 11.856863975524902344 11.813963890075683594 11.776238441467285156 11.4044036865234375 10.888598442077636719 10.740858078002929688 10.674233436584472656 11.125107765197753906 11.137431144714355469 11.058835983276367188 10.97765350341796875 10.900482177734375 10.8231048583984375 10.753156661987304688 10.687235832214355469 10.631522178649902344 10.58133697509765625 10.538227081298828125 10.496875762939453125 10.458011627197265625 10.416756629943847656 10.375004768371582031 10.330948829650878906 10.288985252380371094 10.2479705810546875 10.211991310119628906 10.180013656616210938 10.153627395629882812 10.129934310913085938 10.108961105346679688 10.08806610107421875 10.067154884338378906 10.044290542602539062 10.020946502685546875 9.9962406158447265625 9.9718990325927734375 9.9470500946044921875 9.923297882080078125 9.8995275497436523438 9.8768310546875 9.8540401458740234375 9.8321409225463867188 9.8100461959838867188 9.7886781692504882812 9.7670345306396484375 9.7459812164306640625 9.7245779037475585938 9.7036466598510742188 9.6824493408203125 9.6623315811157226562 9.6433315277099609375 9.6268863677978515625 9.6132440567016601562 9.6035375595092773438 9.5977420806884765625 9.595676422119140625 9.5969095230102539062 9.6009502410888671875 9.6075344085693359375 9.6160326004028320312 9.6262731552124023438 9.63755035400390625 9.6497259140014648438 9.6620817184448242188 9.6744642257690429688 9.6861515045166015625 9.696880340576171875 9.7059612274169921875 9.713039398193359375 9.7175436019897460938 
13.698996543884277344 13.711447715759277344 13.725755691528320312 13.741990089416503906 13.759724617004394531 13.778933525085449219 13.799184799194335938 13.820475578308105469 13.842448234558105469 13.865098953247070312 13.88813018798828125 13.911524772644042969 13.93506622314453125 13.958697319030761719 13.98226165771484375 14.005644798278808594 14.028733253479003906 14.051341056823730469 14.073346138000488281 14.094381332397460938 14.114295005798339844 14.132623672485351562 14.149157524108886719 14.163507461547851562 14.175792694091796875 14.186449050903320312 14.19539642333984375 14.2021636962890625 14.224817276000976562 14.36248016357421875 14.530634880065917969 14.698022842407226562 14.866173744201660156 15.032481193542480469 15.200794219970703125 15.368076324462890625 15.538495063781738281 15.708453178405761719 15.882581710815429688 16.056787490844726562 16.2358551025390625 16.41527557373046875 16.6003875732421875 16.786169052124023438 16.978343963623046875 17.171106338500976562 17.370906829833984375 17.571521759033203125 17.7803802490234375 17.990869522094726562 18.211589813232421875 18.435384750366210938 18.658174514770507812 18.947019577026367188 19.036729812622070312 18.900585174560546875 18.76630401611328125 18.6405029296875 18.517635345458984375 18.402715682983398438 18.289541244506835938 18.18305206298828125 18.077423095703125 17.97759246826171875 17.877985000610351562 17.78353118896484375 17.688825607299804688 17.5988006591796875 17.508157730102539062 17.421842575073242188 17.334625244140625 17.251531600952148438 17.167510986328125 17.087556838989257812 17.006500244140625 16.929304122924804688 16.850851058959960938 16.776155471801757812 16.700094223022460938 16.627628326416015625 16.553592681884765625 16.482997894287109375 16.410718917846679688 16.341815948486328125 16.271142959594726562 16.203891754150390625 16.135095596313476562 16.069887161254882812 16.003099441528320312 15.939807891845703125 15.874861717224121094 15.8133392333984375 15.750109672546386719 15.690253257751464844 15.628643989562988281 15.5703582763671875 15.510287284851074219 15.453509330749511719 15.394918441772460938 15.339593887329101562 15.282515525817871094 15.228812217712402344 15.173422813415527344 15.121375083923339844 15.067711830139160156 15.017508506774902344 14.965817451477050781 14.91753387451171875 14.867712020874023438 14.821030616760253906 14.772648811340332031 14.727345466613769531 14.68033599853515625 14.636359214782714844 14.590693473815917969 14.548045158386230469 14.503743171691894531 14.4624481201171875 14.419542312622070312 14.379614830017089844 14.338118553161621094 14.299594879150390625 14.259578704833984375 14.222533226013183594 14.184090614318847656 14.148616790771484375 14.111729621887207031 14.077490806579589844 14.041650772094726562 14.008433341979980469 13.973806381225585938 13.941945075988769531 13.908783912658691406 13.8783416748046875 13.846680641174316406 13.817727088928222656 13.787693023681640625 13.760345458984375 13.732028961181640625 13.706370353698730469 13.679901123046875 13.656078338623046875 13.631644248962402344 13.609853744506835938 13.587697029113769531 13.568193435668945312 13.548633575439453125 13.531751632690429688 13.51520538330078125 13.501386642456054688 13.488407135009765625 13.478240013122558594 13.469552040100097656 13.463628768920898438 13.459624290466308594 13.458333015441894531 13.45987701416015625 13.464208602905273438 13.470854759216308594 13.47763824462890625 13.485463142395019531 13.493207931518554688 13.502176284790039062 13.511036872863769531 13.52109527587890625 13.530745506286621094 13.54163360595703125 13.552151679992675781 13.56412506103515625 13.575830459594726562 13.589305877685546875 13.602632522583007812 13.618017196655273438 13.633281707763671875 13.650959014892578125 13.668588638305664062 13.688907623291015625 13.708935737609863281 13.731496810913085938 13.753030776977539062 13.776843070983886719 13.799684524536132812 13.825060844421386719 13.849576950073242188 13.876958847045898438 13.903590202331542969 13.933373451232910156 13.962239265441894531 13.988189697265625 13.980410575866699219 13.933788299560546875 13.881107330322265625 13.825192451477050781 13.773144721984863281 13.717827796936035156 13.666209220886230469 13.61139678955078125 13.560158729553222656 13.505764007568359375 13.454822540283203125 13.400757789611816406 13.350034713745117188 13.296224594116210938 13.245661735534667969 13.192091941833496094 13.141851425170898438 13.088896751403808594 13.039240837097167969 12.986937522888183594 12.937815666198730469 12.8860931396484375 12.83746337890625 12.786350250244140625 12.738253593444824219 12.68770599365234375 12.640030860900878906 12.589926719665527344 12.542582511901855469 12.49285125732421875 12.445787429809570312 12.396392822265625 12.349592208862304688 12.300523757934570312 12.253989219665527344 12.205262184143066406 12.159016609191894531 12.110667228698730469 12.06475830078125 12.016845703125 11.971344947814941406 11.923962593078613281 11.879072189331054688 11.835149765014648438 11.800027847290039062 11.697354316711425781 11.014903068542480469 10.773069381713867188 10.635819435119628906 10.973392486572265625 11.134645462036132812 11.056173324584960938 10.985643386840820312 10.912021636962890625 10.841226577758789062 10.769550323486328125 10.704227447509765625 10.642220497131347656 10.589465141296386719 10.541665077209472656 10.500443458557128906 10.460866928100585938 10.423797607421875 10.38472747802734375 10.345498085021972656 10.3043212890625 10.265199661254882812 10.226953506469726562 10.193288803100585938 10.163150787353515625 10.138068199157714844 10.115406036376953125 10.095322608947753906 10.075432777404785156 10.055759429931640625 10.034478187561035156 10.012799263000488281 9.98969268798828125 9.9665813446044921875 9.9424190521240234375 9.9186258316040039062 9.8941593170166015625 9.870372772216796875 9.8462696075439453125 9.8231296539306640625 9.8000326156616210938 9.778057098388671875 9.7561769485473632812 9.7352342605590820312 9.7142686843872070312 9.6940479278564453125 9.6738252639770507812 9.6548337936401367188 9.6370639801025390625 9.62181854248046875 9.6092939376831054688 9.6005067825317382812 9.5954275131225585938 9.593891143798828125 9.5955181121826171875 9.5998563766479492188 9.6066913604736328125 9.6154279708862304688 9.6259174346923828125 9.6374578475952148438 9.649932861328125 9.6626272201538085938 9.6754026412963867188 9.6874904632568359375 9.6985492706298828125 9.70780181884765625 9.7148008346557617188 9.7188920974731445312 
13.73210906982421875 13.746222496032714844 13.762401580810546875 13.780628204345703125 13.800345420837402344 13.821529388427734375 13.843725204467773438 13.866957664489746094 13.890845298767089844 13.915391921997070312 13.940286636352539062 13.965516090393066406 13.99086761474609375 14.016292572021484375 14.041637420654296875 14.066793441772460938 14.091653823852539062 14.116036415100097656 14.139802932739257812 14.162613868713378906 14.1843414306640625 14.204526901245117188 14.222916603088378906 14.238812446594238281 14.252114295959472656 14.262933731079101562 14.272780418395996094 14.281490325927734375 14.309627532958984375 14.458219528198242188 14.631176948547363281 14.801337242126464844 14.972601890563964844 15.141900062561035156 15.313158988952636719 15.483022689819335938 15.655553817749023438 15.827084541320800781 16.00228118896484375 16.177127838134765625 16.3564605712890625 16.535749435424804688 16.720388412475585938 16.905401229858398438 17.09659576416015625 17.288238525390625 17.486774444580078125 17.686023712158203125 17.893407821655273438 18.102436065673828125 18.321729660034179688 18.544271469116210938 18.755252838134765625 19.083978652954101562 19.020893096923828125 18.887882232666015625 18.758005142211914062 18.63695526123046875 18.5183868408203125 18.407135009765625 18.297271728515625 18.193645477294921875 18.090639114379882812 17.993101119995117188 17.895624160766601562 17.803052902221679688 17.710117340087890625 17.621669769287109375 17.532526016235351562 17.447559356689453125 17.361703872680664062 17.279977798461914062 17.197296142578125 17.118539810180664062 17.038629531860351562 16.962461471557617188 16.88498687744140625 16.811162948608398438 16.73593902587890625 16.66423797607421875 16.59095001220703125 16.521032333374023438 16.449411392211914062 16.381103515625 16.311092376708984375 16.244607925415039062 16.176586151123046875 16.112062454223632812 16.045923233032226562 15.983201980590820312 15.918793678283691406 15.8577423095703125 15.794954299926757812 15.7354736328125 15.674210548400878906 15.61621856689453125 15.556412696838378906 15.499848365783691406 15.441439628601074219 15.386251449584960938 15.329226493835449219 15.275504112243652344 15.220049858093261719 15.16793060302734375 15.114223480224609375 15.063936233520507812 15.0121002197265625 14.963628768920898438 14.913623809814453125 14.866824150085449219 14.818280220031738281 14.772782325744628906 14.725536346435546875 14.681294441223144531 14.635302543640136719 14.5923004150390625 14.547575950622558594 14.505834579467773438 14.462410926818847656 14.421957015991210938 14.379854202270507812 14.340703010559082031 14.299965858459472656 14.262182235717773438 14.22289276123046875 14.186562538146972656 14.148817062377929688 14.113901138305664062 14.077340126037597656 14.043445587158203125 14.008089065551757812 13.975498199462890625 13.941523551940917969 13.910275459289550781 13.877709388732910156 13.847873687744140625 13.816851615905761719 13.788533210754394531 13.759129524230957031 13.732391357421875 13.704699516296386719 13.679662704467773438 13.65384674072265625 13.630681991577148438 13.60695648193359375 13.585887908935546875 13.564531326293945312 13.545850753784179688 13.527225494384765625 13.51131439208984375 13.495897293090820312 13.483259201049804688 13.471685409545898438 13.462988853454589844 13.455949783325195312 13.451623916625976562 13.449575424194335938 13.450395584106445312 13.454498291015625 13.460568428039550781 13.467945098876953125 13.475236892700195312 13.483666419982910156 13.492009162902832031 13.501667976379394531 13.511052131652832031 13.521620750427246094 13.53179931640625 13.543344497680664062 13.554591178894042969 13.567485809326171875 13.580218315124511719 13.594939231872558594 13.609541893005371094 13.626474380493164062 13.643380165100097656 13.663023948669433594 13.6825103759765625 13.704753875732421875 13.726254463195800781 13.749995231628417969 13.77272796630859375 13.797924995422363281 13.822186470031738281 13.849146842956542969 13.875173568725585938 13.90410614013671875 13.93206024169921875 13.949227333068847656 13.9389190673828125 13.899518013000488281 13.847865104675292969 13.792349815368652344 13.740456581115722656 13.685201644897460938 13.633577346801757812 13.578722953796386719 13.527430534362792969 13.472973823547363281 13.421975135803222656 13.367856025695800781 13.317091941833496094 13.26324462890625 13.212689399719238281 13.159322738647460938 13.109384536743164062 13.056776046752929688 13.007470130920410156 12.955539703369140625 12.906782150268554688 12.855496406555175781 12.8073272705078125 12.756697654724121094 12.709028244018554688 12.658904075622558594 12.611605644226074219 12.561882972717285156 12.514883041381835938 12.465502738952636719 12.418763160705566406 12.369700431823730469 12.323209762573242188 12.274462699890136719 12.228229522705078125 12.17981719970703125 12.133870124816894531 12.085831642150878906 12.040220260620117188 11.992621421813964844 11.947421073913574219 11.900528907775878906 11.859111785888671875 11.822920799255371094 11.792624473571777344 11.383634567260742188 10.854516029357910156 10.678125381469726562 10.760122299194335938 11.134222984313964844 11.059037208557128906 10.988041877746582031 10.924214363098144531 10.856682777404785156 10.790879249572753906 10.723567008972167969 10.661739349365234375 10.602707862854003906 10.5522918701171875 10.506498336791992188 10.466971397399902344 10.429076194763183594 10.393721580505371094 10.356685638427734375 10.31972503662109375 10.281081199645996094 10.244418144226074219 10.208539009094238281 10.176830291748046875 10.148226737976074219 10.124215126037597656 10.102393150329589844 10.083041191101074219 10.063997268676757812 10.045393943786621094 10.025504112243652344 10.005282402038574219 9.9835672378540039062 9.9614925384521484375 9.9378423690795898438 9.9138746261596679688 9.88861846923828125 9.8636884689331054688 9.8382749557495117188 9.8139400482177734375 9.7899379730224609375 9.7674989700317382812 9.7455549240112304688 9.7248983383178710938 9.7045269012451171875 9.685131072998046875 9.6659421920776367188 9.6480817794799804688 9.631504058837890625 9.6173915863037109375 9.6058979034423828125 9.5979356765747070312 9.5934801101684570312 9.5923862457275390625 9.5943431854248046875 9.5989360809326171875 9.6060113906860351562 9.6150026321411132812 9.6257810592651367188 9.637630462646484375 9.6504411697387695312 9.6634817123413085938 9.6766138076782226562 9.6890316009521484375 9.700344085693359375 9.70970916748046875 9.7166204452514648438 9.7203693389892578125 
13.764993667602539062 13.781359672546386719 13.799855232238769531 13.820390701293945312 13.842373847961425781 13.865830421447753906 13.890264511108398438 13.915674209594726562 13.94165802001953125 13.968248367309570312 13.995151519775390625 14.022369384765625 14.049689292907714844 14.077076911926269531 14.104382514953613281 14.131508827209472656 14.158355712890625 14.184700965881347656 14.210407257080078125 14.235179901123046875 14.258936882019042969 14.281233787536621094 14.301858901977539062 14.3200531005859375 14.335252761840820312 14.3471221923828125 14.357445716857910156 14.367962837219238281 14.398749351501464844 14.557234764099121094 14.738757133483886719 14.911287307739257812 15.085399627685546875 15.258066177368164062 15.432403564453125 15.604791641235351562 15.779326438903808594 15.952416419982910156 16.128629684448242188 16.3040924072265625 16.483646392822265625 16.662763595581054688 16.846849441528320312 17.030961990356445312 17.2209930419921875 17.411289215087890625 17.60832977294921875 17.806049346923828125 18.01181793212890625 18.219251632690429688 18.436969757080078125 18.657835006713867188 18.90325164794921875 19.126499176025390625 19.00519561767578125 18.877193450927734375 18.752546310424804688 18.635976791381835938 18.521425247192382812 18.413631439208984375 18.306919097900390625 18.2060394287109375 18.105569839477539062 18.010267257690429688 17.914873123168945312 17.82415771484375 17.73297119140625 17.646093368530273438 17.55844879150390625 17.474910736083984375 17.39055633544921875 17.31020355224609375 17.228832244873046875 17.15125274658203125 17.07247161865234375 16.99732208251953125 16.9208221435546875 16.847871780395507812 16.773485183715820312 16.702548980712890625 16.630008697509765625 16.560771942138671875 16.489816665649414062 16.422174453735351562 16.352985382080078125 16.287281036376953125 16.220003128051757812 16.156137466430664062 16.0906219482421875 16.028446197509765625 15.96456146240234375 15.903964996337890625 15.841604232788085938 15.782487869262695312 15.721563339233398438 15.663857460021972656 15.60430908203125 15.547953605651855469 15.489726066589355469 15.4346771240234375 15.377742767333984375 15.324018478393554688 15.268528938293457031 15.216405868530273438 15.162669181823730469 15.112301826477050781 15.060326576232910156 15.0116729736328125 14.961429595947265625 14.914445877075195312 14.8657379150390625 14.820044517517089844 14.772554397583007812 14.728053092956542969 14.681744575500488281 14.638399124145507812 14.593268394470214844 14.551095962524414062 14.507171630859375 14.466203689575195312 14.423518180847167969 14.383769035339355469 14.342344284057617188 14.303857803344726562 14.263765335083007812 14.226618766784667969 14.187951087951660156 14.152227401733398438 14.114934921264648438 14.080384254455566406 14.044298171997070312 14.01097869873046875 13.976181983947753906 13.944128036499023438 13.910669326782226562 13.879956245422363281 13.847950935363769531 13.818665504455566406 13.788182258605957031 13.760387420654296875 13.731501579284667969 13.705281257629394531 13.678124427795410156 13.653630256652832031 13.628392219543457031 13.605820655822753906 13.582745552062988281 13.562350273132324219 13.541752815246582031 13.523865699768066406 13.50615692138671875 13.4912109375 13.476937294006347656 13.465508460998535156 13.455391883850097656 13.448159217834472656 13.442746162414550781 13.440142631530761719 13.440267562866210938 13.443436622619628906 13.449707984924316406 13.456552505493164062 13.464466094970703125 13.472283363342285156 13.481344223022460938 13.490305900573730469 13.500537872314453125 13.510377883911132812 13.521501541137695312 13.53229522705078125 13.544621467590332031 13.556745529174804688 13.570757865905761719 13.584675788879394531 13.600794792175292969 13.616908073425292969 13.635676383972167969 13.654501914978027344 13.6761322021484375 13.697386741638183594 13.72100067138671875 13.743554115295410156 13.768476486206054688 13.792387008666992188 13.818866729736328125 13.844414710998535156 13.872867584228515625 13.898345947265625 13.907217025756835938 13.895634651184082031 13.861670494079589844 13.812215805053710938 13.756982803344726562 13.705236434936523438 13.650086402893066406 13.598525047302246094 13.543707847595214844 13.492432594299316406 13.437983512878417969 13.386986732482910156 13.332866668701171875 13.2820892333984375 13.228282928466796875 13.177980422973632812 13.124990463256835938 13.075434684753417969 13.023247718811035156 12.974337577819824219 12.922850608825683594 12.874569892883300781 12.823823928833007812 12.776142120361328125 12.725988388061523438 12.678738594055175781 12.629030227661132812 12.582105636596679688 12.532757759094238281 12.486101150512695312 12.437069892883300781 12.390652656555175781 12.341920852661132812 12.295740127563476562 12.247313499450683594 12.201382637023925781 12.153285026550292969 12.107637405395507812 12.059912681579589844 12.014601707458496094 11.967317581176757812 11.922749519348144531 11.880463600158691406 11.84664154052734375 11.815241813659667969 11.729252815246582031 10.98554229736328125 10.760296821594238281 10.656741142272949219 11.09949493408203125 11.063547134399414062 10.989329338073730469 10.925038337707519531 10.867062568664550781 10.804747581481933594 10.743160247802734375 10.679508209228515625 10.620629310607910156 10.564179420471191406 10.515904426574707031 10.47208404541015625 10.434326171875 10.398234367370605469 10.364695549011230469 10.329718589782714844 10.294946670532226562 10.258663177490234375 10.224240303039550781 10.190482139587402344 10.1605072021484375 10.1332550048828125 10.110180854797363281 10.089093208312988281 10.0703887939453125 10.052104949951171875 10.034475326538085938 10.015850067138671875 9.9969587326049804688 9.9765005111694335938 9.9553403854370117188 9.9321002960205078125 9.907878875732421875 9.881793975830078125 9.855731964111328125 9.8290643692016601562 9.8036527633666992188 9.7789411544799804688 9.7562847137451171875 9.73456573486328125 9.714481353759765625 9.6949787139892578125 9.6766271591186523438 9.6586256027221679688 9.6419763565063476562 9.6266088485717773438 9.6135950088500976562 9.6030569076538085938 9.5958166122436523438 9.5918607711791992188 9.5910921096801757812 9.5932712554931640625 9.5980501174926757812 9.6053457260131835938 9.6146306991577148438 9.625782012939453125 9.6380405426025390625 9.6512775421142578125 9.6647214889526367188 9.6782131195068359375 9.690906524658203125 9.7023944854736328125 9.7118062973022460938 9.7186040878295898438 9.7220611572265625 
13.794362068176269531 13.813288688659667969 13.834223747253417969 13.857182502746582031 13.881580352783203125 13.907368659973144531 13.933992385864257812 13.961503028869628906 13.989508628845214844 14.018078804016113281 14.0469207763671875 14.076067924499511719 14.105302810668945312 14.134602546691894531 14.163824081420898438 14.192881584167480469 14.221660614013671875 14.249935150146484375 14.277624130249023438 14.304423332214355469 14.330244064331054688 14.354671478271484375 14.377589225769042969 14.398302078247070312 14.416259765625 14.430255889892578125 14.441026687622070312 14.452149391174316406 14.4836273193359375 14.65038299560546875 14.839360237121582031 15.016800880432128906 15.194080352783203125 15.369536399841308594 15.546258926391601562 15.720670700073242188 15.8968048095703125 16.07114410400390625 16.248216629028320312 16.424205780029296875 16.603975296020507812 16.782999038696289062 16.966609954833984375 17.149873733520507812 17.338726043701171875 17.527637481689453125 17.72309112548828125 17.919162750244140625 18.123270034790039062 18.3290252685546875 18.545179367065429688 18.76399993896484375 19.002019882202148438 19.125383377075195312 18.993238449096679688 18.87017822265625 18.749935150146484375 18.63713836669921875 18.525997161865234375 18.42116546630859375 18.317173004150390625 18.218683242797851562 18.120433807373046875 18.027101516723632812 17.933557510375976562 17.844493865966796875 17.754871368408203125 17.669406890869140625 17.583185195922851562 17.501043319702148438 17.418039321899414062 17.338901519775390625 17.258691787719726562 17.182161331176757812 17.1043853759765625 17.030147552490234375 16.954524993896484375 16.882364273071289062 16.80873870849609375 16.738491058349609375 16.666629791259765625 16.598012924194335938 16.527708053588867188 16.460803985595703125 16.392375946044921875 16.327350616455078125 16.260717391967773438 16.197422027587890625 16.132450103759765625 16.0707550048828125 16.007328033447265625 15.947130203247070312 15.885144233703613281 15.826351165771484375 15.765727996826171875 15.70827484130859375 15.648955345153808594 15.592785835266113281 15.534723281860351562 15.479800224304199219 15.422963142395019531 15.369269371032714844 15.313805580139160156 15.261705398559570312 15.207944869995117188 15.157507896423339844 15.105414390563964844 15.05660247802734375 15.006148338317871094 14.958936691284179688 14.910048484802246094 14.8641815185546875 14.816472053527832031 14.771734237670898438 14.725148200988769531 14.681504249572753906 14.636019706726074219 14.593474388122558594 14.549115180969238281 14.507697105407714844 14.464501380920410156 14.424236297607421875 14.382220268249511719 14.343131065368652344 14.302350044250488281 14.264504432678222656 14.225042343139648438 14.188524246215820312 14.150484085083007812 14.115340232849121094 14.078596115112304688 14.044621467590332031 14.009088516235351562 13.976305007934570312 13.942048072814941406 13.910552024841308594 13.877665519714355469 13.847516059875488281 13.816066741943359375 13.787327766418457031 13.757386207580566406 13.730126380920410156 13.701794624328613281 13.676137924194335938 13.649580955505371094 13.625704765319824219 13.601140975952148438 13.579267501831054688 13.556974411010742188 13.537397384643554688 13.51773834228515625 13.500836372375488281 13.484285354614257812 13.470559120178222656 13.457746505737304688 13.447865486145019531 13.439546585083007812 13.434056282043457031 13.430761337280273438 13.430446624755859375 13.433447837829589844 13.439116477966308594 13.446549415588378906 13.453912734985351562 13.462431907653808594 13.470857620239257812 13.480630874633789062 13.490156173706054688 13.500905036926269531 13.511297225952148438 13.523118972778320312 13.53470611572265625 13.548053741455078125 13.561321258544921875 13.576700210571289062 13.592049598693847656 13.609944343566894531 13.627951622009277344 13.648898124694824219 13.669621467590332031 13.693013191223144531 13.715376853942871094 13.740052223205566406 13.763700485229492188 13.789875030517578125 13.8151092529296875 13.843109130859375 13.864314079284667969 13.868032455444335938 13.855609893798828125 13.824634552001953125 13.778061866760253906 13.723082542419433594 13.6714935302734375 13.616463661193847656 13.564985275268554688 13.510235786437988281 13.459010124206542969 13.404600143432617188 13.353629112243652344 13.2995147705078125 13.248790740966796875 13.195284843444824219 13.145358085632324219 13.092791557312011719 13.043642997741699219 12.99188232421875 12.943402290344238281 12.892434120178222656 12.84465789794921875 12.794406890869140625 12.74715423583984375 12.697421073913574219 12.650541305541992188 12.601202011108398438 12.554610252380371094 12.505598068237304688 12.459248542785644531 12.41053009033203125 12.36440277099609375 12.315969467163085938 12.270067214965820312 12.221930503845214844 12.176272392272949219 12.128460884094238281 12.0830841064453125 12.035645484924316406 11.990606307983398438 11.944149017333984375 11.904415130615234375 11.869376182556152344 11.839437484741210938 11.810123443603515625 11.509432792663574219 10.879632949829101562 10.682100296020507812 10.866780281066894531 11.096048355102539062 11.00203704833984375 10.932949066162109375 10.873589515686035156 10.81981658935546875 10.761234283447265625 10.702685356140136719 10.641719818115234375 10.585078239440917969 10.530698776245117188 10.484265327453613281 10.442263603210449219 10.406208992004394531 10.371868133544921875 10.340037345886230469 10.306887626647949219 10.273931503295898438 10.23950958251953125 10.206791877746582031 10.174611091613769531 10.145909309387207031 10.119641304016113281 10.097253799438476562 10.076704978942871094 10.058478355407714844 10.040762901306152344 10.023860931396484375 10.006183624267578125 9.988285064697265625 9.96875762939453125 9.9482631683349609375 9.9252939224243164062 9.9008388519287109375 9.8740901947021484375 9.8471660614013671875 9.81960296630859375 9.7935094833374023438 9.7684946060180664062 9.7460050582885742188 9.7248640060424804688 9.7056398391723632812 9.6872167587280273438 9.67002105712890625 9.6532039642333984375 9.6376667022705078125 9.6233339309692382812 9.6111936569213867188 9.6013574600219726562 9.5945825576782226562 9.5908832550048828125 9.5902233123779296875 9.5924510955810546875 9.5972881317138671875 9.6047391891479492188 9.61431884765625 9.6258907318115234375 9.6386251449584960938 9.6523447036743164062 9.6662082672119140625 9.6800060272216796875 9.6928739547729492188 9.7044153213500976562 9.7137737274169921875 9.7204351425170898438 9.7236919403076171875 
13.823566436767578125 13.845564842224121094 13.869463920593261719 13.895350456237792969 13.922444343566894531 13.950735092163085938 13.979710578918457031 14.009484291076660156 14.039682388305664062 14.070403099060058594 14.101352691650390625 14.1325836181640625 14.163880348205566406 14.195238113403320312 14.226518630981445312 14.257625579833984375 14.288450241088867188 14.318813323974609375 14.348664283752441406 14.377712249755859375 14.405912399291992188 14.432836532592773438 14.45838165283203125 14.481991767883300781 14.503325462341308594 14.520793914794921875 14.533168792724609375 14.54355621337890625 14.579057693481445312 14.749453544616699219 14.9433746337890625 15.129039764404296875 15.310986518859863281 15.488640785217285156 15.666994094848632812 15.842768669128417969 16.020181655883789062 16.19561767578125 16.373640060424804688 16.55019378662109375 16.730283737182617188 16.909311294555664062 17.09256744384765625 17.275104522705078125 17.46282958984375 17.65029144287109375 17.84395599365234375 18.038055419921875 18.240032196044921875 18.4437713623046875 18.658239364624023438 18.872777938842773438 19.141283035278320312 19.110559463500976562 18.983837127685546875 18.865400314331054688 18.749303817749023438 18.6400909423828125 18.532217025756835938 18.43024444580078125 18.328893661499023438 18.232740402221679688 18.136674880981445312 18.0452880859375 17.953582763671875 17.866168975830078125 17.7781219482421875 17.694143295288085938 17.609453201293945312 17.528711318969726562 17.447040557861328125 17.369106292724609375 17.290052413940429688 17.214567184448242188 17.1378021240234375 17.064477920532226562 16.989742279052734375 16.9183807373046875 16.845529556274414062 16.775981903076171875 16.70481109619140625 16.636850357055664062 16.567331314086914062 16.501199722290039062 16.433513641357421875 16.369146347045898438 16.3031463623046875 16.240407943725585938 16.17597198486328125 16.114751815795898438 16.051774978637695312 15.991970062255859375 15.930355072021484375 15.871885299682617188 15.811562538146972656 15.754362106323242188 15.695271492004394531 15.639291763305664062 15.581397056579589844 15.526601791381835938 15.469867706298828125 15.416259765625 15.360869407653808594 15.308795928955078125 15.255014419555664062 15.204512596130371094 15.152308464050292969 15.103346824645996094 15.052689552307128906 15.005242347717285156 14.956110000610351562 14.910061836242675781 14.862134933471679688 14.817157745361328125 14.770295143127441406 14.726360321044921875 14.680530548095703125 14.637622833251953125 14.592843055725097656 14.550988197326660156 14.507291793823242188 14.466524124145507812 14.423938751220703125 14.38426971435546875 14.34282684326171875 14.304311752319335938 14.264086723327636719 14.226800918579101562 14.187939643859863281 14.152124404907226562 14.114714622497558594 14.080082893371582031 14.043809890747070312 14.0102996826171875 13.975237846374511719 13.942956924438476562 13.909193992614746094 13.878180503845214844 13.845767974853515625 13.816084861755371094 13.785094261169433594 13.756808280944824219 13.727320671081542969 13.700525283813476562 13.672679901123046875 13.647530555725097656 13.621520042419433594 13.598215103149414062 13.57428741455078125 13.553084373474121094 13.531557083129882812 13.512788772583007812 13.494076728820800781 13.478178977966308594 13.462828636169433594 13.450381278991699219 13.439122200012207031 13.430841445922851562 13.424321174621582031 13.420724868774414062 13.419825553894042969 13.422122955322265625 13.427956581115722656 13.43483734130859375 13.442833900451660156 13.450726509094238281 13.459883689880371094 13.4689483642578125 13.479308128356933594 13.489304542541503906 13.500632286071777344 13.511685371398925781 13.524370193481445312 13.536947250366210938 13.551554679870605469 13.56613922119140625 13.583119392395019531 13.600229263305664062 13.620271682739257812 13.640349388122558594 13.663264274597167969 13.685445785522460938 13.70989227294921875 13.733297348022460938 13.759177207946777344 13.7841033935546875 13.8111419677734375 13.827292442321777344 13.827655792236328125 13.81447601318359375 13.785162925720214844 13.741601943969726562 13.687069892883300781 13.635652542114257812 13.580766677856445312 13.529394149780273438 13.474736213684082031 13.423579216003417969 13.369223594665527344 13.318277359008789062 13.264240264892578125 13.213848114013671875 13.160805702209472656 13.111339569091796875 13.059263229370117188 13.010569572448730469 12.959329605102539062 12.911403656005859375 12.861019134521484375 12.813745498657226562 12.763979911804199219 12.7171478271484375 12.667828559875488281 12.621316909790039062 12.572345733642578125 12.52608489990234375 12.477408409118652344 12.431365966796875 12.382961273193359375 12.337125778198242188 12.288992881774902344 12.243372917175292969 12.195528984069824219 12.150147438049316406 12.102624893188476562 12.057524681091308594 12.010379791259765625 11.966409683227539062 11.925847053527832031 11.892988204956054688 11.861901283264160156 11.833964347839355469 11.805869102478027344 11.191003799438476562 10.801035881042480469 10.767596244812011719 11.139468193054199219 11.036458969116210938 10.947489738464355469 10.882597923278808594 10.827012062072753906 10.776365280151367188 10.720591545104980469 10.664398193359375 10.605610847473144531 10.550887107849121094 10.498402595520019531 10.453779220581054688 10.413661003112792969 10.379423141479492188 10.346947669982910156 10.316890716552734375 10.285534858703613281 10.254247665405273438 10.22144317626953125 10.190144538879394531 10.159229278564453125 10.131517410278320312 10.10599517822265625 10.084115028381347656 10.063955307006835938 10.046070098876953125 10.028764724731445312 10.012406349182128906 9.9954509735107421875 9.9783163070678710938 9.9595050811767578125 9.9395236968994140625 9.9167585372924804688 9.892116546630859375 9.8648633956909179688 9.8373212814331054688 9.80918121337890625 9.7827596664428710938 9.757831573486328125 9.7358875274658203125 9.7156953811645507812 9.6976499557495117188 9.6805677413940429688 9.664699554443359375 9.6491403579711914062 9.6346960067749023438 9.6213006973266601562 9.6098909378051757812 9.6005725860595703125 9.5940704345703125 9.5904369354248046875 9.589717864990234375 9.5918521881103515625 9.5966558456420898438 9.6042308807373046875 9.6141405105590820312 9.6262073516845703125 9.6395053863525390625 9.6537809371948242188 9.6680850982666015625 9.6821432113647460938 9.695068359375 9.7065143585205078125 9.7156963348388671875 9.7221527099609375 9.72524261474609375 
13.849659919738769531 13.875161170959472656 13.902358055114746094 13.931156158447265625 13.960850715637207031 13.991580963134765625 14.022876739501953125 14.054898262023925781 14.087260246276855469 14.120088577270507812 14.1530914306640625 14.186343193054199219 14.219637870788574219 14.252979278564453125 14.28621673583984375 14.319264411926269531 14.352048873901367188 14.384416580200195312 14.416351318359375 14.447596549987792969 14.478151321411132812 14.507618904113769531 14.535953521728515625 14.562540054321289062 14.587195396423339844 14.608684539794921875 14.624520301818847656 14.634313583374023438 14.676310539245605469 14.845667839050292969 15.043368339538574219 15.235880851745605469 15.42242431640625 15.602265357971191406 15.781563758850097656 15.958224296569824219 16.136707305908203125 16.31314849853515625 16.492086410522460938 16.669300079345703125 16.849775314331054688 17.028921127319335938 17.212003707885742188 17.39398193359375 17.580732345581054688 17.76690673828125 17.958892822265625 18.150846481323242188 18.350383758544921875 18.55193328857421875 18.764738082885742188 18.98476409912109375 19.211215972900390625 19.099531173706054688 18.977392196655273438 18.86289215087890625 18.75035858154296875 18.644245147705078125 18.539218902587890625 18.439754486083984375 18.340732574462890625 18.24665069580078125 18.152532577514648438 18.06288909912109375 17.972837448120117188 17.886919021606445312 17.800355911254882812 17.717815399169921875 17.634511947631835938 17.555017471313476562 17.474546432495117188 17.397695541381835938 17.319684982299804688 17.245145797729492188 17.169298171997070312 17.096807479858398438 17.02288055419921875 16.952251434326171875 16.8801116943359375 16.81121063232421875 16.740688323974609375 16.673429489135742188 16.60466766357421875 16.539218902587890625 16.472188949584960938 16.40840911865234375 16.342967987060546875 16.280727386474609375 16.216770172119140625 16.155973434448242188 16.0933990478515625 16.033948898315429688 15.972669601440429688 15.914491653442382812 15.854440689086914062 15.7974700927734375 15.738590240478515625 15.6827850341796875 15.625044822692871094 15.570370674133300781 15.513743400573730469 15.460262298583984375 15.404958724975585938 15.352910995483398438 15.299117088317871094 15.248564720153808594 15.196265220642089844 15.147175788879394531 15.096343994140625 15.048692703247070312 14.999311447143554688 14.953062057495117188 14.904942512512207031 14.859750747680664062 14.812636375427246094 14.768442153930664062 14.722310066223144531 14.679083824157714844 14.63393402099609375 14.59169769287109375 14.547563552856445312 14.506348609924316406 14.46326446533203125 14.423089981079101562 14.381072998046875 14.341975212097167969 14.301090240478515625 14.263141632080078125 14.223553657531738281 14.187042236328125 14.148982048034667969 14.113753318786621094 14.076812744140625 14.0426483154296875 14.006857872009277344 13.973862648010253906 13.93930816650390625 13.907517433166503906 13.874235153198242188 13.8437042236328125 13.811765670776367188 13.782559394836425781 13.752041816711425781 13.72423553466796875 13.695248603820800781 13.668974876403808594 13.641691207885742188 13.617128372192382812 13.591769218444824219 13.569147109985351562 13.545995712280273438 13.525610923767089844 13.505034446716308594 13.487272262573242188 13.469752311706542969 13.455120086669921875 13.441296577453613281 13.430476188659667969 13.421141624450683594 13.414750099182128906 13.410531997680664062 13.409430503845214844 13.411695480346679688 13.417026519775390625 13.424495697021484375 13.431923866271972656 13.440526008605957031 13.449038505554199219 13.458914756774902344 13.468549728393554688 13.47943878173828125 13.490021705627441406 13.502112388610839844 13.514060020446777344 13.527916908264160156 13.541791915893554688 13.557938575744628906 13.574200630187988281 13.593288421630859375 13.612637519836425781 13.63494110107421875 13.656840324401855469 13.681086540222167969 13.704274177551269531 13.729891777038574219 13.754545211791992188 13.779881477355957031 13.791964530944824219 13.790197372436523438 13.776332855224609375 13.747755050659179688 13.706548690795898438 13.652658462524414062 13.601404190063476562 13.546661376953125 13.495400428771972656 13.440839767456054688 13.389754295349121094 13.335445404052734375 13.284567832946777344 13.230889320373535156 13.180954933166503906 13.128419876098632812 13.079427719116210938 13.027844429016113281 12.979654312133789062 12.929009437561035156 12.881627082824707031 12.831760406494140625 12.784930229187011719 12.735592842102050781 12.689137458801269531 12.640187263488769531 12.594005584716796875 12.5453643798828125 12.499402999877929688 12.451030731201171875 12.40526580810546875 12.357147216796875 12.31157684326171875 12.263719558715820312 12.218356132507324219 12.170780181884765625 12.125653266906738281 12.078398704528808594 12.033558845520019531 11.987807273864746094 11.949693679809570312 11.9155426025390625 11.885945320129394531 11.856730461120605469 11.829863548278808594 11.695775985717773438 10.981761932373046875 10.78034210205078125 11.107557296752929688 11.098379135131835938 10.988645553588867188 10.903834342956542969 10.841992378234863281 10.788874626159667969 10.740184783935546875 10.68622589111328125 10.631648063659667969 10.574462890625 10.521258354187011719 10.470376014709472656 10.427363395690917969 10.388982772827148438 10.356446266174316406 10.325723648071289062 10.297305107116699219 10.267551422119140625 10.2376861572265625 10.206194877624511719 10.175999641418457031 10.14601898193359375 10.118999481201171875 10.093959808349609375 10.072360992431640625 10.052379608154296875 10.034630775451660156 10.01750946044921875 10.001443862915039062 9.9849224090576171875 9.9682722091674804688 9.9499359130859375 9.9303131103515625 9.9077157974243164062 9.8830003738403320312 9.8554868698120117188 9.8276462554931640625 9.799304962158203125 9.7729167938232421875 9.7483997344970703125 9.7272500991821289062 9.7081727981567382812 9.6914043426513671875 9.675685882568359375 9.6610956192016601562 9.6466732025146484375 9.6331472396850585938 9.6204833984375 9.6095914840698242188 9.6005868911743164062 9.5941934585571289062 9.5905008316040039062 9.5896358489990234375 9.5916194915771484375 9.5963611602783203125 9.6040468215942382812 9.6142797470092773438 9.626842498779296875 9.6406927108764648438 9.6554841995239257812 9.6701593399047851562 9.6843547821044921875 9.6971836090087890625 9.708370208740234375 9.7172336578369140625 9.723400115966796875 9.7263231277465820312 
13.8757781982421875 13.905633926391601562 13.936460494995117188 13.968395233154296875 14.00093841552734375 14.034358024597167969 14.068184852600097656 14.102623939514160156 14.13730621337890625 14.172389984130859375 14.207592010498046875 14.243005752563476562 14.278417587280273438 14.3138427734375 14.349149703979492188 14.38427734375 14.419173240661621094 14.453695297241210938 14.487857818603515625 14.5214385986328125 14.554500579833984375 14.586699485778808594 14.618063926696777344 14.648049354553222656 14.676512718200683594 14.70247650146484375 14.723933219909667969 14.735760688781738281 14.779398918151855469 14.951936721801757812 15.152962684631347656 15.348344802856445312 15.537622451782226562 15.719620704650878906 15.900862693786621094 16.078845977783203125 16.258337020874023438 16.435749053955078125 16.615581512451171875 16.793621063232421875 16.974660873413085938 17.154123306274414062 17.337253570556640625 17.51892852783203125 17.70488739013671875 17.8896942138671875 18.079778671264648438 18.269411087036132812 18.466156005859375 18.665014266967773438 18.875913619995117188 19.095682144165039062 19.211040496826171875 19.09051513671875 18.972721099853515625 18.861978530883789062 18.752872467041015625 18.649763107299804688 18.547510147094726562 18.45050048828125 18.353776931762695312 18.261745452880859375 18.169561386108398438 18.081659317016601562 17.993268966674804688 17.908895492553710938 17.823909759521484375 17.742816925048828125 17.660894393920898438 17.58264923095703125 17.503376007080078125 17.4276123046875 17.350652694702148438 17.277069091796875 17.202146530151367188 17.13050079345703125 17.05739593505859375 16.987516403198242188 16.916105270385742188 16.847871780395507812 16.778087615966796875 16.711599349975585938 16.643589019775390625 16.578813552856445312 16.512432098388671875 16.449230194091796875 16.384347915649414062 16.322603225708007812 16.259124755859375 16.198751449584960938 16.1365814208984375 16.077486038208007812 16.016544342041015625 15.958661079406738281 15.898884773254394531 15.842148780822753906 15.783486366271972656 15.727862358093261719 15.670281410217285156 15.615733146667480469 15.559247970581054688 15.505910873413085938 15.450709342956542969 15.398694992065429688 15.344893455505371094 15.294295310974121094 15.241909027099609375 15.192699432373046875 15.141702651977539062 15.0938568115234375 15.044232368469238281 14.997738838195800781 14.949411392211914062 14.904010772705078125 14.856645584106445312 14.812191009521484375 14.765761375427246094 14.722225189208984375 14.676714897155761719 14.634105682373046875 14.589543342590332031 14.547892570495605469 14.504316329956054688 14.463651657104492188 14.421076774597167969 14.381417274475097656 14.339894294738769531 14.301309585571289062 14.261022567749023438 14.223802566528320312 14.184996604919433594 14.149146080017089844 14.111536026000976562 14.076714515686035156 14.040195465087890625 14.006479263305664062 13.971125602722167969 13.938558578491210938 13.904408454895019531 13.873025894165039062 13.84014129638671875 13.810011863708496094 13.778469085693359375 13.749661445617675781 13.719548225402832031 13.692167282104492188 13.663632392883300781 13.637838363647460938 13.611079216003417969 13.587076187133789062 13.562347412109375 13.540398597717285156 13.518024444580078125 13.498470306396484375 13.478876113891601562 13.462162971496582031 13.4459075927734375 13.432630538940429688 13.420466423034667969 13.41136932373046875 13.404005050659179688 13.399702072143554688 13.398135185241699219 13.399934768676757812 13.405528068542480469 13.412438392639160156 13.420500755310058594 13.428462982177734375 13.437707901000976562 13.446870803833007812 13.457316398620605469 13.467436790466308594 13.478947639465332031 13.490266799926757812 13.503355026245117188 13.516460418701171875 13.531759262084960938 13.547150611877441406 13.565232276916503906 13.583638191223144531 13.60521697998046875 13.626618385314941406 13.650638580322265625 13.673609733581542969 13.698966026306152344 13.723347663879394531 13.746156692504882812 13.755122184753417969 13.751674652099609375 13.737079620361328125 13.708786964416503906 13.669317245483398438 13.616305351257324219 13.565216064453125 13.510623931884765625 13.459483146667480469 13.405027389526367188 13.354009628295898438 13.299780845642089844 13.249258995056152344 13.196138381958007812 13.146749496459960938 13.09478759765625 13.04631805419921875 12.99533843994140625 12.947774887084960938 12.897761344909667969 12.850910186767578125 12.801549911499023438 12.755154609680175781 12.706240653991699219 12.66015625 12.611575126647949219 12.565722465515136719 12.517412185668945312 12.471751213073730469 12.423684120178222656 12.378200531005859375 12.330371856689453125 12.285070419311523438 12.237492561340332031 12.192391395568847656 12.145091056823730469 12.100223541259765625 12.053273200988769531 12.010168075561523438 11.971126556396484375 11.939024925231933594 11.908245086669921875 11.880453109741210938 11.852386474609375 11.826223373413085938 11.38071441650390625 10.876436233520507812 11.020199775695800781 11.193646430969238281 11.049597740173339844 10.945403099060058594 10.864526748657226562 10.805163383483886719 10.75376129150390625 10.706341743469238281 10.653653144836425781 10.600338935852050781 10.544531822204589844 10.492730140686035156 10.443403244018554688 10.401994705200195312 10.365363121032714844 10.334549903869628906 10.305601119995117188 10.278837203979492188 10.2506866455078125 10.222226142883300781 10.19200897216796875 10.16284942626953125 10.133708953857421875 10.107257843017578125 10.082539558410644531 10.061041831970214844 10.041028022766113281 10.023200035095214844 10.006030082702636719 9.9900264739990234375 9.9737157821655273438 9.9573612213134765625 9.939365386962890625 9.9200391769409179688 9.8976507186889648438 9.873004913330078125 9.8454809188842773438 9.8176479339599609375 9.7894411087036132812 9.7634153366088867188 9.7395963668823242188 9.7194700241088867188 9.7016839981079101562 9.6862955093383789062 9.6719846725463867188 9.65865325927734375 9.6452932357788085938 9.6325731277465820312 9.6205005645751953125 9.6099843978881835938 9.6011686325073242188 9.5947933197021484375 9.5909910202026367188 9.5899667739868164062 9.5918140411376953125 9.596523284912109375 9.6043539047241210938 9.6149454116821289062 9.6280221939086914062 9.6424150466918945312 9.6576776504516601562 9.6726312637329101562 9.6868133544921875 9.6993427276611328125 9.7100543975830078125 9.7184000015258789062 9.7241220474243164062 9.7268114089965820312 
13.900051116943359375 13.934094429016113281 13.9684295654296875 14.003521919250488281 14.038913726806640625 14.074961662292480469 14.111245155334472656 14.148041725158691406 14.184993743896484375 14.222288131713867188 14.259630203247070312 14.297125816345214844 14.334568023681640625 14.371991157531738281 14.40927886962890625 14.446393966674804688 14.483311653137207031 14.519915580749511719 14.556243896484375 14.592088699340820312 14.627556800842285156 14.66236114501953125 14.696648597717285156 14.72997283935546875 14.762377738952636719 14.792906761169433594 14.820803642272949219 14.838811874389648438 14.878986358642578125 15.061168670654296875 15.262322425842285156 15.454903602600097656 15.644802093505859375 15.828690528869628906 16.011606216430664062 16.191164016723632812 16.372064590454101562 16.550676345825195312 16.731592178344726562 16.9105224609375 17.092344284057617188 17.272291183471679688 17.455654144287109375 17.637241363525390625 17.822687149047851562 18.0064544677734375 18.194913864135742188 18.382413864135742188 18.576442718505859375 18.772308349609375 18.981021881103515625 19.204624176025390625 19.200361251831054688 19.083993911743164062 18.969959259033203125 18.862493515014648438 18.7563934326171875 18.655933380126953125 18.556142807006835938 18.46132659912109375 18.366659164428710938 18.2764739990234375 18.186038970947265625 18.099720001220703125 18.012868881225585938 17.929981231689453125 17.846439361572265625 17.766651153564453125 17.685979843139648438 17.608867645263671875 17.5306854248046875 17.455913543701171875 17.379915237426757812 17.307207107543945312 17.233137130737304688 17.16226959228515625 17.089923858642578125 17.020740509033203125 16.950008392333984375 16.88243865966796875 16.813409805297851562 16.747617721557617188 16.680280685424804688 16.616109848022460938 16.550312042236328125 16.48763275146484375 16.42325592041015625 16.361963272094726562 16.298919677734375 16.23892974853515625 16.177127838134765625 16.118358612060546875 16.057727813720703125 16.00011444091796875 15.940592765808105469 15.884075164794921875 15.825617790222167969 15.770161628723144531 15.712731361389160156 15.658314704895019531 15.601987838745117188 15.548781394958496094 15.493680000305175781 15.441705703735351562 15.387903213500976562 15.337271690368652344 15.284814834594726562 15.235503196716308594 15.184365272521972656 15.1363525390625 15.086518287658691406 15.039792060852050781 14.991242408752441406 14.945654869079589844 14.898065567016601562 14.853375434875488281 14.80667877197265625 14.762865066528320312 14.717036247253417969 14.674098014831542969 14.629158973693847656 14.587121963500976562 14.543107986450195312 14.502005577087402344 14.458941459655761719 14.418787002563476562 14.376703262329101562 14.337565422058105469 14.296662330627441406 14.258818626403808594 14.219304084777832031 14.182821273803710938 14.144593238830566406 14.109175682067871094 14.071990966796875 14.037621498107910156 14.001539230346679688 13.96826171875 13.933325767517089844 13.901172637939453125 13.867428779602050781 13.836462974548339844 13.803988456726074219 13.774278640747070312 13.743155479431152344 13.71478271484375 13.685130119323730469 13.658238410949707031 13.630236625671386719 13.605009078979492188 13.578886032104492188 13.555559158325195312 13.531605720520019531 13.510485649108886719 13.489081382751464844 13.470562934875488281 13.452205657958984375 13.436815261840820312 13.422166824340820312 13.410610198974609375 13.400494575500488281 13.39344024658203125 13.388596534729003906 13.387035369873046875 13.388970375061035156 13.394214630126953125 13.40172576904296875 13.409204483032226562 13.417867660522460938 13.426464080810546875 13.436423301696777344 13.44612884521484375 13.457123756408691406 13.467885971069335938 13.480272293090820312 13.492647171020507812 13.507124900817871094 13.52172088623046875 13.538847923278808594 13.556317329406738281 13.57700347900390625 13.59783935546875 13.621516227722167969 13.644297599792480469 13.669417381286621094 13.693441390991210938 13.713631629943847656 13.720521926879882812 13.715773582458496094 13.700466156005859375 13.672148704528808594 13.633731842041015625 13.581572532653808594 13.530634880065917969 13.476183891296386719 13.4251556396484375 13.370791435241699219 13.319838523864746094 13.265944480895996094 13.215968132019042969 13.163448333740234375 13.114615440368652344 13.063221931457519531 13.015329360961914062 12.965020179748535156 12.918049812316894531 12.868593215942382812 12.822211265563964844 12.7733001708984375 12.727293014526367188 12.678758621215820312 12.633008956909179688 12.584760665893554688 12.539206504821777344 12.491196632385253906 12.445810317993164062 12.398022651672363281 12.3527984619140625 12.305235862731933594 12.260183334350585938 12.212862014770507812 12.168004989624023438 12.120959281921386719 12.076355934143066406 12.03155517578125 11.994839668273925781 11.961396217346191406 11.932130813598632812 11.903059005737304688 11.876276016235351562 11.848897933959960938 11.812914848327636719 11.083220481872558594 10.912592887878417969 11.28826904296875 11.143431663513183594 11.007781028747558594 10.909053802490234375 10.831702232360839844 10.774239540100097656 10.723883628845214844 10.677160263061523438 10.625303268432617188 10.572969436645507812 10.518342971801757812 10.467808723449707031 10.419911384582519531 10.379956245422363281 10.344888687133789062 10.315608978271484375 10.288240432739257812 10.262969017028808594 10.236290931701660156 10.209154129028320312 10.180156707763671875 10.151987075805664062 10.123629570007324219 10.097658157348632812 10.073118209838867188 10.051539421081542969 10.031266212463378906 10.01311492919921875 9.9956417083740234375 9.9794549942016601562 9.963123321533203125 9.9468832015991210938 9.9290990829467773438 9.9100341796875 9.8879241943359375 9.8635320663452148438 9.8362779617309570312 9.808773040771484375 9.7810220718383789062 9.7556133270263671875 9.7326612472534179688 9.7135972976684570312 9.6970376968383789062 9.6828899383544921875 9.6697864532470703125 9.6574831008911132812 9.644939422607421875 9.6327915191650390625 9.6210966110229492188 9.6107873916625976562 9.60205078125 9.595661163330078125 9.5917863845825195312 9.5906858444213867188 9.5925006866455078125 9.5972690582275390625 9.6053037643432617188 9.6162519454956054688 9.6297817230224609375 9.644611358642578125 9.6601972579956054688 9.6752529144287109375 9.689220428466796875 9.7012491226196289062 9.7112827301025390625 9.7189302444458007812 9.7240648269653320312 9.7264184951782226562 
13.925158500671386719 13.963542938232421875 14.001634597778320312 14.040089607238769531 14.078519821166992188 14.117422103881835938 14.156421661376953125 14.195819854736328125 14.235226631164550781 14.274858474731445312 14.314451217651367188 14.354157447814941406 14.393782615661621094 14.433379173278808594 14.4728240966796875 14.512074470520019531 14.551110267639160156 14.589845657348632812 14.62839508056640625 14.666606903076171875 14.704629898071289062 14.742198944091796875 14.779570579528808594 14.816424369812011719 14.853014945983886719 14.888823509216308594 14.924093246459960938 14.952676773071289062 14.991965293884277344 15.184055328369140625 15.379952430725097656 15.567136764526367188 15.755116462707519531 15.940001487731933594 16.124584197998046875 16.305688858032226562 16.488071441650390625 16.668025970458984375 16.850191116333007812 17.030261993408203125 17.21307373046875 17.393854141235351562 17.577793121337890625 17.75968170166015625 17.9451446533203125 18.12850189208984375 18.315900802612304688 18.501567840576171875 18.69281768798828125 18.885026931762695312 19.090585708618164062 19.267805099487304688 19.191324234008789062 19.078939437866210938 18.968526840209960938 18.864240646362304688 18.761072158813476562 18.663211822509765625 18.565847396850585938 18.473199844360351562 18.380578994750976562 18.292236328125 18.203556060791015625 18.11884307861328125 18.033617019653320312 17.952234268188476562 17.8701324462890625 17.79164886474609375 17.7122344970703125 17.636262893676757812 17.559183120727539062 17.485414505004882812 17.410388946533203125 17.338571548461914062 17.265369415283203125 17.195293426513671875 17.123727798461914062 17.055255889892578125 16.985242843627929688 16.918432235717773438 16.850170135498046875 16.785070419311523438 16.718402862548828125 16.654836654663085938 16.58962249755859375 16.5274658203125 16.463598251342773438 16.402761459350585938 16.340154647827148438 16.280553817749023438 16.219127655029296875 16.160688400268554688 16.100374221801757812 16.043035507202148438 15.983774185180664062 15.927484512329101562 15.869236946105957031 15.81395721435546875 15.756686210632324219 15.70243072509765625 15.646271705627441406 15.593194961547851562 15.538197517395019531 15.486276626586914062 15.432481765747070312 15.381822586059570312 15.329301834106445312 15.279897689819335938 15.228626251220703125 15.180455207824707031 15.130421638488769531 15.08347320556640625 15.034671783447265625 14.988884925842285156 14.941076278686523438 14.896151542663574219 14.849186897277832031 14.805102348327636719 14.758960723876953125 14.715699195861816406 14.670391082763671875 14.627978324890136719 14.58353424072265625 14.542001724243164062 14.498457908630371094 14.457820892333984375 14.415192604064941406 14.375517845153808594 14.334013938903808594 14.295558929443359375 14.255347251892089844 14.218179702758789062 14.179286003112792969 14.143266677856445312 14.105413436889648438 14.070387840270996094 14.033572196960449219 13.999579429626464844 13.963850975036621094 13.930927276611328125 13.896323204040527344 13.864518165588378906 13.831111907958984375 13.800495147705078125 13.768364906311035156 13.739009857177734375 13.708251953125 13.680275917053222656 13.651047706604003906 13.624616622924804688 13.597126007080078125 13.572451591491699219 13.54695892333984375 13.52431488037109375 13.501158714294433594 13.48089599609375 13.460516929626464844 13.443101882934570312 13.426084518432617188 13.412137031555175781 13.399270057678222656 13.389562606811523438 13.381602287292480469 13.376863479614257812 13.374979019165039062 13.376672744750976562 13.382337570190429688 13.389295578002929688 13.397395133972167969 13.405413627624511719 13.414729118347167969 13.423960685729980469 13.4344482421875 13.444666862487792969 13.456362724304199219 13.46799468994140625 13.481589317321777344 13.495352745056152344 13.511511802673339844 13.527993202209472656 13.547590255737304688 13.567701339721679688 13.590850830078125 13.613415718078613281 13.638298988342285156 13.661716461181640625 13.679477691650390625 13.684762001037597656 13.678824424743652344 13.662750244140625 13.634190559387207031 13.596352577209472656 13.545011520385742188 13.494225502014160156 13.439916610717773438 13.388998985290527344 13.334717750549316406 13.284032821655273438 13.230783462524414062 13.181446075439453125 13.129598617553710938 13.08136749267578125 13.030655860900878906 12.983465194702148438 12.933852195739746094 12.887457847595214844 12.838542938232421875 12.792620658874511719 12.744152069091796875 12.698529243469238281 12.650371551513671875 12.604955673217773438 12.557040214538574219 12.511785507202148438 12.464079856872558594 12.418971061706542969 12.37146759033203125 12.326505661010742188 12.279213905334472656 12.234415054321289062 12.187359809875488281 12.142751693725585938 12.096056938171386719 12.053960800170898438 12.016215324401855469 11.984743118286132812 11.954266548156738281 11.926651954650878906 11.898665428161621094 11.87256622314453125 11.845674514770507812 11.482517242431640625 10.945750236511230469 11.194995880126953125 11.242994308471679688 11.092588424682617188 10.966571807861328125 10.873905181884765625 10.800221443176269531 10.744503974914550781 10.69490814208984375 10.648642539978027344 10.597506523132324219 10.546166419982910156 10.492815017700195312 10.443659782409667969 10.39727783203125 10.358798027038574219 10.325242996215820312 10.297414779663085938 10.27154541015625 10.247728347778320312 10.222563743591308594 10.196872711181640625 10.169270515441894531 10.142269134521484375 10.114830970764160156 10.089392662048339844 10.06496429443359375 10.043124198913574219 10.022332191467285156 10.003564834594726562 9.9854793548583984375 9.9688463211059570312 9.9522800445556640625 9.9360218048095703125 9.9184007644653320312 9.8996362686157226562 9.8779516220092773438 9.85406494140625 9.82741546630859375 9.80059051513671875 9.7736444473266601562 9.749134063720703125 9.72722625732421875 9.7092771530151367188 9.6938915252685546875 9.6808557510375976562 9.6687707901000976562 9.6572818756103515625 9.6453275680541992188 9.6335420608520507812 9.6220445632934570312 9.6118173599243164062 9.6031026840209960938 9.5967226028442382812 9.5928869247436523438 9.59186553955078125 9.5938234329223632812 9.5988092422485351562 9.60715484619140625 9.6184902191162109375 9.6324291229248046875 9.6475858688354492188 9.6633234024047851562 9.6782617568969726562 9.6917581558227539062 9.703006744384765625 9.7120752334594726562 9.7187566757202148438 9.7230682373046875 9.7249097824096679688 
13.948835372924804688 13.991420745849609375 14.033091545104980469 14.074782371520996094 14.116244316101074219 14.157962799072265625 14.199444770812988281 14.241085052490234375 14.2826080322265625 14.324337005615234375 14.366029739379882812 14.407866477966308594 14.449655532836914062 14.491460800170898438 14.533160209655761719 14.574709892272949219 14.616063117980957031 14.657076835632324219 14.697828292846679688 14.738219261169433594 14.778582572937011719 14.818769454956054688 14.859083175659179688 14.899283409118652344 14.9398956298828125 14.980966567993164062 15.023598670959472656 15.064234733581542969 15.118663787841796875 15.305180549621582031 15.492344856262207031 15.674628257751464844 15.859582901000976562 16.043415069580078125 16.228984832763671875 16.4114990234375 16.595157623291015625 16.776311874389648438 16.959642410278320312 17.140817642211914062 17.32471466064453125 17.506467819213867188 17.691293716430664062 17.873899459838867188 18.059886932373046875 18.243543624877929688 18.430891036987304688 18.61580657958984375 18.805080413818359375 18.993520736694335938 19.200056076049804688 19.292058944702148438 19.184476852416992188 19.075582504272460938 18.968364715576171875 18.8668975830078125 18.7663421630859375 18.670812606811523438 18.575632095336914062 18.48494720458984375 18.394182205200195312 18.30751800537109375 18.220447540283203125 18.13726806640625 18.053548812866210938 17.97353363037109375 17.892740249633789062 17.815448760986328125 17.7371826171875 17.662260055541992188 17.586193084716796875 17.513349533081054688 17.4392242431640625 17.36823272705078125 17.295833587646484375 17.226495742797851562 17.1556549072265625 17.087856292724609375 17.018575668334960938 16.952487945556640625 16.884923934936523438 16.820451736450195312 16.754396438598632812 16.691379547119140625 16.626697540283203125 16.565023422241210938 16.501623153686523438 16.441204071044921875 16.378999710083007812 16.319757461547851562 16.258678436279296875 16.2005462646484375 16.140527725219726562 16.083444595336914062 16.024427413940429688 15.968352317810058594 15.910302162170410156 15.855190277099609375 15.798081398010253906 15.743993759155273438 15.687989234924316406 15.635031700134277344 15.580129623413085938 15.528268814086914062 15.474489212036132812 15.423811912536621094 15.371240615844726562 15.321759223937988281 15.270376205444335938 15.222069740295410156 15.171862602233886719 15.124722480773925781 15.075688362121582031 15.029696464538574219 14.981688499450683594 14.936554908752441406 14.889347076416015625 14.845017433166503906 14.798595428466796875 14.755046844482421875 14.709409713745117188 14.666661262512207031 14.621836662292480469 14.57991790771484375 14.53594207763671875 14.494877815246582031 14.4517669677734375 14.411617279052734375 14.369574546813964844 14.330575942993164062 14.289744377136230469 14.251953125 14.212392807006835938 14.175806045532226562 14.137340545654296875 14.101714134216308594 14.064229965209960938 14.029582023620605469 13.993124961853027344 13.959497451782226562 13.92411041259765625 13.89154052734375 13.8572845458984375 13.825841903686523438 13.792792320251464844 13.762547492980957031 13.730790138244628906 13.701836585998535156 13.671507835388183594 13.643995285034179688 13.615281105041503906 13.589403152465820312 13.562540054321289062 13.538541793823242188 13.513833999633789062 13.492033004760742188 13.469876289367675781 13.450688362121582031 13.431603431701660156 13.415579795837402344 13.400269508361816406 13.388157844543457031 13.377470970153808594 13.369982719421386719 13.364809989929199219 13.36312103271484375 13.3651580810546875 13.370614051818847656 13.378168106079101562 13.38567352294921875 13.394375801086425781 13.403039932250976562 13.413031578063964844 13.422762870788574219 13.433848381042480469 13.444810867309570312 13.457577705383300781 13.470515251159667969 13.485773086547851562 13.501322746276855469 13.519850730895996094 13.539044380187988281 13.561594009399414062 13.5838470458984375 13.6085205078125 13.631182670593261719 13.6470794677734375 13.651185035705566406 13.644229888916015625 13.627408027648925781 13.598443031311035156 13.560791969299316406 13.510044097900390625 13.4593963623046875 13.405213356018066406 13.354379653930664062 13.300293922424316406 13.250200271606445312 13.197651863098144531 13.1489715576171875 13.097782135009765625 13.050195693969726562 13.000235557556152344 12.953708648681640625 12.9047088623046875 12.858822822570800781 12.810389518737792969 12.764878273010253906 12.716806411743164062 12.671529769897460938 12.623713493347167969 12.578601837158203125 12.5309906005859375 12.486011505126953125 12.438584327697753906 12.393731117248535156 12.346490859985351562 12.3017730712890625 12.254734039306640625 12.210171699523925781 12.163363456726074219 12.119077682495117188 12.0753173828125 12.039777755737304688 12.006931304931640625 11.977992057800292969 11.949094772338867188 11.922437667846679688 11.895119667053222656 11.869460105895996094 11.779356002807617188 11.123699188232421875 11.074398040771484375 11.350677490234375 11.18297576904296875 11.045110702514648438 10.92885589599609375 10.842196464538574219 10.772004127502441406 10.717818260192871094 10.668766975402832031 10.622824668884277344 10.572384834289550781 10.522088050842285156 10.470088005065917969 10.422371864318847656 10.377491950988769531 10.340366363525390625 10.30810546875 10.281463623046875 10.256823539733886719 10.234238624572753906 10.210453987121582031 10.186188697814941406 10.160044670104980469 10.134309768676757812 10.107892036437988281 10.08303070068359375 10.058672904968261719 10.036454200744628906 10.014958381652832031 9.9953708648681640625 9.9764556884765625 9.959186553955078125 9.9422369003295898438 9.9258642196655273438 9.9083709716796875 9.8899478912353515625 9.8688116073608398438 9.8456268310546875 9.8198394775390625 9.7939596176147460938 9.7680501937866210938 9.7445859909057617188 9.72374725341796875 9.7068080902099609375 9.692378997802734375 9.6801700592041015625 9.6687831878662109375 9.65779876708984375 9.6461553573608398438 9.6345109939575195312 9.623050689697265625 9.6128149032592773438 9.6041088104248046875 9.597812652587890625 9.5941629409790039062 9.5934057235717773438 9.5956945419311523438 9.6010427474975585938 9.6097736358642578125 9.6214742660522460938 9.6357069015502929688 9.6510162353515625 9.66669464111328125 9.6812992095947265625 9.6941194534301757812 9.7044095993041992188 9.7123613357543945312 9.7179403305053710938 9.7213068008422851562 9.72252655029296875 
13.973488807678222656 14.020459175109863281 14.065970420837402344 14.111146926879882812 14.155483245849609375 14.199604988098144531 14.24332427978515625 14.287194252014160156 14.330953598022460938 14.37494659423828125 14.418920516967773438 14.463070869445800781 14.507201194763183594 14.551390647888183594 14.595523834228515625 14.639573097229003906 14.68350982666015625 14.727198600769042969 14.770697593688964844 14.813785552978515625 14.856699943542480469 14.899463653564453125 14.9427337646484375 14.986394882202148438 15.031259536743164062 15.077679634094238281 15.127522468566894531 15.181781768798828125 15.267014503479003906 15.430553436279296875 15.60813140869140625 15.7866058349609375 15.968614578247070312 16.150564193725585938 16.335201263427734375 16.51831817626953125 16.703317642211914062 16.885799407958984375 17.070375442504882812 17.252687454223632812 17.437646865844726562 17.620386123657226562 17.806142807006835938 17.989593505859375 18.176366806030273438 18.3607025146484375 18.548631668090820312 18.733942031860351562 18.923065185546875 19.109430313110351562 19.29454803466796875 19.290668487548828125 19.178874969482421875 19.073366165161132812 18.969268798828125 18.870563507080078125 18.772586822509765625 18.679361343383789062 18.586351394653320312 18.497621536254882812 18.408712387084960938 18.323736190795898438 18.238336563110351562 18.156728744506835938 18.074514389038085938 17.995866775512695312 17.916391372680664062 17.840297698974609375 17.76319122314453125 17.689327239990234375 17.614290237426757812 17.542387008666992188 17.469179153442382812 17.399026870727539062 17.327449798583984375 17.258867263793945312 17.18877410888671875 17.121702194213867188 17.05321502685546875 16.987848281860351562 16.92098236083984375 16.857143402099609375 16.791700363159179688 16.729236602783203125 16.66509246826171875 16.603906631469726562 16.540979385375976562 16.480981826782226562 16.419187545776367188 16.36031341552734375 16.299587249755859375 16.241771697998046875 16.182050704956054688 16.125232696533203125 16.066473007202148438 16.010616302490234375 15.9527740478515625 15.897837638854980469 15.840914726257324219 15.787004470825195312 15.731156349182128906 15.678318977355957031 15.623517036437988281 15.571722030639648438 15.51796722412109375 15.467279434204101562 15.414666175842285156 15.365114212036132812 15.313629150390625 15.265194892883300781 15.214825630187988281 15.167500495910644531 15.118243217468261719 15.072026252746582031 15.023814201354980469 14.978474617004394531 14.931026458740234375 14.88645172119140625 14.839754104614257812 14.795922279357910156 14.74996185302734375 14.706883430480957031 14.661684989929199219 14.619388580322265625 14.574986457824707031 14.533501625061035156 14.489917755126953125 14.449301719665527344 14.40673065185546875 14.367197036743164062 14.325757980346679688 14.287355422973632812 14.247106552124023438 14.209903717041015625 14.17081451416015625 14.134583473205566406 14.096426010131835938 14.061120033264160156 14.023930549621582031 13.989592552185058594 13.953418731689453125 13.920083999633789062 13.884973526000976562 13.852702140808105469 13.818731307983398438 13.787594795227050781 13.754842758178710938 13.724918365478515625 13.6934967041015625 13.664915084838867188 13.634991645812988281 13.607927322387695312 13.579714775085449219 13.55438995361328125 13.528163909912109375 13.504862785339355469 13.480978012084960938 13.460070610046386719 13.438992500305175781 13.420971870422363281 13.403319358825683594 13.388848304748535156 13.375459671020507812 13.365330696105957031 13.357023239135742188 13.352128982543945312 13.350297927856445312 13.352308273315429688 13.358340263366699219 13.365328788757324219 13.373430252075195312 13.38147735595703125 13.390840530395507812 13.400075912475585938 13.410561561584472656 13.420872688293457031 13.432806968688964844 13.444874763488769531 13.459163665771484375 13.473772048950195312 13.491168022155761719 13.509267807006835938 13.531002044677734375 13.55280303955078125 13.577244758605957031 13.599040031433105469 13.6134490966796875 13.616562843322753906 13.608635902404785156 13.5910186767578125 13.561458587646484375 13.523716926574707031 13.473345756530761719 13.422831535339355469 13.368761062622070312 13.318044662475585938 13.264551162719726562 13.215203285217285156 13.1634521484375 13.115471839904785156 13.065035820007324219 13.018230438232421875 12.969058036804199219 12.9231719970703125 12.874765396118164062 12.829375267028808594 12.781413078308105469 12.736306190490722656 12.688628196716308594 12.643695831298828125 12.596221923828125 12.55141448974609375 12.504110336303710938 12.459409713745117188 12.412265777587890625 12.367672920227050781 12.320700645446777344 12.276231765747070312 12.229452133178710938 12.185133934020996094 12.1387786865234375 12.097747802734375 12.061059951782226562 12.030139923095703125 11.999965667724609375 11.972556114196777344 11.944687843322753906 11.918690681457519531 11.891852378845214844 11.866518020629882812 11.339808464050292969 10.983477592468261719 11.413231849670410156 11.273486137390136719 11.121872901916503906 10.997318267822265625 10.891301155090332031 10.810824394226074219 10.744097709655761719 10.691311836242675781 10.642667770385742188 10.596999168395996094 10.547351837158203125 10.498291969299316406 10.447890281677246094 10.401826858520507812 10.358583450317382812 10.32281494140625 10.291717529296875 10.2660675048828125 10.242426872253417969 10.220892906188964844 10.198392868041992188 10.175569534301757812 10.150983810424804688 10.126649856567382812 10.101381301879882812 10.077180862426757812 10.052891731262207031 10.030210494995117188 10.007871627807617188 9.9872894287109375 9.96736907958984375 9.9493122100830078125 9.9318628311157226562 9.9153146743774414062 9.89794921875 9.8799266815185546875 9.8594751358032226562 9.83719635009765625 9.812526702880859375 9.78784942626953125 9.7632169723510742188 9.7409687042236328125 9.7212686538696289062 9.7053012847900390625 9.69170379638671875 9.68015289306640625 9.6692638397216796875 9.6586027145385742188 9.6471185684204101562 9.6355152130126953125 9.6240415573120117188 9.6138019561767578125 9.6051645278930664062 9.5990695953369140625 9.5957689285278320312 9.5954570770263671875 9.598247528076171875 9.604084014892578125 9.6132535934448242188 9.6252832412719726562 9.6396951675415039062 9.6549854278564453125 9.670406341552734375 9.6844730377197265625 9.6964321136474609375 9.7056131362915039062 9.7123193740844726562 9.7166986465454101562 9.7190465927124023438 9.719593048095703125 
13.997326850891113281 14.048234939575195312 14.097281455993652344 14.145063400268554688 14.191626548767089844 14.23796844482421875 14.283915519714355469 14.330056190490722656 14.376103401184082031 14.422403335571289062 14.468680381774902344 14.515138626098632812 14.561575889587402344 14.608086585998535156 14.654561996459960938 14.700997352600097656 14.747391700744628906 14.793646812438964844 14.839856147766113281 14.885802268981933594 14.93167877197265625 14.977246284484863281 15.023194313049316406 15.069993019104003906 15.118709564208984375 15.169794082641601562 15.225478172302246094 15.29238128662109375 15.404448509216308594 15.545969963073730469 15.715718269348144531 15.8917236328125 16.07189178466796875 16.25203704833984375 16.435466766357421875 16.617992401123046875 16.80323028564453125 16.986644744873046875 17.172330856323242188 17.35561370849609375 17.541406631469726562 17.724836349487304688 17.911184310913085938 18.095121383666992188 18.282293319702148438 18.466920852661132812 18.655015945434570312 18.840299606323242188 19.029016494750976562 19.214033126831054688 19.356496810913085938 19.283201217651367188 19.174835205078125 19.072343826293945312 18.971036911010742188 18.87481689453125 18.779165267944335938 18.688030242919921875 18.596994400024414062 18.510049819946289062 18.42284393310546875 18.339447021484375 18.255620956420898438 18.175449371337890625 18.094615936279296875 18.017221450805664062 17.938955307006835938 17.8639678955078125 17.787931442260742188 17.715045928955078125 17.640964508056640625 17.569936752319335938 17.49758148193359375 17.428213119506835938 17.357404708862304688 17.289531707763671875 17.220151901245117188 17.153810501098632812 17.086057662963867188 17.021356582641601562 16.95513153076171875 16.891872406005859375 16.826992034912109375 16.76503753662109375 16.701395034790039062 16.640659332275390625 16.578168869018554688 16.518566131591796875 16.4571533203125 16.398622512817382812 16.338228225708007812 16.280706405639648438 16.2212677001953125 16.164701461791992188 16.106180191040039062 16.050533294677734375 15.992887496948242188 15.938124656677246094 15.881392478942871094 15.827647209167480469 15.771944046020507812 15.719220161437988281 15.66451263427734375 15.612783432006835938 15.559060096740722656 15.508370399475097656 15.455725669860839844 15.406118392944335938 15.354546546936035156 15.306005477905273438 15.255495071411132812 15.208011627197265625 15.158559799194335938 15.112133026123046875 15.063718795776367188 15.018194198608398438 14.970529556274414062 14.925731658935546875 14.878783226013183594 14.834697723388671875 14.788447380065917969 14.745074272155761719 14.6995391845703125 14.656904220581054688 14.612119674682617188 14.570253372192382812 14.526247978210449219 14.485212326049804688 14.442164421081542969 14.402150154113769531 14.360163688659667969 14.3212127685546875 14.280343055725097656 14.242536544799804688 14.202852249145507812 14.166064262390136719 14.127287864685058594 14.091376304626464844 14.053515434265136719 14.018521308898925781 13.981624603271484375 13.947587966918945312 13.911696434020996094 13.878664970397949219 13.843851089477539062 13.811894416809082031 13.778235435485839844 13.747427940368652344 13.715013504028320312 13.68546295166015625 13.654444694519042969 13.626309394836425781 13.596882820129394531 13.570364952087402344 13.542778968811035156 13.518136024475097656 13.492710113525390625 13.47027587890625 13.447429656982421875 13.427646636962890625 13.40793609619140625 13.39139556884765625 13.375575065612792969 13.363070487976074219 13.352017402648925781 13.344332695007324219 13.33914947509765625 13.337694168090820312 13.340305328369140625 13.346179962158203125 13.353735923767089844 13.361232757568359375 13.369940757751464844 13.378631591796875 13.388573646545410156 13.398303031921386719 13.409494400024414062 13.420749664306640625 13.43408203125 13.44779205322265625 13.4641265869140625 13.481153488159179688 13.501836776733398438 13.52310943603515625 13.547251701354980469 13.568277359008789062 13.581636428833007812 13.583966255187988281 13.575184822082519531 13.556789398193359375 13.526511192321777344 13.488446235656738281 13.438191413879394531 13.387791633605957031 13.333813667297363281 13.283495903015136719 13.230814933776855469 13.18224334716796875 13.131266593933105469 13.083995819091796875 13.034396171569824219 12.988351821899414062 12.93987274169921875 12.894550323486328125 12.846671104431152344 12.801722526550292969 12.754184722900390625 12.709442138671875 12.662121772766113281 12.617503166198730469 12.570342063903808594 12.525815010070800781 12.478793144226074219 12.434350013732910156 12.387470245361328125 12.343119621276855469 12.296397209167480469 12.252161979675292969 12.205626487731933594 12.161724090576171875 12.119029998779296875 12.084461212158203125 12.052144050598144531 12.023530960083007812 11.994833946228027344 11.968334197998046875 11.941113471984863281 11.915548324584960938 11.889035224914550781 11.628225326538085938 11.010479927062988281 11.316778182983398438 11.351884841918945312 11.203770637512207031 11.067026138305664062 10.954617500305175781 10.857808113098144531 10.782759666442871094 10.718944549560546875 10.667216300964355469 10.618793487548828125 10.573359489440917969 10.524560928344726562 10.476853370666503906 10.428175926208496094 10.383846282958984375 10.342233657836914062 10.307682991027832031 10.2774810791015625 10.252482414245605469 10.229456901550292969 10.208612442016601562 10.187078475952148438 10.165471076965332031 10.142289161682128906 10.119267463684082031 10.095107078552246094 10.071560859680175781 10.047358512878417969 10.024245262145996094 10.001097679138183594 9.9795598983764648438 9.9586620330810546875 9.9398336410522460938 9.9218950271606445312 9.9051694869995117188 9.8879289627075195312 9.8703184127807617188 9.8505840301513671875 9.82926177978515625 9.8057804107666015625 9.7823657989501953125 9.7590427398681640625 9.7379980087280273438 9.7193593978881835938 9.7042207717895507812 9.6912717819213867188 9.68018341064453125 9.6696176528930664062 9.659149169921875 9.647769927978515625 9.6362133026123046875 9.624786376953125 9.6146392822265625 9.6061992645263671875 9.6004343032836914062 9.5976123809814453125 9.5978527069091796875 9.6012144088745117188 9.607563018798828125 9.6171274185180664062 9.6293706893920898438 9.6437940597534179688 9.6588897705078125 9.67388916015625 9.6873140335083007812 9.6983900070190429688 9.7065258026123046875 9.7121171951293945312 9.7154560089111328125 9.7169437408447265625 9.7169446945190429688 
14.0233612060546875 14.077161788940429688 14.128558158874511719 14.178785324096679688 14.227823257446289062 14.276706695556640625 14.325224876403808594 14.373941421508789062 14.422530174255371094 14.471353530883789062 14.520127296447753906 14.569074630737304688 14.617995262145996094 14.666996002197265625 14.715974807739257812 14.764936447143554688 14.81389617919921875 14.86277008056640625 14.911707878112792969 14.960566520690917969 15.009598731994628906 15.058535575866699219 15.107839584350585938 15.157667160034179688 15.209814071655273438 15.265149116516113281 15.325631141662597656 15.4016265869140625 15.523233413696289062 15.659358978271484375 15.824660301208496094 15.998622894287109375 16.17752838134765625 16.356775283813476562 16.539434432983398438 16.72139739990234375 16.9062347412109375 17.0894775390625 17.27532958984375 17.459070205688476562 17.645395278930664062 17.82927703857421875 18.015933990478515625 18.199993133544921875 18.387065887451171875 18.57131195068359375 18.7586517333984375 18.942752838134765625 19.12984466552734375 19.311817169189453125 19.379190444946289062 19.276828765869140625 19.171800613403320312 19.072265625 18.973705291748046875 18.879941940307617188 18.78659820556640625 18.697542190551757812 18.608478546142578125 18.523321151733398438 18.437841415405273438 18.356081008911132812 18.273836135864257812 18.195104598999023438 18.115650177001953125 18.039520263671875 17.962472915649414062 17.88860321044921875 17.813650131225585938 17.74176025390625 17.668645858764648438 17.5985107421875 17.527027130126953125 17.458459854125976562 17.38843536376953125 17.321292877197265625 17.252689361572265625 17.187108993530273438 17.120096206665039062 17.056062698364257812 16.990482330322265625 16.927808761596679688 16.863498687744140625 16.80206298828125 16.738925933837890625 16.678647994995117188 16.616603851318359375 16.557401657104492188 16.496379852294921875 16.438199996948242188 16.378143310546875 16.3209228515625 16.261777877807617188 16.205472946166992188 16.147199630737304688 16.091770172119140625 16.034328460693359375 15.979756355285644531 15.923227310180664062 15.869648933410644531 15.814093589782714844 15.761487007141113281 15.706878662109375 15.655219078063964844 15.601536750793457031 15.550850868225097656 15.4981842041015625 15.448529243469238281 15.396880149841308594 15.348238945007324219 15.297596931457519531 15.24996185302734375 15.200325965881347656 15.153697013854980469 15.10506439208984375 15.059354782104492188 15.011478424072265625 14.966457366943359375 14.919260978698730469 14.874924659729003906 14.828387260437011719 14.784723281860351562 14.738860130310058594 14.695891380310058594 14.650731086730957031 14.608488082885742188 14.56406402587890625 14.522615432739257812 14.479096412658691406 14.438607215881347656 14.396082878112792969 14.356591224670410156 14.315110206604003906 14.276694297790527344 14.236370086669921875 14.199014663696289062 14.159615516662597656 14.123095512390136719 14.084559440612792969 14.048906326293945312 14.011280059814453125 13.976538658142089844 13.939863204956054688 13.906069755554199219 13.870408058166503906 13.8376312255859375 13.803057670593261719 13.771368026733398438 13.737965583801269531 13.707449913024902344 13.67534637451171875 13.646150588989257812 13.615522384643554688 13.587826728820800781 13.558900833129882812 13.532938957214355469 13.506003379821777344 13.482077598571777344 13.457509040832519531 13.436014175415039062 13.414311408996582031 13.395775794982910156 13.3776092529296875 13.362752914428710938 13.3490142822265625 13.338654518127441406 13.330271720886230469 13.325529098510742188 13.324176788330078125 13.326964378356933594 13.333476066589355469 13.340433120727539062 13.348492622375488281 13.356536865234375 13.365874290466308594 13.375032424926757812 13.385499954223632812 13.395951271057128906 13.408286094665527344 13.4210205078125 13.436270713806152344 13.452164649963378906 13.471593856811523438 13.492114067077636719 13.515817642211914062 13.536175727844238281 13.548764228820800781 13.550408363342285156 13.540792465209960938 13.52155303955078125 13.49039459228515625 13.451753616333007812 13.401394844055175781 13.351083755493164062 13.297353744506835938 13.247836112976074219 13.196087837219238281 13.148351669311523438 13.098210334777832031 13.05179595947265625 13.003104209899902344 12.957792282104492188 12.909979820251464844 12.865204811096191406 12.817838668823242188 12.773324966430664062 12.726204872131347656 12.681824684143066406 12.634859085083007812 12.590556144714355469 12.54370880126953125 12.499464988708496094 12.452729225158691406 12.408548355102539062 12.361936569213867188 12.317833900451660156 12.271368980407714844 12.227374076843261719 12.181414604187011719 12.141430854797363281 12.105626106262207031 12.0752105712890625 12.045344352722167969 12.018160820007324219 11.990441322326660156 11.964579582214355469 11.937829017639160156 11.912587165832519531 11.812371253967285156 11.139328956604003906 11.071627616882324219 11.427773475646972656 11.2715911865234375 11.138018608093261719 11.015386581420898438 10.914281845092773438 10.82585906982421875 10.755588531494140625 10.694169998168945312 10.643167495727539062 10.594794273376464844 10.549602508544921875 10.501829147338867188 10.455738067626953125 10.409090995788574219 10.366742134094238281 10.326894760131835938 10.29351806640625 10.263994216918945312 10.239319801330566406 10.216515541076660156 10.195977210998535156 10.175074577331542969 10.154449462890625 10.132518768310546875 10.110733985900878906 10.087665557861328125 10.064794540405273438 10.040732383728027344 10.017253875732421875 9.9933757781982421875 9.9709568023681640625 9.9491529464721679688 9.9296083450317382812 9.9112148284912109375 9.8943414688110351562 9.8772554397583007812 9.8600893020629882812 9.84111785888671875 9.8208217620849609375 9.7986049652099609375 9.77652740478515625 9.7545680999755859375 9.7347421646118164062 9.717128753662109375 9.7027387619018554688 9.69033050537109375 9.6796007156372070312 9.669281005859375 9.6589918136596679688 9.6477756500244140625 9.6363992691040039062 9.6252040863037109375 9.6153554916381835938 9.6073236465454101562 9.602085113525390625 9.5999059677124023438 9.6008138656616210938 9.6048126220703125 9.6116724014282226562 9.6215562820434570312 9.6338663101196289062 9.6481084823608398438 9.6628065109252929688 9.6772089004516601562 9.689884185791015625 9.7000732421875 9.7072649002075195312 9.7119169235229492188 9.7144327163696289062 9.7152948379516601562 9.7149591445922851562 
14.049098014831542969 14.104022979736328125 14.157046318054199219 14.209552764892578125 14.261227607727050781 14.312808036804199219 14.363945960998535156 14.415235519409179688 14.466343879699707031 14.517661094665527344 14.56890106201171875 14.620305061340332031 14.671672821044921875 14.723125457763671875 14.774567604064941406 14.826014518737792969 14.877489089965820312 14.92891693115234375 14.980459213256835938 15.031984329223632812 15.083855628967285156 15.135933876037597656 15.188642501831054688 15.241769790649414062 15.296817779541015625 15.355069160461425781 15.41896820068359375 15.49651336669921875 15.609263420104980469 15.759431838989257812 15.92529296875 16.097927093505859375 16.276277542114257812 16.455486297607421875 16.638065338134765625 16.819776535034179688 17.004299163818359375 17.187236785888671875 17.372814178466796875 17.5563201904296875 17.742483139038085938 17.926250457763671875 18.112787246704101562 18.296657562255859375 18.483428955078125 18.667261123657226562 18.854093551635742188 19.037628173828125 19.2241058349609375 19.39873504638671875 19.375461578369140625 19.27194976806640625 19.169916152954101562 19.073047637939453125 18.9769744873046875 18.88544464111328125 18.7942047119140625 18.707052230834960938 18.6197967529296875 18.53629302978515625 18.452444076538085938 18.372198104858398438 18.29140472412109375 18.21399688720703125 18.135820388793945312 18.060857772827148438 17.9849395751953125 17.912105560302734375 17.838159561157226562 17.767198562622070312 17.694988250732421875 17.6256866455078125 17.555019378662109375 17.487201690673828125 17.417919158935546875 17.351484298706054688 17.28363800048828125 17.218761444091796875 17.152433395385742188 17.089015960693359375 17.024034500122070312 16.961902618408203125 16.898122787475585938 16.837169647216796875 16.774505615234375 16.714654922485351562 16.653026580810546875 16.59420013427734375 16.53354644775390625 16.475696563720703125 16.41596221923828125 16.359025955200195312 16.300159454345703125 16.244098663330078125 16.186061859130859375 16.130838394165039062 16.073596954345703125 16.01921844482421875 15.962878227233886719 15.909457206726074219 15.85404205322265625 15.801547050476074219 15.747033119201660156 15.695441246032714844 15.641804695129394531 15.591131210327148438 15.538451194763183594 15.488759040832519531 15.437047004699707031 15.388321876525878906 15.337568283081054688 15.289803504943847656 15.240004539489746094 15.19319915771484375 15.144361495971679688 15.098475456237792969 15.05040740966796875 15.00518798828125 14.957762718200683594 14.913198471069335938 14.866402626037597656 14.822476387023925781 14.776314735412597656 14.733046531677246094 14.687546730041503906 14.644962310791015625 14.600159645080566406 14.5583343505859375 14.514388084411621094 14.473468780517578125 14.430456161499023438 14.390477180480957031 14.348443031311035156 14.309474945068359375 14.268537521362304688 14.2306365966796875 14.190660476684570312 14.1535797119140625 14.114419937133789062 14.078160285949707031 14.039857864379882812 14.004465103149414062 13.967068672180175781 13.932574272155761719 13.896132469177246094 13.862599372863769531 13.827184677124023438 13.794683456420898438 13.7603759765625 13.728980064392089844 13.695885658264160156 13.665721893310546875 13.634001731872558594 13.605237007141113281 13.575097084045410156 13.547944068908691406 13.519647598266601562 13.494379997253417969 13.468267440795898438 13.445242881774902344 13.421764373779296875 13.401456832885742188 13.381214141845703125 13.364270210266113281 13.348090171813964844 13.335347175598144531 13.32415008544921875 13.316533088684082031 13.311705589294433594 13.310914039611816406 13.314583778381347656 13.320830345153808594 13.32830810546875 13.335749626159667969 13.344419479370117188 13.353036880493164062 13.36285400390625 13.372589111328125 13.383996963500976562 13.395768165588378906 13.409970283508300781 13.424795150756835938 13.442968368530273438 13.462487220764160156 13.485668182373046875 13.505522727966308594 13.517632484436035156 13.518732070922851562 13.508356094360351562 13.488266944885253906 13.456147193908691406 13.416739463806152344 13.366078376770019531 13.315852165222167969 13.262796401977539062 13.214186668395996094 13.163378715515136719 13.116445541381835938 13.067209243774414062 13.021677017211914062 12.973793983459472656 12.929125785827636719 12.881903648376464844 12.837615966796875 12.79071044921875 12.746587753295898438 12.699847221374511719 12.655797004699707031 12.609157562255859375 12.565143585205078125 12.518588066101074219 12.474605560302734375 12.428137779235839844 12.384199142456054688 12.337839126586914062 12.293970108032226562 12.247748374938964844 12.204285621643066406 12.162600517272949219 12.128858566284179688 12.097028732299804688 12.06874847412109375 12.040270805358886719 12.013957023620605469 11.986865043640136719 11.96142578125 11.934996604919433594 11.90998077392578125 11.488435745239257812 10.991654396057128906 11.430344581604003906 11.348986625671386719 11.206034660339355469 11.084601402282714844 10.973276138305664062 10.880913734436035156 10.798732757568359375 10.731806755065917969 10.671841621398925781 10.621079444885253906 10.572571754455566406 10.527638435363769531 10.481008529663085938 10.436693191528320312 10.392229080200195312 10.351955413818359375 10.3138580322265625 10.281497955322265625 10.252338409423828125 10.227585792541503906 10.204511642456054688 10.183787345886230469 10.163020133972167969 10.142942428588867188 10.121888160705566406 10.101061820983886719 10.078896522521972656 10.056640625 10.032780647277832031 10.009108543395996094 9.9847459793090820312 9.9617176055908203125 9.9392766952514648438 9.919231414794921875 9.9005384445190429688 9.8835992813110351562 9.8666973114013671875 9.849956512451171875 9.83168792724609375 9.8123273849487304688 9.7912578582763671875 9.7703838348388671875 9.7496318817138671875 9.7308635711669921875 9.7141046524047851562 9.7003011703491210938 9.6882867813110351562 9.6778202056884765625 9.6677198410034179688 9.6576633453369140625 9.6467676162719726562 9.6358003616333007812 9.6251087188720703125 9.61583709716796875 9.6084642410278320312 9.60393524169921875 9.60250091552734375 9.6041040420532226562 9.6086969375610351562 9.6159610748291015625 9.6260013580322265625 9.6381750106811523438 9.6520204544067382812 9.6661443710327148438 9.679843902587890625 9.69178009033203125 9.7012434005737304688 9.7077875137329101562 9.7119045257568359375 9.7140359878540039062 9.7147006988525390625 9.7143888473510742188 
14.07526397705078125 14.131292343139648438 14.186013221740722656 14.240792274475097656 14.29506683349609375 14.349442481994628906 14.403402328491210938 14.45748138427734375 14.5113067626953125 14.565295219421386719 14.619162559509277344 14.673184394836425781 14.72716522216796875 14.781248092651367188 14.835338592529296875 14.889456748962402344 14.9436187744140625 14.9977569580078125 15.052060127258300781 15.106406211853027344 15.161150932312011719 15.216150283813476562 15.272110939025878906 15.328906059265136719 15.387030601501464844 15.446979522705078125 15.51293182373046875 15.585240364074707031 15.683352470397949219 15.855473518371582031 16.025476455688476562 16.19850921630859375 16.3772735595703125 16.556760787963867188 16.739528656005859375 16.921321868896484375 17.10577392578125 17.288530349731445312 17.473871231079101562 17.657133102416992188 17.843046188354492188 18.026563644409179688 18.21283721923828125 18.396429061889648438 18.582887649536132812 18.766361236572265625 18.95276641845703125 19.135839462280273438 19.321836471557617188 19.448209762573242188 19.368326187133789062 19.267986297607421875 19.168893814086914062 19.074655532836914062 18.981044769287109375 18.891733169555664062 18.80258941650390625 18.71733856201171875 18.63189697265625 18.550079345703125 18.467891693115234375 18.389163970947265625 18.309825897216796875 18.2337493896484375 18.156856536865234375 18.083070755004882812 18.008295059204101562 17.936510086059570312 17.863588333129882812 17.793567657470703125 17.722278594970703125 17.653825759887695312 17.58399200439453125 17.51694488525390625 17.44842529296875 17.382747650146484375 17.31568145751953125 17.251514434814453125 17.18587493896484375 17.123079299926757812 17.0587005615234375 16.997117996215820312 16.933877944946289062 16.873416900634765625 16.8112335205078125 16.751817703247070312 16.690614700317382812 16.632173538208007812 16.571897506713867188 16.514385223388671875 16.45497894287109375 16.39833831787109375 16.339757919311523438 16.283952713012695312 16.226161956787109375 16.171154022216796875 16.114122390747070312 16.059949874877929688 16.003803253173828125 15.950543403625488281 15.895273208618164062 15.842894554138183594 15.788478851318359375 15.736960411071777344 15.683375358581542969 15.632721900939941406 15.580037117004394531 15.530315399169921875 15.478548049926757812 15.429747581481933594 15.378889083862304688 15.33100128173828125 15.281050682067871094 15.234076499938964844 15.185037612915039062 15.138965606689453125 15.090707778930664062 15.045291900634765625 14.997640609741210938 14.952849388122558594 14.905798912048339844 14.861614227294921875 14.815159797668457031 14.771595001220703125 14.72576141357421875 14.682842254638671875 14.637663841247558594 14.595464706420898438 14.55109405517578125 14.509748458862304688 14.466254234313964844 14.425792694091796875 14.383213043212890625 14.343699455261230469 14.30214691162109375 14.263669013977050781 14.22310638427734375 14.185459136962890625 14.145672798156738281 14.10880279541015625 14.06982421875 14.033772468566894531 13.995650291442871094 13.960453987121582031 13.923228263854980469 13.888937950134277344 13.852680206298828125 13.819361686706542969 13.784147262573242188 13.751873970031738281 13.717791557312011719 13.686666488647460938 13.653861045837402344 13.624036788940429688 13.592696189880371094 13.564366340637207031 13.534728050231933594 13.508139610290527344 13.480513572692871094 13.455990791320800781 13.430780410766601562 13.408749580383300781 13.386496543884277344 13.367534637451171875 13.34897613525390625 13.333875656127929688 13.319957733154296875 13.309581756591796875 13.301440238952636719 13.297217369079589844 13.296858787536621094 13.300836563110351562 13.307616233825683594 13.3144683837890625 13.322429656982421875 13.330412864685058594 13.3395843505859375 13.348620414733886719 13.359120368957519531 13.369894981384277344 13.382954597473144531 13.396688461303710938 13.4135284423828125 13.431787490844726562 13.454242706298828125 13.473695755004882812 13.485539436340332031 13.486178398132324219 13.475035667419433594 13.453998565673828125 13.420742034912109375 13.380351066589355469 13.3291778564453125 13.279307365417480469 13.22730255126953125 13.179703712463378906 13.129876136779785156 13.08385467529296875 13.0356597900390625 12.990996360778808594 12.94388580322265625 12.899837493896484375 12.853186607360839844 12.809373855590820312 12.762920379638671875 12.71918487548828125 12.672820091247558594 12.629098892211914062 12.582785606384277344 12.539063453674316406 12.492800712585449219 12.449084281921386719 12.402887344360351562 12.35919952392578125 12.313096046447753906 12.269467353820800781 12.223970413208007812 12.184938430786132812 12.149892807006835938 12.119948387145996094 12.090397834777832031 12.063463211059570312 12.035921096801757812 12.010221481323242188 11.983587265014648438 11.958465576171875 11.932281494140625 11.74092864990234375 11.075659751892089844 11.319087982177734375 11.422777175903320312 11.282727241516113281 11.151909828186035156 11.040723800659179688 10.938287734985351562 10.852356910705566406 10.774418830871582031 10.709443092346191406 10.649982452392578125 10.598943710327148438 10.550099372863769531 10.505469322204589844 10.460204124450683594 10.417962074279785156 10.376008033752441406 10.338057518005371094 10.301829338073730469 10.2704010009765625 10.2413177490234375 10.216063499450683594 10.192195892333984375 10.170744895935058594 10.149582862854003906 10.129610061645507812 10.109056472778320312 10.088921546936035156 10.067502975463867188 10.045825958251953125 10.022271156311035156 9.9986019134521484375 9.974033355712890625 9.9506940841674804688 9.9279155731201171875 9.9076147079467773438 9.8887987136840820312 9.8719081878662109375 9.855243682861328125 9.8389368057250976562 9.8213434219360351562 9.8028554916381835938 9.7828464508056640625 9.7630701065063476562 9.7434091567993164062 9.7255754470825195312 9.7095422744750976562 9.6962099075317382812 9.684505462646484375 9.6742763519287109375 9.664440155029296875 9.65476226806640625 9.6444454193115234375 9.6342229843139648438 9.6244220733642578125 9.6161041259765625 9.6097354888916015625 9.6061687469482421875 9.6056346893310546875 9.6079864501953125 9.6131381988525390625 9.6206960678100585938 9.6307086944580078125 9.64251708984375 9.6557159423828125 9.6690464019775390625 9.6819086074829101562 9.6931009292602539062 9.7020053863525390625 9.708232879638671875 9.712261199951171875 9.7145099639892578125 9.7154760360717773438 9.7156238555908203125 
14.099273681640625 14.157010078430175781 14.213652610778808594 14.270517349243164062 14.327062606811523438 14.383915901184082031 14.440442085266113281 14.49712371826171875 14.553529739379882812 14.610080718994140625 14.666482925415039062 14.723034858703613281 14.779550552368164062 14.836197853088378906 14.892896652221679688 14.949687004089355469 15.006598472595214844 15.06352996826171875 15.120615005493164062 15.17768096923828125 15.235177040100097656 15.293015480041503906 15.351869583129882812 15.411455154418945312 15.472158432006835938 15.533591270446777344 15.599410057067871094 15.663116455078125 15.756978988647460938 15.940804481506347656 16.117092132568359375 16.2927093505859375 16.472597122192382812 16.652683258056640625 16.835819244384765625 17.017765045166015625 17.202245712280273438 17.384952545166015625 17.570178985595703125 17.753278732299804688 17.938991546630859375 18.122285842895507812 18.3083038330078125 18.491617202758789062 18.677762985229492188 18.860904693603515625 19.046972274780273438 19.229761123657226562 19.42066192626953125 19.463710784912109375 19.362644195556640625 19.265171051025390625 19.168745040893554688 19.076900482177734375 18.985540390014648438 18.89826202392578125 18.811046600341796875 18.727548599243164062 18.643796920776367188 18.563570022583007812 18.482915878295898438 18.40558624267578125 18.327596664428710938 18.252752304077148438 18.177051544189453125 18.10436248779296875 18.030652999877929688 17.959848403930664062 17.887882232666015625 17.818742752075195312 17.748319625854492188 17.6806640625 17.611612319946289062 17.545291900634765625 17.477512359619140625 17.412570953369140625 17.346227645874023438 17.282718658447265625 17.21772003173828125 17.1555023193359375 17.091688156127929688 17.030620574951171875 16.967885971069335938 16.907886505126953125 16.84615325927734375 16.787145614624023438 16.726343154907226562 16.668268203735351562 16.60834503173828125 16.551153182983398438 16.492059707641601562 16.435699462890625 16.377391815185546875 16.32183074951171875 16.264272689819335938 16.209470748901367188 16.152650833129882812 16.098674774169921875 16.0427093505859375 15.989603042602539062 15.934470176696777344 15.882204055786132812 15.827883720397949219 15.776436805725097656 15.722907066345214844 15.672277450561523438 15.619594573974609375 15.569853782653808594 15.51804351806640625 15.469180107116699219 15.418232917785644531 15.370241165161132812 15.320157051086425781 15.273036003112792969 15.223818778991699219 15.177569389343261719 15.129137039184570312 15.083542823791503906 15.035686492919921875 14.990688323974609375 14.9434051513671875 14.898984909057617188 14.852263450622558594 14.808431625366210938 14.762294769287109375 14.719072341918945312 14.673550605773925781 14.631007194519042969 14.58625030517578125 14.544516563415527344 14.500581741333007812 14.459681510925292969 14.416605949401855469 14.376595497131347656 14.334482192993164062 14.295454978942871094 14.254330635070800781 14.216158866882324219 14.175790786743164062 14.138356208801269531 14.098750114440917969 14.062088966369628906 14.023293495178222656 13.987446784973144531 13.949498176574707031 13.914506912231445312 13.877470016479492188 13.843398094177246094 13.807344436645507812 13.774261474609375 13.739272117614746094 13.707263946533203125 13.673465728759765625 13.642671585083007812 13.610234260559082031 13.580831527709960938 13.5499725341796875 13.522186279296875 13.493187904357910156 13.467311859130859375 13.440539360046386719 13.416960716247558594 13.392904281616210938 13.372141838073730469 13.351466178894042969 13.334234237670898438 13.317852973937988281 13.305028915405273438 13.293959617614746094 13.286724090576171875 13.282703399658203125 13.283117294311523438 13.288099288940429688 13.294401168823242188 13.301718711853027344 13.309045791625976562 13.317572593688964844 13.325977325439453125 13.335662841796875 13.345516204833984375 13.357452392578125 13.370118141174316406 13.385690689086914062 13.40264892578125 13.424102783203125 13.4432830810546875 13.455071449279785156 13.455372810363769531 13.443501472473144531 13.421476364135742188 13.386979103088378906 13.345473289489746094 13.293771743774414062 13.244695663452148438 13.193822860717773438 13.147211074829101562 13.098357200622558594 13.0533294677734375 13.006114006042480469 12.962210655212402344 12.915780067443847656 12.872282028198242188 12.826142311096191406 12.782757759094238281 12.736713409423828125 12.693329811096191406 12.647310256958007812 12.603892326354980469 12.557881355285644531 12.514429092407226562 12.468439102172851562 12.4249725341796875 12.379029273986816406 12.335577011108398438 12.289719581604003906 12.24675750732421875 12.205973625183105469 12.172949790954589844 12.141581535339355469 12.113638877868652344 12.085406303405761719 12.059302330017089844 12.032366752624511719 12.007078170776367188 11.980759620666503906 11.955861091613769531 11.929903984069824219 11.375509262084960938 11.1985931396484375 11.487515449523925781 11.36251068115234375 11.233963966369628906 11.113081932067871094 11.009440422058105469 10.912871360778808594 10.830689430236816406 10.754790306091308594 10.690326690673828125 10.630452156066894531 10.578675270080566406 10.529309272766113281 10.484951972961425781 10.441069602966308594 10.400923728942871094 10.361481666564941406 10.325826644897460938 10.291369438171386719 10.260705947875976562 10.2314453125 10.20539093017578125 10.18036651611328125 10.15781402587890625 10.135849952697753906 10.115591049194335938 10.095171928405761719 10.075437545776367188 10.054555892944335938 10.033374786376953125 10.010178565979003906 9.9866895675659179688 9.96218109130859375 9.9388303756713867188 9.9160175323486328125 9.895709991455078125 9.8769588470458984375 9.860225677490234375 9.8438434600830078125 9.8279514312744140625 9.8109455108642578125 9.7932004928588867188 9.7740774154663085938 9.755207061767578125 9.7364330291748046875 9.719348907470703125 9.7038812637329101562 9.6909046173095703125 9.6794462203979492188 9.66944122314453125 9.6599245071411132812 9.650745391845703125 9.6411991119384765625 9.6319580078125 9.6233091354370117188 9.6161909103393554688 9.6110296249389648438 9.6085596084594726562 9.608982086181640625 9.6120691299438476562 9.6177082061767578125 9.6254491806030273438 9.6352910995483398438 9.6465864181518554688 9.6590013504028320312 9.6714506149291992188 9.6834630966186523438 9.6939973831176757812 9.7025632858276367188 9.708812713623046875 9.7131681442260742188 9.7159700393676757812 9.7176542282104492188 9.718597412109375 
14.123192787170410156 14.183136940002441406 14.242185592651367188 14.301377296447753906 14.360205650329589844 14.419384956359863281 14.478311538696289062 14.537503242492675781 14.59647369384765625 14.655628204345703125 14.714638710021972656 14.773814201354980469 14.832963943481445312 14.892276763916015625 14.951683998107910156 15.011242866516113281 15.071008682250976562 15.130913734436035156 15.191138267517089844 15.251461029052734375 15.312138557434082031 15.372925758361816406 15.434362411499023438 15.496019363403320312 15.558695793151855469 15.621827125549316406 15.685625076293945312 15.742436408996582031 15.840923309326171875 16.025575637817382812 16.209100723266601562 16.388576507568359375 16.570354461669921875 16.751428604125976562 16.935037612915039062 17.117200851440429688 17.301759719848632812 17.4844512939453125 17.669599533081054688 17.852575302124023438 18.038120269775390625 18.221216201782226562 18.40700531005859375 18.590070724487304688 18.775951385498046875 18.958835601806640625 19.144672393798828125 19.327259063720703125 19.495801925659179688 19.457401275634765625 19.357818603515625 19.263166427612304688 19.16937255859375 19.079898834228515625 18.990774154663085938 18.905521392822265625 18.820232391357421875 18.738494873046875 18.656467437744140625 18.57784271240234375 18.498723983764648438 18.42279815673828125 18.346160888671875 18.27256011962890625 18.198064804077148438 18.126482009887695312 18.053850173950195312 17.984039306640625 17.913043975830078125 17.8448028564453125 17.775257110595703125 17.708415985107421875 17.640165328979492188 17.574590682983398438 17.507595062255859375 17.443403244018554688 17.377788543701171875 17.314947128295898438 17.2505950927734375 17.188961029052734375 17.125719070434570312 17.065174102783203125 17.00295257568359375 16.943422317504882812 16.88214874267578125 16.823558807373046875 16.763166427612304688 16.705465316772460938 16.645908355712890625 16.589044570922851562 16.530271530151367188 16.474201202392578125 16.41617584228515625 16.360864639282226562 16.30355072021484375 16.248966217041015625 16.192369461059570312 16.138593673706054688 16.082815170288085938 16.029865264892578125 15.974877357482910156 15.922726631164550781 15.86850738525390625 15.817136764526367188 15.763666152954101562 15.713069915771484375 15.660396575927734375 15.610643386840820312 15.558796882629394531 15.509878158569335938 15.458850860595703125 15.410760879516601562 15.360551834106445312 15.313290596008300781 15.263904571533203125 15.21747589111328125 15.168868064880371094 15.123098373413085938 15.075039863586425781 15.029835700988769531 14.98232269287109375 14.937669754028320312 14.89068603515625 14.846588134765625 14.800153732299804688 14.756631851196289062 14.710772514343261719 14.667886734008789062 14.622744560241699219 14.580626487731933594 14.536256790161132812 14.494920730590820312 14.451355934143066406 14.410853385925292969 14.368185043334960938 14.328608512878417969 14.286896705627441406 14.248193740844726562 14.207241058349609375 14.169238090515136719 14.129003524780273438 14.091730117797851562 14.052255630493164062 14.015755653381347656 13.977082252502441406 13.941387176513671875 13.903568267822265625 13.868741035461425781 13.831846237182617188 13.797951698303222656 13.762056350708007812 13.729168891906738281 13.694380760192871094 13.662623405456542969 13.629096031188964844 13.598629951477050781 13.566562652587890625 13.537592887878417969 13.507241249084472656 13.480034828186035156 13.451730728149414062 13.4266357421875 13.400820732116699219 13.378306388854980469 13.355576515197753906 13.33628082275390625 13.317470550537109375 13.302256584167480469 13.28836822509765625 13.278243064880371094 13.27072906494140625 13.267496109008789062 13.268780708312988281 13.273889541625976562 13.28057098388671875 13.287240028381347656 13.295025825500488281 13.302792549133300781 13.311684608459472656 13.320638656616210938 13.331411361694335938 13.342917442321777344 13.357187271118164062 13.372760772705078125 13.392856597900390625 13.411791801452636719 13.423712730407714844 13.423770904541015625 13.411131858825683594 13.387971878051757812 13.351999282836914062 13.309154510498046875 13.257276535034179688 13.209319114685058594 13.159662246704101562 13.114071846008300781 13.06635284423828125 13.022382736206054688 12.976099014282226562 12.932919502258300781 12.887144088745117188 12.844178199768066406 12.798536300659179688 12.755571365356445312 12.709930419921875 12.666896820068359375 12.621220588684082031 12.578104972839355469 12.532398223876953125 12.489218711853027344 12.443506240844726562 12.400292396545410156 12.354610443115234375 12.311398506164550781 12.266409873962402344 12.228223800659179688 12.193839073181152344 12.164351463317871094 12.135127067565917969 12.108460426330566406 12.081122398376464844 12.055608749389648438 12.029116630554199219 12.004138946533203125 11.978062629699707031 11.953336715698242188 11.850409507751464844 11.149127006530761719 11.47388458251953125 11.449946403503417969 11.313714027404785156 11.196175575256347656 11.083928108215332031 10.986124038696289062 10.893438339233398438 10.81319427490234375 10.737795829772949219 10.672778129577636719 10.611749649047851562 10.558809280395507812 10.508692741394042969 10.464522361755371094 10.422005653381347656 10.383976936340332031 10.347077369689941406 10.313725471496582031 10.281002998352050781 10.251000404357910156 10.221384048461914062 10.194295883178710938 10.167844772338867188 10.143906593322753906 10.120855331420898438 10.100052833557128906 10.079537391662597656 10.060022354125976562 10.039563179016113281 10.018841743469238281 9.99605560302734375 9.9728765487670898438 9.9486141204833984375 9.9254560470581054688 9.9028196334838867188 9.8826923370361328125 9.8641567230224609375 9.8476839065551757812 9.8316516876220703125 9.81620025634765625 9.7997789382934570312 9.7827358245849609375 9.7644262313842773438 9.746379852294921875 9.7284069061279296875 9.7119960784912109375 9.6970434188842773438 9.6844015121459960938 9.6732006072998046875 9.6634702682495117188 9.6543674468994140625 9.6458196640014648438 9.6372280120849609375 9.629177093505859375 9.6219072341918945312 9.6162052154541015625 9.6124429702758789062 9.6112165451049804688 9.6126890182495117188 9.6165571212768554688 9.6226835250854492188 9.6305723190307617188 9.640178680419921875 9.6508655548095703125 9.6624078750610351562 9.67391204833984375 9.6850576400756835938 9.69499969482421875 9.703395843505859375 9.70992279052734375 9.7149267196655273438 9.7186145782470703125 9.7213344573974609375 9.7233266830444335938 
14.145526885986328125 14.207497596740722656 14.268993377685546875 14.330668449401855469 14.391820907592773438 14.453246116638183594 14.5144195556640625 14.575902938842773438 14.637192726135253906 14.698712348937988281 14.760117530822753906 14.821727752685546875 14.883347511291503906 14.945178985595703125 15.00716400146484375 15.069383621215820312 15.1319122314453125 15.194699287414550781 15.2579498291015625 15.321452140808105469 15.38539886474609375 15.449106216430664062 15.512796401977539062 15.576247215270996094 15.640358924865722656 15.704498291015625 15.765543937683105469 15.820367813110351562 15.925344467163085938 16.10772705078125 16.295667648315429688 16.479314804077148438 16.663320541381835938 16.845489501953125 17.0296630859375 17.212102890014648438 17.39678955078125 17.579507827758789062 17.764619827270507812 17.947509765625 18.132930755615234375 18.315876007080078125 18.501491546630859375 18.684373855590820312 18.870069503784179688 19.052793502807617188 19.238519668579101562 19.420858383178710938 19.532365798950195312 19.45085906982421875 19.354145050048828125 19.262065887451171875 19.170682907104492188 19.083385467529296875 18.996318817138671875 18.912937164306640625 18.829431533813476562 18.7493438720703125 18.668933868408203125 18.59178924560546875 18.514093399047851562 18.439474105834960938 18.36409759521484375 18.291654586791992188 18.218282699584960938 18.147735595703125 18.076114654541015625 18.007236480712890625 17.937152862548828125 17.869754791259765625 17.801038742065429688 17.734964370727539062 17.667470932006835938 17.602619171142578125 17.536380767822265625 17.4728851318359375 17.407953262329101562 17.345733642578125 17.281982421875 17.220897674560546875 17.158193588256835938 17.098142623901367188 17.036405563354492188 16.977315902709960938 16.916475296020507812 16.858280181884765625 16.798276901245117188 16.74092864990234375 16.681718826293945312 16.6251678466796875 16.566699981689453125 16.510906219482421875 16.453149795532226562 16.398080825805664062 16.341001510620117188 16.286626815795898438 16.230245590209960938 16.176660537719726562 16.121059417724609375 16.06826019287109375 16.013408660888671875 15.961371421813964844 15.907251358032226562 15.855956077575683594 15.802545547485351562 15.751985549926757812 15.699328422546386719 15.649570465087890625 15.597698211669921875 15.548735618591308594 15.497640609741210938 15.449467658996582031 15.399149894714355469 15.351766586303710938 15.302229881286621094 15.255641937255859375 15.206867218017578125 15.160937309265136719 15.112695693969726562 15.067302703857421875 15.019577980041503906 14.974713325500488281 14.927490234375 14.883150100708007812 14.836442947387695312 14.7926483154296875 14.746480941772460938 14.703281402587890625 14.657785415649414062 14.615312576293945312 14.570544242858886719 14.528811454772949219 14.484796524047851562 14.443844795227050781 14.400667190551757812 14.360586166381835938 14.318317413330078125 14.279109954833984375 14.237613677978515625 14.199082374572753906 14.158261299133300781 14.120420455932617188 14.080315589904785156 14.043206214904785156 14.0038604736328125 13.967513084411621094 13.928968429565429688 13.893441200256347656 13.85576629638671875 13.821118354797363281 13.784384727478027344 13.750685691833496094 13.714983940124511719 13.682339668273925781 13.647809982299804688 13.616367340087890625 13.583192825317382812 13.553140640258789062 13.52155303955078125 13.493133544921875 13.463435173034667969 13.436964988708496094 13.409558296203613281 13.385460853576660156 13.360883712768554688 13.3397369384765625 13.3187408447265625 13.301343917846679688 13.284926414489746094 13.272228240966796875 13.26161956787109375 13.2551727294921875 13.2525482177734375 13.254792213439941406 13.260601043701171875 13.266674041748046875 13.273737907409667969 13.280849456787109375 13.289019584655761719 13.2971649169921875 13.30686187744140625 13.317215919494628906 13.330217361450195312 13.344448089599609375 13.36304473876953125 13.381624221801757812 13.393850326538085938 13.393790245056152344 13.380385398864746094 13.35599517822265625 13.318389892578125 13.274166107177734375 13.222789764404296875 13.176006317138671875 13.127478599548339844 13.082930564880371094 13.0363922119140625 12.993365287780761719 12.947896957397460938 12.905359268188476562 12.860165596008300781 12.817677497863769531 12.772485733032226562 12.729903221130371094 12.684632301330566406 12.641919136047363281 12.596559524536132812 12.5537261962890625 12.508302688598632812 12.465378761291503906 12.419926643371582031 12.376951217651367188 12.331519126892089844 12.289093017578125 12.249101638793945312 12.216717720031738281 12.185796737670898438 12.158203125 12.130235671997070312 12.104365348815917969 12.077610969543457031 12.052496910095214844 12.02631378173828125 12.001554489135742188 11.975651741027832031 11.951249122619628906 11.545299530029296875 11.355420112609863281 11.534337997436523438 11.401842117309570312 11.278359413146972656 11.170138359069824219 11.064614295959472656 10.970804214477539062 10.880206108093261719 10.800431251525878906 10.724390983581542969 10.658093452453613281 10.595454216003417969 10.541090965270996094 10.490045547485351562 10.445879936218261719 10.404466629028320312 10.368245124816894531 10.333550453186035156 10.302196502685546875 10.270953178405761719 10.241449356079101562 10.211394309997558594 10.183257102966308594 10.155384063720703125 10.130064964294433594 10.105891227722167969 10.084464073181152344 10.063739776611328125 10.044328689575195312 10.024183273315429688 10.003856658935546875 9.9814729690551757812 9.9586477279663085938 9.9347162246704101562 9.9118585586547851562 9.8895196914672851562 9.86968231201171875 9.8514604568481445312 9.8353223800659179688 9.8196849822998046875 9.804683685302734375 9.7888126373291015625 9.7724008560180664062 9.7548055648803710938 9.7374734878540039062 9.7201967239379882812 9.7043819427490234375 9.6899061203002929688 9.6776103973388671875 9.6667156219482421875 9.6573266983032226562 9.648708343505859375 9.6408586502075195312 9.63326263427734375 9.6264238357543945312 9.6205358505249023438 9.6162385940551757812 9.6138591766357421875 9.6138544082641601562 9.61635589599609375 9.620990753173828125 9.6276025772094726562 9.6356449127197265625 9.6450433731079101562 9.65517425537109375 9.6659183502197265625 9.6765756607055664062 9.6869764328002929688 9.6964635848999023438 9.704845428466796875 9.7118196487426757812 9.7176342010498046875 9.7223482131958007812 9.726192474365234375 9.7292690277099609375 
14.168393135070800781 14.232120513916015625 14.295905113220214844 14.360149383544921875 14.423952102661132812 14.488006591796875 14.551657676696777344 14.615512847900390625 14.679113388061523438 14.742939949035644531 14.806673049926757812 14.870672225952148438 14.934754371643066406 14.999144554138183594 15.063785552978515625 15.128757476806640625 15.194116592407226562 15.259799003601074219 15.325990676879882812 15.39241790771484375 15.4593048095703125 15.526097297668457031 15.592830657958984375 15.658503532409667969 15.724068641662597656 15.788137435913085938 15.847553253173828125 15.903851509094238281 16.0133819580078125 16.196413040161132812 16.38585662841796875 16.572576522827148438 16.758901596069335938 16.942264556884765625 17.127107620239257812 17.309909820556640625 17.494770050048828125 17.677526473999023438 17.862606048583984375 18.045429229736328125 18.23077392578125 18.41363525390625 18.59915924072265625 18.78194427490234375 18.967538833618164062 19.150188446044921875 19.335887908935546875 19.521707534790039062 19.540130615234375 19.445138931274414062 19.351253509521484375 19.261714935302734375 19.172718048095703125 19.087583541870117188 19.002567291259765625 18.921054840087890625 18.839338302612304688 18.760927200317382812 18.682138442993164062 18.606475830078125 18.530208587646484375 18.456897735595703125 18.38278961181640625 18.311513900756835938 18.239278793334960938 18.169780731201171875 18.099180221557617188 18.031248092651367188 17.962091445922851562 17.895549774169921875 17.827676773071289062 17.762384414672851562 17.69567108154296875 17.6315765380859375 17.566104888916015625 17.503314971923828125 17.4390716552734375 17.377477645874023438 17.314334869384765625 17.253805160522460938 17.191646575927734375 17.132097244262695312 17.07085418701171875 17.01221466064453125 16.951816558837890625 16.8940277099609375 16.834421157836914062 16.777435302734375 16.718580245971679688 16.662349700927734375 16.604198455810546875 16.548688888549804688 16.4912109375 16.436389923095703125 16.379552841186523438 16.325397491455078125 16.269243240356445312 16.215850830078125 16.160432815551757812 16.107789993286132812 16.053081512451171875 16.00115966796875 15.9471435546875 15.895929336547851562 15.842583656311035156 15.792067527770996094 15.73943328857421875 15.689676284790039062 15.637785911560058594 15.588786125183105469 15.537631988525390625 15.489382743835449219 15.438963890075683594 15.391465187072753906 15.341786384582519531 15.295042991638183594 15.246100425720214844 15.200013160705566406 15.151590347290039062 15.10601043701171875 15.058076858520507812 15.013003349304199219 14.965541839599609375 14.920964241027832031 14.873987197875976562 14.829922676086425781 14.783452987670898438 14.739943504333496094 14.694093704223632812 14.651270866394042969 14.606106758117675781 14.563979148864746094 14.519520759582519531 14.478123664855957031 14.434443473815917969 14.393863677978515625 14.351035118103027344 14.311305999755859375 14.269259452819824219 14.230198860168457031 14.188790321350097656 14.150379180908203125 14.10964202880859375 14.071920394897460938 14.03189849853515625 13.994899749755859375 13.955628395080566406 13.919396400451660156 13.880941390991210938 13.845537185668945312 13.807965278625488281 13.773454666137695312 13.736843109130859375 13.703313827514648438 13.667789459228515625 13.6353759765625 13.601103782653808594 13.569977760314941406 13.537168502807617188 13.507550239562988281 13.476480484008789062 13.448657989501953125 13.419688224792480469 13.394044876098632812 13.367663383483886719 13.344716072082519531 13.321600914001464844 13.302067756652832031 13.28316497802734375 13.267981529235839844 13.25439453125 13.244868278503417969 13.238492012023925781 13.236893653869628906 13.240301132202148438 13.245736122131347656 13.252088546752929688 13.258475303649902344 13.265903472900390625 13.273261070251464844 13.281907081604003906 13.291068077087402344 13.302695274353027344 13.315546989440917969 13.332469940185546875 13.350426673889160156 13.36313629150390625 13.363086700439453125 13.348834037780761719 13.32297515869140625 13.283422470092773438 13.238070487976074219 13.187739372253417969 13.142216682434082031 13.094858169555664062 13.051488876342773438 13.006122589111328125 12.963982582092285156 12.919291496276855469 12.877367019653320312 12.832736015319824219 12.790713310241699219 12.745963096618652344 12.703756332397460938 12.65885162353515625 12.616457939147949219 12.571415901184082031 12.528865814208984375 12.483727455139160156 12.44106292724609375 12.395875930786132812 12.353143692016601562 12.308685302734375 12.271241188049316406 12.237454414367675781 12.208415031433105469 12.179530143737792969 12.153151512145996094 12.126039505004882812 12.100736618041992188 12.074411392211914062 12.04959869384765625 12.023652076721191406 11.999063491821289062 11.973344802856445312 11.950275421142578125 11.415052413940429688 11.59130859375 11.487542152404785156 11.363533973693847656 11.251474380493164062 11.151278495788574219 11.051178932189941406 10.960211753845214844 10.870631217956542969 10.79046630859375 10.713085174560546875 10.64501953125 10.580400466918945312 10.52434539794921875 10.472117424011230469 10.427694320678710938 10.387063026428222656 10.352313041687011719 10.319478034973144531 10.289827346801757812 10.259832382202148438 10.230706214904785156 10.200185775756835938 10.171032905578613281 10.141816139221191406 10.11519622802734375 10.089960098266601562 10.067937850952148438 10.046996116638183594 10.027663230895996094 10.007799148559570312 9.9878406524658203125 9.965847015380859375 9.943378448486328125 9.9198026657104492188 9.8972864151000976562 9.87530517578125 9.8558254241943359375 9.8379955291748046875 9.8222723007202148438 9.8071041107177734375 9.792613983154296875 9.7773313522338867188 9.76155853271484375 9.7446651458740234375 9.7280321121215820312 9.7114458084106445312 9.696247100830078125 9.6823101043701171875 9.6704578399658203125 9.6599988937377929688 9.6510839462280273438 9.6430730819702148438 9.63600921630859375 9.6294565200805664062 9.6238374710083007812 9.6193141937255859375 9.6163959503173828125 9.6153774261474609375 9.6165904998779296875 9.6201410293579101562 9.6255846023559570312 9.6327457427978515625 9.6410264968872070312 9.6503143310546875 9.6599988937377929688 9.6700649261474609375 9.6799983978271484375 9.6897869110107421875 9.6989498138427734375 9.7074499130249023438 9.714992523193359375 9.7217187881469726562 9.7275247573852539062 9.7325229644775390625 9.736652374267578125 
14.190185546875 14.255445480346679688 14.321172714233398438 14.387844085693359375 14.454217910766601562 14.520768165588378906 14.586761474609375 14.652831077575683594 14.718546867370605469 14.784460067749023438 14.850289344787597656 14.916441917419433594 14.982752799987792969 15.049480438232421875 15.1165771484375 15.184134483337402344 15.252196311950683594 15.320630073547363281 15.389528274536132812 15.458578109741210938 15.528131484985351562 15.597716331481933594 15.667627334594726562 15.736598968505859375 15.803818702697753906 15.867465019226074219 15.927881240844726562 15.986323356628417969 16.0990447998046875 16.28540802001953125 16.47516632080078125 16.662542343139648438 16.850271224975585938 17.034822463989257812 17.2203216552734375 17.403352737426757812 17.58824920654296875 17.771013259887695312 17.95611572265625 18.138980865478515625 18.324375152587890625 18.507280349731445312 18.692846298217773438 18.87567138671875 19.061307907104492188 19.244001388549804688 19.429569244384765625 19.583896636962890625 19.532812118530273438 19.4405975341796875 19.34930419921875 19.2621002197265625 19.175304412841796875 19.092168807983398438 19.009052276611328125 18.929273605346679688 18.8492431640625 18.77239990234375 18.695116043090820312 18.6208343505859375 18.545894622802734375 18.473810195922851562 18.400888442993164062 18.330707550048828125 18.2595367431640625 18.191022872924804688 18.1213836669921875 18.054342269897460938 17.98606109619140625 17.920330047607421875 17.853254318237304688 17.788705825805664062 17.722738265991210938 17.659374237060546875 17.594623565673828125 17.53249359130859375 17.46889495849609375 17.407886505126953125 17.34531402587890625 17.285308837890625 17.223669052124023438 17.164592742919921875 17.103815078735351562 17.045602798461914062 16.985626220703125 16.928218841552734375 16.868993759155273438 16.812351226806640625 16.753833770751953125 16.697910308837890625 16.6400604248046875 16.5848236083984375 16.527612686157226562 16.47303009033203125 16.416425704956054688 16.36248779296875 16.306545257568359375 16.253339767456054688 16.19809722900390625 16.145601272583007812 16.091030120849609375 16.039224624633789062 15.985308647155761719 15.934173583984375 15.880894660949707031 15.830423355102539062 15.777817726135253906 15.728070259094238281 15.676168441772460938 15.627140045166015625 15.575937271118164062 15.527623176574707031 15.477117538452148438 15.429517745971679688 15.379714012145996094 15.332834243774414062 15.283734321594238281 15.2375030517578125 15.188914299011230469 15.143164634704589844 15.095038414001464844 15.049771308898925781 15.002093315124511719 14.957296371459960938 14.910073280334472656 14.865761756896972656 14.819014549255371094 14.775220870971679688 14.729043960571289062 14.6858978271484375 14.640369415283203125 14.597879409790039062 14.553013801574707031 14.51120758056640625 14.46706390380859375 14.426025390625 14.382680892944335938 14.342453956604003906 14.299889564514160156 14.260334014892578125 14.218378067016601562 14.17943572998046875 14.138109207153320312 14.099817276000976562 14.059164047241210938 14.021556854248046875 13.981610298156738281 13.944724082946777344 13.905541419982910156 13.869435310363769531 13.831081390380859375 13.795816421508789062 13.75836181640625 13.724015235900878906 13.68756866455078125 13.654260635375976562 13.618973731994628906 13.58686065673828125 13.552927970886230469 13.52220916748046875 13.489881515502929688 13.460821151733398438 13.430426597595214844 13.403372764587402344 13.375353813171386719 13.350774765014648438 13.32574462890625 13.304285049438476562 13.283111572265625 13.265676498413085938 13.249418258666992188 13.23714447021484375 13.227433204650878906 13.222333908081054688 13.221915245056152344 13.2259521484375 13.231649398803710938 13.237352371215820312 13.244021415710449219 13.250660896301269531 13.258358955383300781 13.266407012939453125 13.276663780212402344 13.288180351257324219 13.303425788879394531 13.320479393005371094 13.333769798278808594 13.333881378173828125 13.318729400634765625 13.291204452514648438 13.249562263488769531 13.203755378723144531 13.154750823974609375 13.110425949096679688 13.064300537109375 13.022091865539550781 12.977725982666015625 12.9363555908203125 12.892350196838378906 12.850973129272460938 12.806850433349609375 12.765249252319335938 12.7209014892578125 12.67903900146484375 12.634470939636230469 12.592373847961425781 12.547627449035644531 12.505342483520507812 12.460471153259277344 12.418050765991210938 12.373118400573730469 12.331246376037597656 12.2919464111328125 12.260149955749511719 12.229672431945800781 12.202441215515136719 12.1747589111328125 12.149144172668457031 12.122593879699707031 12.097676277160644531 12.071650505065917969 12.047051429748535156 12.021274566650390625 11.996809005737304688 11.971779823303222656 11.848408699035644531 11.627137184143066406 11.602055549621582031 11.450930595397949219 11.336725234985351562 11.233180999755859375 11.138831138610839844 11.042528152465820312 10.953363418579101562 10.864139556884765625 10.783237457275390625 10.704344749450683594 10.634446144104003906 10.567811965942382812 10.509999275207519531 10.4564208984375 10.411428451538085938 10.371068000793457031 10.337194442749023438 10.30558013916015625 10.2770843505859375 10.247936248779296875 10.219030380249023438 10.188114166259765625 10.158174514770507812 10.127943038940429688 10.100359916687011719 10.074361801147460938 10.051938056945800781 10.03089141845703125 10.011679649353027344 9.992084503173828125 9.9724435806274414062 9.9507684707641601562 9.9285869598388671875 9.9052934646606445312 9.8830575942993164062 9.8613910675048828125 9.8422594070434570312 9.8248376846313476562 9.8095655441284179688 9.7949132919311523438 9.7809658050537109375 9.7662897109985351562 9.7511444091796875 9.7349214553833007812 9.7189531326293945312 9.70304107666015625 9.688480377197265625 9.6751556396484375 9.6638727188110351562 9.6539945602416992188 9.6456861495971679688 9.6383733749389648438 9.6321020126342773438 9.6264982223510742188 9.6219244003295898438 9.6185388565063476562 9.6167621612548828125 9.6168832778930664062 9.6191530227661132812 9.6236658096313476562 9.6299009323120117188 9.637664794921875 9.6463003158569335938 9.655658721923828125 9.6651287078857421875 9.6747808456420898438 9.6842508316040039062 9.69366455078125 9.7026853561401367188 9.71140289306640625 9.7195224761962890625 9.7270879745483398438 9.73384857177734375 9.739803314208984375 9.7447500228881835938 
14.212399482727050781 14.279412269592285156 14.347377777099609375 14.416299819946289062 14.484834671020507812 14.553517341613769531 14.621605873107910156 14.689757347106933594 14.757535934448242188 14.825521469116210938 14.893428802490234375 14.961687088012695312 15.030141830444335938 15.099073410034179688 15.168450355529785156 15.238392829895019531 15.308984756469726562 15.380143165588378906 15.452008247375488281 15.524182319641113281 15.596779823303222656 15.6693572998046875 15.7424468994140625 15.814824104309082031 15.885027885437011719 15.950170516967773438 16.013341903686523438 16.073451995849609375 16.189601898193359375 16.3803558349609375 16.570064544677734375 16.757122039794921875 16.944896697998046875 17.129764556884765625 17.315458297729492188 17.498645782470703125 17.683742523193359375 17.866729736328125 18.052053451538085938 18.2351226806640625 18.420703887939453125 18.603778839111328125 18.789501190185546875 18.972471237182617188 19.15825653076171875 19.34111785888671875 19.534727096557617188 19.615095138549804688 19.526304244995117188 19.436824798583984375 19.34809112548828125 19.263200759887695312 19.178590774536132812 19.097444534301757812 19.016222000122070312 18.9381866455078125 18.85985565185546875 18.784580230712890625 18.70880126953125 18.63590240478515625 18.5623016357421875 18.491445541381835938 18.419719696044921875 18.350641250610351562 18.280544281005859375 18.213026046752929688 18.144361495971679688 18.078222274780273438 18.01082611083984375 17.945919036865234375 17.879655838012695312 17.815870285034179688 17.750675201416015625 17.688051223754882812 17.624027252197265625 17.562564849853515625 17.499614715576171875 17.439195632934570312 17.377202987670898438 17.317731857299804688 17.25661468505859375 17.19802093505859375 17.13771820068359375 17.0799407958984375 17.020391464233398438 16.963376998901367188 16.904539108276367188 16.848249435424804688 16.790079116821289062 16.734470367431640625 16.676929473876953125 16.621974945068359375 16.565038681030273438 16.51070404052734375 16.454339981079101562 16.400625228881835938 16.34490203857421875 16.291887283325195312 16.23682403564453125 16.184480667114257812 16.130054473876953125 16.078367233276367188 16.024557113647460938 15.973506927490234375 15.920300483703613281 15.86988067626953125 15.817310333251953125 15.767576217651367188 15.715671539306640625 15.666620254516601562 15.615375518798828125 15.567003250122070312 15.516417503356933594 15.468724250793457031 15.418801307678222656 15.371790885925292969 15.322538375854492188 15.276162147521972656 15.227410316467285156 15.181493759155273438 15.133176803588867188 15.087718963623046875 15.039825439453125 14.994812965393066406 14.947346687316894531 14.902791976928710938 14.855771064758300781 14.81169891357421875 14.76519775390625 14.721730232238769531 14.675840377807617188 14.632991790771484375 14.587721824645996094 14.545513153076171875 14.500910758972167969 14.459417343139648438 14.415562629699707031 14.374834060668945312 14.331742286682128906 14.291688919067382812 14.249182701110839844 14.20970916748046875 14.167792320251464844 14.12892913818359375 14.087641716003417969 14.049426078796386719 14.008802413940429688 13.971261978149414062 13.931351661682128906 13.894543647766113281 13.855406761169433594 13.819388389587402344 13.781091690063476562 13.745929718017578125 13.708566665649414062 13.674366950988769531 13.638074874877929688 13.60498046875 13.569934844970703125 13.538128852844238281 13.504558563232421875 13.474279403686523438 13.442481040954589844 13.414043426513671875 13.384419441223144531 13.358245849609375 13.331348419189453125 13.308018684387207031 13.284632682800292969 13.264980316162109375 13.246132850646972656 13.231206893920898438 13.218295097351074219 13.209848403930664062 13.205327987670898438 13.206204414367675781 13.21091461181640625 13.215949058532714844 13.22180938720703125 13.227707862854003906 13.234484672546386719 13.24144744873046875 13.25026702880859375 13.260354995727539062 13.273840904235839844 13.289663314819335938 13.303558349609375 13.304019927978515625 13.287806510925292969 13.258213043212890625 13.214449882507324219 13.168918609619140625 13.121441841125488281 13.078373908996582031 13.033647537231445312 12.992555618286132812 12.949116706848144531 12.908452987670898438 12.86508941650390625 12.824239730834960938 12.780608177185058594 12.73941802978515625 12.695466041564941406 12.653944969177246094 12.609712600708007812 12.567910194396972656 12.523461341857910156 12.481441497802734375 12.436842918395996094 12.394670486450195312 12.350759506225585938 12.313959121704101562 12.280726432800292969 12.252134323120117188 12.223607063293457031 12.197536468505859375 12.170674324035644531 12.145602226257324219 12.119465827941894531 12.094838142395019531 12.069041252136230469 12.044607162475585938 12.018963813781738281 11.994760513305664062 11.971599578857421875 11.939495086669921875 11.746712684631347656 11.566516876220703125 11.424192428588867188 11.317334175109863281 11.219949722290039062 11.129785537719726562 11.036185264587402344 10.948250770568847656 10.859136581420898438 10.777462005615234375 10.697094917297363281 10.625388145446777344 10.556718826293945312 10.497056961059570312 10.441925048828125 10.396030426025390625 10.355459213256835938 10.321917533874511719 10.290950775146484375 10.263126373291015625 10.234460830688476562 10.205620765686035156 10.174348831176757812 10.143797874450683594 10.112817764282226562 10.084551811218261719 10.058051109313964844 10.035412788391113281 10.014392852783203125 9.995372772216796875 9.9760684967041015625 9.9567327499389648438 9.9353351593017578125 9.9133806228637695312 9.8903064727783203125 9.8682966232299804688 9.846912384033203125 9.8281307220458984375 9.8111591339111328125 9.7964019775390625 9.7823419570922851562 9.769023895263671875 9.7550249099731445312 9.7405605316162109375 9.7250499725341796875 9.709789276123046875 9.6946115493774414062 9.6807737350463867188 9.6681966781616210938 9.6576519012451171875 9.6485424041748046875 9.6410074234008789062 9.6345109939575195312 9.6290760040283203125 9.624362945556640625 9.6206989288330078125 9.6182661056518554688 9.6174402236938476562 9.618534088134765625 9.6217508316040039062 9.6271905899047851562 9.6342554092407226562 9.6427211761474609375 9.6518659591674804688 9.6614961624145507812 9.67098236083984375 9.68047332763671875 9.6897249221801757812 9.6989736557006835938 9.7080087661743164062 9.7170257568359375 9.7257232666015625 9.7340526580810546875 9.7416286468505859375 9.7483453750610351562 9.7538671493530273438 
14.233766555786132812 14.302881240844726562 14.372867584228515625 14.44355010986328125 14.513689994812011719 14.583995819091796875 14.653777122497558594 14.723712921142578125 14.793313980102539062 14.863148689270019531 14.932909965515136719 15.003043174743652344 15.073395729064941406 15.144265174865722656 15.215632438659667969 15.287642478942871094 15.360410690307617188 15.433915138244628906 15.50839996337890625 15.583603858947753906 15.659724235534667969 15.735861778259277344 15.811969757080078125 15.887193679809570312 15.961356163024902344 16.031515121459960938 16.097997665405273438 16.160005569458007812 16.28063201904296875 16.473962783813476562 16.663543701171875 16.849847793579101562 17.036556243896484375 17.22045135498046875 17.405910491943359375 17.589368820190429688 17.774898529052734375 17.958311080932617188 18.144025802612304688 18.3274383544921875 18.513326644897460938 18.696674346923828125 18.882654190063476562 19.065870285034179688 19.251916885375976562 19.43497467041015625 19.616598129272460938 19.612058639526367188 19.521005630493164062 19.43404388427734375 19.3476715087890625 19.264923095703125 19.182340621948242188 19.1030426025390625 19.023584365844726562 18.9471893310546875 18.870450973510742188 18.796636581420898438 18.722263336181640625 18.65065765380859375 18.57830810546875 18.508607864379882812 18.438001632690429688 18.369962692260742188 18.300878524780273438 18.2342987060546875 18.166553497314453125 18.101268768310546875 18.034709930419921875 17.970584869384765625 17.90509796142578125 17.842037200927734375 17.777587890625 17.715662002563476562 17.65232086181640625 17.591482162475585938 17.529140472412109375 17.469278335571289062 17.407835006713867188 17.348867416381835938 17.288248062133789062 17.230112075805664062 17.170261383056640625 17.112897872924804688 17.053754806518554688 16.9971160888671875 16.938646316528320312 16.882694244384765625 16.824853897094726562 16.769548416137695312 16.712305068969726562 16.657617568969726562 16.60094451904296875 16.546848297119140625 16.490718841552734375 16.437219619750976562 16.38170623779296875 16.3288726806640625 16.273983001708984375 16.221788406372070312 16.167501449584960938 16.11592864990234375 16.062223434448242188 16.011257171630859375 15.958123207092285156 15.907756805419921875 15.855224609375 15.805510520935058594 15.753607749938964844 15.704542160034179688 15.653264045715332031 15.6048431396484375 15.554189682006835938 15.506413459777832031 15.456387519836425781 15.409260749816894531 15.359869956970214844 15.313360214233398438 15.264459609985351562 15.218388557434082031 15.169896125793457031 15.124262809753417969 15.076171875 15.0309600830078125 14.983269691467285156 14.938490867614746094 14.891218185424804688 14.846891403198242188 14.800091743469238281 14.756325721740722656 14.710102081298828125 14.666921615600585938 14.621277809143066406 14.578699111938476562 14.533673286437988281 14.49176025390625 14.4474334716796875 14.406239509582519531 14.362644195556640625 14.322124481201171875 14.279104232788085938 14.239132881164550781 14.196664810180664062 14.157268524169921875 14.115389823913574219 14.076602935791015625 14.035348892211914062 13.997198104858398438 13.956606864929199219 13.919144630432128906 13.879277229309082031 13.842555046081542969 13.803475379943847656 13.767554283142089844 13.729338645935058594 13.69431304931640625 13.657088279724121094 13.623085975646972656 13.587011337280273438 13.554201126098632812 13.519484519958496094 13.4880828857421875 13.454996109008789062 13.425289154052734375 13.394195556640625 13.366564750671386719 13.3379669189453125 13.312935829162597656 13.287545204162597656 13.265867233276367188 13.244655609130859375 13.227336883544921875 13.211546897888183594 13.200105667114257812 13.191914558410644531 13.188979148864746094 13.191342353820800781 13.195731163024902344 13.200839996337890625 13.205989837646484375 13.211922645568847656 13.217905044555664062 13.225366592407226562 13.234015464782714844 13.245794296264648438 13.260138511657714844 13.27451324462890625 13.275530815124511719 13.258097648620605469 13.226077079772949219 13.180724143981933594 13.136090278625488281 13.090125083923339844 13.048384666442871094 13.005000114440917969 12.964875221252441406 12.922246932983398438 12.882203102111816406 12.839399337768554688 12.799009323120117188 12.755817413330078125 12.715002059936523438 12.671412467956542969 12.630206108093261719 12.586284637451171875 12.544759750366210938 12.50058746337890625 12.458819389343261719 12.414481163024902344 12.3731842041015625 12.33448028564453125 12.303234100341796875 12.273204803466796875 12.246351242065429688 12.218976974487304688 12.193638801574707031 12.167316436767578125 12.142614364624023438 12.116765975952148438 12.092344284057617188 12.066712379455566406 12.042398452758789062 12.016884803771972656 11.993764877319335938 11.985436439514160156 11.939250946044921875 11.714511871337890625 11.541972160339355469 11.406158447265625 11.304211616516113281 11.210726737976074219 11.123232841491699219 11.0314178466796875 10.944331169128417969 10.855299949645996094 10.773041725158691406 10.691478729248046875 10.618235588073730469 10.547761917114257812 10.486383438110351562 10.429701805114746094 10.382744789123535156 10.341616630554199219 10.307955741882324219 10.277124404907226562 10.249508857727050781 10.2209625244140625 10.192003250122070312 10.160358428955078125 10.129302024841308594 10.097756385803222656 10.069008827209472656 10.042184829711914062 10.019450187683105469 9.9985170364379882812 9.9797048568725585938 9.9606838226318359375 9.9416294097900390625 9.9204778671264648438 9.8987216949462890625 9.8758440017700195312 9.8540506362915039062 9.8329477310180664062 9.814525604248046875 9.79803466796875 9.7838315963745117188 9.7704114913940429688 9.7577600479125976562 9.7444705963134765625 9.730701446533203125 9.7159128189086914062 9.7013635635375976562 9.6869363784790039062 9.6738557815551757812 9.6620845794677734375 9.6523571014404296875 9.6440992355346679688 9.6374006271362304688 9.6317434310913085938 9.627105712890625 9.6231689453125 9.6202383041381835938 9.6185398101806640625 9.6184444427490234375 9.6203069686889648438 9.6243228912353515625 9.6305952072143554688 9.6384563446044921875 9.6476564407348632812 9.6573925018310546875 9.6674356460571289062 9.6771268844604492188 9.6866674423217773438 9.695903778076171875 9.7051639556884765625 9.7143268585205078125 9.7236690521240234375 9.732875823974609375 9.7418212890625 9.7500085830688476562 9.75724029541015625 9.7630748748779296875 
14.256006240844726562 14.327485084533691406 14.399042129516601562 14.47119903564453125 14.542811393737792969 14.614614486694335938 14.685909271240234375 14.757391929626464844 14.828566551208496094 14.90001678466796875 14.971436500549316406 15.043282508850097656 15.115403175354003906 15.1881103515625 15.261391639709472656 15.335404396057128906 15.410284996032714844 15.486046791076660156 15.563002586364746094 15.640958786010742188 15.720234870910644531 15.800093650817871094 15.880244255065917969 15.959117889404296875 16.038028717041015625 16.115436553955078125 16.187143325805664062 16.252954483032226562 16.380243301391601562 16.572139739990234375 16.761096954345703125 16.945690155029296875 17.130449295043945312 17.31357574462890625 17.4989166259765625 17.682590484619140625 17.868518829345703125 18.052408218383789062 18.238618850708007812 18.422494888305664062 18.608819961547851562 18.792566299438476562 18.978931427001953125 19.162506103515625 19.348880767822265625 19.531320571899414062 19.665744781494140625 19.604780197143554688 19.516483306884765625 19.432008743286132812 19.347974777221679688 19.2673492431640625 19.1867828369140625 19.109325408935546875 19.031637191772460938 18.956890106201171875 18.881740570068359375 18.809385299682617188 18.736419677734375 18.666110992431640625 18.5950164794921875 18.526475906372070312 18.457000732421875 18.390005111694335938 18.321943283081054688 18.256311416625976562 18.189495086669921875 18.125074386596679688 18.059370040893554688 17.996042251586914062 17.93134307861328125 17.869024276733398438 17.805334091186523438 17.744110107421875 17.681453704833984375 17.621242523193359375 17.559513092041015625 17.500217437744140625 17.439327239990234375 17.380872726440429688 17.320760726928710938 17.263088226318359375 17.20369720458984375 17.146753311157226562 17.0880279541015625 17.031770706176757812 16.9736785888671875 16.918069839477539062 16.860567092895507812 16.805570602416992188 16.748632431030273438 16.69422149658203125 16.637821197509765625 16.5839691162109375 16.528079986572265625 16.474803924560546875 16.419504165649414062 16.36685943603515625 16.312145233154296875 16.260105133056640625 16.205959320068359375 16.154508590698242188 16.10091400146484375 16.050037384033203125 15.996978759765625 15.946671485900878906 15.894184112548828125 15.844494819641113281 15.792601585388183594 15.743526458740234375 15.692221641540527344 15.643758773803710938 15.593042373657226562 15.545189857482910156 15.495065689086914062 15.4478302001953125 15.398305892944335938 15.351664543151855469 15.302616119384765625 15.256394386291503906 15.207729339599609375 15.161921501159667969 15.113636016845703125 15.068226814270019531 15.020315170288085938 14.975315093994140625 14.927794456481933594 14.883218765258789062 14.836126327514648438 14.792062759399414062 14.745509147644042969 14.701999664306640625 14.655987739562988281 14.613042831420898438 14.567600250244140625 14.525271415710449219 14.480477333068847656 14.438823699951171875 14.394719123840332031 14.353729248046875 14.310194015502929688 14.269724845886230469 14.226706504821777344 14.186776161193847656 14.144305229187011719 14.104947090148925781 14.063061714172363281 14.024301528930664062 13.9830322265625 13.944914817810058594 13.904318809509277344 13.866893768310546875 13.827031135559082031 13.790354728698730469 13.751292228698730469 13.715443611145019531 13.677290916442871094 13.642389297485351562 13.605295181274414062 13.571491241455078125 13.535641670227050781 13.503131866455078125 13.468774795532226562 13.437818527221679688 13.405282020568847656 13.376223564147949219 13.3459625244140625 13.319271087646484375 13.291929244995117188 13.268280982971191406 13.244748115539550781 13.225104331970214844 13.206533432006835938 13.192210197448730469 13.180501937866210938 13.173838615417480469 13.172228813171386719 13.175307273864746094 13.17967987060546875 13.184049606323242188 13.189124107360839844 13.194156646728515625 13.200284004211425781 13.207403182983398438 13.217396736145019531 13.229967117309570312 13.244559288024902344 13.246430397033691406 13.227420806884765625 13.192517280578613281 13.14630889892578125 13.103117942810058594 13.058724403381347656 13.018457412719726562 12.97634124755859375 12.937114715576171875 12.895244598388671875 12.855790138244628906 12.813518524169921875 12.773565292358398438 12.730790138244628906 12.690332412719726562 12.647097587585449219 12.606201171875 12.562589645385742188 12.521340370178222656 12.477447509765625 12.435933113098144531 12.392598152160644531 12.356354713439941406 12.32364654541015625 12.295510292053222656 12.267357826232910156 12.241616249084472656 12.21502685546875 12.190206527709960938 12.164278984069824219 12.139855384826660156 12.114227294921875 12.089964866638183594 12.06446075439453125 12.040239334106445312 12.015289306640625 11.994142532348632812 12.093531608581542969 11.919149398803710938 11.687734603881835938 11.52239227294921875 11.391931533813476562 11.293542861938476562 11.202704429626464844 11.117104530334472656 11.026706695556640625 10.940435409545898438 10.851680755615234375 10.769135475158691406 10.686702728271484375 10.612187385559082031 10.540119171142578125 10.477148056030273438 10.418935775756835938 10.370817184448242188 10.328908920288085938 10.294829368591308594 10.263777732849121094 10.236027717590332031 10.207292556762695312 10.177996635437011719 10.145840644836425781 10.114213943481445312 10.082080841064453125 10.052855491638183594 10.025709152221679688 10.002870559692382812 9.9820098876953125 9.963390350341796875 9.9446420669555664062 9.9258737564086914062 9.9049959182739257812 9.8834829330444335938 9.86086273193359375 9.83935546875 9.8186168670654296875 9.8006448745727539062 9.78472137451171875 9.7711591720581054688 9.7584638595581054688 9.7465620040893554688 9.734058380126953125 9.72106170654296875 9.7070646286010742188 9.69329833984375 9.6796894073486328125 9.667438507080078125 9.6565532684326171875 9.6477251052856445312 9.6403951644897460938 9.6345891952514648438 9.6298017501831054688 9.6259508132934570312 9.6227321624755859375 9.6204433441162109375 9.6193704605102539062 9.6198949813842773438 9.62242889404296875 9.6271724700927734375 9.6342554092407226562 9.6429300308227539062 9.6529102325439453125 9.6633167266845703125 9.6738872528076171875 9.6839113235473632812 9.6936473846435546875 9.7030029296875 9.7123851776123046875 9.7217397689819335938 9.7314128875732421875 9.7410736083984375 9.75052642822265625 9.7591733932495117188 9.7667264938354492188 9.7726564407348632812 
14.276979446411132812 14.350975990295410156 14.424060821533203125 14.497442245483398438 14.570301055908203125 14.643357276916503906 14.715859413146972656 14.788526535034179688 14.860894203186035156 14.933588027954101562 15.006314277648925781 15.079557418823242188 15.153168678283691406 15.227479934692382812 15.302486419677734375 15.378363609313964844 15.455251693725585938 15.533133506774902344 15.612267494201660156 15.692478179931640625 15.774240493774414062 15.8570709228515625 15.94138336181640625 16.025774002075195312 16.109945297241210938 16.193950653076171875 16.274213790893554688 16.346216201782226562 16.479389190673828125 16.668245315551757812 16.854793548583984375 17.036767959594726562 17.220523834228515625 17.403367996215820312 17.588825225830078125 17.772836685180664062 17.959207534790039062 18.143579483032226562 18.33028411865234375 18.51464080810546875 18.701429367065429688 18.885606765747070312 19.072368621826171875 19.256288528442382812 19.442960739135742188 19.631395339965820312 19.685258865356445312 19.598752975463867188 19.513004302978515625 19.4308319091796875 19.348966598510742188 19.27031707763671875 19.191629409790039062 19.115892410278320312 19.039869308471679688 18.96666717529296875 18.89300537109375 18.822015762329101562 18.750370025634765625 18.681278228759765625 18.611364364624023438 18.543916702270507812 18.475505828857421875 18.409498214721679688 18.342401504516601562 18.277666091918945312 18.21173095703125 18.148134231567382812 18.083242416381835938 18.020671844482421875 17.956720352172851562 17.895114898681640625 17.832143783569335938 17.771579742431640625 17.709568023681640625 17.649946212768554688 17.58879852294921875 17.530038833618164062 17.469676971435546875 17.411708831787109375 17.352077484130859375 17.294849395751953125 17.23589324951171875 17.179351806640625 17.121023178100585938 17.06513214111328125 17.0074005126953125 16.952119827270507812 16.8949432373046875 16.840242385864257812 16.783597946166992188 16.72945404052734375 16.673313140869140625 16.61969757080078125 16.564043045043945312 16.510980606079101562 16.455884933471679688 16.40341949462890625 16.348876953125 16.296985626220703125 16.242979049682617188 16.191646575927734375 16.138158798217773438 16.087369918823242188 16.034389495849609375 15.984142303466796875 15.931702613830566406 15.882042884826660156 15.830163002014160156 15.781085014343261719 15.729761123657226562 15.681263923645019531 15.630494117736816406 15.582575798034667969 15.532366752624511719 15.485033035278320312 15.435389518737792969 15.3886260986328125 15.339442253112792969 15.293081283569335938 15.244257926940917969 15.198289871215820312 15.149823188781738281 15.1042327880859375 15.056116104125976562 15.010910987854003906 14.963159561157226562 14.918354988098144531 14.870995521545410156 14.826657295227050781 14.779796600341796875 14.735982894897460938 14.689627647399902344 14.646345138549804688 14.600519180297851562 14.557805061340332031 14.512578010559082031 14.47049713134765625 14.425916671752929688 14.384479522705078125 14.340462684631347656 14.299527168273925781 14.255991935729980469 14.215561866760253906 14.172537803649902344 14.132643699645996094 14.090167045593261719 14.050837516784667969 14.00893402099609375 13.970203399658203125 13.928926467895507812 13.890844345092773438 13.850248336791992188 13.812867164611816406 13.773013114929199219 13.736399650573730469 13.697385787963867188 13.661646842956542969 13.623604774475097656 13.588877677917480469 13.551980018615722656 13.518445014953613281 13.482913970947265625 13.450804710388183594 13.416939735412597656 13.386569023132324219 13.3547821044921875 13.326571464538574219 13.29744720458984375 13.272004127502441406 13.246348381042480469 13.224572181701660156 13.203476905822753906 13.186548233032226562 13.171673774719238281 13.161668777465820312 13.15594482421875 13.15618133544921875 13.159698486328125 13.163346290588378906 13.167572975158691406 13.171742439270019531 13.176661491394042969 13.182305335998535156 13.190514564514160156 13.201153755187988281 13.215577125549316406 13.218564987182617188 13.197553634643554688 13.159746170043945312 13.113676071166992188 13.07216644287109375 13.029398918151855469 12.990522384643554688 12.949497222900390625 12.911049842834472656 12.869847297668457031 12.830913543701171875 12.789119720458984375 12.749561309814453125 12.707162857055664062 12.66703033447265625 12.624113082885742188 12.583499908447265625 12.540174484252929688 12.499181747436523438 12.455554962158203125 12.414872169494628906 12.376685142517089844 12.345964431762695312 12.316392898559570312 12.289936065673828125 12.2628936767578125 12.237852096557617188 12.211779594421386719 12.187312126159667969 12.161660194396972656 12.137433052062988281 12.111962318420410156 12.0878143310546875 12.062403678894042969 12.038362503051757812 12.014948844909667969 12.128050804138183594 12.157365798950195312 11.884867668151855469 11.663767814636230469 11.505086898803710938 11.37908172607421875 11.283329963684082031 11.194370269775390625 11.110273361206054688 11.021229743957519531 10.93596649169921875 10.847872734069824219 10.765503883361816406 10.682706832885742188 10.607379913330078125 10.534140586853027344 10.469900131225585938 10.410394668579101562 10.361219406127929688 10.318500518798828125 10.283867835998535156 10.252383232116699219 10.2242584228515625 10.195075035095214844 10.165220260620117188 10.132356643676757812 10.099997520446777344 10.067131996154785156 10.037302970886230469 10.009715080261230469 9.9866609573364257812 9.9657735824584960938 9.9472723007202148438 9.928752899169921875 9.9102649688720703125 9.889705657958984375 9.8685216903686523438 9.8462734222412109375 9.8251743316650390625 9.8049221038818359375 9.7874975204467773438 9.7722234725952148438 9.7593593597412109375 9.747432708740234375 9.7363138198852539062 9.7246313095092773438 9.7124385833740234375 9.6992664337158203125 9.6863107681274414062 9.6735429763793945312 9.6621313095092773438 9.652126312255859375 9.6441707611083984375 9.6377248764038085938 9.6327533721923828125 9.62876129150390625 9.6256113052368164062 9.6230154037475585938 9.6212644577026367188 9.6207113265991210938 9.6217527389526367188 9.6248645782470703125 9.63025665283203125 9.6380786895751953125 9.6475162506103515625 9.6582498550415039062 9.6693267822265625 9.6804475784301757812 9.69085693359375 9.7008504867553710938 9.7103872299194335938 9.719928741455078125 9.7294778823852539062 9.7394304275512695312 9.7494373321533203125 9.7592439651489257812 9.76816558837890625 9.775844573974609375 9.7816705703735351562 
14.297651290893554688 14.374115943908691406 14.449110031127929688 14.5238800048828125 14.597722053527832031 14.671636581420898438 14.744986534118652344 14.818535804748535156 14.891845703125 14.965576171875 15.039434432983398438 15.113912582397460938 15.188858985900878906 15.264614105224609375 15.341176986694335938 15.418735504150390625 15.497441291809082031 15.57730865478515625 15.658623695373535156 15.74115753173828125 15.825353622436523438 15.911067008972167969 15.999228477478027344 16.08916473388671875 16.180505752563476562 16.270969390869140625 16.36215972900390625 16.444385528564453125 16.582530975341796875 16.767019271850585938 16.948633193969726562 17.128856658935546875 17.31246185302734375 17.49562835693359375 17.68151092529296875 17.866006851196289062 18.052913665771484375 18.237829208374023438 18.425075531005859375 18.609941482543945312 18.797214508056640625 18.9818267822265625 19.168985366821289062 19.353242874145507812 19.539981842041015625 19.704160690307617188 19.677354812622070312 19.593532562255859375 19.510295867919921875 19.430398941040039062 19.350683212280273438 19.27399444580078125 19.197174072265625 19.123155593872070312 19.048801422119140625 18.977140426635742188 18.90496063232421875 18.835336685180664062 18.765008926391601562 18.69713592529296875 18.628406524658203125 18.562055587768554688 18.494714736938476562 18.429700851440429688 18.363576889038085938 18.299749374389648438 18.234710693359375 18.171945571899414062 18.107875823974609375 18.046070098876953125 17.982877731323242188 17.922000885009765625 17.85974884033203125 17.799844741821289062 17.7384796142578125 17.679452896118164062 17.618892669677734375 17.560672760009765625 17.50084686279296875 17.443372726440429688 17.384229660034179688 17.327449798583984375 17.268938064575195312 17.212802886962890625 17.154882431030273438 17.099361419677734375 17.041996002197265625 16.98705291748046875 16.930208206176757812 16.875810623168945312 16.81946563720703125 16.765592575073242188 16.709720611572265625 16.656347274780273438 16.600933074951171875 16.54808807373046875 16.49320220947265625 16.440921783447265625 16.386556625366210938 16.334817886352539062 16.280956268310546875 16.22974395751953125 16.176370620727539062 16.125673294067382812 16.072774887084960938 16.022592544555664062 15.97020721435546875 15.920581817626953125 15.86872100830078125 15.819646835327148438 15.768307685852050781 15.719780921936035156 15.668964385986328125 15.620985984802246094 15.570695877075195312 15.5232696533203125 15.473512649536132812 15.426631927490234375 15.377314567565917969 15.330817222595214844 15.281836509704589844 15.235709190368652344 15.18706512451171875 15.141295433044433594 15.092977523803710938 15.047570228576660156 14.999591827392578125 14.954561233520507812 14.906943321228027344 14.862334251403808594 14.815168380737304688 14.771053314208984375 14.724360466003417969 14.680743217468261719 14.634542465209960938 14.591448783874511719 14.545793533325195312 14.503291130065917969 14.458238601684570312 14.416351318359375 14.371850967407226562 14.330449104309082031 14.28639984130859375 14.245471000671386719 14.201894760131835938 14.161467552185058594 14.118399620056152344 14.078500747680664062 14.035965919494628906 13.996623992919921875 13.954668045043945312 13.91593170166015625 13.874605178833007812 13.836522102355957031 13.795882225036621094 13.758508682250976562 13.718638420104980469 13.682069778442382812 13.64308929443359375 13.607450485229492188 13.569515228271484375 13.534967422485351562 13.498279571533203125 13.465036392211914062 13.429864883422851562 13.398206710815429688 13.364924430847167969 13.33522796630859375 13.304366111755371094 13.277176856994628906 13.249456405639648438 13.225589752197265625 13.202042579650878906 13.182593345642089844 13.164668083190917969 13.151456832885742188 13.141763687133789062 13.138003349304199219 13.139616012573242188 13.142561912536621094 13.145918846130371094 13.149229049682617188 13.152987480163574219 13.157166481018066406 13.163473129272460938 13.171977043151855469 13.18561553955078125 13.190093994140625 13.166265487670898438 13.125766754150390625 13.081072807312011719 13.041324615478515625 13.000326156616210938 12.962738037109375 12.922711372375488281 12.884988784790039062 12.844411849975585938 12.805972099304199219 12.7646331787109375 12.725454330444335938 12.683421134948730469 12.643603324890136719 12.600999832153320312 12.560664176940917969 12.517618179321289062 12.476881027221679688 12.434173583984375 12.39841461181640625 12.3662109375 12.338542938232421875 12.310789108276367188 12.285397529602050781 12.259103775024414062 12.234554290771484375 12.208856582641601562 12.184653282165527344 12.159209251403808594 12.135133743286132812 12.109785079956054688 12.085724830627441406 12.060405731201171875 12.037252426147460938 12.07730865478515625 12.387427330017089844 12.106464385986328125 11.846567153930664062 11.63651275634765625 11.484777450561523438 11.36327362060546875 11.270125389099121094 11.183093070983886719 11.100735664367675781 11.013479232788085938 10.929764747619628906 10.842966079711914062 10.761387825012207031 10.678826332092285156 10.603189468383789062 10.529224395751953125 10.464061737060546875 10.403532028198242188 10.353466033935546875 10.310013771057128906 10.274814605712890625 10.2427978515625 10.214130401611328125 10.184264183044433594 10.153566360473632812 10.119668960571289062 10.086240768432617188 10.052293777465820312 10.021539688110351562 9.9932155609130859375 9.9697122573852539062 9.94861602783203125 9.930118560791015625 9.9117822647094726562 9.8936033248901367188 9.873462677001953125 9.8527660369873046875 9.8310937881469726562 9.8106184005737304688 9.7910661697387695312 9.7743711471557617188 9.7598896026611328125 9.747833251953125 9.7367687225341796875 9.726512908935546875 9.71573638916015625 9.7044401168823242188 9.6921930313110351562 9.6801424026489257812 9.6682958602905273438 9.6577749252319335938 9.6486644744873046875 9.641559600830078125 9.6359462738037109375 9.631744384765625 9.6284761428833007812 9.6259622573852539062 9.62393951416015625 9.6226978302001953125 9.62264251708984375 9.6241893768310546875 9.6278676986694335938 9.6338987350463867188 9.6424493789672851562 9.6526355743408203125 9.6641149520874023438 9.6758584976196289062 9.6875314712524414062 9.6983385086059570312 9.7086029052734375 9.7183237075805664062 9.7280149459838867188 9.7377166748046875 9.7478742599487304688 9.7581186294555664062 9.7681398391723632812 9.7771806716918945312 9.7848138809204101562 9.7903642654418945312 
14.316802024841308594 14.395447731018066406 14.472110748291015625 14.54807281494140625 14.622696876525878906 14.697124481201171875 14.770952224731445312 14.845104217529296875 14.919154167175292969 14.99373626708984375 15.06853485107421875 15.144039154052734375 15.220087051391601562 15.297022819519042969 15.374848365783691406 15.453760147094726562 15.533929824829101562 15.61540985107421875 15.698571205139160156 15.783314704895019531 15.870182991027832031 15.958821296691894531 16.050191879272460938 16.144449234008789062 16.242433547973632812 16.341068267822265625 16.44249725341796875 16.5399322509765625 16.682373046875 16.85938262939453125 17.03688812255859375 17.216722488403320312 17.400798797607421875 17.584676742553710938 17.771303176879882812 17.95647430419921875 18.14402008056640625 18.329532623291015625 18.517347335815429688 18.70272064208984375 18.8904571533203125 19.075479507446289062 19.262998580932617188 19.44754791259765625 19.640499114990234375 19.746976852416992188 19.670755386352539062 19.589418411254882812 19.508512496948242188 19.430730819702148438 19.35301971435546875 19.278163909912109375 19.203092575073242188 19.1306915283203125 19.057905197143554688 18.987689971923828125 18.916898727416992188 18.848558425903320312 18.77947235107421875 18.712749481201171875 18.645135879516601562 18.579822540283203125 18.513492584228515625 18.449422836303710938 18.384225845336914062 18.321260452270507812 18.257070541381835938 18.195096969604492188 18.131807327270507812 18.070728302001953125 18.00826263427734375 17.948076248168945312 17.886501312255859375 17.827219009399414062 17.766466140747070312 17.7080078125 17.648004531860351562 17.590299606323242188 17.53098297119140625 17.473979949951171875 17.415302276611328125 17.358951568603515625 17.300863265991210938 17.245121002197265625 17.187585830688476562 17.132421493530273438 17.075408935546875 17.020786285400390625 16.964260101318359375 16.91015625 16.854099273681640625 16.800487518310546875 16.744873046875 16.69173431396484375 16.636552810668945312 16.583917617797851562 16.52923583984375 16.477130889892578125 16.422937393188476562 16.371347427368164062 16.317625045776367188 16.26653289794921875 16.213268280029296875 16.162662506103515625 16.109846115112304688 16.059732437133789062 16.0074005126953125 15.957813262939453125 15.905975341796875 15.856908798217773438 15.805562019348144531 15.757013320922851562 15.706157684326171875 15.658127784729003906 15.607766151428222656 15.560258865356445312 15.510399818420410156 15.463409423828125 15.413969993591308594 15.367345809936523438 15.318221092224121094 15.271946907043457031 15.223137855529785156 15.177202224731445312 15.128697395324707031 15.083102226257324219 15.034914016723632812 14.989673614501953125 14.9418182373046875 14.896961212158203125 14.849512100219726562 14.805116653442382812 14.75811004638671875 14.714180946350097656 14.667631149291992188 14.624189376831054688 14.578137397766113281 14.535242080688476562 14.489749908447265625 14.447438240051269531 14.402482986450195312 14.360644340515136719 14.316110610961914062 14.274715423583984375 14.230620384216308594 14.189693450927734375 14.146069526672363281 14.105638504028320312 14.062511444091796875 14.0225982666015625 13.980006217956542969 13.940656661987304688 13.898646354675292969 13.859903335571289062 13.818529129028320312 13.780445098876953125 13.739775657653808594 13.702432632446289062 13.662578582763671875 13.626090049743652344 13.587190628051757812 13.551703453063964844 13.513942718505859375 13.479647636413574219 13.443267822265625 13.410420417785644531 13.375759124755859375 13.344696044921875 13.312236785888671875 13.283446311950683594 13.253838539123535156 13.228055953979492188 13.202253341674804688 13.180507659912109375 13.159811973571777344 13.143697738647460938 13.130429267883300781 13.122824668884277344 13.120913505554199219 13.122961997985839844 13.125515937805175781 13.127997398376464844 13.130711555480957031 13.133557319641113281 13.137991905212402344 13.144397735595703125 13.15633392333984375 13.162614822387695312 13.135080337524414062 13.09310150146484375 13.050594329833984375 13.012599945068359375 12.973261833190917969 12.936764717102050781 12.897597312927246094 12.860503196716308594 12.820476531982421875 12.782475471496582031 12.741545677185058594 12.702710151672363281 12.661007881164550781 12.621479988098144531 12.579164505004882812 12.539086341857910156 12.496304512023925781 12.456295967102050781 12.41855621337890625 12.38834381103515625 12.359246253967285156 12.333208084106445312 12.306520462036132812 12.281795501708984375 12.255990982055664062 12.231776237487792969 12.206338882446289062 12.182320594787597656 12.157026290893554688 12.133058547973632812 12.107796669006347656 12.083799362182617188 12.058881759643554688 12.037384033203125 12.330878257751464844 12.359399795532226562 12.04816436767578125 11.803167343139648438 11.604207992553710938 11.459538459777832031 11.342744827270507812 11.252483367919921875 11.167783737182617188 11.087652206420898438 11.002775192260742188 10.921233177185058594 10.836413383483886719 10.756295204162597656 10.674647331237792969 10.599320411682128906 10.525223731994628906 10.459645271301269531 10.398539543151855469 10.34792327880859375 10.303986549377441406 10.268362998962402344 10.235861778259277344 10.206607818603515625 10.175917625427246094 10.1441650390625 10.108937263488769531 10.074112892150878906 10.038729667663574219 10.006711006164550781 9.9773349761962890625 9.9531221389770507812 9.9316072463989257812 9.912975311279296875 9.8947515487670898438 9.8768911361694335938 9.8572664260864257812 9.8372144699096679688 9.8163232803344726562 9.7966814041137695312 9.7780323028564453125 9.7622251510620117188 9.7486476898193359375 9.7374658584594726562 9.7273035049438476562 9.7179384231567382812 9.7080965042114257812 9.6977367401123046875 9.6864633560180664062 9.6753559112548828125 9.6644506454467773438 9.6548032760620117188 9.646514892578125 9.6401433944702148438 9.6352100372314453125 9.6316137313842773438 9.62891387939453125 9.62691497802734375 9.6253843307495117188 9.624614715576171875 9.6250438690185546875 9.627094268798828125 9.6313304901123046875 9.6379747390747070312 9.6472034454345703125 9.6580781936645507812 9.6702251434326171875 9.6825580596923828125 9.6947154998779296875 9.705860137939453125 9.7163400650024414062 9.7261877059936523438 9.7359561920166015625 9.7457218170166015625 9.7559604644775390625 9.76629638671875 9.7763652801513671875 9.7853555679321289062 9.7927837371826171875 9.7979230880737304688 
14.335631370544433594 14.416202545166015625 14.493955612182617188 14.570540428161621094 14.645651817321777344 14.720620155334472656 14.795033454895019531 14.869794845581054688 14.944488525390625 15.019789695739746094 15.095380783081054688 15.171751022338867188 15.248731613159179688 15.326668739318847656 15.405564308166503906 15.485630989074707031 15.56707000732421875 15.649965286254882812 15.734740257263183594 15.821374893188476562 15.910550117492675781 16.002107620239257812 16.096910476684570312 16.194757461547851562 16.297914505004882812 16.405780792236328125 16.517946243286132812 16.635440826416015625 16.781871795654296875 16.94927215576171875 17.125242233276367188 17.305820465087890625 17.490793228149414062 17.675397872924804688 17.862768173217773438 18.048780441284179688 18.23723602294921875 18.42363739013671875 18.612283706665039062 18.798364639282226562 18.986665725708007812 19.17211151123046875 19.359975814819335938 19.54477691650390625 19.728113174438476562 19.747190475463867188 19.665040969848632812 19.586137771606445312 19.5075225830078125 19.431829452514648438 19.35610198974609375 19.283061981201171875 19.209728240966796875 19.138944625854492188 19.067718505859375 18.99893951416015625 18.929534912109375 18.8624725341796875 18.794628143310546875 18.729055404663085938 18.662563323974609375 18.598293304443359375 18.532983779907226562 18.469861984252929688 18.405595779418945312 18.34349822998046875 18.280162811279296875 18.218984603881835938 18.156480789184570312 18.096134185791015625 18.034404754638671875 17.974908828735351562 17.914011001586914062 17.855356216430664062 17.79521942138671875 17.737331390380859375 17.677890777587890625 17.620706558227539062 17.5619049072265625 17.505376815795898438 17.447170257568359375 17.391252517700195312 17.33359527587890625 17.278249740600585938 17.221109390258789062 17.1663055419921875 17.109649658203125 17.055356979370117188 16.999156951904296875 16.945346832275390625 16.889583587646484375 16.836240768432617188 16.78089141845703125 16.727993011474609375 16.673048019409179688 16.620626449584960938 16.566150665283203125 16.514230728149414062 16.460210800170898438 16.408773422241210938 16.355194091796875 16.304227828979492188 16.251077651977539062 16.200567245483398438 16.147838592529296875 16.097797393798828125 16.045526504516601562 15.99597930908203125 15.944169998168945312 15.895114898681640625 15.843766212463378906 15.795198440551757812 15.744309425354003906 15.696231842041015625 15.645806312561035156 15.5982208251953125 15.548264503479003906 15.501170158386230469 15.451610565185546875 15.404862403869628906 15.355595588684082031 15.309177398681640625 15.260204315185546875 15.214105606079101562 15.165415763854980469 15.11963653564453125 15.071240425109863281 15.025793075561523438 14.9777069091796875 14.93260955810546875 14.884881973266601562 14.840209007263183594 14.7928924560546875 14.7486572265625 14.701764106750488281 14.65798187255859375 14.611539840698242188 14.568258285522460938 14.522332191467285156 14.479597091674804688 14.434186935424804688 14.391913414001464844 14.346898078918457031 14.305037498474121094 14.260428428649902344 14.219003677368164062 14.174828529357910156 14.133866310119628906 14.090149879455566406 14.049669265747070312 14.006443977355957031 13.96648406982421875 13.923795700073242188 13.8843994140625 13.842295646667480469 13.803506851196289062 13.762045860290527344 13.723937034606933594 13.683218002319335938 13.645891189575195312 13.606039047241210938 13.5696258544921875 13.530806541442871094 13.495478630065917969 13.457911491394042969 13.42389678955078125 13.38788604736328125 13.355484962463378906 13.321466445922851562 13.291116714477539062 13.259672164916992188 13.232029914855957031 13.204023361206054688 13.180048942565917969 13.156675338745117188 13.137765884399414062 13.121064186096191406 13.109784126281738281 13.103465080261230469 13.103406906127929688 13.105166435241699219 13.106812477111816406 13.108521461486816406 13.110108375549316406 13.112647056579589844 13.116878509521484375 13.126109123229980469 13.134152412414550781 13.101716995239257812 13.06055450439453125 13.020488739013671875 12.984366416931152344 12.946546554565429688 12.911027908325195312 12.872639656066894531 12.836125373840332031 12.796610832214355469 12.759022712707519531 12.718480110168457031 12.679972648620605469 12.638592720031738281 12.599345207214355469 12.55731201171875 12.517486572265625 12.475488662719726562 12.440149307250976562 12.408433914184570312 12.381249427795410156 12.353917121887207031 12.328896522521972656 12.302918434143066406 12.278657913208007812 12.253206253051757812 12.229237556457519531 12.2039947509765625 12.180117607116699219 12.154936790466308594 12.13105010986328125 12.105854034423828125 12.081974983215332031 12.058344841003417969 12.218731880187988281 12.570157051086425781 12.271841049194335938 11.980990409851074219 11.751475334167480469 11.564145088195800781 11.426999092102050781 11.315381050109863281 11.22846221923828125 11.146615982055664062 11.069271087646484375 10.987421989440917969 10.908712387084960938 10.82659149169921875 10.748631477355957031 10.668622016906738281 10.59427642822265625 10.520704269409179688 10.45528411865234375 10.394114494323730469 10.343346595764160156 10.299223899841308594 10.26335906982421875 10.23046875 10.200627326965332031 10.169028282165527344 10.136066436767578125 10.0992889404296875 10.062821388244628906 10.025723457336425781 9.9921751022338867188 9.9614915847778320312 9.9363622665405273438 9.9142599105834960938 9.8953866958618164062 9.877223968505859375 9.8597002029418945312 9.8406839370727539062 9.8214244842529296875 9.8015069961547851562 9.7829046249389648438 9.765361785888671875 9.7506113052368164062 9.7380743026733398438 9.7278661727905273438 9.7186899185180664062 9.7102861404418945312 9.70145416259765625 9.6921072006225585938 9.681888580322265625 9.6717939376831054688 9.6618700027465820312 9.6530942916870117188 9.6455774307250976562 9.6398344039916992188 9.6354417800903320312 9.632305145263671875 9.6300363540649414062 9.6284551620483398438 9.6273698806762695312 9.6270685195922851562 9.6280126571655273438 9.630603790283203125 9.6354379653930664062 9.642711639404296875 9.6526136398315429688 9.6641435623168945312 9.6769161224365234375 9.6897897720336914062 9.7023744583129882812 9.7138080596923828125 9.724452972412109375 9.7343654632568359375 9.7441310882568359375 9.7538537979125976562 9.7640371322631835938 9.7742938995361328125 9.784229278564453125 9.7929887771606445312 9.800037384033203125 9.804622650146484375 
14.352868080139160156 14.434624671936035156 14.512709617614746094 14.589554786682128906 14.665079116821289062 14.740565299987792969 14.815541267395019531 14.890898704528808594 14.966212272644042969 15.042157173156738281 15.11841583251953125 15.195488929748535156 15.273210525512695312 15.351933479309082031 15.431666374206542969 15.512631416320800781 15.595042228698730469 15.679007530212402344 15.764987945556640625 15.853018760681152344 15.943899154663085938 16.037626266479492188 16.135309219360351562 16.236637115478515625 16.343610763549804688 16.4583282470703125 16.582189559936523438 16.72141265869140625 16.87062835693359375 17.031774520874023438 17.208898544311523438 17.390367507934570312 17.575925827026367188 17.761442184448242188 17.950006484985351562 18.1372833251953125 18.326984405517578125 18.51453399658203125 18.7042236328125 18.891199111938476562 19.080259323120117188 19.266263961791992188 19.454507827758789062 19.638095855712890625 19.784168243408203125 19.740179061889648438 19.660528182983398438 19.583887100219726562 19.507404327392578125 19.433658599853515625 19.35977935791015625 19.288438796997070312 19.216739654541015625 19.147478103637695312 19.077714920043945312 19.010286331176757812 18.942186355590820312 18.876331329345703125 18.809661865234375 18.745176315307617188 18.679744720458984375 18.616458892822265625 18.55211639404296875 18.489894866943359375 18.426511764526367188 18.365238189697265625 18.302713394165039062 18.242292404174804688 18.180536270141601562 18.120885848999023438 18.059856414794921875 18.001012802124023438 17.94075775146484375 17.88269805908203125 17.823148727416992188 17.765804290771484375 17.706899642944335938 17.650211334228515625 17.591901779174804688 17.535829544067382812 17.4780731201171875 17.422571182250976562 17.365325927734375 17.310361862182617188 17.253597259521484375 17.199140548706054688 17.142827987670898438 17.088850021362304688 17.032960891723632812 16.979440689086914062 16.923959732055664062 16.870874404907226562 16.8157806396484375 16.763113021850585938 16.708398818969726562 16.656183242797851562 16.601907730102539062 16.55016326904296875 16.496311187744140625 16.4450225830078125 16.391584396362304688 16.340738296508789062 16.287700653076171875 16.237285614013671875 16.184644699096679688 16.134674072265625 16.08246612548828125 16.032962799072265625 15.9811859130859375 15.932146072387695312 15.88079833984375 15.832220077514648438 15.781302452087402344 15.733184814453125 15.682702064514160156 15.635048866271972656 15.585005760192871094 15.537815093994140625 15.488144874572753906 15.441282272338867188 15.39188385009765625 15.345331192016601562 15.296207427978515625 15.249955177307128906 15.201093673706054688 15.155142784118652344 15.106553077697753906 15.060914039611816406 15.01261138916015625 14.967297554016113281 14.919312477111816406 14.87438201904296875 14.826776504516601562 14.782254219055175781 14.735040664672851562 14.690943717956542969 14.644144058227539062 14.600502967834472656 14.554173469543457031 14.511041641235351562 14.46520233154296875 14.422518730163574219 14.377051353454589844 14.334753990173339844 14.289661407470703125 14.247769355773925781 14.203076362609863281 14.161614418029785156 14.117345809936523438 14.07633209228515625 14.032513618469238281 13.991982460021972656 13.948657989501953125 13.908646583557128906 13.865859031677246094 13.826411247253417969 13.784210205078125 13.745385169982910156 13.703859329223632812 13.66574859619140625 13.625010490417480469 13.587733268737792969 13.547930717468261719 13.5116424560546875 13.472972869873046875 13.437876701354980469 13.400616645812988281 13.366979598999023438 13.331522941589355469 13.299736976623535156 13.266605377197265625 13.237257957458496094 13.207225799560546875 13.181199073791503906 13.155377388000488281 13.133920669555664062 13.114100456237792969 13.099493980407714844 13.088998794555664062 13.085391998291015625 13.08603668212890625 13.086916923522949219 13.08769989013671875 13.088185310363769531 13.088986396789550781 13.091114997863769531 13.096945762634277344 13.105397224426269531 13.068356513977050781 13.030427932739257812 12.992610931396484375 12.958245277404785156 12.921678543090820312 12.886976242065429688 12.849249839782714844 12.813236236572265625 12.774169921875 12.73694610595703125 12.696749687194824219 12.658538818359375 12.617450714111328125 12.578460693359375 12.536687850952148438 12.497456550598144531 12.460108757019042969 12.430387496948242188 12.401784896850585938 12.376185417175292969 12.349874496459960938 12.325484275817871094 12.299966812133789062 12.276018142700195312 12.250809669494628906 12.227013587951660156 12.201909065246582031 12.178131103515625 12.1530303955078125 12.129201889038085938 12.104062080383300781 12.080828666687011719 12.122188568115234375 12.623658180236816406 12.468156814575195312 12.180391311645507812 11.909205436706542969 11.694660186767578125 11.518619537353515625 11.388841629028320312 11.282373428344726562 11.198879241943359375 11.120049476623535156 11.045699119567871094 10.967154502868652344 10.891605377197265625 10.8126068115234375 10.73729705810546875 10.659533500671386719 10.586823463439941406 10.514487266540527344 10.449889183044433594 10.3892822265625 10.338853836059570312 10.294926643371582031 10.259073257446289062 10.225958824157714844 10.195635795593261719 10.163206100463867188 10.129103660583496094 10.090852737426757812 10.052807807922363281 10.014049530029296875 9.9790086746215820312 9.9470272064208984375 9.9209661483764648438 9.8982458114624023438 9.8790884017944335938 9.8609561920166015625 9.843753814697265625 9.82535552978515625 9.80692291259765625 9.78803253173828125 9.7705249786376953125 9.7541494369506835938 9.7405071258544921875 9.7290487289428710938 9.7198438644409179688 9.7116670608520507812 9.7042341232299804688 9.696414947509765625 9.6880826950073242188 9.6789102554321289062 9.6697998046875 9.6608028411865234375 9.6528120040893554688 9.6459379196166992188 9.6406574249267578125 9.6366147994995117188 9.6337537765502929688 9.631744384765625 9.6304531097412109375 9.62973785400390625 9.6298799514770507812 9.63134002685546875 9.6344890594482421875 9.6399250030517578125 9.6478109359741210938 9.6583347320556640625 9.6704530715942382812 9.68376922607421875 9.6970977783203125 9.7100362777709960938 9.7216930389404296875 9.7324419021606445312 9.7423563003540039062 9.752033233642578125 9.7616014480590820312 9.7715711593627929688 9.7815637588500976562 9.7911577224731445312 9.7994928359985351562 9.8060054779052734375 9.8099346160888671875 
14.368976593017578125 14.450814247131347656 14.5291290283203125 14.606311798095703125 14.682223320007324219 14.75815582275390625 14.833635330200195312 14.909542083740234375 14.985425949096679688 15.061955451965332031 15.1388092041015625 15.21649169921875 15.294834136962890625 15.374197959899902344 15.454592704772949219 15.536251068115234375 15.619395256042480469 15.70415496826171875 15.791019439697265625 15.880064964294433594 15.972138404846191406 16.06732177734375 16.166912078857421875 16.271106719970703125 16.381856918334960938 16.5008697509765625 16.634790420532226562 16.79463958740234375 16.947881698608398438 17.11147308349609375 17.290678024291992188 17.472993850708007812 17.660181045532226562 17.847620010375976562 18.038112640380859375 18.227169036865234375 18.418500900268554688 18.607479095458984375 18.79842376708984375 18.9864501953125 19.17638397216796875 19.363061904907226562 19.551792144775390625 19.737667083740234375 19.81168365478515625 19.734128952026367188 19.656930923461914062 19.582513809204101562 19.5081329345703125 19.436305999755859375 19.364255905151367188 19.294595718383789062 19.224523544311523438 19.156768798828125 19.088457107543945312 19.022369384765625 18.95556640625 18.8909149169921875 18.825410842895507812 18.762010574340820312 18.69763946533203125 18.635339736938476562 18.571962356567382812 18.510641098022460938 18.44814300537109375 18.3876953125 18.325983047485351562 18.266321182250976562 18.205310821533203125 18.1463623046875 18.086034774780273438 18.027849197387695312 17.968236923217773438 17.910776138305664062 17.851816177368164062 17.795017242431640625 17.736652374267578125 17.6804656982421875 17.622653961181640625 17.567037582397460938 17.509737014770507812 17.454654693603515625 17.3978271484375 17.3432464599609375 17.286865234375 17.232759475708007812 17.17679595947265625 17.123136520385742188 17.06756591796875 17.014333724975585938 16.959140777587890625 16.906320571899414062 16.8514862060546875 16.7990570068359375 16.74457550048828125 16.692567825317382812 16.63849639892578125 16.586931228637695312 16.53325653076171875 16.482118606567382812 16.42882537841796875 16.378103256225585938 16.325183868408203125 16.274866104125976562 16.222316741943359375 16.172426223754882812 16.120281219482421875 16.070827484130859375 16.019084930419921875 15.970065116882324219 15.91872406005859375 15.870137214660644531 15.819196701049804688 15.771043777465820312 15.720507621765136719 15.67279052734375 15.6226654052734375 15.575383186340332031 15.525603294372558594 15.478628158569335938 15.429100990295410156 15.382416725158691406 15.333144187927246094 15.2867431640625 15.237711906433105469 15.191591262817382812 15.142812728881835938 15.096982955932617188 15.048468589782714844 15.002943992614746094 14.954710960388183594 14.909527778625488281 14.861637115478515625 14.81683349609375 14.769305229187011719 14.724898338317871094 14.6777496337890625 14.633757591247558594 14.587030410766601562 14.543508529663085938 14.497241973876953125 14.454152107238769531 14.408236503601074219 14.365506172180175781 14.319932937622070312 14.277577400207519531 14.232371330261230469 14.190415382385253906 14.145599365234375 14.10405731201171875 14.059651374816894531 14.018553733825683594 13.974598884582519531 13.933980941772460938 13.890515327453613281 13.850414276123046875 13.807482719421386719 13.767951011657714844 13.725628852844238281 13.686745643615722656 13.64513397216796875 13.607007980346679688 13.566239356994628906 13.529007911682128906 13.4892578125 13.453103065490722656 13.41461944580078125 13.379776954650878906 13.342915534973144531 13.309731483459472656 13.274959564208984375 13.24395751953125 13.211963653564453125 13.183938980102539062 13.155747413635253906 13.131833076477050781 13.109013557434082031 13.091217994689941406 13.076727867126464844 13.068858146667480469 13.067091941833496094 13.067252159118652344 13.067136764526367188 13.066619873046875 13.065824508666992188 13.065878868103027344 13.067893028259277344 13.07262420654296875 13.035417556762695312 13.001195907592773438 12.965566635131835938 12.932763099670410156 12.897261619567871094 12.863270759582519531 12.826134681701660156 12.790572166442871094 12.751915931701660156 12.715031623840332031 12.675161361694335938 12.637231826782226562 12.596423149108886719 12.557682037353515625 12.516538619995117188 12.481569290161132812 12.450327873229980469 12.423647880554199219 12.396760940551757812 12.372132301330566406 12.34648895263671875 12.32253265380859375 12.297341346740722656 12.27362060546875 12.248590469360351562 12.224923133850097656 12.199922561645507812 12.176218986511230469 12.151178359985351562 12.127390861511230469 12.102521896362304688 12.080719947814941406 12.483392715454101562 12.641538619995117188 12.347880363464355469 12.0810546875 11.82964324951171875 11.630141258239746094 11.465441703796386719 11.343066215515136719 11.241792678833007812 11.161784172058105469 11.086075782775878906 11.014868736267089844 10.939854621887207031 10.867773056030273438 10.792323112487792969 10.720188140869140625 10.645359992980957031 10.575046539306640625 10.504785537719726562 10.441802978515625 10.382506370544433594 10.333006858825683594 10.289719581604003906 10.254171371459960938 10.221042633056640625 10.190388679504394531 10.157278060913085938 10.122203826904296875 10.0826873779296875 10.043277740478515625 10.003080368041992188 9.9667310714721679688 9.9335947036743164062 9.9066867828369140625 9.8833866119384765625 9.8639554977416992188 9.8458423614501953125 9.8289461135864257812 9.8111572265625 9.79355621337890625 9.7757062911987304688 9.7593221664428710938 9.7441511154174804688 9.731662750244140625 9.7213382720947265625 9.7131938934326171875 9.7060794830322265625 9.6996669769287109375 9.6929063796997070312 9.6856212615966796875 9.6775074005126953125 9.6693696975708007812 9.6612558364868164062 9.6539707183837890625 9.6476068496704101562 9.6426286697387695312 9.6387481689453125 9.6359806060791015625 9.6340732574462890625 9.6329603195190429688 9.6325664520263671875 9.6331462860107421875 9.63515472412109375 9.638904571533203125 9.6449823379516601562 9.6534967422485351562 9.6646270751953125 9.6772947311401367188 9.6910991668701171875 9.7048234939575195312 9.718059539794921875 9.729892730712890625 9.7407007217407226562 9.7505559921264648438 9.7600584030151367188 9.7693424224853515625 9.7789144515991210938 9.7884149551391601562 9.7974224090576171875 9.8050966262817382812 9.8108777999877929688 9.814029693603515625 
14.382773399353027344 14.463871955871582031 14.542332649230957031 14.619897842407226562 14.696214675903320312 14.772562980651855469 14.848465919494628906 14.924824714660644531 15.001194953918457031 15.078237533569335938 15.155606269836425781 15.23378753662109375 15.312600135803222656 15.392401695251464844 15.473210334777832031 15.555281639099121094 15.638866424560546875 15.724110603332519531 15.811492919921875 15.901072502136230469 15.993696212768554688 16.089475631713867188 16.189981460571289062 16.295778274536132812 16.409076690673828125 16.530857086181640625 16.669168472290039062 16.833044052124023438 17.00849151611328125 17.181468963623046875 17.363836288452148438 17.549303054809570312 17.739551544189453125 17.929773330688476562 18.1227874755859375 18.314031600952148438 18.50728607177734375 18.697885513305664062 18.890218734741210938 19.079374313354492188 19.27022552490234375 19.457593917846679688 19.646768569946289062 19.814271926879882812 19.804515838623046875 19.7293701171875 19.65444183349609375 19.582098007202148438 19.509677886962890625 19.439647674560546875 19.369312286376953125 19.301235198974609375 19.232692718505859375 19.166355133056640625 19.099409103393554688 19.03458404541015625 18.96900177001953125 18.905485153198242188 18.841085433959960938 18.778711318969726562 18.715343475341796875 18.653978347778320312 18.591516494750976562 18.531047821044921875 18.469392776489257812 18.409727096557617188 18.348787307739257812 18.289844512939453125 18.22954559326171875 18.1712646484375 18.111608505249023438 18.054044723510742188 17.99504852294921875 17.938154220581054688 17.879756927490234375 17.823480606079101562 17.765634536743164062 17.709924697875976562 17.652585983276367188 17.597410202026367188 17.540544509887695312 17.485866546630859375 17.429437637329101562 17.375226974487304688 17.319211959838867188 17.265443801879882812 17.209814071655273438 17.156463623046875 17.101198196411132812 17.048248291015625 16.9933319091796875 16.940765380859375 16.886182785034179688 16.833982467651367188 16.779726028442382812 16.727922439575195312 16.674047470092773438 16.62265777587890625 16.569149017333984375 16.518159866333007812 16.465007781982421875 16.414407730102539062 16.361602783203125 16.311384201049804688 16.258928298950195312 16.209112167358398438 16.157033920288085938 16.107629776000976562 16.055925369262695312 16.006927490234375 15.955597877502441406 15.907007217407226562 15.856048583984375 15.807865142822265625 15.757283210754394531 15.709509849548339844 15.65930938720703125 15.611943244934082031 15.562064170837402344 15.514984130859375 15.465337753295898438 15.418531417846679688 15.369119644165039062 15.322577476501464844 15.273388862609863281 15.227110862731933594 15.17815399169921875 15.13214874267578125 15.08343505859375 15.037713050842285156 14.989256858825683594 14.94384002685546875 14.89568328857421875 14.850617408752441406 14.80279541015625 14.758097648620605469 14.710625648498535156 14.666312217712402344 14.6192169189453125 14.575330734252929688 14.528660774230957031 14.485188484191894531 14.438851356506347656 14.39571380615234375 14.349689483642578125 14.3069000244140625 14.261211395263671875 14.218790054321289062 14.173459053039550781 14.131421089172363281 14.08646392822265625 14.044835090637207031 14.000288009643554688 13.959100723266601562 13.914999008178710938 13.874286651611328125 13.830670356750488281 13.790476799011230469 13.747408866882324219 13.707805633544921875 13.665377616882324219 13.626460075378417969 13.584791183471679688 13.546681404113769531 13.50592803955078125 13.46878814697265625 13.429171562194824219 13.39321136474609375 13.355053901672363281 13.320576667785644531 13.284293174743652344 13.25177001953125 13.217974662780761719 13.1881103515625 13.157738685607910156 13.131575584411621094 13.10601806640625 13.08531951904296875 13.067205429077148438 13.055370330810546875 13.049686431884765625 13.048876762390136719 13.0479736328125 13.046613693237304688 13.044518470764160156 13.042798995971679688 13.041316032409667969 13.039440155029296875 13.006074905395507812 12.974581718444824219 12.94086456298828125 12.909255027770996094 12.874584197998046875 12.841165542602539062 12.804513931274414062 12.769330978393554688 12.731029510498046875 12.694440841674804688 12.654859542846679688 12.617181777954101562 12.576625823974609375 12.538347244262695312 12.501357078552246094 12.472111701965332031 12.444027900695800781 12.418889999389648438 12.392977714538574219 12.368939399719238281 12.343724250793457031 12.320055961608886719 12.295087814331054688 12.271524429321289062 12.246619224548339844 12.223041534423828125 12.198113441467285156 12.17446136474609375 12.1494598388671875 12.125733375549316406 12.101845741271972656 12.219331741333007812 12.741328239440917969 12.499554634094238281 12.226870536804199219 11.97979736328125 11.746987342834472656 11.561589241027832031 11.407462120056152344 11.291935920715332031 11.195420265197753906 11.118577003479003906 11.045713424682617188 10.977426528930664062 10.905779838562011719 10.837105751037597656 10.765297889709472656 10.696610450744628906 10.625226020812988281 10.557980537414550781 10.490612030029296875 10.430058479309082031 10.372868537902832031 10.324932098388671875 10.282762527465820312 10.2478485107421875 10.214969635009765625 10.184225082397460938 10.150731086730957031 10.115069389343261719 10.07477569580078125 10.034525871276855469 9.993427276611328125 9.9562482833862304688 9.92236328125 9.8948831558227539062 9.8711805343627929688 9.8515577316284179688 9.8334703445434570312 9.8168344497680664062 9.7995634078979492188 9.7826833724975585938 9.7657480239868164062 9.7503662109375 9.7362909317016601562 9.724880218505859375 9.7156467437744140625 9.7085418701171875 9.702480316162109375 9.6970844268798828125 9.6913585662841796875 9.6850738525390625 9.6779413223266601562 9.6706743240356445312 9.6633129119873046875 9.6565732955932617188 9.6505327224731445312 9.6456499099731445312 9.6417188644409179688 9.6388425827026367188 9.63686370849609375 9.6358041763305664062 9.6356563568115234375 9.6366548538208007812 9.639217376708984375 9.6435842514038085938 9.650310516357421875 9.659435272216796875 9.671123504638671875 9.6842660903930664062 9.6984758377075195312 9.7125139236450195312 9.7259769439697265625 9.7379350662231445312 9.7487545013427734375 9.7584962844848632812 9.767742156982421875 9.7766180038452148438 9.7856092453002929688 9.7943878173828125 9.8025598526000976562 9.8093538284301757812 9.8142366409301757812 9.8165369033813476562 
14.395085334777832031 14.475183486938476562 14.553320884704589844 14.631074905395507812 14.707799911499023438 14.784626007080078125 14.861060142517089844 14.937982559204101562 15.014906883239746094 15.092473983764648438 15.170323371887207031 15.248938560485839844 15.328125953674316406 15.408231735229492188 15.489262580871582031 15.571454048156738281 15.655056953430175781 15.740247726440429688 15.827591896057128906 15.917170524597167969 16.00977325439453125 16.10556793212890625 16.2061309814453125 16.312028884887695312 16.425922393798828125 16.54903411865234375 16.686626434326171875 16.841161727905273438 17.053178787231445312 17.241918563842773438 17.432224273681640625 17.623510360717773438 17.818399429321289062 18.012386322021484375 18.208599090576171875 18.402515411376953125 18.598051071166992188 18.790531158447265625 18.98443603515625 19.174839019775390625 19.36667633056640625 19.554759979248046875 19.746355056762695312 19.8633575439453125 19.798463821411132812 19.72565460205078125 19.65293121337890625 19.582605361938476562 19.51210784912109375 19.443845748901367188 19.375202178955078125 19.308689117431640625 19.241662979125976562 19.176725387573242188 19.111127853393554688 19.047552108764648438 18.983182907104492188 18.9207916259765625 18.857488632202148438 18.796136856079101562 18.733766555786132812 18.67333221435546875 18.611783981323242188 18.552165985107421875 18.491346359252929688 18.432462692260742188 18.372293472290039062 18.314069747924804688 18.254484176635742188 18.19687652587890625 18.137891769409179688 18.080951690673828125 18.022569656372070312 17.966245651245117188 17.908412933349609375 17.8526611328125 17.7953338623046875 17.74010467529296875 17.6832427978515625 17.628509521484375 17.57208251953125 17.517810821533203125 17.46178436279296875 17.407945632934570312 17.352300643920898438 17.298871994018554688 17.24358367919921875 17.190542221069335938 17.135587692260742188 17.082920074462890625 17.028287887573242188 16.975978851318359375 16.921651840209960938 16.869684219360351562 16.8156585693359375 16.764059066772460938 16.710384368896484375 16.65917205810546875 16.605836868286132812 16.554998397827148438 16.50199127197265625 16.451517105102539062 16.398830413818359375 16.348712921142578125 16.296354293823242188 16.246618270874023438 16.194610595703125 16.145257949829101562 16.093595504760742188 16.044626235961914062 15.993308067321777344 15.9447174072265625 15.89374542236328125 15.8455352783203125 15.794911384582519531 15.747084617614746094 15.696814537048339844 15.649367332458496094 15.599389076232910156 15.552208900451660156 15.502445220947265625 15.455518722534179688 15.405970573425292969 15.359292030334472656 15.309947967529296875 15.263514518737792969 15.214383125305175781 15.168203353881835938 15.119295120239257812 15.073378562927246094 15.024705886840820312 14.979065895080566406 14.930650711059570312 14.885327339172363281 14.837216377258300781 14.792233467102050781 14.744442939758300781 14.699816703796386719 14.652365684509277344 14.608122825622558594 14.561056137084960938 14.517205238342285156 14.47045135498046875 14.426911354064941406 14.380442619323730469 14.337223052978515625 14.291057586669921875 14.248177528381347656 14.202338218688964844 14.159811019897460938 14.114310264587402344 14.072156906127929688 14.027026176452636719 13.985277175903320312 13.940547943115234375 13.899233818054199219 13.854943275451660156 13.814097404479980469 13.770298004150390625 13.729986190795898438 13.686758041381835938 13.647063255310058594 13.604512214660644531 13.56554412841796875 13.523807525634765625 13.485708236694335938 13.444986343383789062 13.40793609619140625 13.368516921997070312 13.33278656005859375 13.295038223266601562 13.26103973388671875 13.225504875183105469 13.193865776062011719 13.161381721496582031 13.133050918579101562 13.104863166809082031 13.081381797790527344 13.059803962707519531 13.044190406799316406 13.033867835998535156 13.030901908874511719 13.029297828674316406 13.027223587036132812 13.024144172668457031 13.021113395690917969 13.016439437866210938 13.006763458251953125 12.979405403137207031 12.949475288391113281 12.917249679565429688 12.886513710021972656 12.852487564086914062 12.8195343017578125 12.783291816711425781 12.748440742492675781 12.710453987121582031 12.674135208129882812 12.634819984436035156 12.597378730773925781 12.557302474975585938 12.522702217102050781 12.491915702819824219 12.465763092041015625 12.439349174499511719 12.415130615234375 12.389840126037597656 12.366200447082519531 12.341283798217773438 12.317820549011230469 12.2930145263671875 12.269565582275390625 12.244752883911132812 12.221240997314453125 12.196363449096679688 12.172746658325195312 12.147775650024414062 12.124498367309570312 12.136453628540039062 12.576066970825195312 12.593271255493164062 12.35237884521484375 12.100368499755859375 11.872666358947753906 11.658003807067871094 11.486265182495117188 11.342265129089355469 11.233185768127441406 11.141028404235839844 11.067002296447753906 10.99665069580078125 10.931014060974121094 10.862544059753417969 10.797224998474121094 10.729185104370117188 10.664289474487304688 10.596972465515136719 10.533614158630371094 10.470129013061523438 10.412983894348144531 10.35884857177734375 10.313230514526367188 10.2727508544921875 10.238858222961425781 10.20654296875 10.175997734069824219 10.142493247985839844 10.106726646423339844 10.066283226013183594 10.025860786437988281 9.9845638275146484375 9.9471826553344726562 9.913082122802734375 9.8854055404663085938 9.861553192138671875 9.8418664932250976562 9.8238401412963867188 9.8074207305908203125 9.7905683517456054688 9.7742710113525390625 9.7580957412719726562 9.74356842041015625 9.730464935302734375 9.7200565338134765625 9.711883544921875 9.7058305740356445312 9.7008533477783203125 9.696502685546875 9.6918230056762695312 9.6865186691284179688 9.6803121566772460938 9.6738233566284179688 9.6670789718627929688 9.6607275009155273438 9.6548128128051757812 9.6498098373413085938 9.6456022262573242188 9.642414093017578125 9.6401872634887695312 9.6390600204467773438 9.6391057968139648438 9.6405239105224609375 9.6436767578125 9.6487102508544921875 9.6561269760131835938 9.66587066650390625 9.6780910491943359375 9.6916589736938476562 9.7062082290649414062 9.7204942703247070312 9.7341222763061523438 9.746158599853515625 9.7569475173950195312 9.76651763916015625 9.7754106521606445312 9.7837276458740234375 9.7919158935546875 9.7996959686279296875 9.8067312240600585938 9.8123674392700195312 9.8161439895629882812 9.8174943923950195312 
14.405505180358886719 14.484439849853515625 14.5620880126953125 14.639720916748046875 14.716711997985839844 14.794079780578613281 14.871122360229492188 14.948625564575195312 15.026075363159179688 15.104112625122070312 15.182374954223632812 15.2613372802734375 15.340800285339355469 15.421095848083496094 15.502210617065429688 15.584355354309082031 15.667740821838378906 15.752492904663085938 15.839148521423339844 15.927920341491699219 16.019872665405273438 16.11507415771484375 16.214662551879882812 16.31917572021484375 16.4317474365234375 16.552896499633789062 16.686737060546875 16.828554153442382812 17.072839736938476562 17.289602279663085938 17.492498397827148438 17.692060470581054688 17.89302825927734375 18.0916748046875 18.291660308837890625 18.488618850708007812 18.686679840087890625 18.881195068359375 19.076763153076171875 19.268451690673828125 19.461277008056640625 19.650043487548828125 19.834041595458984375 19.866884231567382812 19.793817520141601562 19.723171234130859375 19.652498245239257812 19.584049224853515625 19.51534271240234375 19.448728561401367188 19.3816680908203125 19.316629409790039062 19.251026153564453125 19.187402725219726562 19.123077392578125 19.060682296752929688 18.997457504272460938 18.936130523681640625 18.87386322021484375 18.813478469848632812 18.75205230712890625 18.692499160766601562 18.631816864013671875 18.573007583618164062 18.512983322143554688 18.454843521118164062 18.39540863037109375 18.337871551513671875 18.278966903686523438 18.222003936767578125 18.16365814208984375 18.107311248779296875 18.049516677856445312 17.993738174438476562 17.936445236206054688 17.881193161010742188 17.824361801147460938 17.769594192504882812 17.713190078735351562 17.658880233764648438 17.602872848510742188 17.548990249633789062 17.493352890014648438 17.439870834350585938 17.384580612182617188 17.33148193359375 17.276517868041992188 17.22377777099609375 17.16912078857421875 17.116727828979492188 17.062366485595703125 17.01030731201171875 16.956228256225585938 16.904485702514648438 16.850681304931640625 16.799282073974609375 16.745800018310546875 16.694761276245117188 16.641592025756835938 16.590902328491210938 16.538036346435546875 16.487684249877929688 16.435113906860351562 16.385099411010742188 16.332836151123046875 16.28318023681640625 16.231241226196289062 16.181943893432617188 16.1303253173828125 16.08138275146484375 16.030080795288085938 15.981493949890136719 15.930512428283691406 15.882280349731445312 15.831620216369628906 15.783745765686035156 15.733412742614746094 15.685891151428222656 15.635822296142578125 15.5885467529296875 15.538674354553222656 15.491636276245117188 15.441961288452148438 15.395153045654296875 15.34566497802734375 15.299086570739746094 15.249792098999023438 15.203449249267578125 15.154356956481933594 15.108260154724121094 15.059384346008300781 15.01354217529296875 14.964887619018554688 14.919323921203613281 14.870943069458007812 14.825695037841796875 14.777606964111328125 14.732687950134277344 14.684908866882324219 14.640337944030761719 14.592899322509765625 14.548691749572753906 14.501546859741210938 14.457628250122070312 14.410741806030273438 14.36711883544921875 14.320506095886230469 14.277194976806640625 14.230875968933105469 14.187890052795410156 14.141878128051757812 14.099232673645019531 14.053554534912109375 14.011278152465820312 13.965961456298828125 13.924080848693847656 13.879158973693847656 13.837703704833984375 13.793219566345214844 13.752245903015136719 13.708270072937011719 13.667850494384765625 13.624476432800292969 13.584708213806152344 13.542058944702148438 13.5030670166015625 13.4613189697265625 13.423260688781738281 13.382673263549804688 13.345784187316894531 13.306682586669921875 13.271327972412109375 13.23419189453125 13.200924873352050781 13.166498184204101562 13.136178970336914062 13.105586051940917969 13.07956695556640625 13.054838180541992188 13.035798072814941406 13.021078109741210938 13.014536857604980469 13.012078285217285156 13.00949859619140625 13.005903244018554688 13.002050399780273438 12.993961334228515625 12.976329803466796875 12.956418991088867188 12.927344322204589844 12.895891189575195312 12.865655899047851562 12.832056045532226562 12.799437522888183594 12.763509750366210938 12.728924751281738281 12.691199302673339844 12.655110359191894531 12.616026878356933594 12.578917503356933594 12.542332649230957031 12.513546943664550781 12.486006736755371094 12.461356163024902344 12.435861587524414062 12.412190437316894531 12.38729095458984375 12.363911628723144531 12.339194297790527344 12.315870285034179688 12.291174888610839844 12.267804145812988281 12.243053436279296875 12.219585418701171875 12.194741249084472656 12.171146392822265625 12.146327972412109375 12.124187469482421875 12.362174034118652344 12.661022186279296875 12.432868003845214844 12.209165573120117188 11.976477622985839844 11.766736984252929688 11.568761825561523438 11.409440040588378906 11.274469375610351562 11.17096710205078125 11.082409858703613281 11.010584831237792969 10.942185401916503906 10.878729820251464844 10.813035011291503906 10.750810623168945312 10.686438560485839844 10.625431060791015625 10.562514305114746094 10.503554344177246094 10.444611549377441406 10.391553878784179688 10.341142654418945312 10.298376083374023438 10.259991645812988281 10.227403640747070312 10.195906639099121094 10.16582489013671875 10.132669448852539062 10.097279548645019531 10.057314872741699219 10.017403602600097656 9.976627349853515625 9.9396915435791015625 9.90594482421875 9.8784923553466796875 9.8547821044921875 9.8352031707763671875 9.8173084259033203125 9.8010892868041992188 9.7845621109008789062 9.7687091827392578125 9.7531118392944335938 9.7392587661743164062 9.7269496917724609375 9.7174015045166015625 9.710193634033203125 9.705120086669921875 9.7011699676513671875 9.6978082656860351562 9.6941080093383789062 9.68968963623046875 9.6842803955078125 9.678424835205078125 9.6721315383911132812 9.6659879684448242188 9.6600055694580078125 9.6546964645385742188 9.6500291824340820312 9.6463689804077148438 9.6437625885009765625 9.6424808502197265625 9.6426744461059570312 9.6445055007934570312 9.648265838623046875 9.65398406982421875 9.6620960235595703125 9.6724386215209960938 9.6851320266723632812 9.699047088623046875 9.7138385772705078125 9.7282762527465820312 9.741985321044921875 9.7540330886840820312 9.7647294998168945312 9.7740621566772460938 9.7825117111206054688 9.7901544570922851562 9.7973728179931640625 9.8039522171020507812 9.8096466064453125 9.8139505386352539062 9.81650543212890625 9.8168897628784179688 
14.414705276489257812 14.4922943115234375 14.569350242614746094 14.646986007690429688 14.724215507507324219 14.801920890808105469 14.879378318786621094 14.957342147827148438 15.035247802734375 15.113702774047851562 15.192318916320800781 15.2715606689453125 15.351213455200195312 15.431593894958496094 15.512669563293457031 15.594628334045410156 15.677659988403320312 15.761862754821777344 15.847719192504882812 15.935305595397949219 16.02553558349609375 16.118722915649414062 16.216402053833007812 16.318555831909179688 16.427110671997070312 16.543670654296875 16.668542861938476562 16.798982620239257812 17.069959640502929688 17.326442718505859375 17.547107696533203125 17.757841110229492188 17.96661376953125 18.17107391357421875 18.375732421875 18.576395034790039062 18.777437210083007812 18.97425079345703125 19.171627044677734375 19.36467742919921875 19.558504104614257812 19.746927261352539062 19.898172378540039062 19.86110687255859375 19.790332794189453125 19.721782684326171875 19.65309906005859375 19.586483001708984375 19.519525527954101562 19.45452880859375 19.389020919799804688 19.325428009033203125 19.26122283935546875 19.198892593383789062 19.135820388793945312 19.074586868286132812 19.012491226196289062 18.95221710205078125 18.890977859497070312 18.831548690795898438 18.771059036254882812 18.712381362915039062 18.652557373046875 18.594552993774414062 18.535322189331054688 18.477922439575195312 18.419221878051757812 18.362371444702148438 18.304147720336914062 18.247827529907226562 18.190118789672851562 18.134365081787109375 18.07715606689453125 18.021923065185546875 17.965169906616210938 17.910419464111328125 17.854084014892578125 17.799777984619140625 17.743833541870117188 17.68994903564453125 17.634365081787109375 17.580873489379882812 17.525623321533203125 17.472501754760742188 17.417570114135742188 17.36479949951171875 17.310163497924804688 17.25772857666015625 17.203371047973632812 17.151254653930664062 17.097169876098632812 17.045360565185546875 16.9915313720703125 16.9400177001953125 16.886440277099609375 16.83524322509765625 16.781957626342773438 16.7310943603515625 16.678094863891601562 16.627553939819335938 16.574832916259765625 16.524606704711914062 16.472156524658203125 16.422246932983398438 16.370084762573242188 16.3205108642578125 16.268646240234375 16.219404220581054688 16.1678314208984375 16.11891937255859375 16.067638397216796875 16.0190582275390625 15.968069076538085938 15.919817924499511719 15.869124412536621094 15.821207046508789062 15.770813941955566406 15.723219871520996094 15.673062324523925781 15.625695228576660156 15.575716018676757812 15.528569221496582031 15.478769302368164062 15.431836128234863281 15.382205963134765625 15.335484504699707031 15.286028861999511719 15.239526748657226562 15.190256118774414062 15.143980979919433594 15.094905853271484375 15.04886627197265625 14.999987602233886719 14.954190254211425781 14.905545234680175781 14.860036849975585938 14.811656951904296875 14.766451835632324219 14.718353271484375 14.673466682434082031 14.625667572021484375 14.581110954284667969 14.533579826354980469 14.489289283752441406 14.441990852355957031 14.397971153259277344 14.350918769836425781 14.307183265686035156 14.260395050048828125 14.216958045959472656 14.170444488525390625 14.127316474914550781 14.081099510192871094 14.038306236267089844 13.992412567138671875 13.949976921081542969 13.904435157775878906 13.862382888793945312 13.817228317260742188 13.775606155395507812 13.730899810791015625 13.689772605895996094 13.645596504211425781 13.605050086975097656 13.561511039733886719 13.5216522216796875 13.478907585144042969 13.439870834350585938 13.398153305053710938 13.360142707824707031 13.319736480712890625 13.283072471618652344 13.244397163391113281 13.209566116333007812 13.173275947570800781 13.141042709350585938 13.108148574829101562 13.079707145690917969 13.051980972290039062 13.029687881469726562 13.010802268981933594 12.999829292297363281 12.995566368103027344 12.992727279663085938 12.988972663879394531 12.983942031860351562 12.972538948059082031 12.950589179992675781 12.93509674072265625 12.907069206237792969 12.875797271728515625 12.845712661743164062 12.812337875366210938 12.779942512512207031 12.744250297546386719 12.709880828857421875 12.672376632690429688 12.6364898681640625 12.5977325439453125 12.563581466674804688 12.533236503601074219 12.50763702392578125 12.481721878051757812 12.4579315185546875 12.433007240295410156 12.409694671630859375 12.385060310363769531 12.3618621826171875 12.337285995483398438 12.314061164855957031 12.2894439697265625 12.266127586364746094 12.241420745849609375 12.217980384826660156 12.193156242370605469 12.169586181640625 12.145486831665039062 12.18605804443359375 12.660646438598632812 12.485667228698730469 12.272831916809082031 12.06618499755859375 11.852427482604980469 11.660103797912597656 11.478116989135742188 11.330492019653320312 11.203782081604003906 11.105143547058105469 11.019496917724609375 10.949299812316894531 10.882375717163085938 10.820783615112304688 10.757676124572753906 10.698511123657226562 10.637904167175292969 10.581005096435546875 10.52285003662109375 10.468729972839355469 10.4148406982421875 10.366368293762207031 10.320156097412109375 10.280614852905273438 10.244603157043457031 10.213513374328613281 10.183003425598144531 10.153567314147949219 10.121011734008789062 10.086337089538574219 10.047304153442382812 10.008391380310058594 9.9686651229858398438 9.9326648712158203125 9.8997201919555664062 9.872837066650390625 9.8495464324951171875 9.8302679061889648438 9.8126363754272460938 9.7966852188110351562 9.780506134033203125 9.76507568359375 9.7500104904174804688 9.7367610931396484375 9.7251720428466796875 9.7164163589477539062 9.7101049423217773438 9.7059574127197265625 9.7029733657836914062 9.7005434036254882812 9.69774627685546875 9.6941270828247070312 9.6894140243530273438 9.6840763092041015625 9.6781072616577148438 9.6720418930053710938 9.6658573150634765625 9.6601047515869140625 9.6548490524291992188 9.6506109237670898438 9.6475467681884765625 9.6460676193237304688 9.6464166641235351562 9.6486968994140625 9.6531171798706054688 9.6595716476440429688 9.6684122085571289062 9.679347991943359375 9.6924715042114257812 9.7066583633422851562 9.7215938568115234375 9.7360744476318359375 9.7497510910034179688 9.7617044448852539062 9.7722034454345703125 9.781192779541015625 9.7890863418579101562 9.7959203720092773438 9.8020162582397460938 9.8072309494018554688 9.8114213943481445312 9.8142633438110351562 9.8155193328857421875 9.8149328231811523438 
14.422287940979003906 14.498688697814941406 14.575282096862792969 14.65280914306640625 14.730167388916015625 14.808121681213378906 14.885860443115234375 14.964116096496582031 15.042308807373046875 15.121031761169433594 15.199876785278320312 15.279290199279785156 15.359039306640625 15.439421653747558594 15.520391464233398438 15.602108001708984375 15.684725761413574219 15.768279075622558594 15.853152275085449219 15.939281463623046875 16.027423858642578125 16.1177825927734375 16.212015151977539062 16.310253143310546875 16.41329193115234375 16.522769927978515625 16.634771347045898438 16.757518768310546875 17.0477752685546875 17.347475051879882812 17.59222412109375 17.816308975219726562 18.034685134887695312 18.24623870849609375 18.456529617309570312 18.661638259887695312 18.866250991821289062 19.0657501220703125 19.26507568359375 19.45948028564453125 19.6542510986328125 19.840667724609375 19.922313690185546875 19.856832504272460938 19.788177490234375 19.7215728759765625 19.654737472534179688 19.589826583862304688 19.524501800537109375 19.4610137939453125 19.39696502685546875 19.3347320556640625 19.2718353271484375 19.210721969604492188 19.14882659912109375 19.088689804077148438 19.027662277221679688 18.968381881713867188 18.908113479614257812 18.849590301513671875 18.789991378784179688 18.732143402099609375 18.673137664794921875 18.61589813232421875 18.557420730590820312 18.500728607177734375 18.44272613525390625 18.386531829833984375 18.328960418701171875 18.27325439453125 18.216154098510742188 18.160966873168945312 18.10431671142578125 18.049604415893554688 17.993368148803710938 17.939096450805664062 17.883237838745117188 17.829376220703125 17.773870468139648438 17.720392227172851562 17.66521453857421875 17.61209869384765625 17.557222366333007812 17.50444793701171875 17.449859619140625 17.39740753173828125 17.343088150024414062 17.290943145751953125 17.23687744140625 17.185028076171875 17.1312103271484375 17.07964324951171875 17.026058197021484375 16.974765777587890625 16.921405792236328125 16.870403289794921875 16.817308425903320312 16.7666168212890625 16.71378326416015625 16.663389205932617188 16.610809326171875 16.560705184936523438 16.508373260498046875 16.458568572998046875 16.406505584716796875 16.357013702392578125 16.305219650268554688 16.25603485107421875 16.204509735107421875 16.155630111694335938 16.104372024536132812 16.055799484252929688 16.0048065185546875 15.956540107727050781 15.905818939208984375 15.857861518859863281 15.807414054870605469 15.759753227233886719 15.709513664245605469 15.662059783935546875 15.611981391906738281 15.564733505249023438 15.514817237854003906 15.46776580810546875 15.418002128601074219 15.37114715576171875 15.321541786193847656 15.274888992309570312 15.225449562072753906 15.179007530212402344 15.129743576049804688 15.08351898193359375 15.034434318542480469 14.988425254821777344 14.939535140991210938 14.8937835693359375 14.84513092041015625 14.799657821655273438 14.75125885009765625 14.706079483032226562 14.657950401306152344 14.613067626953125 14.565175056457519531 14.520535469055175781 14.472850799560546875 14.428458213806152344 14.380992889404296875 14.336859703063964844 14.289629936218261719 14.245767593383789062 14.19878387451171875 14.155201911926269531 14.108481407165527344 14.065202713012695312 14.018768310546875 13.975812911987304688 13.929690361022949219 13.887079238891601562 13.841297149658203125 13.799071311950683594 13.753683090209960938 13.711894989013671875 13.666972160339355469 13.625699996948242188 13.581335067749023438 13.540670394897460938 13.497002601623535156 13.457059860229492188 13.414297103881835938 13.37525177001953125 13.333642005920410156 13.295775413513183594 13.255685806274414062 13.21942138671875 13.181425094604492188 13.14743804931640625 13.112443923950195312 13.081797599792480469 13.051348686218261719 13.026112556457519531 13.00347137451171875 12.988266944885253906 12.980669021606445312 12.977684974670410156 12.973516464233398438 12.967167854309082031 12.95323944091796875 12.931926727294921875 12.915910720825195312 12.889070510864257812 12.857855796813964844 12.827580451965332031 12.794215202331542969 12.761919975280761719 12.726375579833984375 12.692160606384277344 12.654829978942871094 12.61914825439453125 12.583096504211425781 12.554743766784667969 12.527776718139648438 12.503633499145507812 12.478574752807617188 12.455279350280761719 12.430705070495605469 12.407619476318359375 12.383159637451171875 12.360078811645507812 12.335597038269042969 12.312437057495117188 12.287870407104492188 12.264590263366699219 12.239908218383789062 12.216483116149902344 12.191669464111328125 12.168359756469726562 12.152116775512695312 12.517115592956542969 12.503080368041992188 12.320908546447753906 12.123009681701660156 11.93262481689453125 11.736636161804199219 11.560434341430664062 11.393018722534179688 11.255787849426269531 11.136104583740234375 11.041290283203125 10.957629203796386719 10.888349533081054688 10.822346687316894531 10.762267112731933594 10.701544761657714844 10.645346641540527344 10.588482856750488281 10.535696029663085938 10.482287406921386719 10.432970046997070312 10.384074211120605469 10.340116500854492188 10.298032760620117188 10.261651992797851562 10.227963447570800781 10.198348045349121094 10.168831825256347656 10.140085220336914062 10.108229637145996094 10.074419975280761719 10.036523818969726562 9.9988451004028320312 9.9604339599609375 9.9256343841552734375 9.8937578201293945312 9.8676919937133789062 9.8450536727905273438 9.8262758255004882812 9.8090867996215820312 9.793544769287109375 9.777820587158203125 9.7628850936889648438 9.7483835220336914062 9.73574066162109375 9.72483062744140625 9.7167921066284179688 9.7112674713134765625 9.7079114913940429688 9.7057428359985351562 9.7040805816650390625 9.702022552490234375 9.6990461349487304688 9.6948795318603515625 9.689929962158203125 9.6841650009155273438 9.6780824661254882812 9.6716203689575195312 9.6653766632080078125 9.6595048904418945312 9.6546831130981445312 9.6511707305908203125 9.6495237350463867188 9.65006256103515625 9.6528339385986328125 9.6579523086547851562 9.6651659011840820312 9.6747303009033203125 9.6862230300903320312 9.6997013092041015625 9.7140569686889648438 9.7290105819702148438 9.743396759033203125 9.75689697265625 9.7686128616333007812 9.7787790298461914062 9.7873010635375976562 9.7945318222045898438 9.8004770278930664062 9.8053979873657226562 9.8092250823974609375 9.8119258880615234375 9.81334686279296875 9.8133745193481445312 9.81191253662109375 
14.428833961486816406 14.504175186157226562 14.580336570739746094 14.657675743103027344 14.734994888305664062 14.813045501708984375 14.8909759521484375 14.969458580017089844 15.047869682312011719 15.126779556274414062 15.205766677856445312 15.285261154174804688 15.365014076232910156 15.445302963256835938 15.526056289672851562 15.607394218444824219 15.689424514770507812 15.772113800048828125 15.855782508850097656 15.940309524536132812 16.026311874389648438 16.11356353759765625 16.20296478271484375 16.294902801513671875 16.39185333251953125 16.490144729614257812 16.589826583862304688 16.707340240478515625 17.011747360229492188 17.347677230834960938 17.626680374145507812 17.868642807006835938 18.099401473999023438 18.320070266723632812 18.537380218505859375 18.747873306274414062 18.956724166870117188 19.1594085693359375 19.361057281494140625 19.556913375854492188 19.752574920654296875 19.92581939697265625 19.92037200927734375 19.853860855102539062 19.787244796752929688 19.722517013549804688 19.657476425170898438 19.594219207763671875 19.53047943115234375 19.468463897705078125 19.4058380126953125 19.344928741455078125 19.283315658569335938 19.223394393920898438 19.162654876708984375 19.103593826293945312 19.043615341186523438 18.985315322875976562 18.926004409790039062 18.868375778198242188 18.809656143188476562 18.75263214111328125 18.69443511962890625 18.637952804565429688 18.580224990844726562 18.524234771728515625 18.466928482055664062 18.411386489868164062 18.354463577270507812 18.29936981201171875 18.2428741455078125 18.188249588012695312 18.1321563720703125 18.077962875366210938 18.022241592407226562 17.968448638916015625 17.913064956665039062 17.859645843505859375 17.804578781127929688 17.751508712768554688 17.696735382080078125 17.643995285034179688 17.589494705200195312 17.537065505981445312 17.482822418212890625 17.430690765380859375 17.376689910888671875 17.324838638305664062 17.27106475830078125 17.219484329223632812 17.16593170166015625 17.114612579345703125 17.061269760131835938 17.010202407836914062 16.957063674926757812 16.90625762939453125 16.853357315063476562 16.802835464477539062 16.750171661376953125 16.699926376342773438 16.647487640380859375 16.59751129150390625 16.545301437377929688 16.49560546875 16.44364166259765625 16.39423370361328125 16.3425140380859375 16.293390274047851562 16.241912841796875 16.1930694580078125 16.141834259033203125 16.093273162841796875 16.042280197143554688 15.994000434875488281 15.9432525634765625 15.895258903503417969 15.844758987426757812 15.797033309936523438 15.746714591979980469 15.699177742004394531 15.649003028869628906 15.601655960083007812 15.551625251770019531 15.504458427429199219 15.454565048217773438 15.407579421997070312 15.357827186584472656 15.311026573181152344 15.261423110961914062 15.214817047119140625 15.165369987487792969 15.118963241577148438 15.069674491882324219 15.023466110229492188 14.97434234619140625 14.928354263305664062 14.879435539245605469 14.833701133728027344 14.785010337829589844 14.739543914794921875 14.69109344482421875 14.645898818969726562 14.59765625 14.552675247192382812 14.504611968994140625 14.459855079650878906 14.4119873046875 14.367464065551757812 14.319803237915039062 14.275526046752929688 14.228081703186035156 14.184058189392089844 14.136844635009765625 14.093091964721679688 14.046130180358886719 14.002666473388671875 13.955977439880371094 13.912823677062988281 13.866430282592773438 13.823615074157714844 13.777564048767089844 13.735136985778808594 13.689488410949707031 13.647513389587402344 13.602349281311035156 13.56090545654296875 13.516346931457519531 13.475530624389648438 13.431761741638183594 13.391721725463867188 13.348957061767578125 13.309937477111816406 13.268497467041015625 13.230865478515625 13.191245079040527344 13.155590057373046875 13.118597984313964844 13.085865020751953125 13.052846908569335938 13.024844169616699219 12.998685836791992188 12.979538917541503906 12.967403411865234375 12.963280677795410156 12.958447456359863281 12.950978279113769531 12.935595512390136719 12.916110038757324219 12.897923469543457031 12.872084617614746094 12.841012001037597656 12.810464859008789062 12.776904106140136719 12.744596481323242188 12.709120750427246094 12.675011634826660156 12.637861251831054688 12.604313850402832031 12.574360847473144531 12.54933929443359375 12.523943901062011719 12.500590324401855469 12.476040840148925781 12.453058242797851562 12.4287109375 12.405779838562011719 12.381435394287109375 12.358437538146972656 12.334017753601074219 12.310901641845703125 12.286367416381835938 12.2631072998046875 12.238437652587890625 12.21501922607421875 12.190272331237792969 12.167841911315917969 12.271952629089355469 12.512993812561035156 12.332884788513183594 12.162507057189941406 11.979913711547851562 11.805775642395019531 11.627216339111328125 11.466564178466796875 11.3129119873046875 11.18517303466796875 11.071494102478027344 10.9795379638671875 10.896938323974609375 10.827846527099609375 10.762256622314453125 10.703470230102539062 10.645127296447753906 10.592019081115722656 10.539071083068847656 10.490523338317871094 10.441872596740722656 10.397236824035644531 10.353115081787109375 10.313411712646484375 10.275175094604492188 10.241717338562011719 10.210165977478027344 10.181904792785644531 10.153306007385253906 10.125213623046875 10.094048500061035156 10.061117172241210938 10.024389266967773438 9.9879999160766601562 9.9509906768798828125 9.917510986328125 9.8868627548217773438 9.8618040084838867188 9.8400421142578125 9.822002410888671875 9.8055047988891601562 9.7906122207641601562 9.7755746841430664062 9.7613306045532226562 9.7475614547729492188 9.735637664794921875 9.725467681884765625 9.718135833740234375 9.71331787109375 9.7106218338012695312 9.7090978622436523438 9.7080230712890625 9.7065172195434570312 9.7040243148803710938 9.7002630233764648438 9.6955919265747070312 9.68994903564453125 9.6837930679321289062 9.6770257949829101562 9.670291900634765625 9.6638345718383789062 9.6584749221801757812 9.6545801162719726562 9.65283966064453125 9.6536569595336914062 9.6570072174072265625 9.6628980636596679688 9.6709222793579101562 9.6812314987182617188 9.6932582855224609375 9.7070264816284179688 9.7214422225952148438 9.7362756729125976562 9.7504024505615234375 9.7635402679443359375 9.7748289108276367188 9.7844724655151367188 9.7923583984375 9.7987842559814453125 9.8037433624267578125 9.807445526123046875 9.809902191162109375 9.8111696243286132812 9.8112611770629882812 9.81017303466796875 9.8079576492309570312 
14.434473037719726562 14.508623123168945312 14.584258079528808594 14.661406517028808594 14.738660812377929688 14.816712379455566406 14.894683837890625 14.973246574401855469 15.051753997802734375 15.130754470825195312 15.2097930908203125 15.289278030395507812 15.368939399719238281 15.449030876159667969 15.52945709228515625 15.6103057861328125 15.691662788391113281 15.773451805114746094 15.855929374694824219 15.938815116882324219 16.022459030151367188 16.106237411499023438 16.190805435180664062 16.276271820068359375 16.3639984130859375 16.450281143188476562 16.539356231689453125 16.653882980346679688 16.968494415283203125 17.324275970458984375 17.644350051879882812 17.911052703857421875 18.157428741455078125 18.389204025268554688 18.614995956420898438 18.831817626953125 19.04550933837890625 19.251707077026367188 19.455850601196289062 19.653234481811523438 19.849338531494140625 19.968801498413085938 19.91684722900390625 19.852327346801757812 19.787599563598632812 19.724611282348632812 19.66123199462890625 19.599515914916992188 19.537258148193359375 19.47661590576171875 19.415325164794921875 19.35565948486328125 19.295246124267578125 19.236446380615234375 19.176794052124023438 19.118747711181640625 19.05976104736328125 19.002386093139648438 18.943981170654296875 18.887203216552734375 18.829315185546875 18.773073196411132812 18.71564483642578125 18.659887313842773438 18.602872848510742188 18.547552108764648438 18.490907669067382812 18.435991287231445312 18.379688262939453125 18.325178146362304688 18.269260406494140625 18.21517181396484375 18.159612655639648438 18.105916976928710938 18.050685882568359375 17.99735260009765625 17.942424774169921875 17.889429092407226562 17.834783554077148438 17.782106399536132812 17.727720260620117188 17.675342559814453125 17.621202468872070312 17.5691070556640625 17.515193939208984375 17.463365554809570312 17.409664154052734375 17.358089447021484375 17.30458831787109375 17.2532501220703125 17.199932098388671875 17.148822784423828125 17.09568023681640625 17.04479217529296875 16.991827011108398438 16.941171646118164062 16.888408660888671875 16.838008880615234375 16.785457611083984375 16.735307693481445312 16.682964324951171875 16.633068084716796875 16.580938339233398438 16.531314849853515625 16.479417800903320312 16.4300689697265625 16.378408432006835938 16.329332351684570312 16.277902603149414062 16.229099273681640625 16.1779022216796875 16.129373550415039062 16.078409194946289062 16.0301513671875 15.979419708251953125 15.931433677673339844 15.880933761596679688 15.833195686340332031 15.782854080200195312 15.735289573669433594 15.685075759887695312 15.6376800537109375 15.587587356567382812 15.540353775024414062 15.490376472473144531 15.443299293518066406 15.393434524536132812 15.346512794494628906 15.296764373779296875 15.250011444091796875 15.200398445129394531 15.153824806213378906 15.104346275329589844 15.057950019836425781 15.00861358642578125 14.962408065795898438 14.913241386413574219 14.867262840270996094 14.81829833984375 14.772562026977539062 14.723812103271484375 14.678325653076171875 14.629761695861816406 14.584464073181152344 14.536047935485839844 14.490948677062988281 14.442701339721679688 14.397813796997070312 14.349748611450195312 14.305082321166992188 14.257206916809082031 14.2127685546875 14.165093421936035156 14.120897293090820312 14.073441505432128906 14.02950286865234375 13.9822845458984375 13.93862152099609375 13.891658782958984375 13.848294258117675781 13.801626205444335938 13.758602142333984375 13.712279319763183594 13.669651031494140625 13.623745918273925781 13.58158111572265625 13.536197662353515625 13.49457550048828125 13.449877738952636719 13.408924102783203125 13.365098953247070312 13.325021743774414062 13.282343864440917969 13.243463516235351562 13.202365875244140625 13.165193557739257812 13.126383781433105469 13.091763496398925781 13.056429862976074219 13.025942802429199219 12.99664306640625 12.973920822143554688 12.956814765930175781 12.949807167053222656 12.944319725036621094 12.93601226806640625 12.921317100524902344 12.903453826904296875 12.881772041320800781 12.856512069702148438 12.825595855712890625 12.794910430908203125 12.761076927185058594 12.728647232055664062 12.693167686462402344 12.659127235412597656 12.623798370361328125 12.595805168151855469 12.569425582885742188 12.545803070068359375 12.52118682861328125 12.498269081115722656 12.474018096923828125 12.451226234436035156 12.427021980285644531 12.404186248779296875 12.379916191101074219 12.356967926025390625 12.332586288452148438 12.309494972229003906 12.284976959228515625 12.261725425720214844 12.237057685852050781 12.2136383056640625 12.189350128173828125 12.178857803344726562 12.477078437805175781 12.347482681274414062 12.177657127380371094 12.0194854736328125 11.852074623107910156 11.693609237670898438 11.531505584716796875 11.385229110717773438 11.243961334228515625 11.124368667602539062 11.015332221984863281 10.925046920776367188 10.842437744140625 10.772744178771972656 10.707030296325683594 10.649320602416992188 10.593347549438476562 10.543417930603027344 10.494446754455566406 10.45005035400390625 10.405813217163085938 10.365283012390136719 10.325169563293457031 10.288919448852539062 10.253726959228515625 10.222538948059082031 10.192628860473632812 10.1653900146484375 10.137476921081542969 10.109874725341796875 10.079236984252929688 10.046999931335449219 10.011223793029785156 9.97591400146484375 9.9401197433471679688 9.9078388214111328125 9.878387451171875 9.8544073104858398438 9.8336877822875976562 9.81661224365234375 9.8010873794555664062 9.7871379852294921875 9.7730960845947265625 9.7598237991333007812 9.747035980224609375 9.7360076904296875 9.726673126220703125 9.7200403213500976562 9.7158136367797851562 9.7135839462280273438 9.7124538421630859375 9.7117033004760742188 9.7104959487915039062 9.7082681655883789062 9.7047452926635742188 9.7002315521240234375 9.694644927978515625 9.6884021759033203125 9.6813716888427734375 9.674236297607421875 9.667316436767578125 9.6615591049194335938 9.65743255615234375 9.6557397842407226562 9.6569538116455078125 9.6609668731689453125 9.6676883697509765625 9.6765451431274414062 9.6875867843627929688 9.7000970840454101562 9.714061737060546875 9.72841644287109375 9.7429714202880859375 9.75666046142578125 9.7692317962646484375 9.7798786163330078125 9.7887897491455078125 9.79586029052734375 9.8013582229614257812 9.8052883148193359375 9.8078336715698242188 9.80907440185546875 9.8091335296630859375 9.8081455230712890625 9.80619049072265625 9.80342864990234375 
14.438913345336914062 14.512363433837890625 14.587315559387207031 14.664136886596679688 14.741302490234375 14.819346427917480469 14.897335052490234375 14.975914955139160156 15.054429054260253906 15.133409500122070312 15.212395668029785156 15.291772842407226562 15.371255874633789062 15.451074600219726562 15.531110763549804688 15.611421585083007812 15.692044258117675781 15.772830963134765625 15.8539276123046875 15.934884071350097656 16.015872955322265625 16.096317291259765625 16.176595687866210938 16.255176544189453125 16.331226348876953125 16.407201766967773438 16.484493255615234375 16.598024368286132812 16.918207168579101562 17.284481048583984375 17.637975692749023438 17.941217422485351562 18.209280014038085938 18.455478668212890625 18.691923141479492188 18.916574478149414062 19.136075973510742188 19.34632110595703125 19.5531768798828125 19.752096176147460938 19.943994522094726562 19.97906494140625 19.914764404296875 19.852153778076171875 19.789239883422851562 19.727926254272460938 19.666149139404296875 19.605916976928710938 19.5450897216796875 19.485784530639648438 19.425790786743164062 19.36733245849609375 19.3080902099609375 19.250379562377929688 19.191789627075195312 19.134737014770507812 19.076719284057617188 19.020252227783203125 18.962738037109375 18.906793594360351562 18.849727630615234375 18.794252395629882812 18.737585067749023438 18.682538986206054688 18.626230239868164062 18.571573257446289062 18.51558685302734375 18.461284637451171875 18.405597686767578125 18.351665496826171875 18.296319961547851562 18.242765426635742188 18.187734603881835938 18.134531021118164062 18.079790115356445312 18.026910781860351562 17.972429275512695312 17.919836044311523438 17.865581512451171875 17.813253402709960938 17.759195327758789062 17.707096099853515625 17.653211593627929688 17.6013336181640625 17.54761505126953125 17.495941162109375 17.44237518310546875 17.390903472900390625 17.337491989135742188 17.286226272583007812 17.232973098754882812 17.181917190551757812 17.128824234008789062 17.077974319458007812 17.025045394897460938 16.97441864013671875 16.921686172485351562 16.871313095092773438 16.81878662109375 16.7686614990234375 16.716342926025390625 16.666473388671875 16.614374160766601562 16.564779281616210938 16.512914657592773438 16.463592529296875 16.411962509155273438 16.362916946411132812 16.311519622802734375 16.26274871826171875 16.211587905883789062 16.163091659545898438 16.112165451049804688 16.063947677612304688 16.013257980346679688 15.965315818786621094 15.914862632751464844 15.867165565490722656 15.816875457763671875 15.769366264343261719 15.719217300415039062 15.6718902587890625 15.621876716613769531 15.574718475341796875 15.524823188781738281 15.477825164794921875 15.428045272827148438 15.381200790405273438 15.3315277099609375 15.284830093383789062 15.235256195068359375 15.188694953918457031 15.139200210571289062 15.092760086059570312 15.043349266052246094 14.997037887573242188 14.947710990905761719 14.901544570922851562 14.852350234985351562 14.80637359619140625 14.757334709167480469 14.711564064025878906 14.662686347961425781 14.617086410522460938 14.568331718444824219 14.522901535034179688 14.474287033081054688 14.429044723510742188 14.380585670471191406 14.335542678833007812 14.2872467041015625 14.242405891418457031 14.19428253173828125 14.149656295776367188 14.101720809936523438 14.057322502136230469 14.009591102600097656 13.965434074401855469 13.917920112609863281 13.874025344848632812 13.826760292053222656 13.783161163330078125 13.736189842224121094 13.692934036254882812 13.646315574645996094 13.603459358215332031 13.557285308837890625 13.514890670776367188 13.469307899475097656 13.427480697631835938 13.382645606994628906 13.341565132141113281 13.297716140747070312 13.257656097412109375 13.215163230895996094 13.176566123962402344 13.136048316955566406 13.099661827087402344 13.062173843383789062 13.02938079833984375 12.997083663940429688 12.970815658569335938 12.948718070983886719 12.937108993530273438 12.930605888366699219 12.921705245971679688 12.90962982177734375 12.892439842224121094 12.866671562194824219 12.841580390930175781 12.810801506042480469 12.780022621154785156 12.746020317077636719 12.713412284851074219 12.677875518798828125 12.645084381103515625 12.6154327392578125 12.590984344482421875 12.566111564636230469 12.543194770812988281 12.519014358520507812 12.496356010437011719 12.4722900390625 12.449619293212890625 12.425505638122558594 12.402729988098144531 12.378506660461425781 12.355588912963867188 12.331227302551269531 12.308146476745605469 12.283633232116699219 12.260379791259765625 12.235707283020019531 12.21240997314453125 12.189180374145507812 12.378491401672363281 12.352841377258300781 12.191479682922363281 12.033112525939941406 11.887873649597167969 11.7359771728515625 11.593125343322753906 11.44707489013671875 11.314532279968261719 11.184762001037597656 11.072327613830566406 10.966826438903808594 10.877177238464355469 10.793596267700195312 10.722582817077636719 10.656302452087402344 10.59957122802734375 10.546109199523925781 10.499581336975097656 10.454777717590332031 10.414534568786621094 10.3743896484375 10.337368011474609375 10.300428390502929688 10.266740798950195312 10.233689308166503906 10.204039573669433594 10.175205230712890625 10.148615837097167969 10.121115684509277344 10.0937957763671875 10.063482284545898438 10.031702041625976562 9.9965906143188476562 9.9620790481567382812 9.9272441864013671875 9.8959865570068359375 9.8676614761352539062 9.8448123931884765625 9.825305938720703125 9.8094425201416015625 9.7952127456665039062 9.7825593948364257812 9.7698879241943359375 9.75794219970703125 9.7464542388916015625 9.7365713119506835938 9.7282304763793945312 9.7223272323608398438 9.7185916900634765625 9.716640472412109375 9.7156505584716796875 9.7149524688720703125 9.713775634765625 9.7116041183471679688 9.7081556320190429688 9.7037019729614257812 9.6981258392333984375 9.6918096542358398438 9.684589385986328125 9.6771707534790039062 9.6699428558349609375 9.6639652252197265625 9.6597852706909179688 9.658298492431640625 9.6600475311279296875 9.6648302078247070312 9.672451019287109375 9.6821746826171875 9.6939401626586914062 9.7068872451782226562 9.7209615707397460938 9.7351293563842773438 9.74924468994140625 9.7623033523559570312 9.7740840911865234375 9.783843994140625 9.7917757034301757812 9.7978219985961914062 9.8022403717041015625 9.805084228515625 9.8065290451049804688 9.8067169189453125 9.8058071136474609375 9.8040075302124023438 9.8014516830444335938 9.798358917236328125 
14.441095352172851562 14.514763832092285156 14.589508056640625 14.665961265563964844 14.742884635925292969 14.820841789245605469 14.898820877075195312 14.9774017333984375 15.055895805358886719 15.134822845458984375 15.213707923889160156 15.2929229736328125 15.37216949462890625 15.451651573181152344 15.531226158142089844 15.610909461975097656 15.690687179565429688 15.770334243774414062 15.849923133850097656 15.92900848388671875 16.007780075073242188 16.085308074951171875 16.161127090454101562 16.232690811157226562 16.3001708984375 16.365510940551757812 16.43074798583984375 16.537714004516601562 16.864835739135742188 17.236757278442382812 17.606689453125 17.950139999389648438 18.249231338500976562 18.514596939086914062 18.764575958251953125 18.998882293701171875 19.2253265380859375 19.44016265869140625 19.649860382080078125 19.849966049194335938 20.006471633911132812 19.9766082763671875 19.91422271728515625 19.853374481201171875 19.792139053344726562 19.7323760986328125 19.672086715698242188 19.613239288330078125 19.553747177124023438 19.495687484741210938 19.4369049072265625 19.379575729370117188 19.321430206298828125 19.264743804931640625 19.207155227661132812 19.151037216186523438 19.093935012817382812 19.038324356079101562 18.981653213500976562 18.9264984130859375 18.870208740234375 18.815465927124023438 18.759519577026367188 18.705150604248046875 18.64951324462890625 18.595487594604492188 18.540128707885742188 18.486415863037109375 18.431310653686523438 18.377916336059570312 18.323085784912109375 18.269985198974609375 18.2153778076171875 18.16252899169921875 18.108095169067382812 18.055461883544921875 18.001184463500976562 17.948751449584960938 17.894624710083007812 17.842390060424804688 17.788410186767578125 17.736371994018554688 17.682538986206054688 17.63069915771484375 17.577014923095703125 17.5253753662109375 17.471843719482421875 17.420404434204101562 17.367023468017578125 17.31578826904296875 17.26256561279296875 17.211538314819335938 17.158473968505859375 17.107654571533203125 17.054752349853515625 17.004150390625 16.951440811157226562 16.901086807250976562 16.848581314086914062 16.798473358154296875 16.746173858642578125 16.696323394775390625 16.644247055053710938 16.594669342041015625 16.542821884155273438 16.493516921997070312 16.44190216064453125 16.392871856689453125 16.341489791870117188 16.29273223876953125 16.24158477783203125 16.193101882934570312 16.142190933227539062 16.093984603881835938 16.043310165405273438 15.995382308959960938 15.944943428039550781 15.897257804870605469 15.846983909606933594 15.799495697021484375 15.749375343322753906 15.702080726623535156 15.652106285095214844 15.604993820190429688 15.555155754089355469 15.508219718933105469 15.458515167236328125 15.411752700805664062 15.362177848815917969 15.315585136413574219 15.266134262084960938 15.21970367431640625 15.170365333557128906 15.124080657958984375 15.074840545654296875 15.02869415283203125 14.979542732238769531 14.933524131774902344 14.884456634521484375 14.838567733764648438 14.789584159851074219 14.74381256103515625 14.694870948791503906 14.64914703369140625 14.600201606750488281 14.554544448852539062 14.505625724792480469 14.460068702697753906 14.411251068115234375 14.365855216979980469 14.317168235778808594 14.27194976806640625 14.223407745361328125 14.178379058837890625 14.129996299743652344 14.085168838500976562 14.036957740783691406 13.992341995239257812 13.944314956665039062 13.899926185607910156 13.852107048034667969 13.807974815368652344 13.760400772094726562 13.716563224792480469 13.669285774230957031 13.625790596008300781 13.578887939453125 13.535783767700195312 13.489386558532714844 13.446760177612304688 13.401002883911132812 13.359005928039550781 13.314089775085449219 13.272958755493164062 13.229205131530761719 13.189321517944335938 13.147269248962402344 13.109297752380371094 13.069864273071289062 13.034913063049316406 12.999760627746582031 12.970168113708496094 12.943465232849121094 12.92645263671875 12.917819023132324219 12.908609390258789062 12.899013519287109375 12.881093025207519531 12.853000640869140625 12.827750205993652344 12.7969970703125 12.766180038452148438 12.732056617736816406 12.699339866638183594 12.664724349975585938 12.636939048767089844 12.61110687255859375 12.587990760803222656 12.563801765441894531 12.541246414184570312 12.517305374145507812 12.494795799255371094 12.470837593078613281 12.448236465454101562 12.424175262451171875 12.401433944702148438 12.377233505249023438 12.354327201843261719 12.329973220825195312 12.306891441345214844 12.282373428344726562 12.259111404418945312 12.234450340270996094 12.211752891540527344 12.291889190673828125 12.372766494750976562 12.203379631042480469 12.051320075988769531 11.904475212097167969 11.771820068359375 11.63466644287109375 11.506406784057617188 11.375148773193359375 11.255078315734863281 11.135533332824707031 11.029199600219726562 10.92633819580078125 10.836664199829101562 10.751615524291992188 10.678975105285644531 10.611971855163574219 10.556193351745605469 10.505278587341308594 10.462171554565429688 10.421444892883300781 10.385087013244628906 10.348500251770019531 10.314243316650390625 10.279553413391113281 10.247502326965332031 10.215680122375488281 10.186834335327148438 10.1585235595703125 10.132219314575195312 10.104883193969726562 10.077676773071289062 10.047530174255371094 10.016030311584472656 9.9813699722290039062 9.9474458694458007812 9.9133749008178710938 9.8829975128173828125 9.8557271957397460938 9.8340282440185546875 9.8158321380615234375 9.8013353347778320312 9.7886028289794921875 9.7774686813354492188 9.766407012939453125 9.7560110092163085938 9.7460222244262695312 9.7374238967895507812 9.7301454544067382812 9.7249546051025390625 9.72159576416015625 9.7197389602661132812 9.7186527252197265625 9.717769622802734375 9.7163934707641601562 9.7140913009643554688 9.7105779647827148438 9.7061004638671875 9.7005062103271484375 9.6941432952880859375 9.6868152618408203125 9.6792449951171875 9.6718778610229492188 9.665843963623046875 9.6617679595947265625 9.66060638427734375 9.6629543304443359375 9.6685209274291992188 9.6770143508911132812 9.6875448226928710938 9.6999568939208984375 9.713253021240234375 9.7273397445678710938 9.7412214279174804688 9.754779815673828125 9.7670812606811523438 9.777923583984375 9.7866373062133789062 9.7934284210205078125 9.7983179092407226562 9.8015766143798828125 9.8033294677734375 9.8037748336791992188 9.8031024932861328125 9.8014802932739257812 9.799144744873046875 9.7962427139282226562 9.7930135726928710938 
14.441321372985839844 14.515340805053710938 14.590433120727539062 14.66696929931640625 14.743760108947753906 14.821539878845214844 14.899382591247558594 14.977871894836425781 15.056290626525878906 15.135122299194335938 15.2138671875 15.292874336242675781 15.371829032897949219 15.450908660888671875 15.529947280883789062 15.608928680419921875 15.687817573547363281 15.766385078430175781 15.844696998596191406 15.922190666198730469 15.998776435852050781 16.073114395141601562 16.1443328857421875 16.210910797119140625 16.272792816162109375 16.32747650146484375 16.379781723022460938 16.473484039306640625 16.808155059814453125 17.186594009399414062 17.564273834228515625 17.930215835571289062 18.270923614501953125 18.564569473266601562 18.83335113525390625 19.080587387084960938 19.316080093383789062 19.5365142822265625 19.74927520751953125 19.947895050048828125 20.031454086303710938 19.975751876831054688 19.915185928344726562 19.856016159057617188 19.796380996704101562 19.738103866577148438 19.679243087768554688 19.621725082397460938 19.563516616821289062 19.50666046142578125 19.449045181274414062 19.3928070068359375 19.335721969604492188 19.280029296875 19.223409652709960938 19.168203353881835938 19.11199188232421875 19.057216644287109375 19.001367568969726562 18.946985244750976562 18.891458511352539062 18.837430953979492188 18.782186508178710938 18.728460311889648438 18.673435211181640625 18.619945526123046875 18.565073013305664062 18.511768341064453125 18.457010269165039062 18.403882980346679688 18.349269866943359375 18.2963409423828125 18.241872787475585938 18.189136505126953125 18.134807586669921875 18.0822601318359375 18.028066635131835938 17.975706100463867188 17.921651840209960938 17.869482040405273438 17.815565109252929688 17.763584136962890625 17.709808349609375 17.65802001953125 17.6043853759765625 17.552791595458984375 17.499303817749023438 17.447906494140625 17.394565582275390625 17.343366622924804688 17.290180206298828125 17.239185333251953125 17.186153411865234375 17.135364532470703125 17.082492828369140625 17.03191375732421875 16.97922515869140625 16.928890228271484375 16.876401901245117188 16.8263092041015625 16.774023056030273438 16.724187850952148438 16.672124862670898438 16.622556686401367188 16.570720672607421875 16.521421432495117188 16.46981048583984375 16.420782089233398438 16.3694000244140625 16.320642471313476562 16.269491195678710938 16.221006393432617188 16.1700897216796875 16.12187957763671875 16.071199417114257812 16.023263931274414062 15.972812652587890625 15.925112724304199219 15.874826431274414062 15.827329635620117188 15.777204513549804688 15.729907989501953125 15.679936408996582031 15.632829666137695312 15.583004951477050781 15.536086082458496094 15.486406326293945312 15.439672470092773438 15.390135765075683594 15.343586921691894531 15.294191360473632812 15.247820854187011719 15.198556900024414062 15.152354240417480469 15.103214263916015625 15.057173728942871094 15.008150100708007812 14.962266921997070312 14.913356781005859375 14.867628097534179688 14.818835258483886719 14.773260116577148438 14.724547386169433594 14.679057121276855469 14.630357742309570312 14.584913253784179688 14.536194801330566406 14.490761756896972656 14.441983222961425781 14.396531105041503906 14.347696304321289062 14.302248954772949219 14.253387451171875 14.208006858825683594 14.159197807312011719 14.113956451416015625 14.065283775329589844 14.020226478576660156 13.971705436706542969 13.926842689514160156 13.878493309020996094 13.833848953247070312 13.785700798034667969 13.741307258605957031 13.693402290344238281 13.649298667907714844 13.601704597473144531 13.557926177978515625 13.510759353637695312 13.467376708984375 13.420748710632324219 13.37789154052734375 13.331975936889648438 13.289843559265136719 13.244915008544921875 13.203837394714355469 13.160356521606445312 13.120874404907226562 13.079533576965332031 13.04248046875 13.004582405090332031 12.971834182739257812 12.940801620483398438 12.918351173400878906 12.905600547790527344 12.896345138549804688 12.888371467590332031 12.868741035461425781 12.840158462524414062 12.814500808715820312 12.783639907836914062 12.752794265747070312 12.718570709228515625 12.686414718627929688 12.656752586364746094 12.632783889770507812 12.608387947082519531 12.585872650146484375 12.562032699584960938 12.539675712585449219 12.515871047973632812 12.493447303771972656 12.469550132751464844 12.446988105773925781 12.422952651977539062 12.400225639343261719 12.376031875610351562 12.353127479553222656 12.328767776489257812 12.305678367614746094 12.281147003173828125 12.257868766784667969 12.233457565307617188 12.211809158325195312 12.369510650634765625 12.236872673034667969 12.065289497375488281 11.922448158264160156 11.786640167236328125 11.665816307067871094 11.542410850524902344 11.427691459655761719 11.310106277465820312 11.201517105102539062 11.09133148193359375 10.990515708923339844 10.889956474304199219 10.800142288208007812 10.713655471801757812 10.639508247375488281 10.571942329406738281 10.517249107360839844 10.468962669372558594 10.429266929626464844 10.392486572265625 10.3597412109375 10.326251029968261719 10.294165611267089844 10.26102447509765625 10.229912757873535156 10.198645591735839844 10.170063018798828125 10.14186859130859375 10.115593910217285156 10.088258743286132812 10.061085700988769531 10.031060218811035156 9.9998149871826171875 9.96558380126953125 9.9322347640991210938 9.8989286422729492188 9.8694562911987304688 9.8432931900024414062 9.82282257080078125 9.8060398101806640625 9.7930316925048828125 9.7819385528564453125 9.7724637985229492188 9.7631635665893554688 9.75444793701171875 9.7460737228393554688 9.7388391494750976562 9.7326498031616210938 9.7281293869018554688 9.7250423431396484375 9.7231321334838867188 9.7217693328857421875 9.7205152511596679688 9.7187671661376953125 9.7161931991577148438 9.712512969970703125 9.7079524993896484375 9.7023229598999023438 9.6959400177001953125 9.6885833740234375 9.680973052978515625 9.6735992431640625 9.6676387786865234375 9.663776397705078125 9.6630039215087890625 9.6659593582153320312 9.6722593307495117188 9.6815395355224609375 9.6927709579467773438 9.7057142257690429688 9.7192564010620117188 9.7332668304443359375 9.7467784881591796875 9.7596998214721679688 9.7711553573608398438 9.78095245361328125 9.7885007858276367188 9.7940301895141601562 9.7976560592651367188 9.7996883392333984375 9.8003387451171875 9.7998437881469726562 9.7984418869018554688 9.7962808609008789062 9.7935991287231445312 9.7905244827270507812 9.7872953414916992188 
14.439826011657714844 14.514383316040039062 14.589818954467773438 14.666711807250976562 14.743734359741210938 14.82157135009765625 14.899352073669433594 14.97772216796875 15.055994987487792969 15.134657859802246094 15.213202476501464844 15.291963577270507812 15.370608329772949219 15.449298858642578125 15.527855873107910156 15.606248855590820312 15.684417724609375 15.762076377868652344 15.839189529418945312 15.9150543212890625 15.989382743835449219 16.060827255249023438 16.129299163818359375 16.1931610107421875 16.25066375732421875 16.297643661499023438 16.33631134033203125 16.415475845336914062 16.758657455444335938 17.142017364501953125 17.521196365356445312 17.89293670654296875 18.26023101806640625 18.594587326049804688 18.891565322875976562 19.157123565673828125 19.404903411865234375 19.632547378540039062 19.848581314086914062 20.033243179321289062 20.035058975219726562 19.9765625 19.917665481567382812 19.86003875732421875 19.8018798828125 19.744974136352539062 19.687437057495117188 19.631151199340820312 19.574140548706054688 19.518404006958007812 19.461879730224609375 19.406660079956054688 19.350568771362304688 19.295808792114257812 19.240098953247070312 19.1857452392578125 19.130369186401367188 19.0763702392578125 19.021261215209960938 18.967535018920898438 18.912603378295898438 18.859067916870117188 18.8042449951171875 18.7508544921875 18.696111679077148438 18.642850875854492188 18.588178634643554688 18.53504180908203125 18.480447769165039062 18.42746734619140625 18.372997283935546875 18.320194244384765625 18.265848159790039062 18.213222503662109375 18.158998489379882812 18.106546401977539062 18.0524444580078125 18.000169754028320312 17.946195602416992188 17.894098281860351562 17.840251922607421875 17.78833770751953125 17.734621047973632812 17.682889938354492188 17.62931060791015625 17.57776641845703125 17.524326324462890625 17.472970962524414062 17.419673919677734375 17.368511199951171875 17.31536102294921875 17.264398574829101562 17.211399078369140625 17.16063690185546875 17.107793807983398438 17.057237625122070312 17.004566192626953125 16.954244613647460938 16.901769638061523438 16.851686477661132812 16.799411773681640625 16.749586105346679688 16.697526931762695312 16.647962570190429688 16.596124649047851562 16.546823501586914062 16.495206832885742188 16.446168899536132812 16.394777297973632812 16.346006393432617188 16.294841766357421875 16.246339797973632812 16.195404052734375 16.1471710205078125 16.096467971801757812 16.048509597778320312 15.998025894165039062 15.950293540954589844 15.899974822998046875 15.852447509765625 15.8022918701171875 15.754968643188476562 15.704970359802246094 15.657841682434082031 15.607995986938476562 15.561059951782226562 15.511365890502929688 15.46462249755859375 15.415080070495605469 15.368529319763183594 15.3191375732421875 15.272775650024414062 15.223526954650878906 15.177344322204589844 15.128232955932617188 15.082227706909179688 15.033251762390136719 14.987421035766601562 14.938577651977539062 14.892918586730957031 14.844207763671875 14.7987213134765625 14.7501220703125 14.704756736755371094 14.656218528747558594 14.610947608947753906 14.562447547912597656 14.517251014709472656 14.468764305114746094 14.423614501953125 14.375109672546386719 14.329970359802246094 14.281401634216308594 14.236226081848144531 14.187541961669921875 14.142289161682128906 14.093455314636230469 14.048139572143554688 13.999234199523925781 13.953955650329589844 13.905121803283691406 13.860005378723144531 13.811326026916503906 13.766421318054199219 13.717937469482421875 13.673274040222167969 13.6250457763671875 13.580651283264160156 13.532779693603515625 13.48870849609375 13.441290855407714844 13.397652626037597656 13.350831985473632812 13.307796478271484375 13.261806488037109375 13.219635963439941406 13.174810409545898438 13.133901596069335938 13.090789794921875 13.051789283752441406 13.011381149291992188 12.975782394409179688 12.940843582153320312 12.913472175598144531 12.894944190979003906 12.885394096374511719 12.877566337585449219 12.856778144836425781 12.82846832275390625 12.802219390869140625 12.7711334228515625 12.740200042724609375 12.706416130065917969 12.678508758544921875 12.653088569641113281 12.630406379699707031 12.606580734252929688 12.584342002868652344 12.560673713684082031 12.538417816162109375 12.514681816101074219 12.492298126220703125 12.468428611755371094 12.445881843566894531 12.421853065490722656 12.399126052856445312 12.374927520751953125 12.35201263427734375 12.327639579772949219 12.304534912109375 12.2799835205078125 12.256734848022460938 12.233099937438964844 12.334934234619140625 12.288052558898925781 12.107923507690429688 11.944205284118652344 11.809338569641113281 11.682801246643066406 11.571868896484375 11.460052490234375 11.356859207153320312 11.25101470947265625 11.152380943298339844 11.050429344177246094 10.954628944396972656 10.856410026550292969 10.766875267028808594 10.679600715637207031 10.604593276977539062 10.536980628967285156 10.483600616455078125 10.437900543212890625 10.401365280151367188 10.36809539794921875 10.338437080383300781 10.307424545288085938 10.276897430419921875 10.244668960571289062 10.213926315307617188 10.182688713073730469 10.153970718383789062 10.125596046447753906 10.099175453186035156 10.071761131286621094 10.044614791870117188 10.014774322509765625 9.9838838577270507812 9.95021820068359375 9.9175930023193359375 9.8852062225341796875 9.8567657470703125 9.831813812255859375 9.812633514404296875 9.797298431396484375 9.7857809066772460938 9.7763051986694335938 9.768459320068359375 9.7608747482299804688 9.7537937164306640625 9.7469739913940429688 9.7410306930541992188 9.7358427047729492188 9.7318964004516601562 9.7289638519287109375 9.726879119873046875 9.7251148223876953125 9.7233743667602539062 9.7211437225341796875 9.7182140350341796875 9.7143030166625976562 9.7096242904663085938 9.7039546966552734375 9.6975870132446289062 9.6902723312377929688 9.6827249526977539062 9.6754560470581054688 9.669666290283203125 9.6660718917846679688 9.6656789779663085938 9.6691484451293945312 9.676025390625 9.685894012451171875 9.69762420654296875 9.7109079360961914062 9.7245540618896484375 9.7383975982666015625 9.7514944076538085938 9.7637615203857421875 9.7743701934814453125 9.7831249237060546875 9.78949737548828125 9.7937526702880859375 9.7961111068725585938 9.7969303131103515625 9.7965230941772460938 9.7951765060424804688 9.793163299560546875 9.7906064987182617188 9.787715911865234375 9.7845916748046875 9.781444549560546875 
14.436651229858398438 14.512227058410644531 14.588196754455566406 14.665400505065917969 14.742706298828125 14.820786476135253906 14.898711204528808594 14.977120399475097656 15.055347442626953125 15.133897781372070312 15.212275505065917969 15.290815353393554688 15.369179725646972656 15.447520256042480469 15.525640487670898438 15.603480339050292969 15.680942535400390625 15.757683753967285156 15.833593368530273438 15.907923698425292969 15.980602264404296875 16.05069732666015625 16.117818832397460938 16.179723739624023438 16.234292984008789062 16.276758193969726562 16.303800582885742188 16.378595352172851562 16.722799301147460938 17.104433059692382812 17.483455657958984375 17.855907440185546875 18.228176116943359375 18.590383529663085938 18.930028915405273438 19.225557327270507812 19.49261474609375 19.73082733154296875 19.950685501098632812 20.078969955444335938 20.035900115966796875 19.979051589965820312 19.921724319458007812 19.865550994873046875 19.808788299560546875 19.753187179565429688 19.696905136108398438 19.641796112060546875 19.585927963256835938 19.5312652587890625 19.475782394409179688 19.421541213989257812 19.366395950317382812 19.312496185302734375 19.25759124755859375 19.2039337158203125 19.149169921875 19.095670700073242188 19.040987014770507812 18.987607955932617188 18.9329833984375 18.8797149658203125 18.825139999389648438 18.77197265625 18.717441558837890625 18.66437530517578125 18.609891891479492188 18.556926727294921875 18.502500534057617188 18.449672698974609375 18.395345687866210938 18.342676162719726562 18.288455963134765625 18.235942840576171875 18.181829452514648438 18.12947845458984375 18.075473785400390625 18.023284912109375 17.969394683837890625 17.9173736572265625 17.8636016845703125 17.8117523193359375 17.7581024169921875 17.70642852783203125 17.652904510498046875 17.601409912109375 17.5480194091796875 17.496707916259765625 17.443450927734375 17.39232635498046875 17.33921051025390625 17.288278579711914062 17.235307693481445312 17.184572219848632812 17.13175201416015625 17.08121490478515625 17.028558731079101562 16.978246688842773438 16.925777435302734375 16.875703811645507812 16.823434829711914062 16.773609161376953125 16.72154998779296875 16.6719818115234375 16.620134353637695312 16.57082366943359375 16.519191741943359375 16.4701385498046875 16.41872406005859375 16.369932174682617188 16.3187408447265625 16.270212173461914062 16.219244003295898438 16.170980453491210938 16.120241165161132812 16.07224273681640625 16.021711349487304688 15.973931312561035156 15.923562049865722656 15.875988960266113281 15.825784683227539062 15.778414726257324219 15.728368759155273438 15.681195259094238281 15.631303787231445312 15.58432769775390625 15.534590721130371094 15.487810134887695312 15.438229560852050781 15.391645431518554688 15.342220306396484375 15.295830726623535156 15.246554374694824219 15.200350761413574219 15.151220321655273438 15.105202674865722656 15.056218147277832031 15.010385513305664062 14.961544990539550781 14.915895462036132812 14.867199897766113281 14.821730613708496094 14.773158073425292969 14.727829933166503906 14.679346084594726562 14.634141921997070312 14.58573150634765625 14.540638923645019531 14.492288589477539062 14.447291374206542969 14.398980140686035156 14.354052543640136719 14.305751800537109375 14.260869026184082031 14.212548255920410156 14.167675018310546875 14.11928558349609375 14.074368476867675781 14.025841712951660156 13.980800628662109375 13.932040214538574219 13.886828422546386719 13.83786773681640625 13.792577743530273438 13.743575096130371094 13.698386192321777344 13.64955902099609375 13.604585647583007812 13.556054115295410156 13.511339187622070312 13.463181495666503906 13.418813705444335938 13.371148109436035156 13.327256202697753906 13.280241966247558594 13.237013816833496094 13.190914154052734375 13.148652076721191406 13.103857994079589844 13.063038825988769531 13.020314216613769531 12.982088088989257812 12.943552970886230469 12.911650657653808594 12.886519432067871094 12.875416755676269531 12.86627197265625 12.8454742431640625 12.817498207092285156 12.790517807006835938 12.759100914001464844 12.728240966796875 12.698507308959960938 12.674956321716308594 12.650986671447753906 12.628815650939941406 12.605255126953125 12.583147048950195312 12.559561729431152344 12.537351608276367188 12.513643264770507812 12.491273880004882812 12.467410087585449219 12.444861412048339844 12.420825004577636719 12.3980865478515625 12.373872756958007812 12.350941658020019531 12.326547622680664062 12.3034210205078125 12.278850555419921875 12.255957603454589844 12.29566192626953125 12.360990524291992188 12.169061660766601562 11.994688987731933594 11.837556838989257812 11.708798408508300781 11.589130401611328125 11.485640525817871094 11.382902145385742188 11.289053916931152344 11.193015098571777344 11.102959632873535156 11.008423805236816406 10.917544364929199219 10.82222747802734375 10.73392486572265625 10.647053718566894531 10.572271347045898438 10.505456924438476562 10.453770637512207031 10.41065216064453125 10.376982688903808594 10.346722602844238281 10.319580078125 10.290460586547851562 10.260983467102050781 10.229198455810546875 10.198437690734863281 10.166905403137207031 10.137805938720703125 10.109079360961914062 10.082427024841308594 10.054926872253417969 10.027889251708984375 9.9984035491943359375 9.9681196212768554688 9.9353456497192382812 9.903781890869140625 9.8726596832275390625 9.8455476760864257812 9.8220310211181640625 9.8042650222778320312 9.7904157638549804688 9.7803564071655273438 9.7724180221557617188 9.766086578369140625 9.7600841522216796875 9.7545003890991210938 9.749088287353515625 9.7442951202392578125 9.7399749755859375 9.7364788055419921875 9.733592987060546875 9.731235504150390625 9.7289886474609375 9.7266893386840820312 9.7239198684692382812 9.7205867767333984375 9.716411590576171875 9.7116003036499023438 9.7059001922607421875 9.6995820999145507812 9.6923770904541015625 9.6849813461303710938 9.67790985107421875 9.6723537445068359375 9.669040679931640625 9.668964385986328125 9.6727933883666992188 9.680027008056640625 9.690216064453125 9.7021808624267578125 9.7155694961547851562 9.7291555404663085938 9.742740631103515625 9.7553949356079101562 9.7670240402221679688 9.7768220901489257812 9.7845754623413085938 9.789806365966796875 9.7928142547607421875 9.7939271926879882812 9.793560028076171875 9.792133331298828125 9.7899875640869140625 9.7874345779418945312 9.7845544815063476562 9.7815237045288085938 9.7784051895141601562 9.7753658294677734375 
14.432032585144042969 14.509080886840820312 14.585939407348632812 14.663675308227539062 14.741281509399414062 14.819558143615722656 14.897646903991699219 14.976179122924804688 15.054467201232910156 15.1330108642578125 15.211315155029296875 15.289717674255371094 15.367878913879394531 15.445942878723144531 15.523701667785644531 15.601076126098632812 15.677948951721191406 15.753979682922363281 15.829144477844238281 15.902861595153808594 15.975080490112304688 16.044687271118164062 16.111146926879882812 16.17218017578125 16.225793838500976562 16.2672576904296875 16.287654876708984375 16.367382049560546875 16.703458786010742188 17.0837249755859375 17.4633331298828125 17.833402633666992188 18.20267486572265625 18.565504074096679688 18.928155899047851562 19.268199920654296875 19.57077789306640625 19.827911376953125 20.048191070556640625 20.094316482543945312 20.038557052612304688 19.983203887939453125 19.927301406860351562 19.872455596923828125 19.816974639892578125 19.762567520141601562 19.707445144653320312 19.65341949462890625 19.59859466552734375 19.544885635375976562 19.490282058715820312 19.436796188354492188 19.382312774658203125 19.328962326049804688 19.2745361328125 19.221282958984375 19.1668853759765625 19.113710403442382812 19.059331893920898438 19.006229400634765625 18.951864242553710938 18.898830413818359375 18.844480514526367188 18.7915191650390625 18.737188339233398438 18.68430328369140625 18.629995346069335938 18.5771942138671875 18.522924423217773438 18.470239639282226562 18.416051864624023438 18.363506317138671875 18.309406280517578125 18.2570037841796875 18.20299530029296875 18.150739669799804688 18.096826553344726562 18.0447235107421875 17.99091339111328125 17.938966751098632812 17.885265350341796875 17.833478927612304688 17.779890060424804688 17.728269577026367188 17.674800872802734375 17.62335205078125 17.570005416870117188 17.518732070922851562 17.46551513671875 17.41442108154296875 17.361337661743164062 17.31043243408203125 17.257488250732421875 17.2067718505859375 17.153970718383789062 17.103448867797851562 17.050802230834960938 17.00049591064453125 16.948030471801757812 16.897960662841796875 16.845691680908203125 16.795862197875976562 16.743795394897460938 16.6942138671875 16.642353057861328125 16.593023300170898438 16.541370391845703125 16.4922943115234375 16.440853118896484375 16.392030715942382812 16.340803146362304688 16.292238235473632812 16.241231918334960938 16.192926406860351562 16.142139434814453125 16.09409332275390625 16.043498992919921875 15.995662689208984375 15.945232391357421875 15.897599220275878906 15.847332954406738281 15.79990386962890625 15.74979400634765625 15.7025604248046875 15.652606010437011719 15.605570793151855469 15.555771827697753906 15.508933067321777344 15.459291458129882812 15.41265106201171875 15.363167762756347656 15.316721916198730469 15.267389297485351562 15.221134185791015625 15.1719512939453125 15.125885963439941406 15.076852798461914062 15.030976295471191406 14.982094764709472656 14.93640899658203125 14.887677192687988281 14.8421783447265625 14.793576240539550781 14.748225212097167969 14.699721336364746094 14.654509544372558594 14.606101036071777344 14.561021804809570312 14.512699127197265625 14.467741966247558594 14.419491767883300781 14.37464141845703125 14.326443672180175781 14.281682968139648438 14.233521461486816406 14.188829421997070312 14.140676498413085938 14.096025466918945312 14.047845840454101562 14.003192901611328125 13.954934120178222656 13.910228729248046875 13.861823081970214844 13.816985130310058594 13.768328666687011719 13.72325897216796875 13.674294471740722656 13.628998756408691406 13.579941749572753906 13.534658432006835938 13.485822677612304688 13.440779685974121094 13.392322540283203125 13.347635269165039062 13.2996826171875 13.255491256713867188 13.208216667175292969 13.164720535278320312 13.118413925170898438 13.075976371765136719 13.031195640563964844 12.990645408630371094 12.948937416076660156 12.9130401611328125 12.881532669067382812 12.866764068603515625 12.855093955993652344 12.835544586181640625 12.807446479797363281 12.779702186584472656 12.748061180114746094 12.72034454345703125 12.695369720458984375 12.673148155212402344 12.649666786193847656 12.627703666687011719 12.604260444641113281 12.582213401794433594 12.558657646179199219 12.536457061767578125 12.512750625610351562 12.490375518798828125 12.466500282287597656 12.443936347961425781 12.419882774353027344 12.397125244140625 12.372888565063476562 12.349933624267578125 12.325513839721679688 12.302361488342285156 12.277887344360351562 12.266554832458496094 12.41103363037109375 12.276360511779785156 12.070239067077636719 11.901782989501953125 11.749108314514160156 11.623707771301269531 11.507555007934570312 11.408191680908203125 11.311176300048828125 11.223806381225585938 11.135069847106933594 11.051848411560058594 10.963746070861816406 10.877781867980957031 10.786241531372070312 10.700542449951171875 10.615738868713378906 10.542672157287597656 10.477755546569824219 10.428206443786621094 10.387556076049804688 10.356260299682617188 10.328267097473144531 10.302887916564941406 10.274979591369628906 10.24605560302734375 10.21434783935546875 10.183333396911621094 10.151345252990722656 10.121769905090332031 10.092639923095703125 10.065753936767578125 10.038236618041992188 10.011454582214355469 9.9825773239135742188 9.953250885009765625 9.9218111038208007812 9.891773223876953125 9.8623723983764648438 9.8369588851928710938 9.8151340484619140625 9.7988882064819335938 9.786495208740234375 9.7777652740478515625 9.771144866943359375 9.7660694122314453125 9.7613515853881835938 9.7569665908813476562 9.7526693344116210938 9.7487640380859375 9.74507904052734375 9.7418680191040039062 9.7389125823974609375 9.7362232208251953125 9.7334661483764648438 9.7306051254272460938 9.72730255126953125 9.7235708236694335938 9.7191371917724609375 9.714202880859375 9.7084932327270507812 9.70226287841796875 9.69522857666015625 9.6880578994750976562 9.6812496185302734375 9.6759576797485351562 9.6728916168212890625 9.6730127334594726562 9.6769685745239257812 9.6842546463012695312 9.6944189071655273438 9.7062835693359375 9.7194929122924804688 9.7328243255615234375 9.7460641860961914062 9.7582769393920898438 9.7693328857421875 9.7784318923950195312 9.7853136062622070312 9.7895345687866210938 9.7914171218872070312 9.7914018630981445312 9.7899522781372070312 9.7875957489013671875 9.7847270965576171875 9.7816905975341796875 9.7785272598266601562 9.7753782272338867188 9.7722616195678710938 9.7693071365356445312 
14.426571846008300781 14.505311965942382812 14.583346366882324219 14.661887168884277344 14.740030288696289062 14.818651199340820312 14.896944999694824219 14.975600242614746094 15.053963661193847656 15.13254547119140625 15.210849761962890625 15.289206504821777344 15.367278099060058594 15.445206642150878906 15.522792816162109375 15.599971771240234375 15.676670074462890625 15.752592086791992188 15.827731132507324219 15.901488304138183594 15.973797798156738281 16.043542861938476562 16.11025238037109375 16.171810150146484375 16.226667404174804688 16.270376205444335938 16.291042327880859375 16.3635406494140625 16.709716796875 17.08953857421875 17.466131210327148438 17.832286834716796875 18.196382522583007812 18.5535430908203125 18.912149429321289062 19.265531539916992188 19.614381790161132812 19.919416427612304688 20.117931365966796875 20.09801483154296875 20.0430908203125 19.989114761352539062 19.934535980224609375 19.880929946899414062 19.826641082763671875 19.773334503173828125 19.719236373901367188 19.666110992431640625 19.612079620361328125 19.55904388427734375 19.505029678344726562 19.45204925537109375 19.398021697998046875 19.345075607299804688 19.29102325439453125 19.238103866577148438 19.184019088745117188 19.131128311157226562 19.077016830444335938 19.024158477783203125 18.970026016235351562 18.917207717895507812 18.863063812255859375 18.810293197631835938 18.756145477294921875 18.703428268432617188 18.649286270141601562 18.596635818481445312 18.542512893676757812 18.489963531494140625 18.43590545654296875 18.383478164672851562 18.329492568969726562 18.277193069458007812 18.223285675048828125 18.17111968994140625 18.117296218872070312 18.065271377563476562 18.011537551879882812 17.959659576416015625 17.906026840209960938 17.854299545288085938 17.800767898559570312 17.74919891357421875 17.69577789306640625 17.644372940063476562 17.591068267822265625 17.539831161499023438 17.486646652221679688 17.435583114624023438 17.382524490356445312 17.33164215087890625 17.278718948364257812 17.228017807006835938 17.17523193359375 17.124719619750976562 17.072078704833984375 17.0217742919921875 16.969310760498046875 16.919237136840820312 16.866962432861328125 16.817125320434570312 16.765043258666992188 16.71544647216796875 16.663562774658203125 16.614208221435546875 16.562528610229492188 16.51342010498046875 16.461944580078125 16.413084030151367188 16.36181640625 16.313207626342773438 16.262151718139648438 16.21379852294921875 16.16295623779296875 16.114849090576171875 16.06418609619140625 16.0162811279296875 15.965779304504394531 15.918078422546386719 15.867737770080566406 15.820237159729003906 15.770050048828125 15.722744941711425781 15.672712326049804688 15.625603675842285156 15.575727462768554688 15.528813362121582031 15.479093551635742188 15.432378768920898438 15.382815361022949219 15.33629608154296875 15.286883354187011719 15.2405548095703125 15.191292762756347656 15.145154953002929688 15.096044540405273438 15.050097465515136719 15.001140594482421875 14.955385208129882812 14.906580924987792969 14.86101531982421875 14.812345504760742188 14.766932487487792969 14.718364715576171875 14.673095703125 14.624631881713867188 14.57950592041015625 14.531141281127929688 14.486154556274414062 14.437880516052246094 14.393019676208496094 14.344823837280273438 14.300078392028808594 14.251950263977050781 14.207307815551757812 14.159231185913085938 14.114674568176269531 14.066628456115722656 14.022134780883789062 13.974093437194824219 13.929637908935546875 13.88156890869140625 13.837117195129394531 13.788976669311523438 13.744470596313476562 13.696199417114257812 13.651528358459472656 13.603039741516113281 13.558033943176269531 13.509183883666992188 13.463829994201660156 13.414788246154785156 13.369381904602050781 13.32054901123046875 13.275452613830566406 13.227095603942871094 13.182475090026855469 13.134799957275390625 13.090903282165527344 13.044280052185058594 13.001658439636230469 12.957133293151855469 12.917699813842773438 12.880426406860351562 12.85947418212890625 12.84386444091796875 12.826453208923339844 12.797966957092285156 12.769525527954101562 12.7403411865234375 12.717284202575683594 12.693829536437988281 12.672023773193359375 12.648737907409667969 12.626861572265625 12.603463172912597656 12.581435203552246094 12.557883262634277344 12.535675048828125 12.511952400207519531 12.489558219909667969 12.465659141540527344 12.443072319030761719 12.4189910888671875 12.396207809448242188 12.371941566467285156 12.348958969116210938 12.324507713317871094 12.301334381103515625 12.277363777160644531 12.404223442077636719 12.392335891723632812 12.185099601745605469 11.988072395324707031 11.824711799621582031 11.674635887145996094 11.550180435180664062 11.434603691101074219 11.336466789245605469 11.242265701293945312 11.158917427062988281 11.075377464294433594 10.997572898864746094 10.915187835693359375 10.834292411804199219 10.747481346130371094 10.665769577026367188 10.584674835205078125 10.514761924743652344 10.452820777893066406 10.405839920043945312 10.36756134033203125 10.338189125061035156 10.311788558959960938 10.287487983703613281 10.260195732116699219 10.231425285339355469 10.199524879455566406 10.168103218078613281 10.135582923889160156 10.105507850646972656 10.075971603393554688 10.048890113830566406 10.021450042724609375 9.995086669921875 9.9670820236206054688 9.9390630722045898438 9.9094095230102539062 9.881359100341796875 9.8541412353515625 9.83080291748046875 9.8109455108642578125 9.7963438034057617188 9.785404205322265625 9.777904510498046875 9.7724180221557617188 9.768360137939453125 9.7646551132202148438 9.7611904144287109375 9.7577276229858398438 9.7544612884521484375 9.7511949539184570312 9.7481069564819335938 9.7449827194213867188 9.741909027099609375 9.7386255264282226562 9.7352113723754882812 9.731388092041015625 9.7272710800170898438 9.7225904464721679688 9.7175455093383789062 9.7118511199951171875 9.705745697021484375 9.6989412307739257812 9.6920671463012695312 9.6855869293212890625 9.680591583251953125 9.6777477264404296875 9.6779584884643554688 9.6818380355834960938 9.6888980865478515625 9.6987180709838867188 9.7101688385009765625 9.7229213714599609375 9.73580169677734375 9.7485857009887695312 9.7603273391723632812 9.7708425521850585938 9.779315948486328125 9.7854356765747070312 9.7887659072875976562 9.7896509170532226562 9.7886304855346679688 9.7862148284912109375 9.7830266952514648438 9.7795095443725585938 9.7760362625122070312 9.7726106643676757812 9.7693424224853515625 9.7662134170532226562 9.7633075714111328125 
14.416756629943847656 14.497773170471191406 14.577836036682128906 14.658174514770507812 14.737827301025390625 14.817645072937011719 14.896739006042480469 14.975882530212402344 15.054625511169433594 15.133503913879394531 15.212014198303222656 15.290492057800292969 15.368670463562011719 15.44671630859375 15.524447441101074219 15.601817131042480469 15.678766250610351562 15.755019187927246094 15.830592155456542969 15.90491485595703125 15.977964401245117188 16.048715591430664062 16.116846084594726562 16.180612564086914062 16.239164352416992188 16.287237167358398438 16.315477371215820312 16.377614974975585938 16.746555328369140625 17.125070571899414062 17.495267868041992188 17.856935501098632812 18.2172698974609375 18.570438385009765625 18.924411773681640625 19.271770477294921875 19.619176864624023438 19.952642440795898438 20.152494430541992188 20.103086471557617188 20.049509048461914062 19.996799468994140625 19.94342803955078125 19.890897750854492188 19.837568283081054688 19.785074234008789062 19.73168182373046875 19.679155349731445312 19.62566375732421875 19.57309722900390625 19.519514083862304688 19.466913223266601562 19.413242340087890625 19.360614776611328125 19.30686187744140625 19.254215240478515625 19.200391769409179688 19.147737503051757812 19.093854904174804688 19.041204452514648438 18.987276077270507812 18.934642791748046875 18.880678176879882812 18.828073501586914062 18.774087905883789062 18.721523284912109375 18.6675262451171875 18.61501312255859375 18.561021804809570312 18.508594512939453125 18.454652786254882812 18.402332305908203125 18.34844970703125 18.296243667602539062 18.242427825927734375 18.190343856811523438 18.136598587036132812 18.084646224975585938 18.03098297119140625 17.979166030883789062 17.925592422485351562 17.873918533325195312 17.820438385009765625 17.768915176391601562 17.715536117553710938 17.6641693115234375 17.610898971557617188 17.559694290161132812 17.506536483764648438 17.45549774169921875 17.402462005615234375 17.351594924926757812 17.298685073852539062 17.247997283935546875 17.195219039916992188 17.144712448120117188 17.092073440551757812 17.041767120361328125 16.989299774169921875 16.939218521118164062 16.886932373046875 16.837080001831054688 16.784978866577148438 16.73535919189453125 16.683450698852539062 16.634067535400390625 16.582353591918945312 16.53321075439453125 16.481693267822265625 16.432790756225585938 16.381475448608398438 16.332818984985351562 16.281707763671875 16.23329925537109375 16.182394027709960938 16.13421630859375 16.083478927612304688 16.035501480102539062 15.984922409057617188 15.937145233154296875 15.886722564697265625 15.839142799377441406 15.78887176513671875 15.741484642028808594 15.691366195678710938 15.644173622131347656 15.594207763671875 15.547210693359375 15.497399330139160156 15.450597763061523438 15.400941848754882812 15.354333877563476562 15.304826736450195312 15.2584075927734375 15.209051132202148438 15.162821769714355469 15.113615036010742188 15.067577362060546875 15.018523216247558594 14.972676277160644531 14.923773765563964844 14.878116607666015625 14.829348564147949219 14.783844947814941406 14.7351837158203125 14.689828872680664062 14.641272544860839844 14.59606170654296875 14.547609329223632812 14.502543449401855469 14.454191207885742188 14.409261703491210938 14.36100006103515625 14.316198348999023438 14.268021583557128906 14.223340034484863281 14.175234794616699219 14.130662918090820312 14.082616806030273438 14.038140296936035156 13.990138053894042969 13.945742607116699219 13.897769927978515625 13.853440284729003906 13.805476188659667969 13.761183738708496094 13.713212013244628906 13.6688995361328125 13.620912551879882812 13.576508522033691406 13.528429031372070312 13.48383331298828125 13.435506820678710938 13.390527725219726562 13.341732025146484375 13.296261787414550781 13.247128486633300781 13.201570510864257812 13.152710914611816406 13.107556343078613281 13.059357643127441406 13.014978408813476562 12.968083381652832031 12.925693511962890625 12.883556365966796875 12.854626655578613281 12.834141731262207031 12.81813812255859375 12.789226531982421875 12.762220382690429688 12.737751960754394531 12.716051101684570312 12.692951202392578125 12.671278953552246094 12.64806365966796875 12.626214981079101562 12.602822303771972656 12.580786705017089844 12.557219505310058594 12.534993171691894531 12.5112457275390625 12.488823890686035156 12.464894294738769531 12.442276954650878906 12.418163299560546875 12.39534759521484375 12.3710479736328125 12.348032951354980469 12.32354736328125 12.30052947998046875 12.316638946533203125 12.474217414855957031 12.302159309387207031 12.107562065124511719 11.919808387756347656 11.76100921630859375 11.612351417541503906 11.487279891967773438 11.370311737060546875 11.271378517150878906 11.1778564453125 11.096619606018066406 11.016551971435546875 10.94292449951171875 10.865528106689453125 10.789655685424804688 10.708151817321777344 10.631361961364746094 10.555102348327636719 10.489338874816894531 10.431075096130371094 10.386878013610839844 10.35077667236328125 10.322876930236816406 10.297450065612792969 10.273626327514648438 10.246447563171386719 10.217494010925292969 10.185192108154296875 10.153262138366699219 10.120176315307617188 10.089608192443847656 10.05970001220703125 10.032475471496582031 10.0052032470703125 9.979381561279296875 9.9524278640747070312 9.925937652587890625 9.8983354568481445312 9.8725414276123046875 9.8477659225463867188 9.8267145156860351562 9.8089656829833984375 9.7960596084594726562 9.7865533828735351562 9.7801885604858398438 9.7756805419921875 9.77245330810546875 9.7695245742797851562 9.7667446136474609375 9.7638645172119140625 9.7610139846801757812 9.7579708099365234375 9.7548723220825195312 9.7514944076538085938 9.7480096817016601562 9.7442007064819335938 9.7402544021606445312 9.7359361648559570312 9.73145294189453125 9.726535797119140625 9.721393585205078125 9.7157306671142578125 9.7097806930541992188 9.703258514404296875 9.696746826171875 9.6906595230102539062 9.6860017776489257812 9.683380126953125 9.6836252212524414062 9.687297821044921875 9.6939496994018554688 9.703197479248046875 9.7140054702758789062 9.7260828018188476562 9.73833465576171875 9.7505350112915039062 9.7617292404174804688 9.7716808319091796875 9.7795562744140625 9.7849912643432617188 9.787555694580078125 9.78759765625 9.7857408523559570312 9.78253173828125 9.7786626815795898438 9.7746181488037109375 9.770793914794921875 9.7671594619750976562 9.763790130615234375 9.7606363296508789062 9.7577543258666992188 
14.38912200927734375 14.471754074096679688 14.55371856689453125 14.636096954345703125 14.717888832092285156 14.800007820129394531 14.881626129150390625 14.963461875915527344 15.044840812683105469 15.126263618469238281 15.207150459289550781 15.287805557250976562 15.368072509765625 15.448085784912109375 15.52748870849609375 15.6062469482421875 15.684597015380859375 15.76218414306640625 15.838866233825683594 15.9144287109375 15.989064216613769531 16.061887741088867188 16.132867813110351562 16.20073699951171875 16.264600753784179688 16.319990158081054688 16.360980987548828125 16.449125289916992188 16.811388015747070312 17.186313629150390625 17.55279541015625 17.910566329956054688 18.264537811279296875 18.60448455810546875 18.93537139892578125 19.254198074340820312 19.568115234375 19.96307373046875 20.162458419799804688 20.110742568969726562 20.058362960815429688 20.006664276123046875 19.9541473388671875 19.9023284912109375 19.849618911743164062 19.7976531982421875 19.744741439819335938 19.692640304565429688 19.639539718627929688 19.5873260498046875 19.5340728759765625 19.481771469116210938 19.42838287353515625 19.376012802124023438 19.322507858276367188 19.270090103149414062 19.21648406982421875 19.164031982421875 19.110345840454101562 19.057878494262695312 19.004125595092773438 18.951654434204101562 18.89785003662109375 18.845394134521484375 18.791553497314453125 18.739124298095703125 18.685258865356445312 18.632867813110351562 18.578996658325195312 18.526678085327148438 18.472843170166015625 18.420618057250976562 18.36682891845703125 18.314708709716796875 18.260972976684570312 18.208965301513671875 18.155292510986328125 18.103403091430664062 18.049802780151367188 17.998043060302734375 17.944520950317382812 17.892896652221679688 17.8394622802734375 17.787977218627929688 17.734636306762695312 17.683301925659179688 17.630062103271484375 17.57888031005859375 17.525747299194335938 17.474725723266601562 17.421705245971679688 17.370851516723632812 17.317953109741210938 17.267271041870117188 17.214496612548828125 17.163990020751953125 17.11135101318359375 17.061040878295898438 17.008563995361328125 16.958469390869140625 16.90616607666015625 16.856294631958007812 16.804170608520507812 16.754522323608398438 16.702581405639648438 16.653163909912109375 16.601409912109375 16.552227020263671875 16.500661849975585938 16.45171356201171875 16.4003448486328125 16.351633071899414062 16.300462722778320312 16.251993179321289062 16.201017379760742188 16.152765274047851562 16.101945877075195312 16.053890228271484375 16.003225326538085938 15.955366134643554688 15.90485382080078125 15.857188224792480469 15.80682373046875 15.759348869323730469 15.709134101867675781 15.661850929260253906 15.611786842346191406 15.564695358276367188 15.514781951904296875 15.467884063720703125 15.418123245239257812 15.371415138244628906 15.32180023193359375 15.275279998779296875 15.225812911987304688 15.179479598999023438 15.130160331726074219 15.084015846252441406 15.034847259521484375 14.9888916015625 14.93987274169921875 14.894103050231933594 14.84521484375 14.799600601196289062 14.750821113586425781 14.705354690551757812 14.656682014465332031 14.611362457275390625 14.562793731689453125 14.517618179321289062 14.469150543212890625 14.424114227294921875 14.375741004943847656 14.330839157104492188 14.282556533813476562 14.237782478332519531 14.18958282470703125 14.144929885864257812 14.0968017578125 14.052257537841796875 14.004192352294921875 13.959748268127441406 13.911737442016601562 13.867386817932128906 13.819418907165527344 13.775145530700683594 13.727222442626953125 13.682987213134765625 13.635125160217285156 13.590887069702148438 13.543057441711425781 13.498781204223632812 13.450933456420898438 13.406560897827148438 13.358608245849609375 13.314022064208984375 13.265773773193359375 13.220690727233886719 13.171800613403320312 13.126067161560058594 13.076733589172363281 13.030897140502929688 12.98204803466796875 12.937247276306152344 12.891072273254394531 12.853595733642578125 12.828723907470703125 12.810388565063476562 12.782548904418945312 12.759835243225097656 12.736855506896972656 12.715394020080566406 12.6923828125 12.670742988586425781 12.647538185119628906 12.625687599182128906 12.602281570434570312 12.58022308349609375 12.556628227233886719 12.534373283386230469 12.510594367980957031 12.488142013549804688 12.464176177978515625 12.441524505615234375 12.417372703552246094 12.394521713256835938 12.370183944702148438 12.347132682800292969 12.322650909423828125 12.300198554992675781 12.483559608459472656 12.418404579162597656 12.217977523803710938 12.0367431640625 11.858669281005859375 11.704458236694335938 11.556911468505859375 11.430655479431152344 11.311465263366699219 11.210765838623046875 11.116782188415527344 11.036562919616699219 10.95891571044921875 10.888674736022949219 10.815777778625488281 10.744874000549316406 10.669033050537109375 10.59775543212890625 10.527042388916015625 10.466043472290039062 10.411870002746582031 10.370545387268066406 10.33643341064453125 10.309639930725097656 10.284715652465820312 10.26092529296875 10.233477592468261719 10.204092025756835938 10.171227455139160156 10.138716697692871094 10.105050086975097656 10.074006080627441406 10.043770790100097656 10.016465187072753906 9.9894418716430664062 9.96425628662109375 9.9384670257568359375 9.913631439208984375 9.8882207870483398438 9.8648204803466796875 9.8426198959350585938 9.8239622116088867188 9.808406829833984375 9.797245025634765625 9.789180755615234375 9.7839269638061523438 9.7803373336791992188 9.7778406143188476562 9.7755575180053710938 9.7733030319213867188 9.770839691162109375 9.768245697021484375 9.7652864456176757812 9.7620706558227539062 9.7583799362182617188 9.754451751708984375 9.7501134872436523438 9.7456407546997070312 9.7408428192138671875 9.7359972000122070312 9.7308454513549804688 9.72560882568359375 9.7199926376342773438 9.7142286300659179688 9.708038330078125 9.70195770263671875 9.6963405609130859375 9.6920843124389648438 9.6897335052490234375 9.6900129318237304688 9.693431854248046875 9.699581146240234375 9.7081298828125 9.7181415557861328125 9.7293710708618164062 9.74082183837890625 9.7522745132446289062 9.762783050537109375 9.7720670700073242188 9.7792911529541015625 9.7840509414672851562 9.7859239578247070312 9.7852640151977539062 9.782741546630859375 9.7789220809936523438 9.7745466232299804688 9.7701196670532226562 9.7660474777221679688 9.762271881103515625 9.7588405609130859375 9.7556705474853515625 9.7527923583984375 
