ncols        302
nrows        148
xllcorner    650417.000000000000
yllcorner    274952.000000000000
cellsize     5.000000000000
NODATA_value -9999
29.531145095825195312 29.571321487426757812 29.586370468139648438 29.563404083251953125 29.53585052490234375 29.533296585083007812 29.551624298095703125 29.546321868896484375 29.553453445434570312 29.57798004150390625 29.595521926879882812 29.622747421264648438 29.630136489868164062 29.632143020629882812 29.6402740478515625 29.614072799682617188 29.587451934814453125 29.623289108276367188 29.677448272705078125 29.720716476440429688 29.757297515869140625 29.749883651733398438 29.715847015380859375 29.714107513427734375 29.72785186767578125 29.762121200561523438 29.862974166870117188 29.919668197631835938 29.9745025634765625 30.040906906127929688 29.849008560180664062 29.912044525146484375 30.657194137573242188 31.520223617553710938 31.160305023193359375 30.465322494506835938 30.329986572265625 30.291154861450195312 30.2701873779296875 30.367435455322265625 30.480718612670898438 30.478704452514648438 30.462362289428710938 30.65259552001953125 31.183050155639648438 31.342220306396484375 30.9113616943359375 30.720050811767578125 30.647794723510742188 30.621122360229492188 30.583665847778320312 30.56005859375 30.590494155883789062 30.642454147338867188 30.72583770751953125 30.799901962280273438 30.917596817016601562 31.137027740478515625 31.486448287963867188 31.898313522338867188 32.19907379150390625 33.087230682373046875 34.160213470458984375 35.089519500732421875 36.500640869140625 37.15358734130859375 37.381099700927734375 37.555545806884765625 37.860687255859375 37.7776031494140625 37.4083709716796875 37.27339935302734375 37.179607391357421875 36.850589752197265625 36.354503631591796875 35.457004547119140625 34.717838287353515625 34.2464752197265625 33.801853179931640625 33.3658294677734375 33.12776947021484375 33.02387237548828125 32.9000396728515625 32.762378692626953125 32.642208099365234375 32.588714599609375 32.576320648193359375 32.541584014892578125 32.37522125244140625 32.164249420166015625 31.990186691284179688 31.872531890869140625 31.814107894897460938 31.661968231201171875 31.372007369995117188 31.09258270263671875 30.778757095336914062 30.386486053466796875 30.035596847534179688 29.219789505004882812 27.624851226806640625 27.3532562255859375 27.346408843994140625 27.337411880493164062 27.325794219970703125 27.3117218017578125 27.294580459594726562 27.274688720703125 27.563615798950195312 28.660579681396484375 28.798154830932617188 28.767789840698242188 28.726375579833984375 28.524198532104492188 27.353961944580078125 27.000326156616210938 26.952726364135742188 26.90496063232421875 26.854946136474609375 26.804334640502929688 26.751939773559570312 26.699487686157226562 26.645732879638671875 26.592439651489257812 26.538339614868164062 26.4852142333984375 26.431787490844726562 26.37982940673828125 26.320337295532226562 26.128137588500976562 25.998378753662109375 25.934673309326171875 25.867074966430664062 25.797332763671875 25.722421646118164062 25.64359283447265625 25.557397842407226562 25.465541839599609375 25.3658599853515625 25.265491485595703125 25.167322158813476562 25.08010101318359375 25.007310867309570312 24.95624542236328125 24.9276580810546875 24.921295166015625 24.935543060302734375 24.968309402465820312 25.019071578979492188 25.083818435668945312 25.16049957275390625 25.242097854614257812 25.32631683349609375 25.40592193603515625 25.479318618774414062 25.543712615966796875 25.603473663330078125 25.659580230712890625 25.716663360595703125 25.775615692138671875 25.83922576904296875 25.903295516967773438 25.966342926025390625 26.022985458374023438 26.071451187133789062 26.107395172119140625 26.131353378295898438 26.14379119873046875 26.146608352661132812 26.14117431640625 26.128786087036132812 26.11077117919921875 26.086795806884765625 26.057550430297851562 26.022090911865234375 25.981451034545898438 25.934595108032226562 25.883977890014648438 25.82970428466796875 25.775117874145507812 25.720264434814453125 25.668371200561523438 25.61821746826171875 25.570020675659179688 25.520435333251953125 25.46912384033203125 25.412689208984375 25.351671218872070312 25.28524017333984375 25.217655181884765625 25.149362564086914062 25.084842681884765625 25.024351119995117188 24.970134735107421875 24.918548583984375 24.868627548217773438 24.8162689208984375 24.760498046875 24.698101043701171875 24.63190460205078125 24.562532424926757812 24.494626998901367188 24.428863525390625 24.369556427001953125 24.315624237060546875 24.267438888549804688 24.221813201904296875 24.178380966186523438 24.134159088134765625 24.089036941528320312 24.0412139892578125 23.991899490356445312 23.939657211303710938 23.885835647583007812 23.829027175903320312 23.77155303955078125 23.713411331176757812 23.65789031982421875 23.60515594482421875 23.558332443237304688 23.51680755615234375 23.480541229248046875 23.446331024169921875 23.412933349609375 23.377256393432617188 23.338342666625976562 23.29502105712890625 23.249652862548828125 23.202711105346679688 23.15695953369140625 23.11273193359375 23.071607589721679688 23.030811309814453125 22.98883056640625 22.942071914672851562 22.889007568359375 22.8265380859375 22.756677627563476562 22.680889129638671875 22.60413360595703125 22.527952194213867188 22.457263946533203125 22.3914794921875 22.329904556274414062 22.267520904541015625 22.202104568481445312 22.128725051879882812 22.04604339599609375 21.952970504760742188 21.85411834716796875 21.7507476806640625 21.64813232421875 21.547130584716796875 21.450979232788085938 21.355749130249023438 21.260547637939453125 21.160663604736328125 21.055036544799804688 20.938871383666992188 20.810760498046875 20.665233612060546875 20.500926971435546875 20.311994552612304688 20.098104476928710938 19.857786178588867188 19.602243423461914062 19.337055206298828125 19.076038360595703125 18.82416534423828125 18.593044281005859375 18.378389358520507812 18.179914474487304688 17.989465713500976562 17.805540084838867188 17.621137619018554688 17.438447952270507812 17.25884246826171875 17.090185165405273438 16.934953689575195312 16.800878524780273438 16.688173294067382812 16.595333099365234375 16.513498306274414062 16.436580657958984375 16.356222152709960938 16.26651763916015625 16.165241241455078125 16.057100296020507812 15.946416854858398438 15.839536666870117188 15.740376472473144531 15.65375518798828125 15.57799530029296875 15.5118560791015625 15.451987266540527344 15.396632194519042969 15.343015670776367188 15.2907257080078125 15.239833831787109375 15.191497802734375 15.146063804626464844 15.104646682739257812 
29.508279800415039062 29.560701370239257812 29.595506668090820312 29.597749710083007812 29.573301315307617188 29.555772781372070312 29.566516876220703125 29.56470489501953125 29.549411773681640625 29.561405181884765625 29.569141387939453125 29.622905731201171875 29.652509689331054688 29.654981613159179688 29.672819137573242188 29.665838241577148438 29.659963607788085938 29.672475814819335938 29.70154571533203125 29.737169265747070312 29.746454238891601562 29.701673507690429688 29.693372726440429688 29.758609771728515625 29.822902679443359375 29.900255203247070312 29.950130462646484375 29.941158294677734375 29.915105819702148438 29.834869384765625 29.831302642822265625 30.386270523071289062 31.44023895263671875 31.422611236572265625 30.605081558227539062 30.231805801391601562 30.24988555908203125 30.314178466796875 30.363145828247070312 30.459848403930664062 30.47454071044921875 30.463800430297851562 30.568063735961914062 31.137178421020507812 31.391815185546875 30.946256637573242188 30.72290802001953125 30.639316558837890625 30.569337844848632812 30.5624847412109375 30.61829376220703125 30.592754364013671875 30.55852508544921875 30.591997146606445312 30.670999526977539062 30.766275405883789062 30.88101959228515625 31.09124755859375 31.451887130737304688 31.936252593994140625 32.091274261474609375 32.551082611083984375 33.575153350830078125 34.4765167236328125 35.875988006591796875 36.690830230712890625 37.16339874267578125 37.355381011962890625 37.4254913330078125 37.250034332275390625 37.066806793212890625 36.90582275390625 36.671283721923828125 36.32170867919921875 35.75429534912109375 34.92523193359375 34.45380401611328125 34.02529144287109375 33.591464996337890625 33.237308502197265625 33.080486297607421875 32.96317291259765625 32.839111328125 32.712249755859375 32.61742401123046875 32.5854034423828125 32.57949066162109375 32.536472320556640625 32.329746246337890625 32.101589202880859375 31.936544418334960938 31.84821319580078125 31.801927566528320312 31.604112625122070312 31.28839111328125 31.027166366577148438 30.69234466552734375 30.324644088745117188 29.9426422119140625 28.804048538208007812 27.403577804565429688 27.333555221557617188 27.326717376708984375 27.317728042602539062 27.306119918823242188 27.292051315307617188 27.274911880493164062 27.255016326904296875 27.549097061157226562 28.658905029296875 28.791795730590820312 28.75739288330078125 28.714193344116210938 28.270053863525390625 27.177173614501953125 26.97957611083984375 26.933002471923828125 26.885309219360351562 26.835401535034179688 26.784936904907226562 26.732738494873046875 26.680528640747070312 26.627077102661132812 26.574144363403320312 26.520479202270507812 26.467851638793945312 26.415010452270507812 26.363712310791015625 26.305028915405273438 26.114007949829101562 25.98342132568359375 25.91863250732421875 25.850622177124023438 25.781177520751953125 25.707212448120117188 25.629831314086914062 25.545528411865234375 25.455842971801757812 25.3585662841796875 25.260656356811523438 25.164964675903320312 25.080057144165039062 25.009374618530273438 24.960063934326171875 24.932947158813476562 24.927858352661132812 24.943359375 24.977466583251953125 25.029832839965820312 25.096437454223632812 25.1751251220703125 25.258573532104492188 25.344297409057617188 25.42476654052734375 25.498205184936523438 25.561809539794921875 25.620075225830078125 25.6742095947265625 25.728969573974609375 25.785497665405273438 25.846660614013671875 25.908433914184570312 25.969339370727539062 26.024133682250976562 26.071063995361328125 26.105890274047851562 26.129117965698242188 26.141206741333007812 26.144001007080078125 26.138837814331054688 26.126974105834960938 26.109653472900390625 26.086437225341796875 26.057857513427734375 26.022846221923828125 25.982288360595703125 25.93505096435546875 25.883657455444335938 25.82836151123046875 25.772710800170898438 25.716899871826171875 25.664356231689453125 25.613933563232421875 25.565839767456054688 25.516687393188476562 25.466081619262695312 25.410589218139648438 25.350679397583007812 25.285482406616210938 25.219148635864257812 25.152080535888671875 25.088649749755859375 25.029069900512695312 24.975528717041015625 24.924419403076171875 24.874790191650390625 24.822576522827148438 24.766832351684570312 24.704378128051757812 24.63805389404296875 24.568515777587890625 24.500425338745117188 24.434476852416992188 24.375020980834960938 24.321039199829101562 24.273021697998046875 24.227914810180664062 24.185466766357421875 24.142839431762695312 24.099901199340820312 24.054645538330078125 24.007818222045898438 23.95764923095703125 23.90502166748046875 23.848224639892578125 23.789556503295898438 23.729337692260742188 23.671312332153320312 23.616001129150390625 23.566999435424804688 23.523908615112304688 23.4867095947265625 23.452014923095703125 23.418436050415039062 23.382709503173828125 23.34372711181640625 23.300233840942382812 23.254556655883789062 23.2071533203125 23.160778045654296875 23.115736007690429688 23.073617935180664062 23.031648635864257812 22.988370895385742188 22.940195083618164062 22.885652542114257812 22.821643829345703125 22.750270843505859375 22.67302703857421875 22.59497833251953125 22.517702102661132812 22.446218490600585938 22.37999725341796875 22.318462371826171875 22.2566986083984375 22.192592620849609375 22.121334075927734375 22.041601181030273438 21.952146530151367188 21.857130050659179688 21.757482528686523438 21.657979965209960938 21.559190750122070312 21.464298248291015625 21.370029449462890625 21.276275634765625 21.17914581298828125 21.07836151123046875 20.969606399536132812 20.850614547729492188 20.714437484741210938 20.557828903198242188 20.373439788818359375 20.159183502197265625 19.91336822509765625 19.648450851440429688 19.37175750732421875 19.099046707153320312 18.836874008178710938 18.598400115966796875 18.37908172607421875 18.177892684936523438 17.985599517822265625 17.799770355224609375 17.61248016357421875 17.425563812255859375 17.240682601928710938 17.066221237182617188 16.905088424682617188 16.765569686889648438 16.648141860961914062 16.551408767700195312 16.466266632080078125 16.38651275634765625 16.303548812866210938 16.21136474609375 16.107696533203125 15.997464179992675781 15.88516998291015625 15.777418136596679688 15.678303718566894531 15.592804908752441406 15.519131660461425781 15.455889701843261719 15.3995361328125 15.348125457763671875 15.298707962036132812 15.250647544860839844 15.203824043273925781 15.159129142761230469 15.116727828979492188 15.077471733093261719 
29.532100677490234375 29.553110122680664062 29.582000732421875 29.601919174194335938 29.60349273681640625 29.598695755004882812 29.588350296020507812 29.583471298217773438 29.550807952880859375 29.54244232177734375 29.551769256591796875 29.622884750366210938 29.663560867309570312 29.677639007568359375 29.70563507080078125 29.728303909301757812 29.734518051147460938 29.750055313110351562 29.749795913696289062 29.709964752197265625 29.676662445068359375 29.712238311767578125 29.794559478759765625 29.862819671630859375 29.921182632446289062 29.978363037109375 29.992706298828125 29.950710296630859375 29.8169708251953125 29.776651382446289062 30.19246673583984375 31.212545394897460938 31.672412872314453125 30.845975875854492188 30.316013336181640625 30.238918304443359375 30.2536468505859375 30.383396148681640625 30.506334304809570312 30.505235671997070312 30.4712066650390625 30.515110015869140625 30.979505538940429688 31.4405670166015625 31.0521240234375 30.7211151123046875 30.633470535278320312 30.570665359497070312 30.52862548828125 30.530752182006835938 30.596403121948242188 30.641399383544921875 30.568647384643554688 30.582975387573242188 30.666429519653320312 30.738971710205078125 30.828500747680664062 30.998804092407226562 31.279819488525390625 31.72461700439453125 31.978147506713867188 32.187042236328125 32.95697784423828125 33.799953460693359375 34.84503936767578125 35.694774627685546875 36.319255828857421875 36.779476165771484375 36.696361541748046875 36.466033935546875 36.47798919677734375 36.33509063720703125 36.0217742919921875 35.759799957275390625 35.1676177978515625 34.515003204345703125 34.1861114501953125 33.8115692138671875 33.429233551025390625 33.216327667236328125 33.064556121826171875 32.923801422119140625 32.791652679443359375 32.666469573974609375 32.5890350341796875 32.57605743408203125 32.578098297119140625 32.50652313232421875 32.274017333984375 32.046367645263671875 31.885822296142578125 31.835813522338867188 31.780477523803710938 31.5287628173828125 31.21048736572265625 30.959188461303710938 30.601512908935546875 30.256673812866210938 29.777523040771484375 28.227354049682617188 27.33734130859375 27.312530517578125 27.305675506591796875 27.29666900634765625 27.285045623779296875 27.270963668823242188 27.253812789916992188 27.233905792236328125 27.533365249633789062 28.657903671264648438 28.782476425170898438 28.743116378784179688 28.69001007080078125 28.018423080444335938 27.0465087890625 26.958498001098632812 26.9120025634765625 26.864419937133789062 26.814664840698242188 26.764390945434570312 26.712434768676757812 26.660516738891601562 26.607419967651367188 26.554901123046875 26.501722335815429688 26.449649810791015625 26.397449493408203125 26.346864700317382812 26.289361953735351562 26.104852676391601562 25.974029541015625 25.905508041381835938 25.834768295288085938 25.763895034790039062 25.689685821533203125 25.61309814453125 25.53050994873046875 25.4432525634765625 25.349027633666992188 25.254486083984375 25.162353515625 25.080860137939453125 25.01331329345703125 24.966569900512695312 24.941480636596679688 24.937915802001953125 24.954610824584960938 24.989673614501953125 25.04290771484375 25.110330581665039062 25.189767837524414062 25.273775100708007812 25.35977935791015625 25.44014739990234375 25.51300811767578125 25.575555801391601562 25.632287979125976562 25.684503555297851562 25.736944198608398438 25.790874481201171875 25.84918212890625 25.908123016357421875 25.966360092163085938 26.018957138061523438 26.06432342529296875 26.09844207763671875 26.121767044067382812 26.13457489013671875 26.138530731201171875 26.134731292724609375 26.1242828369140625 26.108226776123046875 26.086091995239257812 26.058313369750976562 26.023797988891601562 25.983358383178710938 25.935840606689453125 25.88385772705078125 25.827800750732421875 25.771402359008789062 25.715002059936523438 25.662200927734375 25.611907958984375 25.5642852783203125 25.515865325927734375 25.46614837646484375 25.411640167236328125 25.352697372436523438 25.288442611694335938 25.222967147827148438 25.15668487548828125 25.093915939331054688 25.034877777099609375 24.981729507446289062 24.930887222290039062 24.881402969360351562 24.829235076904296875 24.773443222045898438 24.7108612060546875 24.644342422485351562 24.574548721313476562 24.506153106689453125 24.439851760864257812 24.380018234252929688 24.325679779052734375 24.277435302734375 24.232334136962890625 24.190240859985351562 24.148427963256835938 24.106771469116210938 24.063127517700195312 24.017942428588867188 23.969213485717773438 23.917505264282226562 23.860910415649414062 23.801685333251953125 23.740358352661132812 23.680940628051757812 23.624176025390625 23.573947906494140625 23.5299835205078125 23.492279052734375 23.457317352294921875 23.423616409301757812 23.38779449462890625 23.3486480712890625 23.304853439331054688 23.258722305297851562 23.21068572998046875 23.163488388061523438 23.117410659790039062 23.074066162109375 23.030706405639648438 22.985975265502929688 22.936319351196289062 22.880376815795898438 22.815074920654296875 22.742589950561523438 22.664392471313476562 22.5855865478515625 22.507738113403320312 22.4358978271484375 22.369588851928710938 22.308399200439453125 22.24759674072265625 22.18524932861328125 22.116748809814453125 22.040830612182617188 21.95604705810546875 21.865947723388671875 21.771007537841796875 21.675329208374023438 21.579074859619140625 21.485233306884765625 21.391141891479492188 21.29742431640625 21.200948715209960938 21.102201461791992188 20.997335433959960938 20.883563995361328125 20.752862930297851562 20.600658416748046875 20.418498992919921875 20.203060150146484375 19.952482223510742188 19.680166244506835938 19.394708633422851562 19.113300323486328125 18.843664169311523438 18.600093841552734375 18.37779998779296875 18.175138473510742188 17.98200225830078125 17.795192718505859375 17.60604095458984375 17.416078567504882812 17.227231979370117188 17.048309326171875 16.8825836181640625 16.738800048828125 16.617654800415039062 16.517787933349609375 16.429838180541992188 16.3474273681640625 16.261713027954101562 16.166528701782226562 16.059625625610351562 15.946249961853027344 15.831204414367675781 15.721489906311035156 15.621479988098144531 15.536419868469238281 15.464383125305175781 15.403768539428710938 15.350765228271484375 15.303182601928710938 15.257836341857910156 15.213827133178710938 15.170838356018066406 15.129496574401855469 15.08978271484375 15.052279472351074219 
29.589239120483398438 29.583393096923828125 29.576154708862304688 29.5799407958984375 29.614419937133789062 29.627737045288085938 29.6163177490234375 29.623050689697265625 29.576055526733398438 29.535264968872070312 29.551118850708007812 29.6245880126953125 29.666797637939453125 29.692464828491210938 29.70497894287109375 29.712055206298828125 29.70577239990234375 29.724901199340820312 29.7108001708984375 29.686939239501953125 29.758417129516601562 29.84778594970703125 29.874032974243164062 29.853128433227539062 29.888355255126953125 29.989856719970703125 30.018449783325195312 29.884368896484375 29.750762939453125 30.034576416015625 30.928615570068359375 31.787555694580078125 31.190937042236328125 30.45833587646484375 30.29848480224609375 30.275180816650390625 30.328462600708007812 30.456104278564453125 30.49253082275390625 30.45680999755859375 30.4874420166015625 30.857076644897460938 31.410879135131835938 31.116270065307617188 30.725301742553710938 30.626062393188476562 30.58333587646484375 30.545322418212890625 30.540897369384765625 30.562490463256835938 30.580892562866210938 30.576086044311523438 30.569469451904296875 30.623846054077148438 30.670148849487304688 30.721105575561523438 30.836378097534179688 30.968503952026367188 31.135663986206054688 31.507226943969726562 31.922618865966796875 32.027149200439453125 32.474758148193359375 33.1755828857421875 33.835178375244140625 34.51374053955078125 35.139217376708984375 35.59955596923828125 35.75389862060546875 35.851654052734375 36.05063629150390625 36.02095794677734375 35.552043914794921875 35.14818572998046875 34.6759796142578125 34.273960113525390625 33.9710540771484375 33.659027099609375 33.393680572509765625 33.228481292724609375 33.0600128173828125 32.90450286865234375 32.759105682373046875 32.635410308837890625 32.571990966796875 32.57483673095703125 32.579586029052734375 32.460025787353515625 32.20853424072265625 31.990070343017578125 31.842672348022460938 31.818172454833984375 31.730588912963867188 31.439596176147460938 31.1425018310546875 30.880908966064453125 30.51373291015625 30.169721603393554688 29.618604660034179688 27.953042984008789062 27.295124053955078125 27.290393829345703125 27.2834930419921875 27.274448394775390625 27.262792587280273438 27.248683929443359375 27.231510162353515625 27.211587905883789062 27.440074920654296875 28.560964584350585938 28.771984100341796875 28.729587554931640625 28.6169281005859375 27.587474822998046875 26.988353729248046875 26.936359405517578125 26.889982223510742188 26.84255218505859375 26.79299163818359375 26.742956161499023438 26.69129180908203125 26.639713287353515625 26.5870208740234375 26.53496551513671875 26.482324600219726562 26.43085479736328125 26.379344940185546875 26.32952117919921875 26.273515701293945312 26.100114822387695312 25.969593048095703125 25.894952774047851562 25.819385528564453125 25.74550628662109375 25.669963836669921875 25.593563079833984375 25.51251220703125 25.427907943725585938 25.337316513061523438 25.246974945068359375 25.159397125244140625 25.08233642578125 25.018886566162109375 24.975488662719726562 24.952968597412109375 24.951192855834960938 24.969051361083984375 25.004718780517578125 25.058116912841796875 25.125349044799804688 25.2042999267578125 25.287595748901367188 25.372697830200195312 25.452053070068359375 25.52379608154296875 25.585124969482421875 25.640405654907226562 25.690887451171875 25.741151809692382812 25.792446136474609375 25.847621917724609375 25.903306961059570312 25.958440780639648438 26.008544921875 26.05233001708984375 26.0861053466796875 26.110263824462890625 26.12474822998046875 26.130916595458984375 26.129453659057617188 26.12119293212890625 26.10689544677734375 26.08609771728515625 26.059223175048828125 26.02523040771484375 25.984943389892578125 25.937257766723632812 25.884883880615234375 25.828344345092773438 25.77152252197265625 25.7148895263671875 25.6621856689453125 25.612369537353515625 25.565504074096679688 25.51802825927734375 25.46929168701171875 25.415714263916015625 25.357532501220703125 25.293867111206054688 25.228822708129882812 25.162851333618164062 25.1002960205078125 25.041410446166992188 24.98836517333984375 24.937585830688476562 24.888116836547851562 24.835918426513671875 24.780050277709960938 24.717336654663085938 24.65062713623046875 24.58055877685546875 24.5117950439453125 24.44500732421875 24.38457489013671875 24.329542160034179688 24.280620574951171875 24.234949111938476562 24.192506790161132812 24.15065765380859375 24.109338760375976562 24.066331863403320312 24.021930694580078125 23.974008560180664062 23.922967910766601562 23.866792678833007812 23.807691574096679688 23.746265411376953125 23.686614990234375 23.629571914672851562 23.579105377197265625 23.53499603271484375 23.497220993041992188 23.462217330932617188 23.4284515380859375 23.392486572265625 23.353075027465820312 23.3088531494140625 23.262125015258789062 23.213287353515625 23.165096282958984375 23.11779022216796875 23.073030471801757812 23.028116226196289062 22.9818267822265625 22.9306793212890625 22.87345123291015625 22.80712890625 22.733930587768554688 22.655271530151367188 22.576231002807617188 22.49831390380859375 22.426544189453125 22.3604888916015625 22.299930572509765625 22.24039459228515625 22.180185317993164062 22.11496734619140625 22.043565750122070312 21.964290618896484375 21.879972457885742188 21.7905120849609375 21.699209213256835938 21.605712890625 21.512699127197265625 21.418035507202148438 21.32297515869140625 21.22505950927734375 21.125474929809570312 21.02081298828125 20.908124923706054688 20.778753280639648438 20.627405166625976562 20.444978713989257812 20.227487564086914062 19.972959518432617188 19.69541168212890625 19.4041748046875 19.117336273193359375 18.843303680419921875 18.597055435180664062 18.373563766479492188 18.170698165893554688 17.977712631225585938 17.790811538696289062 17.600782394409179688 17.408926010131835938 17.217395782470703125 17.03533935546875 16.866329193115234375 16.719476699829101562 16.595651626586914062 16.493465423583984375 16.40329742431640625 16.31855010986328125 16.230133056640625 16.131689071655273438 16.021024703979492188 15.903776168823242188 15.785143852233886719 15.672608375549316406 15.570908546447753906 15.485625267028808594 15.414682388305664062 15.356258392333984375 15.306238174438476562 15.262159347534179688 15.220568656921386719 15.180293083190917969 15.140807151794433594 15.102464675903320312 15.065056800842285156 15.028891563415527344 
29.612201690673828125 29.607570648193359375 29.587926864624023438 29.576635360717773438 29.609247207641601562 29.638393402099609375 29.638324737548828125 29.65340423583984375 29.623998641967773438 29.565744400024414062 29.558258056640625 29.610712051391601562 29.649477005004882812 29.664091110229492188 29.630802154541015625 29.610727310180664062 29.632776260375976562 29.679044723510742188 29.7610626220703125 29.866273880004882812 29.912784576416015625 29.874950408935546875 29.831613540649414062 29.8271331787109375 29.91770172119140625 30.01224517822265625 29.946870803833007812 29.756046295166015625 29.921405792236328125 30.7116851806640625 31.668447494506835938 31.3848876953125 30.568761825561523438 30.2811126708984375 30.363218307495117188 30.378034591674804688 30.391759872436523438 30.468324661254882812 30.45415496826171875 30.462362289428710938 30.706218719482421875 31.3089141845703125 31.170789718627929688 30.731105804443359375 30.6298675537109375 30.594049453735351562 30.567811965942382812 30.566446304321289062 30.577220916748046875 30.579336166381835938 30.531293869018554688 30.529926300048828125 30.585725784301757812 30.628999710083007812 30.6221771240234375 30.675756454467773438 30.782283782958984375 30.912755966186523438 31.08548736572265625 31.595312118530273438 32.09735107421875 31.99387359619140625 32.1396942138671875 32.62593841552734375 33.248668670654296875 33.861724853515625 34.437129974365234375 34.897014617919921875 35.26142120361328125 35.70981597900390625 36.0127716064453125 36.06366729736328125 35.628780364990234375 34.90656280517578125 34.3717498779296875 34.07205963134765625 33.823413848876953125 33.582859039306640625 33.42351531982421875 33.236850738525390625 33.054927825927734375 32.89159393310546875 32.738018035888671875 32.625514984130859375 32.5782623291015625 32.581386566162109375 32.55974578857421875 32.400089263916015625 32.146358489990234375 31.93357086181640625 31.806871414184570312 31.793048858642578125 31.653146743774414062 31.34275054931640625 31.080823898315429688 30.79166412353515625 30.443346023559570312 30.0615234375 29.4104156494140625 27.742826461791992188 27.271783828735351562 27.266973495483398438 27.26000213623046875 27.250898361206054688 27.239192962646484375 27.225046157836914062 27.207845687866210938 27.18790435791015625 27.241071701049804688 28.287393569946289062 28.759099960327148438 28.714048385620117188 28.320302963256835938 27.216884613037109375 26.956684112548828125 26.91304779052734375 26.866832733154296875 26.819601058959960938 26.77028656005859375 26.720541000366210938 26.669221878051757812 26.618040084838867188 26.5658111572265625 26.512857437133789062 26.452486038208007812 26.40167999267578125 26.350994110107421875 26.299863815307617188 26.242296218872070312 26.09278106689453125 25.967329025268554688 25.884960174560546875 25.80321502685546875 25.725358963012695312 25.647871017456054688 25.5713958740234375 25.491954803466796875 25.410375595092773438 25.324064254760742188 25.2387542724609375 25.156667709350585938 25.08496856689453125 25.026462554931640625 24.987058639526367188 24.967527389526367188 24.967691421508789062 24.98657989501953125 25.02242279052734375 25.075235366821289062 25.1412506103515625 25.21849822998046875 25.299860000610351562 25.382940292358398438 25.460451126098632812 25.53063201904296875 25.590688705444335938 25.644739151000976562 25.6938323974609375 25.742269515991210938 25.791139602661132812 25.843194961547851562 25.8954925537109375 25.947340011596679688 25.994831085205078125 26.03707122802734375 26.070775985717773438 26.096269607543945312 26.11305999755859375 26.12212371826171875 26.123617172241210938 26.118028640747070312 26.105772018432617188 26.086454391479492188 26.0605316162109375 26.027088165283203125 25.987016677856445312 25.9393157958984375 25.886796951293945312 25.830083847045898438 25.773181915283203125 25.716665267944335938 25.664369583129882812 25.61528778076171875 25.569364547729492188 25.522928237915039062 25.475172042846679688 25.42240142822265625 25.364732742309570312 25.30130767822265625 25.2362823486328125 25.170185089111328125 25.10742950439453125 25.048336029052734375 24.995119094848632812 24.944200515747070312 24.894628524780273438 24.84235382080078125 24.78643035888671875 24.723669052124023438 24.656873703002929688 24.586620330810546875 24.517518997192382812 24.45017242431640625 24.388917922973632812 24.332807540893554688 24.282690048217773438 24.235795974731445312 24.192272186279296875 24.149572372436523438 24.10774993896484375 24.064569473266601562 24.020284652709960938 23.97271728515625 23.922216415405273438 23.86672210693359375 23.808378219604492188 23.747758865356445312 23.6888885498046875 23.63257598876953125 23.582721710205078125 23.539083480834960938 23.501617431640625 23.466762542724609375 23.43297576904296875 23.396818161010742188 23.3570404052734375 23.3122711181640625 23.26480865478515625 23.21503448486328125 23.16571044921875 23.11704254150390625 23.070758819580078125 23.024211883544921875 22.976345062255859375 22.923757553100585938 22.865390777587890625 22.798292160034179688 22.724721908569335938 22.646001815795898438 22.567132949829101562 22.489538192749023438 22.41815948486328125 22.352605819702148438 22.292877197265625 22.23479461669921875 22.17694091796875 22.115297317504882812 22.048807144165039062 21.975515365600585938 21.897449493408203125 21.813877105712890625 21.727209091186523438 21.6365203857421875 21.544080734252929688 21.448200225830078125 21.3506927490234375 21.249668121337890625 21.146942138671875 21.03951263427734375 20.924560546875 20.793163299560546875 20.639835357666015625 20.455194473266601562 20.235065460205078125 19.977428436279296875 19.696611404418945312 19.402242660522460938 19.112829208374023438 18.837064743041992188 18.590204238891601562 18.367006301879882812 18.164941787719726562 17.972829818725585938 17.78641510009765625 17.596109390258789062 17.40305328369140625 17.20961761474609375 17.025239944458007812 16.85376739501953125 16.704624176025390625 16.578832626342773438 16.47495269775390625 16.383111953735351562 16.296495437622070312 16.205759048461914062 16.104356765747070312 15.990147590637207031 15.869139671325683594 15.746920585632324219 15.631442070007324219 15.527792930603027344 15.441889762878417969 15.37152862548828125 15.314695358276367188 15.267006874084472656 15.225762367248535156 15.187265396118164062 15.150086402893066406 15.113488197326660156 15.077562332153320312 15.041905403137207031 15.006555557250976562 
29.618970870971679688 29.61695098876953125 29.608135223388671875 29.5860137939453125 29.61154937744140625 29.66664886474609375 29.676984786987304688 29.674417495727539062 29.647167205810546875 29.59737396240234375 29.568950653076171875 29.58899688720703125 29.628694534301757812 29.621002197265625 29.577239990234375 29.588151931762695312 29.67642974853515625 29.804239273071289062 29.928020477294921875 29.97786712646484375 29.91234588623046875 29.8293609619140625 29.809234619140625 29.8599090576171875 29.967754364013671875 29.949075698852539062 29.78000640869140625 29.811473846435546875 30.487659454345703125 31.589914321899414062 31.49234771728515625 30.613569259643554688 30.200176239013671875 30.199861526489257812 30.39444732666015625 30.466541290283203125 30.39643096923828125 30.460784912109375 30.543048858642578125 30.725419998168945312 31.240039825439453125 31.243295669555664062 30.757745742797851562 30.619783401489257812 30.584362030029296875 30.579648971557617188 30.590007781982421875 30.616817474365234375 30.597599029541015625 30.539455413818359375 30.543256759643554688 30.608648300170898438 30.616926193237304688 30.558431625366210938 30.531038284301757812 30.59357452392578125 30.733669281005859375 30.906803131103515625 31.075414657592773438 31.500440597534179688 32.062633514404296875 31.984050750732421875 31.975271224975585938 32.277835845947265625 32.87993621826171875 33.486454010009765625 34.0455780029296875 34.452178955078125 34.899394989013671875 35.702564239501953125 36.10968017578125 36.178684234619140625 36.107563018798828125 35.5446929931640625 34.654048919677734375 34.0760650634765625 33.76743316650390625 33.59506988525390625 33.437717437744140625 33.230091094970703125 33.04186248779296875 32.865612030029296875 32.710887908935546875 32.620586395263671875 32.58667755126953125 32.58023834228515625 32.521564483642578125 32.324947357177734375 32.07707977294921875 31.875562667846679688 31.777154922485351562 31.762742996215820312 31.572437286376953125 31.264417648315429688 31.0193634033203125 30.702833175659179688 30.367025375366210938 29.948450088500976562 29.187108993530273438 27.630748748779296875 27.24737548828125 27.242458343505859375 27.235393524169921875 27.226213455200195312 27.214445114135742188 27.200252532958984375 27.183019638061523438 27.163061141967773438 27.202939987182617188 28.243772506713867188 28.74221038818359375 28.62937164306640625 27.720067977905273438 27.0023040771484375 26.932256698608398438 26.888788223266601562 26.84278106689453125 26.795795440673828125 26.746778488159179688 26.697376251220703125 26.646455764770507812 26.59572601318359375 26.544015884399414062 26.4865570068359375 26.392301559448242188 26.34228515625 26.293191909790039062 26.231168746948242188 26.155668258666992188 26.06143951416015625 25.96381378173828125 25.87328338623046875 25.785066604614257812 25.70310211181640625 25.623691558837890625 25.5473175048828125 25.469818115234375 25.391742706298828125 25.310335159301757812 25.23075103759765625 25.15488433837890625 25.089216232299804688 25.036222457885742188 25.0012054443359375 24.984851837158203125 24.986928939819335938 25.006587982177734375 25.042125701904296875 25.093614578247070312 25.1574859619140625 25.231973648071289062 25.310369491577148438 25.3905181884765625 25.465547561645507812 25.533887863159179688 25.592756271362304688 25.645925521850585938 25.694133758544921875 25.741300582885742188 25.788232803344726562 25.837535858154296875 25.88669586181640625 25.935428619384765625 25.980428695678710938 26.021240234375 26.05501556396484375 26.082012176513671875 26.10128021240234375 26.113401412963867188 26.117975234985351562 26.1151275634765625 26.104925155639648438 26.08705902099609375 26.062067031860351562 26.029186248779296875 25.989416122436523438 25.94188690185546875 25.889490127563476562 25.832933425903320312 25.776275634765625 25.720178604125976562 25.668519973754882812 25.620311737060546875 25.575376510620117188 25.529939651489257812 25.48303985595703125 25.430881500244140625 25.373470306396484375 25.30997467041015625 25.244634628295898438 25.178066253662109375 25.114789962768554688 25.055196762084960938 25.001573562622070312 24.950345993041992188 24.900575637817382812 24.848209381103515625 24.792310714721679688 24.729665756225585938 24.662996292114257812 24.592761993408203125 24.523450851440429688 24.455539703369140625 24.393276214599609375 24.3357086181640625 24.28386688232421875 24.23511505126953125 24.189832687377929688 24.14560699462890625 24.102670669555664062 24.058794021606445312 24.014251708984375 23.966840744018554688 23.916902542114257812 23.86236572265625 23.805280685424804688 23.746124267578125 23.688753128051757812 23.63387298583984375 23.585214614868164062 23.542476654052734375 23.505573272705078125 23.470991134643554688 23.437206268310546875 23.400814056396484375 23.360589981079101562 23.3151702880859375 23.266878128051757812 23.216075897216796875 23.165548324584960938 23.11548614501953125 23.06768035888671875 23.019548416137695312 22.97019195556640625 22.916296005249023438 22.856958389282226562 22.78929901123046875 22.715589523315429688 22.637054443359375 22.558595657348632812 22.481534957885742188 22.410711288452148438 22.34577178955078125 22.286930084228515625 22.230318069458007812 22.174808502197265625 22.116708755493164062 22.055086135864257812 21.98772430419921875 21.915830612182617188 21.838043212890625 21.755872726440429688 21.667795181274414062 21.575656890869140625 21.478137969970703125 21.377529144287109375 21.272434234619140625 21.165224075317382812 21.053266525268554688 20.934053421020507812 20.79864501953125 20.641693115234375 20.453792572021484375 20.230892181396484375 19.970956802368164062 19.688413619995117188 19.39288330078125 19.102960586547851562 18.827348709106445312 18.581302642822265625 18.359369277954101562 18.158689498901367188 17.967771530151367188 17.7819976806640625 17.5915069580078125 17.3973541259765625 17.202135086059570312 17.015588760375976562 16.841836929321289062 16.690631866455078125 16.56314849853515625 16.457929611206054688 16.364870071411132812 16.276968002319335938 16.184659957885742188 16.081226348876953125 15.964536666870117188 15.840860366821289062 15.716046333312988281 15.598375320434570312 15.493182182312011719 15.406625747680664062 15.336430549621582031 15.280472755432128906 15.234198570251464844 15.194774627685546875 15.15834808349609375 15.123294830322265625 15.088683128356933594 15.054360389709472656 15.019733428955078125 14.984597206115722656 
29.645669937133789062 29.608869552612304688 29.604410171508789062 29.57714080810546875 29.601240158081054688 29.683610916137695312 29.72402191162109375 29.724658966064453125 29.6961822509765625 29.6591949462890625 29.614032745361328125 29.57625579833984375 29.584039688110351562 29.6382904052734375 29.711347579956054688 29.8093719482421875 29.867761611938476562 29.884153366088867188 29.878498077392578125 29.847719192504882812 29.808858871459960938 29.799297332763671875 29.850919723510742188 29.975999832153320312 30.002685546875 29.825628280639648438 29.790311813354492188 30.32704925537109375 31.419200897216796875 31.61463165283203125 30.789026260375976562 30.262210845947265625 30.167352676391601562 30.249189376831054688 30.415094375610351562 30.522466659545898438 30.541997909545898438 30.485975265502929688 30.686529159545898438 31.416044235229492188 31.4806976318359375 30.815362930297851562 30.597187042236328125 30.536016464233398438 30.531431198120117188 30.556640625 30.599790573120117188 30.6213226318359375 30.586217880249023438 30.5650482177734375 30.6346893310546875 30.62821197509765625 30.515857696533203125 30.482305526733398438 30.493894577026367188 30.537919998168945312 30.690509796142578125 30.949291229248046875 31.13297271728515625 31.41561126708984375 31.904018402099609375 31.946445465087890625 31.899280548095703125 32.11883544921875 32.583896636962890625 33.106685638427734375 33.580402374267578125 33.975612640380859375 34.570644378662109375 35.515167236328125 36.09172821044921875 36.176479339599609375 36.16985321044921875 35.785175323486328125 35.049224853515625 34.324069976806640625 33.79915618896484375 33.57321929931640625 33.418689727783203125 33.2198638916015625 33.01821136474609375 32.81758880615234375 32.6466522216796875 32.5828094482421875 32.5727386474609375 32.56810760498046875 32.488727569580078125 32.26163482666015625 32.00726318359375 31.818342208862304688 31.7593536376953125 31.725200653076171875 31.493890762329101562 31.202167510986328125 30.947437286376953125 30.621351242065429688 30.276515960693359375 29.8352203369140625 28.977170944213867188 27.531946182250976562 27.221639633178710938 27.216625213623046875 27.20947265625 27.200220108032226562 27.188390731811523438 27.174152374267578125 27.156892776489257812 27.136926651000976562 27.147886276245117188 27.919002532958984375 28.511028289794921875 27.912691116333007812 27.113849639892578125 26.949398040771484375 26.906742095947265625 26.863491058349609375 26.817747116088867188 26.771066665649414062 26.722406387329101562 26.673404693603515625 26.62294769287109375 26.57273101806640625 26.521602630615234375 26.46706390380859375 26.391004562377929688 26.34814453125 26.29906463623046875 26.23226165771484375 26.148349761962890625 26.055124282836914062 25.955348968505859375 25.8573760986328125 25.763387680053710938 25.67797088623046875 25.597286224365234375 25.521650314331054688 25.446744918823242188 25.372837066650390625 25.297031402587890625 25.223848342895507812 25.154840469360351562 25.095733642578125 25.048650741577148438 25.018230438232421875 25.005060195922851562 25.008853912353515625 25.028886795043945312 25.063524246215820312 25.1128997802734375 25.173686981201171875 25.24439239501953125 25.318859100341796875 25.395267486572265625 25.467290878295898438 25.533634185791015625 25.591527938842773438 25.644327163696289062 25.692342758178710938 25.739044189453125 25.784837722778320312 25.83213043212890625 25.87877655029296875 25.924901962280273438 25.967769622802734375 26.007350921630859375 26.0412139892578125 26.069574356079101562 26.091075897216796875 26.10593414306640625 26.113250732421875 26.112829208374023438 26.104427337646484375 26.08783721923828125 26.063686370849609375 26.03137969970703125 25.992034912109375 25.944915771484375 25.892965316772460938 25.836927413940429688 25.780864715576171875 25.725473403930664062 25.674625396728515625 25.627328872680664062 25.5832977294921875 25.538686752319335938 25.492403030395507812 25.440578460693359375 25.383131027221679688 25.319265365600585938 25.253320693969726562 25.18599700927734375 25.121931076049804688 25.061590194702148438 25.007349014282226562 24.95565032958984375 24.90560150146484375 24.853160858154296875 24.79742431640625 24.735162734985351562 24.66895294189453125 24.599069595336914062 24.529787063598632812 24.4613800048828125 24.3979339599609375 24.33847808837890625 24.284303665161132812 24.232995986938476562 24.18526458740234375 24.138896942138671875 24.09439849853515625 24.049543380737304688 24.004629135131835938 23.957414627075195312 23.908222198486328125 23.854959487915039062 23.799556732177734375 23.7423553466796875 23.686981201171875 23.634006500244140625 23.586927413940429688 23.5453643798828125 23.509187698364257812 23.474954605102539062 23.441173553466796875 23.404499053955078125 23.3637542724609375 23.317600250244140625 23.26839447021484375 23.216505050659179688 23.164762496948242188 23.113348007202148438 23.064126968383789062 23.0145721435546875 22.96392059326171875 22.90892791748046875 22.84882354736328125 22.780782699584960938 22.707090377807617188 22.628862380981445312 22.550899505615234375 22.474430084228515625 22.404186248779296875 22.339847564697265625 22.281826019287109375 22.226549148559570312 22.173160552978515625 22.118274688720703125 22.061075210571289062 21.999103546142578125 21.93280792236328125 21.860227584838867188 21.782032012939453125 21.69614410400390625 21.60399627685546875 21.504573822021484375 21.400585174560546875 21.291040420532226562 21.178806304931640625 21.061578750610351562 20.937242507934570312 20.79698944091796875 20.635793685913085938 20.444377899169921875 20.218990325927734375 19.957590103149414062 19.674558639526367188 19.37932586669921875 19.090349197387695312 18.81616973876953125 18.571855545043945312 18.351739883422851562 18.152667999267578125 17.962900161743164062 17.777507781982421875 17.586431503295898438 17.390674591064453125 17.1931304931640625 17.003892898559570312 16.8274078369140625 16.673810958862304688 16.544485092163085938 16.438014984130859375 16.344125747680664062 16.255689620971679688 16.162973403930664062 16.059133529663085938 15.941968917846679688 15.817769050598144531 15.692417144775390625 15.57424163818359375 15.468607902526855469 15.38172149658203125 15.311331748962402344 15.25534820556640625 15.209239959716796875 15.170200347900390625 15.1343841552734375 15.100083351135253906 15.066197395324707031 15.032366752624511719 14.997824668884277344 14.962156295776367188 
29.681104660034179688 29.62499237060546875 29.5905914306640625 29.567777633666992188 29.573963165283203125 29.656847000122070312 29.72991180419921875 29.74521636962890625 29.739383697509765625 29.692440032958984375 29.623334884643554688 29.632925033569335938 29.655773162841796875 29.76045989990234375 29.900539398193359375 29.959692001342773438 29.874734878540039062 29.78931427001953125 29.732736587524414062 29.73050689697265625 29.771951675415039062 29.840923309326171875 29.968669891357421875 30.062322616577148438 29.934507369995117188 29.799169540405273438 30.19647216796875 31.267740249633789062 31.686441421508789062 30.906831741333007812 30.382005691528320312 30.266153335571289062 30.263013839721679688 30.367725372314453125 30.597583770751953125 31.091047286987304688 31.302093505859375 31.030231475830078125 31.21758270263671875 31.561901092529296875 31.032339096069335938 30.656558990478515625 30.6040496826171875 30.527866363525390625 30.507055282592773438 30.541498184204101562 30.5928802490234375 30.579692840576171875 30.576694488525390625 30.638681411743164062 30.655109405517578125 30.547487258911132812 30.483598709106445312 30.49347686767578125 30.496637344360351562 30.525705337524414062 30.672262191772460938 30.935550689697265625 31.10822296142578125 31.305250167846679688 31.646181106567382812 31.820882797241210938 31.833360671997070312 32.025768280029296875 32.516353607177734375 33.128570556640625 33.480434417724609375 33.881557464599609375 34.593143463134765625 35.586090087890625 36.03133392333984375 35.9898681640625 35.882686614990234375 35.60767364501953125 35.117458343505859375 34.297389984130859375 33.766307830810546875 33.55535888671875 33.37945556640625 33.19122314453125 32.9699554443359375 32.751972198486328125 32.578929901123046875 32.532222747802734375 32.5477447509765625 32.553302764892578125 32.457027435302734375 32.204135894775390625 31.94305419921875 31.770391464233398438 31.746423721313476562 31.676439285278320312 31.422811508178710938 31.146333694458007812 30.869638442993164062 30.5517730712890625 30.171678543090820312 29.710687637329101562 28.778287887573242188 27.464862823486328125 27.1943359375 27.189348220825195312 27.182203292846679688 27.172948837280273438 27.161111831665039062 27.146867752075195312 27.129608154296875 27.109653472900390625 27.086252212524414062 27.167522430419921875 27.357202529907226562 27.07164764404296875 26.9603424072265625 26.921792984008789062 26.88031768798828125 26.83733367919921875 26.791906356811523438 26.745584487915039062 26.6973419189453125 26.648799896240234375 26.598867416381835938 26.549224853515625 26.498739242553710938 26.447546005249023438 26.392606735229492188 26.355314254760742188 26.304859161376953125 26.234464645385742188 26.145023345947265625 26.045360565185546875 25.938962936401367188 25.83526611328125 25.7371368408203125 25.64966583251953125 25.56891632080078125 25.495031356811523438 25.423603057861328125 25.354618072509765625 25.2850799560546875 25.218860626220703125 25.157154083251953125 25.104915618896484375 25.063892364501953125 25.038051605224609375 25.027872085571289062 25.033029556274414062 25.052927017211914062 25.086032867431640625 25.132528305053710938 25.18939208984375 25.255449295043945312 25.3252105712890625 25.3972625732421875 25.465936660766601562 25.5302734375 25.587520599365234375 25.64057159423828125 25.689218521118164062 25.736429214477539062 25.782117843627929688 25.8284454345703125 25.873531341552734375 25.917863845825195312 25.959165573120117188 25.997781753540039062 26.031629562377929688 26.060922622680664062 26.083997726440429688 26.100816726684570312 26.110105514526367188 26.111429214477539062 26.10433197021484375 26.088695526123046875 26.065233230590820312 26.033504486083984375 25.99472808837890625 25.948284149169921875 25.897121429443359375 25.841970443725585938 25.786830902099609375 25.732387542724609375 25.682443618774414062 25.635990142822265625 25.592662811279296875 25.548580169677734375 25.502580642700195312 25.450748443603515625 25.392971038818359375 25.32848358154296875 25.26171875 25.193441390991210938 25.128406524658203125 25.067132949829101562 25.012104034423828125 24.95980072021484375 24.909410476684570312 24.856939315795898438 24.801544189453125 24.739995956420898438 24.6746673583984375 24.605560302734375 24.53662872314453125 24.467859268188476562 24.403089523315429688 24.341320037841796875 24.284219741821289062 24.229671478271484375 24.178867340087890625 24.129877090454101562 24.083574295043945312 24.037721633911132812 23.992588043212890625 23.945837020874023438 23.897708892822265625 23.8460540771484375 23.792631149291992188 23.737649917602539062 23.684497833251953125 23.63361358642578125 23.588254928588867188 23.54796600341796875 23.51256561279296875 23.47869873046875 23.444906234741210938 23.407907485961914062 23.366580963134765625 23.3196258544921875 23.26946258544921875 23.216474533081054688 23.1635589599609375 23.110918045043945312 23.060491561889648438 23.009778976440429688 22.95812225341796875 22.902307510375976562 22.841661453247070312 22.773389816284179688 22.699766159057617188 22.62183380126953125 22.544301986694335938 22.46832275390625 22.398542404174804688 22.334665298461914062 22.277276992797851562 22.223047256469726562 22.171350479125976562 22.1190643310546875 22.06546783447265625 22.007890701293945312 21.946142196655273438 21.877744674682617188 21.802661895751953125 21.718334197998046875 21.625844955444335938 21.524446487426757812 21.417200088500976562 21.303464889526367188 21.186534881591796875 21.064386367797851562 20.935285568237304688 20.79058837890625 20.62561798095703125 20.43125152587890625 20.204051971435546875 19.941976547241210938 19.659296035766601562 19.365186691284179688 19.077875137329101562 18.805685043334960938 18.563426971435546875 18.345212936401367188 18.147577285766601562 17.95855712890625 17.772914886474609375 17.580392837524414062 17.382009506225585938 17.1810150146484375 16.987974166870117188 16.807733535766601562 16.6509246826171875 16.519214630126953125 16.411334991455078125 16.316904067993164062 16.228773117065429688 16.137119293212890625 16.035030364990234375 15.9201202392578125 15.798379898071289062 15.675400733947753906 15.559163093566894531 15.454767227172851562 15.368194580078125 15.297344207763671875 15.240347862243652344 15.192938804626464844 15.152571678161621094 15.115614891052246094 15.080428123474121094 15.045771598815917969 15.011137008666992188 14.975604057312011719 14.938604354858398438 
29.707559585571289062 29.668813705444335938 29.59818267822265625 29.574060440063476562 29.5513763427734375 29.628400802612304688 29.72251129150390625 29.733417510986328125 29.704679489135742188 29.707666397094726562 29.772012710571289062 29.823793411254882812 29.786928176879882812 29.773241043090820312 29.800258636474609375 29.816173553466796875 29.780162811279296875 29.746187210083007812 29.741840362548828125 29.781642913818359375 29.851278305053710938 29.983350753784179688 30.086215972900390625 30.012897491455078125 29.81568145751953125 30.080026626586914062 31.064535140991210938 31.732631683349609375 31.056415557861328125 30.396562576293945312 30.294622421264648438 30.393222808837890625 30.398181915283203125 30.488656997680664062 31.088365554809570312 31.485433578491210938 31.25066375732421875 31.500049591064453125 31.590463638305664062 30.97257232666015625 30.596195220947265625 30.600254058837890625 30.622243881225585938 30.607118606567382812 30.5667877197265625 30.580661773681640625 30.554714202880859375 30.531923294067382812 30.583723068237304688 30.6318511962890625 30.559947967529296875 30.495653152465820312 30.518598556518554688 30.526144027709960938 30.542850494384765625 30.56655120849609375 30.682714462280273438 30.87346649169921875 31.015668869018554688 31.197711944580078125 31.5582733154296875 31.816976547241210938 31.792032241821289062 31.9618072509765625 32.47086334228515625 33.1155242919921875 33.53800201416015625 34.025905609130859375 34.778636932373046875 35.690059661865234375 35.912853240966796875 35.70482635498046875 35.460521697998046875 35.343536376953125 34.967380523681640625 34.12325286865234375 33.734996795654296875 33.5284423828125 33.333614349365234375 33.137905120849609375 32.906009674072265625 32.677295684814453125 32.518817901611328125 32.4839019775390625 32.52086639404296875 32.53302764892578125 32.389026641845703125 32.125255584716796875 31.877611160278320312 31.729295730590820312 31.717929840087890625 31.6072998046875 31.349514007568359375 31.080814361572265625 30.780305862426757812 30.476406097412109375 30.05544281005859375 29.566974639892578125 28.530881881713867188 27.393079757690429688 27.1663970947265625 27.16127777099609375 27.154020309448242188 27.144670486450195312 27.132762908935546875 27.118473052978515625 27.101192474365234375 27.081247329711914062 27.057870864868164062 27.03156280517578125 27.001493453979492188 26.968685150146484375 26.932483673095703125 26.894186019897460938 26.852993011474609375 26.810329437255859375 26.765277862548828125 26.719377517700195312 26.671609878540039062 26.623594284057617188 26.574251174926757812 26.52524566650390625 26.475469589233398438 26.426671981811523438 26.384433746337890625 26.348577499389648438 26.295259475708007812 26.22113037109375 26.127237319946289062 26.023050308227539062 25.912471771240234375 25.8055877685546875 25.705686569213867188 25.618131637573242188 25.538946151733398438 25.468107223510742188 25.401201248168945312 25.33795166015625 25.275320053100585938 25.216524124145507812 25.162418365478515625 25.117177963256835938 25.082183837890625 25.06072998046875 25.053195953369140625 25.0592498779296875 25.078420639038085938 25.10932159423828125 25.152185440063476562 25.204345703125 25.264993667602539062 25.329404830932617188 25.396625518798828125 25.461736679077148438 25.524173736572265625 25.581207275390625 25.635227203369140625 25.685443878173828125 25.734296798706054688 25.781116485595703125 25.827783584594726562 25.872531890869140625 25.916126251220703125 25.956600189208984375 25.994564056396484375 26.028192520141601562 26.05773162841796875 26.081392288208007812 26.099002838134765625 26.109128952026367188 26.111215591430664062 26.104719161987304688 26.08959197998046875 26.066616058349609375 26.03545379638671875 25.997394561767578125 25.951908111572265625 25.901882171630859375 25.847986221313476562 25.7940826416015625 25.74079132080078125 25.6917877197265625 25.646022796630859375 25.603105545043945312 25.559177398681640625 25.513072967529296875 25.460882186889648438 25.402513504028320312 25.337223052978515625 25.269519805908203125 25.2001953125 25.134084701538085938 25.071735382080078125 25.015741348266601562 24.9626617431640625 24.911813735961914062 24.85930633544921875 24.804407119750976562 24.743907928466796875 24.67990875244140625 24.612051010131835938 24.543851852416992188 24.47491455078125 24.408720016479492188 24.344251632690429688 24.283655166625976562 24.225238800048828125 24.170810699462890625 24.118846893310546875 24.070674896240234375 24.024007797241210938 23.97900390625 23.933149337768554688 23.886505126953125 23.836788177490234375 23.78554534912109375 23.732889175415039062 23.681982040405273438 23.633165359497070312 23.58948516845703125 23.550428390502929688 23.515771865844726562 23.482234954833984375 23.448398590087890625 23.41103363037109375 23.369075775146484375 23.3212738037109375 23.2701263427734375 23.216064453125 23.162075042724609375 23.108396530151367188 23.057048797607421875 23.0055389404296875 22.953245162963867188 22.8969573974609375 22.83603668212890625 22.767688751220703125 22.694169998168945312 22.616466522216796875 22.539228439331054688 22.463548660278320312 22.394014358520507812 22.330352783203125 22.273281097412109375 22.219655990600585938 22.169027328491210938 22.118457794189453125 22.06731414794921875 22.012758255004882812 21.954114913940429688 21.888507843017578125 21.81536865234375 21.731767654418945312 21.638547897338867188 21.535173416137695312 21.4250335693359375 21.30777740478515625 21.18707275390625 21.061124801635742188 20.928508758544921875 20.780679702758789062 20.613208770751953125 20.417079925537109375 20.189069747924804688 19.927120208740234375 19.64536285400390625 19.35276031494140625 19.067312240600585938 18.797145843505859375 18.556818008422851562 18.340208053588867188 18.143522262573242188 17.954553604125976562 17.767736434936523438 17.572591781616210938 17.37020111083984375 17.1642608642578125 16.965930938720703125 16.780553817749023438 16.6194000244140625 16.484508514404296875 16.374883651733398438 16.2801361083984375 16.19321441650390625 16.104291915893554688 16.00647735595703125 15.897062301635742188 15.781352996826171875 15.6642608642578125 15.552950859069824219 15.451900482177734375 15.366536140441894531 15.295049667358398438 15.23601531982421875 15.185724258422851562 15.142154693603515625 15.10213470458984375 15.064268112182617188 15.027216911315917969 14.990388870239257812 14.952733039855957031 14.913582801818847656 
29.716766357421875 29.688047409057617188 29.624729156494140625 29.573919296264648438 29.558439254760742188 29.624364852905273438 29.682729721069335938 29.711090087890625 29.786333084106445312 29.895626068115234375 29.92662811279296875 29.84209442138671875 29.733858108520507812 29.690378189086914062 29.703962326049804688 29.749177932739257812 29.781003952026367188 29.802114486694335938 29.84276580810546875 29.916912078857421875 30.0339202880859375 30.151065826416015625 30.104457855224609375 29.89369964599609375 30.019277572631835938 30.815418243408203125 31.632257461547851562 31.178144454956054688 30.459774017333984375 30.233312606811523438 30.271715164184570312 30.414463043212890625 30.457447052001953125 30.90464019775390625 31.486494064331054688 30.924623489379882812 30.49103546142578125 30.82110595703125 31.013372421264648438 30.652462005615234375 30.434892654418945312 30.452810287475585938 30.560472488403320312 30.622287750244140625 30.618328094482421875 30.57268524169921875 30.522916793823242188 30.55838775634765625 30.560178756713867188 30.53206634521484375 30.495418548583984375 30.51409149169921875 30.553419113159179688 30.578855514526367188 30.604692459106445312 30.627935409545898438 30.692193984985351562 30.827442169189453125 30.95894622802734375 31.119882583618164062 31.50550079345703125 31.875850677490234375 31.779783248901367188 31.9122314453125 32.442352294921875 33.11241912841796875 33.640522003173828125 34.248645782470703125 35.0300750732421875 35.6770172119140625 35.811901092529296875 35.536472320556640625 35.287738800048828125 35.254703521728515625 34.682628631591796875 33.93198394775390625 33.706554412841796875 33.485996246337890625 33.287456512451171875 33.0691375732421875 32.831012725830078125 32.605743408203125 32.455440521240234375 32.438526153564453125 32.499576568603515625 32.492206573486328125 32.3076171875 32.048488616943359375 31.813505172729492188 31.699407577514648438 31.682422637939453125 31.541151046752929688 31.275424957275390625 30.999410629272460938 30.692224502563476562 30.386972427368164062 29.946603775024414062 29.394962310791015625 28.3231964111328125 27.333116531372070312 27.137533187866210938 27.132242202758789062 27.124834060668945312 27.115365982055664062 27.103368759155273438 27.089021682739257812 27.071720123291015625 27.051790237426757812 27.028469085693359375 27.002256393432617188 26.972326278686523438 26.939701080322265625 26.903730392456054688 26.8657073974609375 26.824840545654296875 26.782548904418945312 26.737926483154296875 26.692501068115234375 26.64527130126953125 26.59783935546875 26.549146652221679688 26.500841140747070312 26.451831817626953125 26.4045867919921875 26.367506027221679688 26.329515457153320312 26.2722015380859375 26.19441986083984375 26.0972442626953125 25.990428924560546875 25.878011703491210938 25.770315170288085938 25.670804977416992188 25.584896087646484375 25.508649826049804688 25.441888809204101562 25.380273818969726562 25.32330322265625 25.2679595947265625 25.216815948486328125 25.170406341552734375 25.132129669189453125 25.103015899658203125 25.085702896118164062 25.080474853515625 25.087015151977539062 25.104990005493164062 25.133184432983398438 25.171878814697265625 25.218809127807617188 25.273553848266601562 25.332220077514648438 25.394351959228515625 25.455829620361328125 25.516527175903320312 25.573736190795898438 25.629337310791015625 25.681901931762695312 25.733343124389648438 25.782342910766601562 25.830484390258789062 25.875972747802734375 25.919759750366210938 25.96004486083984375 25.9976043701171875 26.030775070190429688 26.05986785888671875 26.083135604858398438 26.100404739379882812 26.110265731811523438 26.112173080444335938 26.105609893798828125 26.090570449829101562 26.06787872314453125 26.03725433349609375 26.0000152587890625 25.955677032470703125 25.90702056884765625 25.854618072509765625 25.802145004272460938 25.75011444091796875 25.7020263671875 25.65679931640625 25.61405181884765625 25.569993972778320312 25.523527145385742188 25.470792770385742188 25.41176605224609375 25.345705032348632812 25.277139663696289062 25.206838607788085938 25.139659881591796875 25.076131820678710938 25.018949508666992188 24.964801788330078125 24.91321563720703125 24.860454559326171875 24.805971145629882812 24.746616363525390625 24.684183120727539062 24.617879867553710938 24.550691604614257812 24.481767654418945312 24.414159774780273438 24.34682464599609375 24.282451629638671875 24.219858169555664062 24.16156005859375 24.106515884399414062 24.056560516357421875 24.009334564208984375 23.964809417724609375 23.920228958129882812 23.875396728515625 23.8278350830078125 23.778863906860351562 23.728515625 23.679761886596679688 23.632886886596679688 23.590757369995117188 23.55281829833984375 23.518823623657226562 23.485553741455078125 23.451623916625976562 23.413852691650390625 23.371232986450195312 23.32256317138671875 23.270441055297851562 23.21535491943359375 23.160402297973632812 23.10587310791015625 23.053869247436523438 23.001880645751953125 22.949293136596679688 22.892871856689453125 22.831968307495117188 22.76377105712890625 22.690496444702148438 22.613080978393554688 22.536108016967773438 22.460622787475585938 22.391153335571289062 22.3274383544921875 22.270303726196289062 22.21675872802734375 22.166501998901367188 22.116748809814453125 22.0669403076171875 22.014116287231445312 21.957242965698242188 21.893138885498046875 21.820842742919921875 21.7371368408203125 21.642711639404296875 21.53723907470703125 21.4244232177734375 21.304174423217773438 21.180513381958007812 21.051858901977539062 20.916990280151367188 20.76738739013671875 20.598730087280273438 20.402036666870117188 20.174161911010742188 19.913007736206054688 19.632568359375 19.341627120971679688 19.057992935180664062 18.789640426635742188 18.55089569091796875 18.335420608520507812 18.139102935791015625 17.949474334716796875 17.760654449462890625 17.561946868896484375 17.354520797729492188 17.142560958862304688 16.937908172607421875 16.746446609497070312 16.58016204833984375 16.441514968872070312 16.329898834228515625 16.234973907470703125 16.149904251098632812 16.06493377685546875 15.97327423095703125 15.871796607971191406 15.764834403991699219 15.65631866455078125 15.552250862121582031 15.456212997436523438 15.372828483581542969 15.300683975219726562 15.238957405090332031 15.184720993041992188 15.1366729736328125 15.092286109924316406 15.05052947998046875 15.010006904602050781 14.970081329345703125 14.929586410522460938 14.887800216674804688 
29.69887542724609375 29.681150436401367188 29.645566940307617188 29.586759567260742188 29.601886749267578125 29.631557464599609375 29.6883087158203125 29.835493087768554688 29.954364776611328125 29.93404388427734375 29.827135086059570312 29.71367645263671875 29.687849044799804688 29.721292495727539062 29.745943069458007812 29.809442520141601562 29.870655059814453125 29.911067962646484375 29.9761199951171875 30.0805206298828125 30.15993499755859375 30.131052017211914062 29.947484970092773438 30.018934249877929688 30.707113265991210938 31.60637664794921875 31.309888839721679688 30.563215255737304688 30.392000198364257812 30.431976318359375 30.407695770263671875 30.451044082641601562 30.78926849365234375 31.48276519775390625 31.175813674926757812 30.497852325439453125 30.609178543090820312 30.64820098876953125 30.589868545532226562 30.787111282348632812 30.760837554931640625 30.566530227661132812 30.425823211669921875 30.495775222778320312 30.543138504028320312 30.529933929443359375 30.555322647094726562 30.565921783447265625 30.48876953125 30.4698333740234375 30.495035171508789062 30.539361953735351562 30.6262664794921875 30.696002960205078125 30.711481094360351562 30.726955413818359375 30.751428604125976562 30.832515716552734375 30.961559295654296875 31.1077728271484375 31.448038101196289062 31.899671554565429688 31.777349472045898438 31.892547607421875 32.50811004638671875 33.230991363525390625 33.8305206298828125 34.507320404052734375 35.25611114501953125 35.70641326904296875 35.76323699951171875 35.424224853515625 35.344036102294921875 35.204769134521484375 34.3634490966796875 33.837856292724609375 33.664913177490234375 33.435604095458984375 33.230113983154296875 32.99700164794921875 32.75629425048828125 32.548404693603515625 32.418079376220703125 32.426441192626953125 32.4893341064453125 32.432689666748046875 32.21912384033203125 31.97217559814453125 31.761201858520507812 31.672094345092773438 31.641664505004882812 31.4753570556640625 31.19989013671875 30.908426284790039062 30.62123870849609375 30.287853240966796875 29.848764419555664062 29.199628829956054688 28.162029266357421875 27.281267166137695312 27.107786178588867188 27.10230255126953125 27.09473419189453125 27.085138320922851562 27.073047637939453125 27.058641433715820312 27.041322708129882812 27.021417617797851562 26.998167037963867188 26.972070693969726562 26.9423065185546875 26.909894943237304688 26.874193191528320312 26.836484909057617188 26.795991897583007812 26.754121780395507812 26.70998382568359375 26.665086746215820312 26.618450164794921875 26.571660995483398438 26.523677825927734375 26.47612762451171875 26.427947998046875 26.381551742553710938 26.343374252319335938 26.300542831420898438 26.238634109497070312 26.157594680786132812 26.058427810668945312 25.950830459594726562 25.838726043701171875 25.732316970825195312 25.63501739501953125 25.552125930786132812 25.479803085327148438 25.417758941650390625 25.361820220947265625 25.311309814453125 25.263294219970703125 25.219730377197265625 25.18085479736328125 25.149318695068359375 25.125806808471679688 25.112329483032226562 25.109083175659179688 25.11579132080078125 25.132246017456054688 25.157428741455078125 25.191667556762695312 25.233121871948242188 25.281770706176757812 25.334569931030273438 25.39157867431640625 25.449504852294921875 25.50867462158203125 25.566402435302734375 25.624065399169921875 25.6795806884765625 25.734344482421875 25.786357879638671875 25.83689117431640625 25.884008407592773438 25.928762435913085938 25.9693756103515625 26.006694793701171875 26.039133071899414062 26.067098617553710938 26.089031219482421875 26.104887008666992188 26.113451004028320312 26.1143035888671875 26.107059478759765625 26.091716766357421875 26.069112777709960938 26.038965225219726562 26.0025787353515625 25.959466934204101562 25.91226959228515625 25.861446380615234375 25.810453414916992188 25.75968170166015625 25.712438583374023438 25.6676025390625 25.624853134155273438 25.580514907836914062 25.533605575561523438 25.480371475219726562 25.420879364013671875 25.354352951049804688 25.285259246826171875 25.214258193969726562 25.146148681640625 25.081356048583984375 25.022678375244140625 24.966985702514648438 24.914119720458984375 24.860582351684570312 24.806110382080078125 24.7476654052734375 24.686738967895507812 24.622056961059570312 24.55602264404296875 24.487283706665039062 24.418413162231445312 24.34832763671875 24.280277252197265625 24.213611602783203125 24.151575088500976562 24.093637466430664062 24.042150497436523438 23.994661331176757812 23.9509124755859375 23.907873153686523438 23.8650360107421875 23.819715499877929688 23.772979736328125 23.724813461303710938 23.67803955078125 23.632900238037109375 23.592123031616210938 23.555141448974609375 23.521677017211914062 23.488580703735351562 23.45449066162109375 23.416276931762695312 23.372982025146484375 23.323455810546875 23.270406723022460938 23.214382171630859375 23.158594131469726562 23.103399276733398438 23.05097198486328125 22.998788833618164062 22.946222305297851562 22.89000701904296875 22.829471588134765625 22.761774063110351562 22.68906402587890625 22.6121978759765625 22.535657882690429688 22.460412979125976562 22.390893936157226562 22.326833724975585938 22.26917266845703125 22.215068817138671875 22.164388656616210938 22.114492416381835938 22.06494140625 22.012664794921875 21.95636749267578125 21.892602920532226562 21.82012176513671875 21.735452651977539062 21.63922119140625 21.53130340576171875 21.415744781494140625 21.292728424072265625 21.166646957397460938 21.036119461059570312 20.90006256103515625 20.749879837036132812 20.581226348876953125 20.385049819946289062 20.15816497802734375 19.898380279541015625 19.619548797607421875 19.330322265625 19.04833984375 18.781457901000976562 18.543798446655273438 18.328851699829101562 18.132228851318359375 17.941255569458007812 17.749784469604492188 17.546932220458984375 17.333986282348632812 17.115610122680664062 16.9043121337890625 16.706495285034179688 16.534854888916015625 16.39227294921875 16.2785797119140625 16.183557510375976562 16.100667953491210938 16.020296096801757812 15.935821533203125 15.843647956848144531 15.74698638916015625 15.648615837097167969 15.553175926208496094 15.463193893432617188 15.382359504699707031 15.309706687927246094 15.2451019287109375 15.186522483825683594 15.133490562438964844 15.084225654602050781 15.038128852844238281 14.993757247924804688 14.950456619262695312 14.90694427490234375 14.862466812133789062 
29.68456268310546875 29.681110382080078125 29.674007415771484375 29.628583908081054688 29.614299774169921875 29.628965377807617188 29.776552200317382812 29.95250701904296875 29.928037643432617188 29.801174163818359375 29.736608505249023438 29.757610321044921875 29.8171844482421875 29.855897903442382812 29.847614288330078125 29.905231475830078125 29.981267929077148438 30.071531295776367188 30.149282455444335938 30.155712127685546875 30.062343597412109375 29.881244659423828125 29.921239852905273438 30.552347183227539062 31.547464370727539062 31.53635406494140625 30.729015350341796875 30.4743499755859375 30.595172882080078125 30.592296600341796875 30.465806961059570312 30.647970199584960938 31.389539718627929688 31.351810455322265625 30.583600997924804688 30.534349441528320312 30.703592300415039062 30.6598358154296875 30.616365432739257812 30.715496063232421875 30.720365524291992188 30.686891555786132812 30.577121734619140625 30.449296951293945312 30.396284103393554688 30.525897979736328125 30.605398178100585938 30.548383712768554688 30.48052215576171875 30.499067306518554688 30.54083251953125 30.59171295166015625 30.716535568237304688 30.789155960083007812 30.82051849365234375 30.850940704345703125 30.879404067993164062 30.909547805786132812 30.98920440673828125 31.10259246826171875 31.405649185180664062 31.84441375732421875 31.75008392333984375 31.878133773803710938 32.508235931396484375 33.230319976806640625 33.947612762451171875 34.64703369140625 35.3685760498046875 35.726436614990234375 35.65743255615234375 35.281829833984375 35.1796875 34.914325714111328125 34.2029266357421875 33.8743896484375 33.62664794921875 33.37006378173828125 33.16045379638671875 32.9296722412109375 32.68695831298828125 32.489192962646484375 32.382663726806640625 32.42542266845703125 32.486209869384765625 32.3773651123046875 32.12961578369140625 31.896825790405273438 31.71973419189453125 31.641427993774414062 31.592380523681640625 31.397600173950195312 31.113903045654296875 30.816614151000976562 30.548868179321289062 30.182188034057617188 29.740205764770507812 28.997755050659179688 28.028371810913085938 27.233692169189453125 27.077142715454101562 27.0714569091796875 27.06371307373046875 27.053979873657226562 27.041788101196289062 27.027326583862304688 27.009992599487304688 26.99011993408203125 26.966953277587890625 26.940992355346679688 26.911418914794921875 26.879251480102539062 26.843852996826171875 26.806501388549804688 26.76642608642578125 26.725025177001953125 26.681417465209960938 26.637104034423828125 26.59111785888671875 26.545022964477539062 26.497806549072265625 26.451070785522460938 26.403776168823242188 26.35774993896484375 26.314180374145507812 26.26493072509765625 26.198398590087890625 26.114767074584960938 26.01486968994140625 25.908082962036132812 25.79803466796875 25.694517135620117188 25.600732803344726562 25.521732330322265625 25.45384979248046875 25.39673614501953125 25.346462249755859375 25.302251815795898438 25.261308670043945312 25.2250213623046875 25.19333648681640625 25.168193817138671875 25.149944305419921875 25.140003204345703125 25.138484954833984375 25.145154953002929688 25.159938812255859375 25.182018280029296875 25.211765289306640625 25.24776458740234375 25.2903900146484375 25.337444305419921875 25.389497756958007812 25.444065093994140625 25.501943588256835938 25.560455322265625 25.620500564575195312 25.67934417724609375 25.737890243530273438 25.793466567993164062 25.84702301025390625 25.896389007568359375 25.9426422119140625 25.983922958374023438 26.021062850952148438 26.052480697631835938 26.078708648681640625 26.098501205444335938 26.112031936645507812 26.118440628051757812 26.117509841918945312 26.109079360961914062 26.093112945556640625 26.070425033569335938 26.04067230224609375 26.005102157592773438 25.9631805419921875 25.917394638061523438 25.868078231811523438 25.818479537963867188 25.768863677978515625 25.722347259521484375 25.67778778076171875 25.63495635986328125 25.590330123901367188 25.5430908203125 25.489622116088867188 25.4300994873046875 25.363658905029296875 25.294586181640625 25.223344802856445312 25.15454864501953125 25.088436126708984375 25.0278778076171875 24.97000885009765625 24.91510772705078125 24.859996795654296875 24.804834365844726562 24.746763229370117188 24.687000274658203125 24.623767852783203125 24.5588836669921875 24.490472793579101562 24.4206085205078125 24.348150253295898438 24.276865005493164062 24.206607818603515625 24.141313552856445312 24.080926895141601562 24.028284072875976562 23.980840682983398438 23.938085556030273438 23.89672088623046875 23.855926513671875 23.812793731689453125 23.768156051635742188 23.721971511840820312 23.67694091796875 23.63329315185546875 23.593641281127929688 23.557415008544921875 23.524328231811523438 23.491289138793945312 23.456966400146484375 23.418272018432617188 23.374303817749023438 23.323961257934570312 23.270053863525390625 23.21319580078125 23.156702041625976562 23.100992202758789062 23.048320770263671875 22.99615478515625 22.9438629150390625 22.888166427612304688 22.828371047973632812 22.761621475219726562 22.689950942993164062 22.614091873168945312 22.538341522216796875 22.463531494140625 22.393934249877929688 22.329242706298828125 22.270544052124023438 22.215181350708007812 22.163259506225585938 22.112316131591796875 22.0620880126953125 22.009405136108398438 21.952756881713867188 21.888425827026367188 21.81490325927734375 21.72847747802734375 21.6297454833984375 21.518815994262695312 21.400144577026367188 21.274229049682617188 21.14588165283203125 21.01395416259765625 20.87744140625 20.727563858032226562 20.559839248657226562 20.365041732788085938 20.139810562133789062 19.881832122802734375 19.60478973388671875 19.317247390747070312 19.036672592163085938 18.770822525024414062 18.533662796020507812 18.318559646606445312 18.1209564208984375 17.928035736083984375 17.733489990234375 17.526308059692382812 17.307935714721679688 17.083425521850585938 16.865869522094726562 16.662111282348632812 16.485448837280273438 16.339136123657226562 16.223447799682617188 16.1283416748046875 16.047620773315429688 15.971877098083496094 15.894694328308105469 15.812029838562011719 15.725949287414550781 15.638057708740234375 15.55159759521484375 15.468028068542480469 15.390070915222167969 15.3172149658203125 15.25002288818359375 15.187387466430664062 15.129663467407226562 15.075834274291992188 15.025732040405273438 14.977871894836425781 14.931554794311523438 14.885392189025878906 14.838581085205078125 
29.686841964721679688 29.684612274169921875 29.691625595092773438 29.647035598754882812 29.607255935668945312 29.69493865966796875 29.877519607543945312 29.89212799072265625 29.73992156982421875 29.671901702880859375 29.72635650634765625 29.843549728393554688 29.943056106567382812 29.987558364868164062 29.984661102294921875 30.011180877685546875 30.070623397827148438 30.173955917358398438 30.16400909423828125 29.983362197875976562 29.819833755493164062 29.882457733154296875 30.3953704833984375 31.394115447998046875 31.635349273681640625 30.8638458251953125 30.472551345825195312 30.602840423583984375 30.656436920166015625 30.542470932006835938 30.5614471435546875 31.222108840942382812 31.468547821044921875 30.719923019409179688 30.5047454833984375 30.645212173461914062 30.59171295166015625 30.502498626708984375 30.476942062377929688 30.50762176513671875 30.547658920288085938 30.600254058837890625 30.67072296142578125 30.687616348266601562 30.482580184936523438 30.51073455810546875 30.6202239990234375 30.604162216186523438 30.585828781127929688 30.621870040893554688 30.661930084228515625 30.693067550659179688 30.781024932861328125 30.841827392578125 30.877714157104492188 30.923370361328125 30.970790863037109375 31.000926971435546875 31.027921676635742188 31.087537765502929688 31.352533340454101562 31.815282821655273438 31.750698089599609375 31.822879791259765625 32.435756683349609375 33.205806732177734375 34.2465972900390625 35.0936126708984375 35.488555908203125 35.638824462890625 35.536865234375 35.2211456298828125 34.89618682861328125 34.608150482177734375 34.285228729248046875 34.0379638671875 33.615955352783203125 33.30487060546875 33.082271575927734375 32.85257720947265625 32.614284515380859375 32.4308624267578125 32.363826751708984375 32.422290802001953125 32.455661773681640625 32.319610595703125 32.0517578125 31.829835891723632812 31.684556961059570312 31.619245529174804688 31.532529830932617188 31.306131362915039062 31.018491744995117188 30.728794097900390625 30.447734832763671875 30.065280914306640625 29.5919952392578125 28.80805206298828125 27.91397857666015625 27.188943862915039062 27.045818328857421875 27.039911270141601562 27.031982421875 27.022104263305664062 27.009807586669921875 26.995286941528320312 26.97794342041015625 26.958110809326171875 26.9350433349609375 26.90923309326171875 26.879877090454101562 26.847982406616210938 26.812923431396484375 26.775964736938476562 26.736349105834960938 26.695461273193359375 26.652433395385742188 26.6087493896484375 26.563463211059570312 26.51811981201171875 26.471721649169921875 26.425851821899414062 26.37949371337890625 26.333528518676757812 26.281831741333007812 26.22560882568359375 26.155040740966796875 26.0698394775390625 25.970575332641601562 25.866100311279296875 25.759592056274414062 25.660219192504882812 25.570833206176757812 25.496160507202148438 25.432771682739257812 25.380353927612304688 25.335287094116210938 25.2967987060546875 25.262285232543945312 25.232625961303710938 25.207500457763671875 25.188180923461914062 25.174709320068359375 25.167943954467773438 25.167917251586914062 25.174449920654296875 25.187585830688476562 25.206695556640625 25.232202529907226562 25.263095855712890625 25.300111770629882812 25.341852188110351562 25.389373779296875 25.440952301025390625 25.497823715209960938 25.557325363159179688 25.619920730590820312 25.682256698608398438 25.744798660278320312 25.804220199584960938 25.861169815063476562 25.913175582885742188 25.96126556396484375 26.003406524658203125 26.040334701538085938 26.070417404174804688 26.09432220458984375 26.111234664916992188 26.121625900268554688 26.12511444091796875 26.121768951416015625 26.111719131469726562 26.094854354858398438 26.0719146728515625 26.042444229125976562 26.007572174072265625 25.966678619384765625 25.922090530395507812 25.874036788940429688 25.825588226318359375 25.7769012451171875 25.73093414306640625 25.68654632568359375 25.643636703491210938 25.59886932373046875 25.551609039306640625 25.498424530029296875 25.439580917358398438 25.374074935913085938 25.305850982666015625 25.235057830810546875 25.165958404541015625 25.0984954833984375 25.035585403442382812 24.974710464477539062 24.916746139526367188 24.858938217163085938 24.802034378051757812 24.743427276611328125 24.684156417846679688 24.62194061279296875 24.558042526245117188 24.490085601806640625 24.419652938842773438 24.345518112182617188 24.271860122680664062 24.1989593505859375 24.1313018798828125 24.069242477416992188 24.01599884033203125 23.96894073486328125 23.927333831787109375 23.887647628784179688 23.848773956298828125 23.807615280151367188 23.764804840087890625 23.720287322998046875 23.676671981811523438 23.634183883666992188 23.595361709594726562 23.559637069702148438 23.526729583740234375 23.493595123291015625 23.458948135375976562 23.419740676879882812 23.375123977661132812 23.32404327392578125 23.2693939208984375 23.2118377685546875 23.154787063598632812 23.098711013793945312 23.045932769775390625 22.993947982788085938 22.94214630126953125 22.88727569580078125 22.82865142822265625 22.763427734375 22.693468093872070312 22.619293212890625 22.544900894165039062 22.470897674560546875 22.401266098022460938 22.33563995361328125 22.275302886962890625 22.217874526977539062 22.163797378540039062 22.110860824584960938 22.059076309204101562 22.00518035888671875 21.947427749633789062 21.881784439086914062 21.806470870971679688 21.7174835205078125 21.615419387817382812 21.500673294067382812 21.378215789794921875 21.248920440673828125 21.118135452270507812 20.984975814819335938 20.848485946655273438 20.69959259033203125 20.533536911010742188 20.340826034545898438 20.117792129516601562 19.8619384765625 19.586763381958007812 19.300754547119140625 19.021219253540039062 18.75583648681640625 18.518436431884765625 18.302358627319335938 18.103021621704101562 17.907588958740234375 17.709758758544921875 17.49849700927734375 17.275417327880859375 17.045824050903320312 16.823209762573242188 16.61468505859375 16.433979034423828125 16.284585952758789062 16.167177200317382812 16.071933746337890625 15.993021965026855469 15.921268463134765625 15.8505096435546875 15.776327133178710938 15.699772834777832031 15.62139892578125 15.543203353881835938 15.4656829833984375 15.390690803527832031 15.318120002746582031 15.249151229858398438 15.183496475219726562 15.12224578857421875 15.065062522888183594 15.012149810791015625 14.961941719055175781 14.913677215576171875 14.865831375122070312 14.817523002624511719 
29.683559417724609375 29.695606231689453125 29.717319488525390625 29.6709442138671875 29.631053924560546875 29.7924346923828125 29.8929595947265625 29.753633499145507812 29.62688446044921875 29.671369552612304688 29.80802154541015625 29.932157516479492188 30.027830123901367188 30.04673004150390625 30.0076904296875 30.000598907470703125 30.087831497192382812 30.116657257080078125 29.974645614624023438 29.858446121215820312 30.025617599487304688 30.589040756225585938 31.430780410766601562 31.765119552612304688 31.01645660400390625 30.458547592163085938 30.489940643310546875 30.6691436767578125 30.556108474731445312 30.487386703491210938 31.057020187377929688 31.577642440795898438 30.881328582763671875 30.448566436767578125 30.622186660766601562 30.578495025634765625 30.455835342407226562 30.397970199584960938 30.373655319213867188 30.385753631591796875 30.407375335693359375 30.460470199584960938 30.530155181884765625 30.643411636352539062 30.747837066650390625 30.74802398681640625 30.665615081787109375 30.63352203369140625 30.71539306640625 30.800933837890625 30.799779891967773438 30.805011749267578125 30.843782424926757812 30.873888015747070312 30.906641006469726562 30.95346832275390625 31.0078582763671875 31.061222076416015625 31.09734344482421875 31.120914459228515625 31.310945510864257812 31.799123764038085938 31.747030258178710938 31.84931182861328125 32.62831878662109375 33.44506072998046875 34.568569183349609375 35.430965423583984375 35.559112548828125 35.54283905029296875 35.32459259033203125 34.963878631591796875 34.586551666259765625 34.61698150634765625 34.802097320556640625 34.414272308349609375 33.6570281982421875 33.247467041015625 33.006496429443359375 32.760723114013671875 32.52779388427734375 32.38042449951171875 32.35582733154296875 32.41986083984375 32.41339874267578125 32.23394775390625 31.98387908935546875 31.778656005859375 31.666856765747070312 31.625173568725585938 31.46395111083984375 31.210468292236328125 30.922079086303710938 30.644130706787109375 30.325593948364257812 29.936208724975585938 29.410387039184570312 28.635095596313476562 27.81220245361328125 27.145721435546875 27.01373291015625 27.007593154907226562 26.9994659423828125 26.98943328857421875 26.97702789306640625 26.9624481201171875 26.945098876953125 26.92531585693359375 26.902355194091796875 26.87671661376953125 26.847599029541015625 26.816005706787109375 26.78131866455078125 26.74478912353515625 26.7056732177734375 26.665340423583984375 26.622941970825195312 26.579936981201171875 26.535402297973632812 26.490858078002929688 26.445333480834960938 26.400381088256835938 26.355014801025390625 26.308990478515625 26.248050689697265625 26.185235977172851562 26.111673355102539062 26.026113510131835938 25.928806304931640625 25.827909469604492188 25.726072311401367188 25.631681442260742188 25.547147750854492188 25.476846694946289062 25.417646408081054688 25.369359970092773438 25.328756332397460938 25.295160293579101562 25.26621246337890625 25.24236297607421875 25.223028182983398438 25.208879470825195312 25.199657440185546875 25.195718765258789062 25.197008132934570312 25.203399658203125 25.215047836303710938 25.231494903564453125 25.253210067749023438 25.279541015625 25.311571121215820312 25.348615646362304688 25.392181396484375 25.441226959228515625 25.497392654418945312 25.558027267456054688 25.623210906982421875 25.68902587890625 25.755550384521484375 25.818866729736328125 25.879337310791015625 25.934139251708984375 25.984195709228515625 26.027231216430664062 26.063821792602539062 26.0922393798828125 26.113300323486328125 26.126703262329101562 26.1332855224609375 26.133241653442382812 26.126979827880859375 26.114976882934570312 26.096998214721679688 26.073667526245117188 26.04434967041015625 26.010013580322265625 25.969898223876953125 25.92618560791015625 25.879034042358398438 25.831384658813476562 25.783323287963867188 25.737699508666992188 25.693401336669921875 25.650487899780273438 25.605829238891601562 25.558994293212890625 25.506772994995117188 25.449491500854492188 25.385936737060546875 25.3195343017578125 25.249996185302734375 25.181055068969726562 25.11223602294921875 25.046461105346679688 24.981660842895507812 24.919464111328125 24.85765838623046875 24.797754287719726562 24.737491607666015625 24.677837371826171875 24.616029739379882812 24.552845001220703125 24.485437393188476562 24.414943695068359375 24.34001922607421875 24.265104293823242188 24.190782546997070312 24.121912002563476562 24.059139251708984375 24.005931854248046875 23.959606170654296875 23.9192352294921875 23.881124496459960938 23.843935012817382812 23.80443572998046875 23.76309967041015625 23.719877243041992188 23.677309036254882812 23.63562774658203125 23.597314834594726562 23.561815261840820312 23.528865814208984375 23.49547576904296875 23.460412979125976562 23.420663833618164062 23.3754425048828125 23.32373046875 23.2684783935546875 23.210390090942382812 23.15293121337890625 23.09661102294921875 23.04381561279296875 22.992107391357421875 22.940944671630859375 22.887165069580078125 22.830137252807617188 22.76706695556640625 22.699590682983398438 22.6279144287109375 22.555578231811523438 22.482852935791015625 22.413305282592773438 22.346454620361328125 22.2838592529296875 22.223531723022460938 22.166379928588867188 22.110561370849609375 22.056474685668945312 22.000745773315429688 21.941350936889648438 21.873853683471679688 21.796140670776367188 21.703840255737304688 21.5975494384765625 21.47801971435546875 21.350870132446289062 21.217433929443359375 21.083730697631835938 20.949207305908203125 20.812925338745117188 20.665416717529296875 20.501535415649414062 20.311403274536132812 20.09093475341796875 19.8373870849609375 19.564056396484375 19.279356002807617188 19.00043487548828125 18.734888076782226562 18.49645233154296875 18.2785491943359375 18.076745986938476562 17.878347396850585938 17.677234649658203125 17.462491989135742188 17.235904693603515625 17.002843856811523438 16.77695465087890625 16.565399169921875 16.382062911987304688 16.2305450439453125 16.111814498901367188 16.016309738159179688 15.93856048583984375 15.869664192199707031 15.8037261962890625 15.736083030700683594 15.667011260986328125 15.596232414245605469 15.524779319763183594 15.452396392822265625 15.380263328552246094 15.308579444885253906 15.239005088806152344 15.171888351440429688 15.108890533447265625 15.050194740295410156 14.996254920959472656 14.945395469665527344 14.896727561950683594 14.848574638366699219 14.799913406372070312 
29.694074630737304688 29.70489501953125 29.729709625244140625 29.708887100219726562 29.706295013427734375 29.869123458862304688 29.827806472778320312 29.665575027465820312 29.636627197265625 29.750949859619140625 29.925390243530273438 30.00769805908203125 30.01464080810546875 30.001827239990234375 29.996923446655273438 30.005176544189453125 30.034152984619140625 29.903438568115234375 29.902120590209960938 30.277818679809570312 30.94867706298828125 31.643629074096679688 31.6290130615234375 31.07501220703125 30.532365798950195312 30.389139175415039062 30.579328536987304688 30.587873458862304688 30.472476959228515625 30.902767181396484375 31.561708450317382812 31.189249038696289062 30.61064910888671875 30.614894866943359375 30.607473373413085938 30.47602081298828125 30.394006729125976562 30.358839035034179688 30.331754684448242188 30.33866119384765625 30.351846694946289062 30.38092803955078125 30.434360504150390625 30.518863677978515625 30.647125244140625 30.726884841918945312 30.67342376708984375 30.656377792358398438 30.772533416748046875 30.8564910888671875 30.872692108154296875 30.893436431884765625 30.919376373291015625 30.925382614135742188 30.9486083984375 31.001359939575195312 31.058012008666992188 31.109998703002929688 31.167287826538085938 31.20859527587890625 31.402149200439453125 31.863162994384765625 31.71506500244140625 31.870452880859375 32.882564544677734375 33.772922515869140625 34.684375762939453125 35.34063720703125 35.54270172119140625 35.54630279541015625 35.234649658203125 34.70013427734375 34.421756744384765625 34.6652374267578125 34.90689849853515625 34.439960479736328125 33.637554168701171875 33.1880340576171875 32.934375762939453125 32.680515289306640625 32.459392547607421875 32.347896575927734375 32.353137969970703125 32.4148712158203125 32.392314910888671875 32.175113677978515625 31.922449111938476562 31.735561370849609375 31.656858444213867188 31.603948593139648438 31.395418167114257812 31.13001251220703125 30.8269500732421875 30.549718856811523438 30.183519363403320312 29.798883438110351562 29.227121353149414062 28.485347747802734375 27.721811294555664062 27.103982925415039062 26.981166839599609375 26.974779129028320312 26.966444015502929688 26.956251144409179688 26.94373321533203125 26.929094314575195312 26.911741256713867188 26.8920135498046875 26.869174957275390625 26.843723297119140625 26.814867019653320312 26.783599853515625 26.7493133544921875 26.713247299194335938 26.674669265747070312 26.634931564331054688 26.593202590942382812 26.550920486450195312 26.507183074951171875 26.463483810424804688 26.418878555297851562 26.3748931884765625 26.330562591552734375 26.284473419189453125 26.214212417602539062 26.145788192749023438 26.070562362670898438 25.985935211181640625 25.891801834106445312 25.795528411865234375 25.699186325073242188 25.6103057861328125 25.530803680419921875 25.464700698852539062 25.409206390380859375 25.364347457885742188 25.3273162841796875 25.297639846801757812 25.273229598999023438 25.254194259643554688 25.239715576171875 25.229930877685546875 25.224323272705078125 25.222799301147460938 25.225233078002929688 25.231534957885742188 25.24195098876953125 25.256174087524414062 25.274707794189453125 25.297214508056640625 25.325075149536132812 25.358219146728515625 25.398550033569335938 25.445613861083984375 25.501407623291015625 25.56328582763671875 25.630998611450195312 25.700132369995117188 25.770444869995117188 25.837484359741210938 25.90135955810546875 25.958879470825195312 26.010822296142578125 26.054624557495117188 26.090658187866210938 26.117076873779296875 26.13484954833984375 26.144247055053710938 26.146511077880859375 26.142482757568359375 26.1329498291015625 26.1187591552734375 26.099519729614257812 26.075689315795898438 26.046403884887695312 26.012418746948242188 25.972797393798828125 25.929599761962890625 25.882938385009765625 25.835693359375 25.787916183471679688 25.742410659790039062 25.698116302490234375 25.655271530151367188 25.6109771728515625 25.565006256103515625 25.5143890380859375 25.459491729736328125 25.398828506469726562 25.335153579711914062 25.267625808715820312 25.19930267333984375 25.129171371459960938 25.060132980346679688 24.990640640258789062 24.92321014404296875 24.85626220703125 24.792211532592773438 24.729219436645507812 24.668302536010742188 24.606256484985351562 24.5434722900390625 24.4766845703125 24.406644821166992188 24.3318634033203125 24.256877899169921875 24.182437896728515625 24.1135711669921875 24.05108642578125 23.998548507690429688 23.953252792358398438 23.914133071899414062 23.877405166625976562 23.84157562255859375 23.803340911865234375 23.763067245483398438 23.7207183837890625 23.678791046142578125 23.637531280517578125 23.599390029907226562 23.563831329345703125 23.5306243896484375 23.496831893920898438 23.461284637451171875 23.421014785766601562 23.375303268432617188 23.323144912719726562 23.267520904541015625 23.209127426147460938 23.151454925537109375 23.095010757446289062 23.042238235473632812 22.990808486938476562 22.9403228759765625 22.887760162353515625 22.832620620727539062 22.772203445434570312 22.707874298095703125 22.639417648315429688 22.569782257080078125 22.498792648315429688 22.429460525512695312 22.361158370971679688 22.295772552490234375 22.231813430786132812 22.170789718627929688 22.11130523681640625 22.054262161254882812 21.99616241455078125 21.934656143188476562 21.864828109741210938 21.784166336059570312 21.6878662109375 21.576520919799804688 21.451295852661132812 21.318563461303710938 21.180210113525390625 21.043027877807617188 20.906847000122070312 20.770748138427734375 20.624769210815429688 20.463285446166992188 20.275953292846679688 20.058168411254882812 19.806898117065429688 19.535221099853515625 19.251483917236328125 18.972682952880859375 18.70633697509765625 18.466127395629882812 18.245664596557617188 18.040851593017578125 17.839290618896484375 17.635242462158203125 17.418048858642578125 17.189653396606445312 16.955263137817382812 16.728380203247070312 16.515964508056640625 16.331739425659179688 16.179218292236328125 16.059576034545898438 15.963563919067382812 15.88608551025390625 15.818549156188964844 15.755382537841796875 15.6918182373046875 15.627646446228027344 15.56203460693359375 15.495380401611328125 15.426927566528320312 15.357412338256835938 15.287226676940917969 15.218332290649414062 15.151492118835449219 15.088727951049804688 15.030559539794921875 14.977547645568847656 14.927869796752929688 14.880454063415527344 14.83344268798828125 14.785616874694824219 
29.700901031494140625 29.71038055419921875 29.735927581787109375 29.745897293090820312 29.845468521118164062 29.919145584106445312 29.745349884033203125 29.666599273681640625 29.726064682006835938 29.872711181640625 30.021574020385742188 30.032135009765625 29.9703216552734375 29.944459915161132812 29.9534454345703125 30.025571823120117188 29.98607635498046875 29.772838592529296875 30.0145111083984375 30.87169647216796875 31.684511184692382812 31.391330718994140625 30.795331954956054688 30.538141250610351562 30.570310592651367188 30.591901779174804688 30.506639480590820312 30.354099273681640625 30.671442031860351562 31.517599105834960938 31.250467300415039062 30.575571060180664062 30.611738204956054688 30.640003204345703125 30.508630752563476562 30.417816162109375 30.368726730346679688 30.344717025756835938 30.321218490600585938 30.324796676635742188 30.323596954345703125 30.341695785522460938 30.402410507202148438 30.457780838012695312 30.550661087036132812 30.64105987548828125 30.694305419921875 30.781772613525390625 30.83705902099609375 30.851354598999023438 30.889741897583007812 30.928525924682617188 30.961147308349609375 30.987241744995117188 31.023433685302734375 31.067323684692382812 31.1183624267578125 31.171527862548828125 31.24609375 31.357290267944335938 31.537240982055664062 31.84824371337890625 31.654405593872070312 31.906032562255859375 33.086353302001953125 34.114727020263671875 34.860401153564453125 35.29720306396484375 35.47809600830078125 35.4441986083984375 35.081512451171875 34.5901031494140625 34.600322723388671875 34.931488037109375 34.90039825439453125 34.19338226318359375 33.4969940185546875 33.139568328857421875 32.871368408203125 32.611179351806640625 32.4188232421875 32.34304046630859375 32.35605621337890625 32.39681243896484375 32.3475189208984375 32.120819091796875 31.869976043701171875 31.705148696899414062 31.640371322631835938 31.56027984619140625 31.333787918090820312 31.046625137329101562 30.730024337768554688 30.44086456298828125 30.042329788208007812 29.652364730834960938 29.048326492309570312 28.351581573486328125 27.6393280029296875 27.063035964965820312 26.947973251342773438 26.941326141357421875 26.932773590087890625 26.922412872314453125 26.909776687622070312 26.895076751708984375 26.87772369384765625 26.858058929443359375 26.835353851318359375 26.8101043701171875 26.781530380249023438 26.750616073608398438 26.739231109619140625 26.772974014282226562 26.73553466796875 26.688489913940429688 26.636747360229492188 26.582601547241210938 26.52579498291015625 26.46921539306640625 26.412599563598632812 26.358654022216796875 26.306354522705078125 26.25403594970703125 26.179424285888671875 26.107664108276367188 26.031951904296875 25.949310302734375 25.8592529296875 25.768314361572265625 25.677997589111328125 25.594940185546875 25.52056884765625 25.458539962768554688 25.40643310546875 25.3645172119140625 25.330417633056640625 25.303911209106445312 25.283197402954101562 25.268110275268554688 25.257635116577148438 25.251476287841796875 25.248880386352539062 25.249387741088867188 25.252803802490234375 25.259067535400390625 25.26850128173828125 25.280912399291992188 25.296838760375976562 25.316194534301757812 25.340625762939453125 25.370594024658203125 25.408346176147460938 25.453929901123046875 25.509664535522460938 25.5728912353515625 25.643075942993164062 25.715358734130859375 25.789215087890625 25.859716415405273438 25.926736831665039062 25.98673248291015625 26.04030609130859375 26.084611892700195312 26.119792938232421875 26.143890380859375 26.158021926879882812 26.163066864013671875 26.160684585571289062 26.15239715576171875 26.139387130737304688 26.122880935668945312 26.102304458618164062 26.07791900634765625 26.048585891723632812 26.014827728271484375 25.975490570068359375 25.93253326416015625 25.886049270629882812 25.83890533447265625 25.791139602661132812 25.745555877685546875 25.701168060302734375 25.658407211303710938 25.614597320556640625 25.569728851318359375 25.521078109741210938 25.46903228759765625 25.411798477172851562 25.35137176513671875 25.28631591796875 25.21891021728515625 25.14756011962890625 25.07511138916015625 25.000574111938476562 24.927410125732421875 24.854711532592773438 24.785869598388671875 24.71950531005859375 24.656757354736328125 24.594036102294921875 24.531421661376953125 24.465301513671875 24.396085739135742188 24.322132110595703125 24.247951507568359375 24.17435455322265625 24.106382369995117188 24.0449066162109375 23.993480682373046875 23.949392318725585938 23.911485671997070312 23.875944137573242188 23.841176986694335938 23.803852081298828125 23.764278411865234375 23.72243499755859375 23.6808013916015625 23.639635086059570312 23.60138702392578125 23.565532684326171875 23.531904220581054688 23.497615814208984375 23.461578369140625 23.420881271362304688 23.374872207641601562 23.32254791259765625 23.266859054565429688 23.208461761474609375 23.150800704956054688 23.09435272216796875 23.041584014892578125 22.990327835083007812 22.940382003784179688 22.888946533203125 22.8357086181640625 22.7781219482421875 22.717252731323242188 22.652402877807617188 22.585834503173828125 22.516855239868164062 22.447834014892578125 22.377956390380859375 22.309473037719726562 22.241436004638671875 22.176013946533203125 22.11231231689453125 22.051784515380859375 21.990808486938476562 21.926708221435546875 21.854047775268554688 21.769918441772460938 21.669038772583007812 21.552022933959960938 21.420457839965820312 21.28153228759765625 21.13770294189453125 20.996599197387695312 20.858448028564453125 20.72234344482421875 20.57778167724609375 20.418609619140625 20.233966827392578125 20.018693923950195312 19.769435882568359375 19.499063491821289062 19.215871810913085938 18.936727523803710938 18.669080734252929688 18.426605224609375 18.203184127807617188 17.995195388793945312 17.790666580200195312 17.584383010864257812 17.366039276123046875 17.137714385986328125 16.904226303100585938 16.678644180297851562 16.46747589111328125 16.283977508544921875 16.13140869140625 16.011089324951171875 15.91417694091796875 15.836009025573730469 15.768390655517578125 15.706151008605957031 15.644560813903808594 15.583147048950195312 15.520715713500976562 15.457285881042480469 15.39178466796875 15.324669837951660156 15.256429672241210938 15.189190864562988281 15.123940467834472656 15.062897682189941406 15.006760597229003906 14.956089019775390625 14.908892631530761719 14.863880157470703125 14.819004058837890625 14.772820472717285156 
29.6952056884765625 29.693159103393554688 29.703580856323242188 29.75121307373046875 29.91606903076171875 29.882955551147460938 29.702665328979492188 29.718683242797851562 29.831018447875976562 30.00449371337890625 30.080280303955078125 30.02033233642578125 29.952550888061523438 29.943996429443359375 29.976716995239257812 30.082218170166015625 29.981746673583984375 29.808950424194335938 30.348119735717773438 31.52117919921875 31.408895492553710938 30.766633987426757812 30.43437957763671875 30.368837356567382812 30.550958633422851562 30.550304412841796875 30.346649169921875 30.5117340087890625 31.306215286254882812 31.420085906982421875 30.69846343994140625 30.578840255737304688 30.629529953002929688 30.540035247802734375 30.45189666748046875 30.396314620971679688 30.374933242797851562 30.366664886474609375 30.34600830078125 30.342168807983398438 30.346408843994140625 30.36773681640625 30.407182693481445312 30.447778701782226562 30.505619049072265625 30.574575424194335938 30.645946502685546875 30.726243972778320312 30.762054443359375 30.820253372192382812 30.884124755859375 30.934131622314453125 30.968484878540039062 31.00286865234375 31.050291061401367188 31.096036911010742188 31.133581161499023438 31.1953582763671875 31.317539215087890625 31.49890899658203125 31.6621856689453125 31.726922988891601562 31.567138671875 31.975076675415039062 33.234256744384765625 34.35986328125 35.11481475830078125 35.357524871826171875 35.4038848876953125 35.265369415283203125 35.04734039306640625 34.68105316162109375 34.8853607177734375 35.151004791259765625 34.82759857177734375 34.020961761474609375 33.38818359375 33.06585693359375 32.802555084228515625 32.5527496337890625 32.394207000732421875 32.34703826904296875 32.356861114501953125 32.390720367431640625 32.31018829345703125 32.067913055419921875 31.821498870849609375 31.690370559692382812 31.623065948486328125 31.515455245971679688 31.2544708251953125 30.933109283447265625 30.6233673095703125 30.301382064819335938 29.904796600341796875 29.490030288696289062 28.880598068237304688 28.230356216430664062 27.563623428344726562 27.022989273071289062 26.914499282836914062 26.907583236694335938 26.8988037109375 26.88826751708984375 26.87551116943359375 26.860752105712890625 26.8433990478515625 26.823804855346679688 26.801244735717773438 26.776212692260742188 26.747938156127929688 26.717397689819335938 26.762516021728515625 26.993602752685546875 26.966766357421875 26.899608612060546875 26.819414138793945312 26.730794906616210938 26.63538360595703125 26.540166854858398438 26.446878433227539062 26.361864089965820312 26.2840576171875 26.21303558349609375 26.142164230346679688 26.07183837890625 25.996751785278320312 25.91693878173828125 25.83154296875 25.746295928955078125 25.662187576293945312 25.585004806518554688 25.515726089477539062 25.457668304443359375 25.408742904663085938 25.36945343017578125 25.33782958984375 25.313882827758789062 25.296083450317382812 25.284084320068359375 25.27672576904296875 25.27337646484375 25.273126602172851562 25.275232315063476562 25.279451370239257812 25.285732269287109375 25.294450759887695312 25.305494308471679688 25.319417953491210938 25.336336135864257812 25.358118057250976562 25.385663986206054688 25.42151641845703125 25.466146469116210938 25.522138595581054688 25.5868072509765625 25.659368515014648438 25.73455810546875 25.8115997314453125 25.885137557983398438 25.954833984375 26.016824722290039062 26.07155609130859375 26.115932464599609375 26.149881362915039062 26.171354293823242188 26.181615829467773438 26.18215179443359375 26.175024032592773438 26.162424087524414062 26.145917892456054688 26.127107620239257812 26.105203628540039062 26.080259323120117188 26.050848007202148438 26.017232894897460938 25.978036880493164062 25.935121536254882812 25.888584136962890625 25.841306686401367188 25.793336868286132812 25.747503280639648438 25.702905654907226562 25.66016387939453125 25.6168212890625 25.573068618774414062 25.52642822265625 25.477296829223632812 25.42357635498046875 25.366504669189453125 25.304040908813476562 25.237695693969726562 25.16529083251953125 25.089597702026367188 25.010168075561523438 24.931377410888671875 24.852960586547851562 24.779262542724609375 24.709344863891601562 24.644529342651367188 24.580900192260742188 24.518312454223632812 24.452863693237304688 24.38470458984375 24.312036514282226562 24.239252090454101562 24.167148590087890625 24.100664138793945312 24.04065704345703125 23.990589141845703125 23.947759628295898438 23.910947799682617188 23.8763580322265625 23.842344284057617188 23.805582046508789062 23.766357421875 23.72467041015625 23.683008193969726562 23.641641616821289062 23.603038787841796875 23.566698074340820312 23.53252410888671875 23.497707366943359375 23.46125030517578125 23.420309066772460938 23.374307632446289062 23.322217941284179688 23.266895294189453125 23.208892822265625 23.151536941528320312 23.09520721435546875 23.042371749877929688 22.991046905517578125 22.941316604614257812 22.890653610229492188 22.839008331298828125 22.784038543701171875 22.726531982421875 22.66527557373046875 22.60181427001953125 22.534908294677734375 22.466243743896484375 22.394802093505859375 22.323169708251953125 22.250940322875976562 22.1809234619140625 22.112705230712890625 22.04830169677734375 21.983966827392578125 21.916748046875 21.840719223022460938 21.752618789672851562 21.646722793579101562 21.523679733276367188 21.3854827880859375 21.24010467529296875 21.09055328369140625 20.945261001586914062 20.804830551147460938 20.668365478515625 20.524808883666992188 20.36750030517578125 20.185049057006835938 19.971746444702148438 19.72393035888671875 19.454296112060546875 19.171112060546875 18.891153335571289062 18.621831893920898438 18.376855850219726562 18.15045166015625 17.939573287963867188 17.732751846313476562 17.525390625 17.30762481689453125 17.081584930419921875 16.85149383544921875 16.629667282104492188 16.421930313110351562 16.240749359130859375 16.088977813720703125 15.968044281005859375 15.869663238525390625 15.789710044860839844 15.72052001953125 15.6574554443359375 15.595958709716796875 15.535450935363769531 15.474526405334472656 15.413005828857421875 15.349622726440429688 15.284673690795898438 15.218660354614257812 15.153749465942382812 15.091002464294433594 15.032696723937988281 14.979578018188476562 14.932124137878417969 14.888176918029785156 14.846215248107910156 14.804006576538085938 14.759874343872070312 
29.6781005859375 29.633464813232421875 29.6021575927734375 29.753620147705078125 29.928693771362304688 29.811288833618164062 29.694658279418945312 29.758390426635742188 29.901645660400390625 30.091579437255859375 30.107421875 30.023151397705078125 29.960176467895507812 29.957958221435546875 30.04865264892578125 30.107622146606445312 29.91992950439453125 29.843904495239257812 30.641920089721679688 31.797679901123046875 31.108423233032226562 30.500352859497070312 30.393613815307617188 30.377218246459960938 30.431331634521484375 30.3582305908203125 30.42699432373046875 31.166896820068359375 31.485067367553710938 30.696962356567382812 30.496368408203125 30.65135955810546875 30.575788497924804688 30.488819122314453125 30.4403533935546875 30.4075927734375 30.395854949951171875 30.389923095703125 30.379880905151367188 30.385345458984375 30.398080825805664062 30.408740997314453125 30.431072235107421875 30.454587936401367188 30.489673614501953125 30.539190292358398438 30.630750656127929688 30.746936798095703125 30.812242507934570312 30.8616180419921875 30.910570144653320312 30.963117599487304688 30.996858596801757812 31.030254364013671875 31.06638336181640625 31.10364532470703125 31.143421173095703125 31.200847625732421875 31.354124069213867188 31.581634521484375 31.667673110961914062 31.634340286254882812 31.50888824462890625 32.120845794677734375 33.4606475830078125 34.561405181884765625 35.241870880126953125 35.3869781494140625 35.237957000732421875 34.98333740234375 34.92142486572265625 34.82918548583984375 35.115444183349609375 35.18024444580078125 34.65834808349609375 33.75234222412109375 33.2508697509765625 32.964244842529296875 32.718593597412109375 32.496601104736328125 32.37081146240234375 32.3397674560546875 32.350650787353515625 32.38161468505859375 32.26953125 32.01010894775390625 31.785167694091796875 31.676614761352539062 31.60237884521484375 31.467233657836914062 31.159795761108398438 30.814462661743164062 30.514293670654296875 30.153375625610351562 29.768442153930664062 29.32877349853515625 28.730377197265625 28.119703292846679688 27.49263763427734375 26.983295440673828125 26.88053131103515625 26.873334884643554688 26.86431884765625 26.853603363037109375 26.840723037719726562 26.825899124145507812 26.808553695678710938 26.789035797119140625 26.766628265380859375 26.741827011108398438 26.71387481689453125 26.683732986450195312 26.745805740356445312 27.036327362060546875 27.015245437622070312 26.944202423095703125 26.856763839721679688 26.758274078369140625 26.651147842407226562 26.5438232421875 26.438848495483398438 26.343969345092773438 26.25830841064453125 26.181789398193359375 26.10892486572265625 26.038431167602539062 25.96494293212890625 25.888555526733398438 25.808111190795898438 25.728618621826171875 25.650648117065429688 25.579227447509765625 25.514965057373046875 25.46085357666015625 25.41510009765625 25.378368377685546875 25.349029541015625 25.327274322509765625 25.3118133544921875 25.30217742919921875 25.297138214111328125 25.295850753784179688 25.2973175048828125 25.300609588623046875 25.30545806884765625 25.311811447143554688 25.320064544677734375 25.330148696899414062 25.342618942260742188 25.357736587524414062 25.3775634765625 25.40335845947265625 25.43792724609375 25.4820709228515625 25.538621902465820312 25.604829788208007812 25.6796875 25.75754547119140625 25.8373870849609375 25.913461685180664062 25.98523712158203125 26.048597335815429688 26.103853225708007812 26.147739410400390625 26.179996490478515625 26.19854736328125 26.204792022705078125 26.200792312622070312 26.188976287841796875 26.172168731689453125 26.15228271484375 26.13126373291015625 26.108110427856445312 26.082653045654296875 26.053174972534179688 26.019678115844726562 25.980556488037109375 25.937582015991210938 25.890865325927734375 25.843313217163085938 25.794992446899414062 25.748773574829101562 25.70383453369140625 25.660978317260742188 25.617944717407226562 25.5751190185546875 25.530242919921875 25.483728408813476562 25.433202743530273438 25.379209518432617188 25.31916046142578125 25.253862380981445312 25.18060302734375 25.102083206176757812 25.018321990966796875 24.93450927734375 24.850950241088867188 24.772830963134765625 24.699617385864257812 24.632814407348632812 24.568258285522460938 24.505643844604492188 24.44085693359375 24.373838424682617188 24.302656173706054688 24.231546401977539062 24.161235809326171875 24.096498489379882812 24.03813934326171875 23.989480972290039062 23.947839736938476562 23.91196441650390625 23.878087997436523438 23.844552993774414062 23.80805206298828125 23.768877029418945312 23.727054595947265625 23.685094833374023438 23.64328765869140625 23.604137420654296875 23.567167282104492188 23.532384872436523438 23.497058868408203125 23.460306167602539062 23.419376373291015625 23.373769760131835938 23.322412490844726562 23.267972946166992188 23.210836410522460938 23.15411376953125 23.098031997680664062 23.044994354248046875 22.993261337280273438 22.943256378173828125 22.892786026000976562 22.84215545654296875 22.789264678955078125 22.734676361083984375 22.676660537719726562 22.616069793701171875 22.551111221313476562 22.482809066772460938 22.409915924072265625 22.33530426025390625 22.259033203125 22.18448638916015625 22.111667633056640625 22.043094635009765625 21.974931716918945312 21.904026031494140625 21.824047088623046875 21.731473922729492188 21.620210647583007812 21.490978240966796875 21.346117019653320312 21.194305419921875 21.039011001586914062 20.88939666748046875 20.746372222900390625 20.60904693603515625 20.465852737426757812 20.309661865234375 20.128591537475585938 19.916440963745117188 19.6692657470703125 19.39965057373046875 19.1158599853515625 18.834644317626953125 18.563398361206054688 18.315935134887695312 18.086849212646484375 17.873735427856445312 17.665681838989257812 17.458753585815429688 17.243555068969726562 17.022192001342773438 16.798069000244140625 16.582456588745117188 16.3802642822265625 16.202859878540039062 16.05255126953125 15.930881500244140625 15.830310821533203125 15.747410774230957031 15.675227165222167969 15.609831809997558594 15.546941757202148438 15.485987663269042969 15.425395965576171875 15.364888191223144531 15.303046226501464844 15.240076065063476562 15.176410675048828125 15.114175796508789062 15.054404258728027344 14.999324798583984375 14.949649810791015625 14.905725479125976562 14.865240097045898438 14.826450347900390625 14.786970138549804688 14.744894981384277344 
29.665378570556640625 29.5823211669921875 29.534761428833007812 29.769947052001953125 29.942676544189453125 29.798585891723632812 29.724565505981445312 29.796779632568359375 29.948911666870117188 30.127649307250976562 30.103868484497070312 30.0308380126953125 29.99523162841796875 30.018939971923828125 30.110094070434570312 30.063051223754882812 29.813526153564453125 29.926862716674804688 30.918918609619140625 31.832784652709960938 30.989122390747070312 30.4288330078125 30.494659423828125 30.500812530517578125 30.366123199462890625 30.405841827392578125 30.973794937133789062 31.5249176025390625 30.871623992919921875 30.46851348876953125 30.629251480102539062 30.613658905029296875 30.516714096069335938 30.470178604125976562 30.434274673461914062 30.41159820556640625 30.403255462646484375 30.4006195068359375 30.403280258178710938 30.423021316528320312 30.439359664916992188 30.432756423950195312 30.433160781860351562 30.45191192626953125 30.4974822998046875 30.5608367919921875 30.660882949829101562 30.835269927978515625 30.933820724487304688 30.976118087768554688 30.98267364501953125 31.004472732543945312 31.046319961547851562 31.074672698974609375 31.107208251953125 31.123760223388671875 31.167249679565429688 31.238407135009765625 31.365915298461914062 31.603984832763671875 31.642015457153320312 31.509668350219726562 31.480808258056640625 32.3316650390625 33.733783721923828125 34.8573760986328125 35.378635406494140625 35.333953857421875 35.076801300048828125 34.80052947998046875 34.780517578125 35.0673828125 35.40293121337890625 35.029117584228515625 34.197063446044921875 33.54021453857421875 33.14226531982421875 32.873836517333984375 32.648883819580078125 32.4447174072265625 32.343936920166015625 32.326862335205078125 32.343395233154296875 32.34406280517578125 32.189556121826171875 31.942174911499023438 31.746789932250976562 31.643798828125 31.572835922241210938 31.395092010498046875 31.055568695068359375 30.701244354248046875 30.4014129638671875 30.009273529052734375 29.622714996337890625 29.161863327026367188 28.596948623657226562 28.0203094482421875 27.426973342895507812 26.944385528564453125 26.846483230590820312 26.83899688720703125 26.829738616943359375 26.818838119506835938 26.805830001831054688 26.790945053100585938 26.773607254028320312 26.754169464111328125 26.73192596435546875 26.707370758056640625 26.679754257202148438 26.650030136108398438 26.724870681762695312 27.058343887329101562 27.040292739868164062 26.96558380126953125 26.872280120849609375 26.766338348388671875 26.650730133056640625 26.534938812255859375 26.422109603881835938 26.320949554443359375 26.230817794799804688 26.151739120483398438 26.078083038330078125 26.008457183837890625 25.937425613403320312 25.864820480346679688 25.789266586303710938 25.715200424194335938 25.642923355102539062 25.576868057250976562 25.51740264892578125 25.467227935791015625 25.424749374389648438 25.390687942504882812 25.363636016845703125 25.343868255615234375 25.330247879028320312 25.322275161743164062 25.318738937377929688 25.31871795654296875 25.321214675903320312 25.32524871826171875 25.33054351806640625 25.337024688720703125 25.345081329345703125 25.354642868041992188 25.366241455078125 25.38022613525390625 25.398815155029296875 25.423549652099609375 25.45745086669921875 25.501588821411132812 25.558986663818359375 25.6268157958984375 25.703844070434570312 25.784053802490234375 25.866191864013671875 25.944139480590820312 26.017181396484375 26.081041336059570312 26.135972976684570312 26.178638458251953125 26.208667755126953125 26.224031448364257812 26.22624969482421875 26.217899322509765625 26.20169830322265625 26.181026458740234375 26.1580810546875 26.13509368896484375 26.110858917236328125 26.084997177124023438 26.055517196655273438 26.022167205810546875 25.983127593994140625 25.94008636474609375 25.893157958984375 25.845279693603515625 25.796527862548828125 25.749814987182617188 25.704380035400390625 25.661191940307617188 25.618154525756835938 25.575824737548828125 25.53212738037109375 25.487506866455078125 25.4393768310546875 25.387735366821289062 25.329568862915039062 25.265132904052734375 25.191297531127929688 25.110689163208007812 25.023687362670898438 24.936090469360351562 24.848630905151367188 24.7671356201171875 24.691379547119140625 24.623025894165039062 24.557744979858398438 24.495141983032226562 24.430967330932617188 24.365024566650390625 24.29528045654296875 24.225803375244140625 24.157238006591796875 24.09418487548828125 24.037363052368164062 23.989955902099609375 23.949298858642578125 23.91411590576171875 23.880685806274414062 23.847347259521484375 23.810821533203125 23.771419525146484375 23.729198455810546875 23.686710357666015625 23.644266128540039062 23.604413986206054688 23.566720962524414062 23.53131103515625 23.495553970336914062 23.458707809448242188 23.418130874633789062 23.373411178588867188 23.323390960693359375 23.2704620361328125 23.214750289916992188 23.159046173095703125 23.103334426879882812 23.049907684326171875 22.997297286987304688 22.946336746215820312 22.89522552490234375 22.844696044921875 22.792949676513671875 22.740406036376953125 22.6848602294921875 22.626556396484375 22.563196182250976562 22.495210647583007812 22.421113967895507812 22.343967437744140625 22.264158248901367188 22.185497283935546875 22.108272552490234375 22.035390853881835938 21.962968826293945312 21.887790679931640625 21.803256988525390625 21.705753326416015625 21.588932037353515625 21.453645706176757812 21.302461624145507812 21.144620895385742188 20.983898162841796875 20.830020904541015625 20.684099197387695312 20.545251846313476562 20.401477813720703125 20.245296478271484375 20.064411163330078125 19.852243423461914062 19.604625701904296875 19.334115982055664062 19.049015045166015625 18.76612091064453125 18.492853164672851562 18.243188858032226562 18.012119293212890625 17.79787445068359375 17.590106964111328125 17.38555908203125 17.175298690795898438 16.961277008056640625 16.745880126953125 16.539035797119140625 16.344507217407226562 16.172266006469726562 16.023946762084960938 15.901247024536132812 15.797603607177734375 15.710498809814453125 15.633904457092285156 15.564818382263183594 15.49933624267578125 15.436942100524902344 15.375876426696777344 15.3157806396484375 15.255083084106445312 15.193882942199707031 15.132498741149902344 15.0729522705078125 15.01618194580078125 14.96429443359375 14.917916297912597656 14.877245903015136719 14.83985137939453125 14.803807258605957031 14.766614913940429688 14.726182937622070312 
29.655076980590820312 29.560747146606445312 29.558683395385742188 29.835760116577148438 29.946735382080078125 29.806013107299804688 29.764490127563476562 29.855846405029296875 30.006649017333984375 30.1426544189453125 30.095247268676757812 30.030300140380859375 30.025669097900390625 30.089216232299804688 30.113758087158203125 29.93837738037109375 29.809537887573242188 30.236150741577148438 31.225419998168945312 31.44110870361328125 30.701557159423828125 30.369203567504882812 30.492290496826171875 30.495283126831054688 30.424730300903320312 30.834255218505859375 31.5046539306640625 31.016937255859375 30.438823699951171875 30.610261917114257812 30.635225296020507812 30.539073944091796875 30.480449676513671875 30.447154998779296875 30.422178268432617188 30.419221878051757812 30.414430618286132812 30.400798797607421875 30.408796310424804688 30.424863815307617188 30.426252365112304688 30.406871795654296875 30.407819747924804688 30.443964004516601562 30.5125274658203125 30.607212066650390625 30.733880996704101562 30.854862213134765625 30.938571929931640625 31.00487518310546875 31.030748367309570312 31.055601119995117188 31.105836868286132812 31.119535446166992188 31.139062881469726562 31.157901763916015625 31.2178802490234375 31.310220718383789062 31.415920257568359375 31.589946746826171875 31.6483154296875 31.54953765869140625 31.538362503051757812 32.6099853515625 34.10237884521484375 35.092243194580078125 35.36316680908203125 35.237125396728515625 34.94602203369140625 34.74698638916015625 34.802745819091796875 35.192058563232421875 35.4024658203125 35.03328704833984375 34.002223968505859375 33.37517547607421875 33.06606292724609375 32.817600250244140625 32.596500396728515625 32.406375885009765625 32.32147216796875 32.3174896240234375 32.35587310791015625 32.3385467529296875 32.12610626220703125 31.883586883544921875 31.726593017578125 31.657110214233398438 31.559698104858398438 31.308685302734375 30.950838088989257812 30.609050750732421875 30.2775726318359375 29.855121612548828125 29.468488693237304688 29.016580581665039062 28.478261947631835938 27.930509567260742188 27.365766525268554688 26.905893325805664062 26.812078475952148438 26.804290771484375 26.7947845458984375 26.78369140625 26.770551681518554688 26.755603790283203125 26.738277435302734375 26.718927383422851562 26.696857452392578125 26.672557830810546875 26.645294189453125 26.616010665893554688 26.7024383544921875 27.073892593383789062 27.0565643310546875 26.976861953735351562 26.87726593017578125 26.7643280029296875 26.64141082763671875 26.518802642822265625 26.400083541870117188 26.2946624755859375 26.202056884765625 26.122226715087890625 26.0493316650390625 25.981733322143554688 25.91385650634765625 25.84522247314453125 25.774328231811523438 25.7052154541015625 25.638067245483398438 25.576913833618164062 25.5220184326171875 25.47582244873046875 25.436834335327148438 25.405698776245117188 25.381101608276367188 25.363271713256835938 25.351163864135742188 25.344297409057617188 25.341577529907226562 25.34214019775390625 25.3450927734375 25.3495025634765625 25.355129241943359375 25.361846923828125 25.370008468627929688 25.379491806030273438 25.390783309936523438 25.404260635375976562 25.422275543212890625 25.446569442749023438 25.480358123779296875 25.524898529052734375 25.58338165283203125 25.652866363525390625 25.731901168823242188 25.814105987548828125 25.897979736328125 25.977067947387695312 26.050479888916015625 26.1138916015625 26.167558670043945312 26.208208084106445312 26.23543548583984375 26.24735260009765625 26.245578765869140625 26.233129501342773438 26.212932586669921875 26.188817977905273438 26.163202285766601562 26.138538360595703125 26.113435745239257812 26.087316513061523438 26.057947158813476562 26.024854660034179688 25.986021041870117188 25.943040847778320312 25.89601898193359375 25.847887039184570312 25.798715591430664062 25.751424789428710938 25.705297470092773438 25.661458969116210938 25.617948532104492188 25.575490951538085938 25.532169342041015625 25.488492965698242188 25.441722869873046875 25.391511917114257812 25.334545135498046875 25.270702362060546875 25.19657135009765625 25.114709854125976562 25.025726318359375 24.935794830322265625 24.845926284790039062 24.762340545654296875 24.685014724731445312 24.61572265625 24.550054550170898438 24.487569808959960938 24.42395782470703125 24.35894775390625 24.290439605712890625 24.2223663330078125 24.155286788940429688 24.093641281127929688 24.03807830810546875 23.991655349731445312 23.95171356201171875 23.916973114013671875 23.883737564086914062 23.850355148315429688 23.813570022583007812 23.77371978759765625 23.730894088745117188 23.687694549560546875 23.644451141357421875 23.603780746459960938 23.565286636352539062 23.529239654541015625 23.493127822875976562 23.456373214721679688 23.416469573974609375 23.373098373413085938 23.324991226196289062 23.274156570434570312 23.220392227172851562 23.16605377197265625 23.110809326171875 23.056776046752929688 23.002782821655273438 22.95014190673828125 22.897493362426757812 22.846080780029296875 22.794435501098632812 22.742940902709960938 22.688968658447265625 22.63225555419921875 22.57006072998046875 22.50231170654296875 22.427282333374023438 22.34810638427734375 22.265352249145507812 22.18308258056640625 22.101726531982421875 22.024454116821289062 21.94736480712890625 21.867334365844726562 21.777647018432617188 21.674776077270507812 21.5522613525390625 21.411142349243164062 21.254087448120117188 21.09072113037109375 20.924968719482421875 20.766925811767578125 20.617794036865234375 20.476705551147460938 20.3313446044921875 20.174007415771484375 19.992097854614257812 19.778804779052734375 19.529798507690429688 19.257678985595703125 18.97078704833984375 18.686017990112304688 18.410829544067382812 18.159395217895507812 17.927110671997070312 17.712854385375976562 17.506856918334960938 17.306529998779296875 17.103425979614257812 16.8992156982421875 16.695085525512695312 16.499334335327148438 16.314390182495117188 16.148527145385742188 16.002611160278320312 15.878544807434082031 15.770976066589355469 15.678524017333984375 15.596302032470703125 15.522458076477050781 15.453556060791015625 15.389123916625976562 15.327157974243164062 15.267179489135742188 15.207409858703613281 15.147801399230957031 15.088520050048828125 15.0314483642578125 14.977393150329589844 14.92832183837890625 14.884738922119140625 14.846698760986328125 14.811696052551269531 14.777673721313476562 14.742058753967285156 14.70263671875 
29.644159317016601562 29.541063308715820312 29.578748703002929688 29.872884750366210938 29.926830291748046875 29.787214279174804688 29.775484085083007812 29.90648651123046875 30.067874908447265625 30.153743743896484375 30.078891754150390625 30.029094696044921875 30.045139312744140625 30.08858489990234375 29.999181747436523438 29.845312118530273438 30.152864456176757812 30.9876861572265625 31.38191986083984375 30.833745956420898438 30.335733413696289062 30.173208236694335938 30.198568344116210938 30.351594924926757812 30.733743667602539062 31.476217269897460938 31.20688629150390625 30.477558135986328125 30.55625152587890625 30.669376373291015625 30.562746047973632812 30.494464874267578125 30.457773208618164062 30.421438217163085938 30.406047821044921875 30.421600341796875 30.4241485595703125 30.407823562622070312 30.416576385498046875 30.418787002563476562 30.391542434692382812 30.372270584106445312 30.383180618286132812 30.437334060668945312 30.527202606201171875 30.681400299072265625 30.807674407958984375 30.866672515869140625 30.928304672241210938 30.99384307861328125 31.030599594116210938 31.067251205444335938 31.131002426147460938 31.1631317138671875 31.153421401977539062 31.194728851318359375 31.309156417846679688 31.397989273071289062 31.495319366455078125 31.611957550048828125 31.593057632446289062 31.493457794189453125 31.647607803344726562 32.995082855224609375 34.495616912841796875 35.184810638427734375 35.2831878662109375 35.089366912841796875 34.78847503662109375 34.683536529541015625 34.822383880615234375 35.24146270751953125 35.17226409912109375 34.748607635498046875 33.807231903076171875 33.266139984130859375 32.9935760498046875 32.757663726806640625 32.551113128662109375 32.38475799560546875 32.316928863525390625 32.327510833740234375 32.3718719482421875 32.306610107421875 32.06078338623046875 31.83524322509765625 31.730304718017578125 31.676021575927734375 31.510677337646484375 31.205686569213867188 30.843622207641601562 30.526096343994140625 30.139917373657226562 29.705884933471679688 29.331926345825195312 28.892467498779296875 28.3758544921875 27.8514251708984375 27.309892654418945312 26.868364334106445312 26.777790069580078125 26.769697189331054688 26.7599334716796875 26.748643875122070312 26.735372543334960938 26.720363616943359375 26.703050613403320312 26.691179275512695312 26.678838729858398438 26.654827117919921875 26.627849578857421875 26.598794937133789062 26.690729141235351562 27.082672119140625 27.06351470947265625 26.977880477905273438 26.8719329833984375 26.7527618408203125 26.62395477294921875 26.49634552001953125 26.373777389526367188 26.266101837158203125 26.1728973388671875 26.093921661376953125 26.023097991943359375 25.958446502685546875 25.8942108154296875 25.829565048217773438 25.762971878051757812 25.6982421875 25.63558197021484375 25.57878875732421875 25.528148651123046875 25.48587799072265625 25.45050048828125 25.422466278076171875 25.400449752807617188 25.384515762329101562 25.3736419677734375 25.367433547973632812 25.364990234375 25.365625381469726562 25.368631362915039062 25.373235702514648438 25.37924957275390625 25.386468887329101562 25.395172119140625 25.40514373779296875 25.416795730590820312 25.430469512939453125 25.448612213134765625 25.4730987548828125 25.50728607177734375 25.55255889892578125 25.612224578857421875 25.68321990966796875 25.763885498046875 25.847520828247070312 25.932384490966796875 26.011728286743164062 26.084506988525390625 26.14646148681640625 26.197916030883789062 26.235780715942382812 26.259687423706054688 26.267978668212890625 26.262350082397460938 26.246160507202148438 26.222461700439453125 26.195425033569335938 26.167596817016601562 26.141595840454101562 26.115877151489257812 26.089704513549804688 26.060655593872070312 26.028066635131835938 25.98976898193359375 25.947221755981445312 25.90047454833984375 25.852380752563476562 25.802936553955078125 25.755016326904296875 25.707910537719726562 25.6629180908203125 25.618227005004882812 25.574785232543945312 25.53082275390625 25.48699188232421875 25.440479278564453125 25.390745162963867188 25.334280014038085938 25.270755767822265625 25.196580886840820312 25.1142578125 25.024484634399414062 24.933610916137695312 24.842767715454101562 24.75835418701171875 24.680437088012695312 24.6108551025390625 24.5451812744140625 24.48296356201171875 24.419889450073242188 24.35565948486328125 24.28814697265625 24.221172332763671875 24.155231475830078125 24.094646453857421875 24.04000091552734375 23.99425506591796875 23.954755783081054688 23.920213699340820312 23.886957168579101562 23.853342056274414062 23.816120147705078125 23.775667190551757812 23.732086181640625 23.688043594360351562 23.64388275146484375 23.602285385131835938 23.562900543212890625 23.526153564453125 23.489675521850585938 23.453065872192382812 23.413976669311523438 23.372182846069335938 23.326295852661132812 23.277875900268554688 23.226335525512695312 23.173524856567382812 23.118738174438476562 23.063882827758789062 23.008092880249023438 22.953199386596679688 22.898302078247070312 22.845203399658203125 22.79279327392578125 22.741485595703125 22.688287734985351562 22.63253021240234375 22.571084976196289062 22.503465652465820312 22.427705764770507812 22.346920013427734375 22.261732101440429688 22.17630767822265625 22.091104507446289062 22.009429931640625 21.9274139404296875 21.842138290405273438 21.746904373168945312 21.638414382934570312 21.510213851928710938 21.363569259643554688 21.201145172119140625 21.032781600952148438 20.862400054931640625 20.700311660766601562 20.54769134521484375 20.403728485107421875 20.255939483642578125 20.09656524658203125 19.912858963012695312 19.697940826416015625 19.4473724365234375 19.173757553100585938 18.885396957397460938 18.599199295043945312 18.322595596313476562 18.069890975952148438 17.836912155151367188 17.62325286865234375 17.419795989990234375 17.224681854248046875 17.030010223388671875 16.837131500244140625 16.645900726318359375 16.46279144287109375 16.288740158081054688 16.13013458251953125 15.986980438232421875 15.861413955688476562 15.749459266662597656 15.65100860595703125 15.562472343444824219 15.483296394348144531 15.410558700561523438 15.343812942504882812 15.280752182006835938 15.220733642578125 15.161716461181640625 15.103468894958496094 15.045979499816894531 14.990985870361328125 14.939165115356445312 14.892319679260253906 14.850844383239746094 14.814669609069824219 14.781246185302734375 14.748440742492675781 14.713650703430175781 14.674580574035644531 
29.645694732666015625 29.597955703735351562 29.618268966674804688 29.875835418701171875 29.878269195556640625 29.762325286865234375 29.79894256591796875 29.946355819702148438 30.106700897216796875 30.143781661987304688 30.066915512084960938 30.04933929443359375 30.041604995727539062 29.95970916748046875 29.838348388671875 30.110593795776367188 30.999309539794921875 31.613157272338867188 30.942342758178710938 30.320112228393554688 30.137638092041015625 30.100259780883789062 30.151439666748046875 30.500467300415039062 31.326045989990234375 31.388116836547851562 30.5770111083984375 30.511058807373046875 30.672445297241210938 30.596059799194335938 30.504888534545898438 30.465795516967773438 30.436542510986328125 30.410030364990234375 30.401103973388671875 30.417629241943359375 30.429071426391601562 30.409170150756835938 30.405719757080078125 30.4023590087890625 30.386938095092773438 30.3995819091796875 30.404428482055664062 30.402406692504882812 30.56253814697265625 30.776128768920898438 30.849241256713867188 30.888622283935546875 30.940168380737304688 30.991527557373046875 31.044765472412109375 31.085445404052734375 31.126138687133789062 31.18569183349609375 31.221723556518554688 31.242122650146484375 31.374383926391601562 31.449779510498046875 31.619007110595703125 31.733612060546875 31.583280563354492188 31.440885543823242188 31.778013229370117188 33.26560211181640625 34.68650054931640625 35.15125274658203125 35.154460906982421875 34.84947967529296875 34.5989532470703125 34.55255889892578125 34.822032928466796875 35.3259124755859375 35.066593170166015625 34.402896881103515625 33.578044891357421875 33.179195404052734375 32.933605194091796875 32.71063232421875 32.51145172119140625 32.382732391357421875 32.35176849365234375 32.356388092041015625 32.348941802978515625 32.233463287353515625 31.999744415283203125 31.795682907104492188 31.731580734252929688 31.658754348754882812 31.408754348754882812 31.097085952758789062 30.740856170654296875 30.423913955688476562 29.99169158935546875 29.57762908935546875 29.217082977294921875 28.77685546875 28.28482818603515625 27.781009674072265625 27.258401870727539062 26.831377029418945312 26.7432861328125 26.734874725341796875 26.724847793579101562 26.713357925415039062 26.699951171875 26.684879302978515625 26.667581558227539062 26.80899810791015625 27.056131362915039062 27.043994903564453125 27.015493392944335938 26.981405258178710938 26.987451553344726562 27.114091873168945312 27.062274932861328125 26.970300674438476562 26.858243942260742188 26.733678817749023438 26.60028076171875 26.469211578369140625 26.344451904296875 26.236083984375 26.143672943115234375 26.0666961669921875 25.998842239379882812 25.93773651123046875 25.877424240112304688 25.816728591918945312 25.754144668579101562 25.693361282348632812 25.63470458984375 25.581857681274414062 25.535211563110351562 25.496789932250976562 25.4650726318359375 25.440227508544921875 25.42086029052734375 25.406793594360351562 25.396984100341796875 25.391162872314453125 25.38869476318359375 25.389154434204101562 25.392087936401367188 25.39694976806640625 25.403623580932617188 25.411787033081054688 25.42162322998046875 25.432752609252929688 25.445497512817382812 25.460102081298828125 25.479070663452148438 25.504331588745117188 25.539350509643554688 25.58556365966796875 25.6463623046875 25.718553543090820312 25.800302505493164062 25.884645462036132812 25.96962738037109375 26.048274993896484375 26.119417190551757812 26.178951263427734375 26.227312088012695312 26.261701583862304688 26.281827926635742188 26.286340713500976562 26.276979446411132812 26.257371902465820312 26.230607986450195312 26.201105117797851562 26.17147064208984375 26.144439697265625 26.118350982666015625 26.092359542846679688 26.063922882080078125 26.03223419189453125 25.995014190673828125 25.953533172607421875 25.907693862915039062 25.860147476196289062 25.810726165771484375 25.76214599609375 25.713666915893554688 25.666826248168945312 25.620031356811523438 25.574556350708007812 25.528835296630859375 25.4837799072265625 25.436544418334960938 25.38649749755859375 25.32999420166015625 25.26657867431640625 25.192548751831054688 25.11032867431640625 25.020631790161132812 24.929821014404296875 24.83905792236328125 24.754755020141601562 24.677013397216796875 24.607679367065429688 24.542346954345703125 24.480571746826171875 24.418062210083007812 24.35451507568359375 24.28780364990234375 24.221668243408203125 24.156568527221679688 24.096735000610351562 24.0427093505859375 23.997385025024414062 23.958112716674804688 23.923597335815429688 23.890172958374023438 23.856203079223632812 23.818445205688476562 23.777299880981445312 23.732883453369140625 23.6879119873046875 23.64273834228515625 23.60009765625 23.559686660766601562 23.522092819213867188 23.485101699829101562 23.448507308959960938 23.410127639770507812 23.369855880737304688 23.326162338256835938 23.280145645141601562 23.230804443359375 23.179460525512695312 23.125009536743164062 23.06912994384765625 23.011262893676757812 22.95377349853515625 22.896221160888671875 22.840984344482421875 22.787309646606445312 22.735687255859375 22.682788848876953125 22.627590179443359375 22.56661224365234375 22.499006271362304688 22.422567367553710938 22.340337753295898438 22.252933502197265625 22.164545059204101562 22.075590133666992188 21.98946380615234375 21.902334213256835938 21.811565399169921875 21.71054840087890625 21.596296310424804688 21.462423324584960938 21.310445785522460938 21.1429443359375 20.969873428344726562 20.795053482055664062 20.6288909912109375 20.472486495971679688 20.325155258178710938 20.174394607543945312 20.012578964233398438 19.826961517333984375 19.610767364501953125 19.359464645385742188 19.08550262451171875 18.7969512939453125 18.510503768920898438 18.233377456665039062 17.979846954345703125 17.746236801147460938 17.53299713134765625 17.331834793090820312 17.141788482666015625 16.955654144287109375 16.774518966674804688 16.596807479858398438 16.427057266235351562 16.264608383178710938 16.113826751708984375 15.973787307739257812 15.846861839294433594 15.7305145263671875 15.625971794128417969 15.531005859375 15.446419715881347656 15.36981964111328125 15.300760269165039062 15.236598968505859375 15.176486015319824219 15.118083000183105469 15.060947418212890625 15.004896163940429688 14.951532363891601562 14.9014129638671875 14.85619354248046875 14.816167831420898438 14.781164169311523438 14.748626708984375 14.716374397277832031 14.681802749633789062 14.642573356628417969 
29.671651840209960938 29.630559921264648438 29.647891998291015625 29.896001815795898438 29.8819427490234375 29.769039154052734375 29.805080413818359375 29.942640304565429688 30.11254119873046875 30.137969970703125 30.086421966552734375 30.06235504150390625 29.972179412841796875 29.826444625854492188 30.030229568481445312 30.885801315307617188 31.639955520629882812 31.154193878173828125 30.410793304443359375 30.165210723876953125 30.1190185546875 30.125692367553710938 30.350254058837890625 31.137908935546875 31.460371017456054688 30.727323532104492188 30.504175186157226562 30.688657760620117188 30.617938995361328125 30.521900177001953125 30.466182708740234375 30.441699981689453125 30.42633819580078125 30.417333602905273438 30.414422988891601562 30.42459869384765625 30.428293228149414062 30.398860931396484375 30.379518508911132812 30.371320724487304688 30.390249252319335938 30.450275421142578125 30.4767303466796875 30.426076889038085938 30.619815826416015625 30.791469573974609375 30.839559555053710938 30.893095016479492188 30.943805694580078125 30.987071990966796875 31.043851852416992188 31.100412368774414062 31.144189834594726562 31.226911544799804688 31.280225753784179688 31.311586380004882812 31.417940139770507812 31.50754547119140625 31.770175933837890625 31.858266830444335938 31.629001617431640625 31.468250274658203125 32.272796630859375 33.85291290283203125 34.844058990478515625 35.06981658935546875 34.907711029052734375 34.619136810302734375 34.4394683837890625 34.440006256103515625 34.76753997802734375 35.275634765625 35.012340545654296875 34.15099334716796875 33.402484893798828125 33.08588409423828125 32.88300323486328125 32.681697845458984375 32.477558135986328125 32.387058258056640625 32.3805694580078125 32.370983123779296875 32.326465606689453125 32.175708770751953125 31.947313308715820312 31.75771331787109375 31.717241287231445312 31.595703125 31.293781280517578125 30.990781784057617188 30.631717681884765625 30.298669815063476562 29.854854583740234375 29.48261260986328125 29.111881256103515625 28.678609848022460938 28.208341598510742188 27.721437454223632812 27.212764739990234375 26.79561614990234375 26.7090911865234375 26.700361251831054688 26.690065383911132812 26.678375244140625 26.664831161499023438 26.64969635009765625 26.632415771484375 26.878118515014648438 27.321969985961914062 27.3221435546875 27.291990280151367188 27.2523956298828125 27.200193405151367188 27.135150909423828125 27.053266525268554688 26.955196380615234375 26.837766647338867188 26.708929061889648438 26.572351455688476562 26.439317703247070312 26.313846588134765625 26.206056594848632812 26.1154632568359375 26.041227340698242188 25.976833343505859375 25.919511795043945312 25.863134384155273438 25.806192398071289062 25.74726104736328125 25.689981460571289062 25.634855270385742188 25.585527420043945312 25.542547225952148438 25.5077667236328125 25.479589462280273438 25.457876205444335938 25.441102981567382812 25.428827285766601562 25.4199676513671875 25.414409637451171875 25.41182708740234375 25.412103652954101562 25.41510009765625 25.4205322265625 25.42836761474609375 25.438116073608398438 25.4498443603515625 25.462940216064453125 25.477626800537109375 25.49396514892578125 25.514492034912109375 25.541103363037109375 25.57732391357421875 25.624568939208984375 25.686260223388671875 25.759105682373046875 25.841136932373046875 25.92522430419921875 26.009246826171875 26.08611297607421875 26.1545562744140625 26.210721969604492188 26.255186080932617188 26.285503387451171875 26.301509857177734375 26.302194595336914062 26.289319992065429688 26.266687393188476562 26.237360000610351562 26.205890655517578125 26.174884796142578125 26.147146224975585938 26.120958328247070312 26.095438003540039062 26.068002700805664062 26.037769317626953125 26.002408981323242188 25.962915420532226562 25.918918609619140625 25.872684478759765625 25.823749542236328125 25.774507522583007812 25.724149703979492188 25.674562454223632812 25.62448883056640625 25.575702667236328125 25.526950836181640625 25.479558944702148438 25.430673599243164062 25.379634857177734375 25.32265472412109375 25.259191513061523438 25.18543243408203125 25.103715896606445312 25.014696121215820312 24.924663543701171875 24.834737777709960938 24.75125885009765625 24.674299240112304688 24.605676651000976562 24.54102325439453125 24.479887008666992188 24.418008804321289062 24.355083465576171875 24.288995742797851562 24.223445892333984375 24.158878326416015625 24.099483489990234375 24.045789718627929688 24.000654220581054688 23.96142578125 23.926807403564453125 23.89312744140625 23.85875701904296875 23.820436477661132812 23.778593063354492188 23.73333740234375 23.68741607666015625 23.641172409057617188 23.597385406494140625 23.55577850341796875 23.51711273193359375 23.4793243408203125 23.442417144775390625 23.404378890991210938 23.365230560302734375 23.323314666748046875 23.279296875 23.231769561767578125 23.1815643310546875 23.127187728881835938 23.070108413696289062 23.010053634643554688 22.949888229370117188 22.889608383178710938 22.8321380615234375 22.77706146240234375 22.724943161010742188 22.672140121459960938 22.617298126220703125 22.556606292724609375 22.488874435424804688 22.411670684814453125 22.327968597412109375 22.23834228515625 22.147008895874023438 22.0543212890625 21.963750839233398438 21.871511459350585938 21.775264739990234375 21.668514251708984375 21.548597335815429688 21.409219741821289062 21.252134323120117188 21.079797744750976562 20.902217864990234375 20.723054885864257812 20.55275726318359375 20.39232635498046875 20.241306304931640625 20.087360382080078125 19.923196792602539062 19.73625946044921875 19.520051956176757812 19.2699432373046875 18.997936248779296875 18.7115478515625 18.426866531372070312 18.150594711303710938 17.896692276000976562 17.66207122802734375 17.448259353637695312 17.248046875 17.061647415161132812 16.88277435302734375 16.71240997314453125 16.547548294067382812 16.390777587890625 16.239797592163085938 16.09694671630859375 15.960329055786132812 15.832507133483886719 15.712328910827636719 15.602305412292480469 15.501519203186035156 15.412065505981445312 15.332058906555175781 15.261017799377441406 15.195955276489257812 15.135788917541503906 15.077871322631835938 15.021538734436035156 14.966456413269042969 14.9141387939453125 14.865047454833984375 14.820743560791015625 14.78144073486328125 14.74691009521484375 14.714597702026367188 14.682305335998535156 14.647439002990722656 14.607646942138671875 
29.704980850219726562 29.661443710327148438 29.656553268432617188 29.89471435546875 29.889841079711914062 29.789445877075195312 29.828538894653320312 29.945981979370117188 30.1169281005859375 30.1684112548828125 30.125520706176757812 30.032091140747070312 29.850503921508789062 29.955560684204101562 30.722820281982421875 31.610309600830078125 31.229982376098632812 30.466913223266601562 30.21984100341796875 30.161861419677734375 30.146718978881835938 30.257379531860351562 30.9524688720703125 31.568767547607421875 30.93827056884765625 30.483228683471679688 30.642259597778320312 30.6360321044921875 30.531219482421875 30.47148895263671875 30.44727325439453125 30.427591323852539062 30.42226409912109375 30.424478530883789062 30.4303436279296875 30.432779312133789062 30.426698684692382812 30.405307769775390625 30.387866973876953125 30.37017059326171875 30.391286849975585938 30.4569091796875 30.422449111938476562 30.370641708374023438 30.641567230224609375 30.750375747680664062 30.817853927612304688 30.88758087158203125 30.941564559936523438 30.983798980712890625 31.039461135864257812 31.10700225830078125 31.173311233520507812 31.255231857299804688 31.296024322509765625 31.38320159912109375 31.476886749267578125 31.5401153564453125 31.673990249633789062 31.6927337646484375 31.553243637084960938 31.606304168701171875 33.05789947509765625 34.619869232177734375 35.09848785400390625 35.001453399658203125 34.7100830078125 34.488689422607421875 34.43860626220703125 34.484645843505859375 34.616817474365234375 34.873836517333984375 34.42891693115234375 33.702342987060546875 33.248493194580078125 33 32.833286285400390625 32.647853851318359375 32.43920135498046875 32.390644073486328125 32.392482757568359375 32.366161346435546875 32.2962188720703125 32.107662200927734375 31.881420135498046875 31.718206405639648438 31.682661056518554688 31.511028289794921875 31.20954132080078125 30.891248703002929688 30.551591873168945312 30.183935165405273438 29.75289154052734375 29.404870986938476562 29.022176742553710938 28.603307723999023438 28.1491546630859375 27.67464447021484375 27.1739654541015625 26.76093292236328125 26.674821853637695312 26.665761947631835938 26.655193328857421875 26.643293380737304688 26.629611968994140625 26.614414215087890625 26.5971527099609375 26.856645584106445312 27.325458526611328125 27.327402114868164062 27.295949935913085938 27.253053665161132812 27.195962905883789062 27.125223159790039062 27.037385940551757812 26.933950424194335938 26.812162399291992188 26.680257797241210938 26.541803359985351562 26.40807342529296875 26.28302764892578125 26.176700592041015625 26.088525772094726562 26.017364501953125 25.956552505493164062 25.902975082397460938 25.850366592407226562 25.79694366455078125 25.741369247436523438 25.687280654907226562 25.635356903076171875 25.589246749877929688 25.549657821655273438 25.5182952880859375 25.493474960327148438 25.47475433349609375 25.460475921630859375 25.449930191040039062 25.441997528076171875 25.436740875244140625 25.434169769287109375 25.434507369995117188 25.437955856323242188 25.444505691528320312 25.454217910766601562 25.466375350952148438 25.48090362548828125 25.496896743774414062 25.514453887939453125 25.533382415771484375 25.556211471557617188 25.584720611572265625 25.622446060180664062 25.670709609985351562 25.73291778564453125 25.805706024169921875 25.8870391845703125 25.969747543334960938 26.05159759521484375 26.12551116943359375 26.190166473388671875 26.242033004760742188 26.281829833984375 26.307535171508789062 26.31911468505859375 26.315937042236328125 26.29975128173828125 26.274454116821289062 26.243011474609375 26.210023880004882812 26.178033828735351562 26.14987945556640625 26.12386322021484375 26.0991363525390625 26.073183059692382812 26.045108795166015625 26.01261138916015625 25.97628021240234375 25.935327529907226562 25.891391754150390625 25.843545913696289062 25.793659210205078125 25.740804672241210938 25.687376022338867188 25.6326141357421875 25.579036712646484375 25.52585601806640625 25.475011825561523438 25.423654556274414062 25.371088027954101562 25.313325881958007812 25.249719619750976562 25.176300048828125 25.095281600952148438 25.007246017456054688 24.918361663818359375 24.8296966552734375 24.747467041015625 24.6717071533203125 24.604169845581054688 24.540506362915039062 24.480230331420898438 24.41910552978515625 24.356792449951171875 24.29119873046875 24.226015090942382812 24.161714553833007812 24.10248565673828125 24.0488739013671875 24.0037384033203125 23.964427947998046875 23.929630279541015625 23.895669937133789062 23.860910415649414062 23.82207489013671875 23.779592514038085938 23.73354339599609375 23.686689376831054688 23.639339447021484375 23.594289779663085938 23.55126953125 23.511219024658203125 23.47222137451171875 23.43450164794921875 23.396207809448242188 23.357511520385742188 23.31664276123046875 23.273904800415039062 23.227529525756835938 23.17792510986328125 23.123250961303710938 23.064807891845703125 23.0025634765625 22.939849853515625 22.877042770385742188 22.817564010620117188 22.761287689208984375 22.70882415771484375 22.656200408935546875 22.601734161376953125 22.541263580322265625 22.47325897216796875 22.395063400268554688 22.309612274169921875 22.217489242553710938 22.122972488403320312 22.02639007568359375 21.931329727172851562 21.834043502807617188 21.732458114624023438 21.620149612426757812 21.494754791259765625 21.350030899047851562 21.187946319580078125 21.0108184814453125 20.828693389892578125 20.645074844360351562 20.470434188842773438 20.30570220947265625 20.150783538818359375 19.993703842163085938 19.827724456787109375 19.640676498413085938 19.4265289306640625 19.180507659912109375 18.91375732421875 18.632816314697265625 18.352626800537109375 18.078981399536132812 17.82511138916015625 17.588663101196289062 17.372539520263671875 17.170978546142578125 16.98574066162109375 16.811761856079101562 16.650186538696289062 16.496587753295898438 16.35167694091796875 16.211503982543945312 16.07642364501953125 15.943548202514648438 15.8155517578125 15.692534446716308594 15.578148841857910156 15.472670555114746094 15.3793487548828125 15.296740531921386719 15.224303245544433594 15.1587066650390625 15.098621368408203125 15.0410919189453125 14.985232353210449219 14.93061065673828125 14.878692626953125 14.8299102783203125 14.785784721374511719 14.746500015258789062 14.711809158325195312 14.67916107177734375 14.646359443664550781 14.61081695556640625 14.570189476013183594 
29.730619430541992188 29.669828414916992188 29.681367874145507812 29.897150039672851562 29.885343551635742188 29.827302932739257812 29.883741378784179688 29.9952239990234375 30.1592864990234375 30.20953369140625 30.115224838256835938 29.9209442138671875 29.910253524780273438 30.483549118041992188 31.508005142211914062 31.337017059326171875 30.511753082275390625 30.222734451293945312 30.240678787231445312 30.26947021484375 30.280391693115234375 30.778553009033203125 31.520687103271484375 31.096536636352539062 30.582338333129882812 30.649911880493164062 30.6371002197265625 30.51908111572265625 30.461179733276367188 30.427988052368164062 30.419637680053710938 30.428802490234375 30.43743896484375 30.43621063232421875 30.44130706787109375 30.455289840698242188 30.457487106323242188 30.447904586791992188 30.429866790771484375 30.399211883544921875 30.425846099853515625 30.4548492431640625 30.317274093627929688 30.401393890380859375 30.674207687377929688 30.719455718994140625 30.7954864501953125 30.884019851684570312 30.944803237915039062 30.996847152709960938 31.049777984619140625 31.125186920166015625 31.209859848022460938 31.325603485107421875 31.449460983276367188 31.58679962158203125 31.609598159790039062 31.599206924438476562 31.642080307006835938 31.641510009765625 31.53263092041015625 31.9683074951171875 33.930084228515625 34.962970733642578125 35.09644317626953125 34.915225982666015625 34.513965606689453125 34.268474578857421875 34.350231170654296875 34.748874664306640625 34.741992950439453125 34.5224456787109375 33.94715118408203125 33.44081878662109375 33.147979736328125 32.930816650390625 32.77066802978515625 32.586269378662109375 32.416431427001953125 32.402027130126953125 32.40357208251953125 32.3777008056640625 32.285282135009765625 32.054370880126953125 31.8168792724609375 31.675630569458007812 31.622528076171875 31.429447174072265625 31.135852813720703125 30.805910110473632812 30.481451034545898438 30.078203201293945312 29.6705322265625 29.335977554321289062 28.957822799682617188 28.554433822631835938 28.114233016967773438 27.647665023803710938 27.146596908569335938 26.728595733642578125 26.641054153442382812 26.631664276123046875 26.620819091796875 26.60871124267578125 26.594888687133789062 26.57962799072265625 26.562389373779296875 26.83335113525390625 27.322427749633789062 27.324922561645507812 27.291563034057617188 27.24530792236328125 27.18375396728515625 27.108152389526367188 27.015514373779296875 26.908031463623046875 26.783311843872070312 26.649747848510742188 26.510755538940429688 26.377475738525390625 26.253753662109375 26.149438858032226562 26.063884735107421875 25.995716094970703125 25.938201904296875 25.887975692749023438 25.838708877563476562 25.788415908813476562 25.735857009887695312 25.6846466064453125 25.63562774658203125 25.592428207397460938 25.555902481079101562 25.527620315551757812 25.505826950073242188 25.489820480346679688 25.477834701538085938 25.468929290771484375 25.461971282958984375 25.457201004028320312 25.454980850219726562 25.455852508544921875 25.460386276245117188 25.468814849853515625 25.481304168701171875 25.496839523315429688 25.51519012451171875 25.535085678100585938 25.556484222412109375 25.578866958618164062 25.604719161987304688 25.6356201171875 25.675054550170898438 25.724191665649414062 25.786365509033203125 25.858188629150390625 25.937643051147460938 26.017665863037109375 26.0959930419921875 26.165714263916015625 26.225498199462890625 26.27220916748046875 26.30669403076171875 26.327379226684570312 26.334369659423828125 26.327413558959960938 26.308210372924804688 26.280679702758789062 26.247623443603515625 26.213603973388671875 26.1810455322265625 26.152790069580078125 26.127241134643554688 26.103672027587890625 26.079740524291992188 26.05463409423828125 26.026144027709960938 25.994321823120117188 25.957784652709960938 25.917280197143554688 25.871221542358398438 25.8207244873046875 25.764692306518554688 25.706209182739257812 25.645223617553710938 25.585269927978515625 25.526214599609375 25.470846176147460938 25.416303634643554688 25.361810684204101562 25.303087234497070312 25.239294052124023438 25.166231155395507812 25.085947036743164062 24.998943328857421875 24.911289215087890625 24.82401275634765625 24.74321746826171875 24.668905258178710938 24.602731704711914062 24.540340423583984375 24.4811553955078125 24.420927047729492188 24.359243392944335938 24.294031143188476562 24.229013442993164062 24.164722442626953125 24.105394363403320312 24.051630020141601562 24.006330490112304688 23.966838836669921875 23.931835174560546875 23.897619247436523438 23.862546920776367188 23.823312759399414062 23.780324935913085938 23.733615875244140625 23.6859130859375 23.6374664306640625 23.591058731079101562 23.5464019775390625 23.50460052490234375 23.463876724243164062 23.424688339233398438 23.385318756103515625 23.346124649047851562 23.305246353149414062 23.262739181518554688 23.216552734375 23.1667938232421875 23.111349105834960938 23.051412582397460938 22.987146377563476562 22.922258377075195312 22.85742950439453125 22.796478271484375 22.739513397216796875 22.687120437622070312 22.63498687744140625 22.581056594848632812 22.52081298828125 22.452352523803710938 22.372808456420898438 22.285154342651367188 22.190061569213867188 22.091976165771484375 21.991281509399414062 21.891759872436523438 21.789674758911132812 21.683145523071289062 21.56573486328125 21.43527984619140625 21.285516738891601562 21.118570327758789062 20.936649322509765625 20.749864578247070312 20.5615997314453125 20.382389068603515625 20.213151931762695312 20.054307937622070312 19.89444732666015625 19.727609634399414062 19.542232513427734375 19.332925796508789062 19.094705581665039062 18.837360382080078125 18.565929412841796875 18.293575286865234375 18.024682998657226562 17.771282196044921875 17.531887054443359375 17.311132431030273438 17.105108261108398438 16.917554855346679688 16.744985580444335938 16.589038848876953125 16.443971633911132812 16.308795928955078125 16.177980422973632812 16.050062179565429688 15.921167373657226562 15.793979644775390625 15.669604301452636719 15.552595138549804688 15.444185256958007812 15.348538398742675781 15.264554023742675781 15.191585540771484375 15.125996589660644531 15.066199302673339844 15.00896453857421875 14.953197479248046875 14.898432731628417969 14.846162796020507812 14.796868324279785156 14.752106666564941406 14.712100982666015625 14.676630020141601562 14.643145561218261719 14.609457969665527344 14.572973251342773438 14.531360626220703125 
29.751066207885742188 29.661821365356445312 29.724103927612304688 29.917798995971679688 29.893949508666992188 29.888841629028320312 29.962291717529296875 30.081256866455078125 30.207086563110351562 30.181066513061523438 29.987796783447265625 29.877580642700195312 30.344339370727539062 31.344936370849609375 31.47589874267578125 30.565076828002929688 30.182428359985351562 30.204561233520507812 30.372406005859375 30.428920745849609375 30.710300445556640625 31.485919952392578125 31.206104278564453125 30.465326309204101562 30.588653564453125 30.67871856689453125 30.543626785278320312 30.433458328247070312 30.41135406494140625 30.41490936279296875 30.428781509399414062 30.444787979125976562 30.4522857666015625 30.447134017944335938 30.453399658203125 30.477010726928710938 30.4810943603515625 30.468318939208984375 30.463148117065429688 30.459520339965820312 30.4849395751953125 30.407094955444335938 30.305694580078125 30.556682586669921875 30.706056594848632812 30.715179443359375 30.779653549194335938 30.871089935302734375 30.946817398071289062 31.012910842895507812 31.053600311279296875 31.128671646118164062 31.231777191162109375 31.43353271484375 31.64678192138671875 31.774969100952148438 31.794054031372070312 31.761407852172851562 31.713306427001953125 31.64810943603515625 31.553663253784179688 32.48471832275390625 34.422389984130859375 35.0878143310546875 35.058063507080078125 34.767864227294921875 34.290569305419921875 33.98040771484375 34.24526214599609375 34.897403717041015625 34.91834259033203125 34.618572235107421875 33.859981536865234375 33.324615478515625 33.08260345458984375 32.880840301513671875 32.723590850830078125 32.551830291748046875 32.429164886474609375 32.41619110107421875 32.41112518310546875 32.381519317626953125 32.25067901611328125 32.003269195556640625 31.76709747314453125 31.668600082397460938 31.576976776123046875 31.364654541015625 31.062255859375 30.723939895629882812 30.397212982177734375 29.976327896118164062 29.5975189208984375 29.277730941772460938 28.9172210693359375 28.533624649047851562 28.109853744506835938 27.649112701416015625 27.136875152587890625 26.699399948120117188 26.607355117797851562 26.597627639770507812 26.586500167846679688 26.574178695678710938 26.560216903686523438 26.544893264770507812 26.527677536010742188 26.808187484741210938 27.313541412353515625 27.315525054931640625 27.279827117919921875 27.23033905029296875 27.164930343627929688 27.085414886474609375 26.989166259765625 26.878915786743164062 26.752553939819335938 26.618513107299804688 26.480037689208984375 26.34804534912109375 26.226230621337890625 26.124197006225585938 26.041225433349609375 25.975786209106445312 25.921152114868164062 25.873809814453125 25.827444076538085938 25.779937744140625 25.73014068603515625 25.681621551513671875 25.635335922241210938 25.59487152099609375 25.561191558837890625 25.535734176635742188 25.516710281372070312 25.503200531005859375 25.493377685546875 25.486110687255859375 25.480283737182617188 25.476318359375 25.474916458129882812 25.476922988891601562 25.483270645141601562 25.494409561157226562 25.51059722900390625 25.530460357666015625 25.553606033325195312 25.578327178955078125 25.604433059692382812 25.63100433349609375 25.660455703735351562 25.694091796875 25.73531341552734375 25.785078048706054688 25.846591949462890625 25.916515350341796875 25.992910385131835938 26.068975448608398438 26.142484664916992188 26.206846237182617188 26.26076507568359375 26.30155181884765625 26.33016204833984375 26.345491409301757812 26.347772598266601562 26.337137222290039062 26.315196990966796875 26.28583526611328125 26.251636505126953125 26.217050552368164062 26.1843414306640625 26.156332015991210938 26.131586074829101562 26.109560012817382812 26.0881805419921875 26.066761016845703125 26.0432586669921875 26.01706695556640625 25.986064910888671875 25.949893951416015625 25.906145095825195312 25.854993820190429688 25.795131683349609375 25.73050689697265625 25.661943435668945312 25.594242095947265625 25.528095245361328125 25.467325210571289062 25.409059524536132812 25.352375030517578125 25.2926025390625 25.22863006591796875 25.155948638916015625 25.076391220092773438 24.990398406982421875 24.903964996337890625 24.8180999755859375 24.738817214965820312 24.666109085083007812 24.601503372192382812 24.540607452392578125 24.482706069946289062 24.423503875732421875 24.36248016357421875 24.297573089599609375 24.232561111450195312 24.16806793212890625 24.108423233032226562 24.0543060302734375 24.008691787719726562 23.968923568725585938 23.933675765991210938 23.89922332763671875 23.863908767700195312 23.82440185546875 23.781064987182617188 23.733852386474609375 23.685420989990234375 23.635923385620117188 23.588090896606445312 23.54158782958984375 23.497686386108398438 23.454738616943359375 23.413442611694335938 23.372211456298828125 23.331609725952148438 23.289714813232421875 23.246456146240234375 23.199554443359375 23.148942947387695312 23.092306137084960938 23.030788421630859375 22.96468353271484375 22.89800262451171875 22.83164215087890625 22.7697296142578125 22.712530136108398438 22.660552978515625 22.609127044677734375 22.555799484252929688 22.495677947998046875 22.426473617553710938 22.345121383666992188 22.254711151123046875 22.15608978271484375 22.05397796630859375 21.948896408081054688 21.84490203857421875 21.738248825073242188 21.627145767211914062 21.505060195922851562 21.369905471801757812 21.215326309204101562 21.043537139892578125 20.856676101684570312 20.664979934692382812 20.471757888793945312 20.2876739501953125 20.11370086669921875 19.9509124755859375 19.788625717163085938 19.621845245361328125 19.439785003662109375 19.237836837768554688 19.01074981689453125 18.766515731811523438 18.5082550048828125 18.246767044067382812 17.9846343994140625 17.732252120971679688 17.4891204833984375 17.261871337890625 17.048786163330078125 16.855936050415039062 16.681695938110351562 16.528501510620117188 16.389415740966796875 16.261934280395507812 16.139047622680664062 16.017665863037109375 15.892952919006347656 15.76750946044921875 15.643201828002929688 15.52524566650390625 15.415609359741210938 15.319124221801757812 15.234936714172363281 15.162260055541992188 15.0971832275390625 15.037858963012695312 14.980809211730957031 14.924748420715332031 14.869246482849121094 14.815897941589355469 14.765302658081054688 14.719142913818359375 14.677744865417480469 14.64095306396484375 14.606219291687011719 14.571361541748046875 14.533778190612792969 14.491147994995117188 
29.765317916870117188 29.700143814086914062 29.7882843017578125 29.938058853149414062 29.910760879516601562 29.936695098876953125 30.02303314208984375 30.143863677978515625 30.186407089233398438 30.04703521728515625 29.849416732788085938 30.151317596435546875 31.14131927490234375 31.651517868041992188 30.797740936279296875 30.213895797729492188 30.237993240356445312 30.354997634887695312 30.445789337158203125 30.580982208251953125 31.305570602416992188 31.337343215942382812 30.5482330322265625 30.477228164672851562 30.667490005493164062 30.596202850341796875 30.493185043334960938 30.420160293579101562 30.403257369995117188 30.418788909912109375 30.436819076538085938 30.460201263427734375 30.473333358764648438 30.473886489868164062 30.482875823974609375 30.495798110961914062 30.487936019897460938 30.469942092895507812 30.467184066772460938 30.503925323486328125 30.509103775024414062 30.3060760498046875 30.372030258178710938 30.608835220336914062 30.672760009765625 30.730524063110351562 30.785173416137695312 30.86997222900390625 30.945390701293945312 31.001827239990234375 31.048845291137695312 31.12104034423828125 31.242214202880859375 31.466726303100585938 31.74639892578125 31.912260055541992188 31.913808822631835938 31.864923477172851562 31.7400054931640625 31.602731704711914062 31.713621139526367188 33.081195831298828125 34.433528900146484375 34.974521636962890625 34.962554931640625 34.542522430419921875 34.083103179931640625 33.926097869873046875 34.378192901611328125 34.99329376220703125 34.76238250732421875 34.249065399169921875 33.654491424560546875 33.258056640625 33.076953887939453125 32.86224365234375 32.685787200927734375 32.548915863037109375 32.46773529052734375 32.433429718017578125 32.4075927734375 32.349945068359375 32.193302154541015625 31.942495346069335938 31.73830413818359375 31.696130752563476562 31.572942733764648438 31.307016372680664062 30.982378005981445312 30.656614303588867188 30.314912796020507812 29.882352828979492188 29.537405014038085938 29.235225677490234375 28.9019012451171875 28.546850204467773438 28.1483612060546875 27.6980133056640625 27.161718368530273438 26.67720794677734375 26.590167999267578125 26.702724456787109375 26.57767486572265625 26.540334701538085938 26.5262298583984375 26.510847091674804688 26.493656158447265625 26.782003402709960938 27.300262451171875 27.301113128662109375 27.2629852294921875 27.210613250732421875 27.1420745849609375 27.05960845947265625 26.96085357666015625 26.84893798828125 26.72196197509765625 26.588314056396484375 26.451053619384765625 26.320833206176757812 26.201173782348632812 26.101408004760742188 26.02075958251953125 25.957614898681640625 25.905328750610351562 25.860326766967773438 25.816377639770507812 25.771299362182617188 25.724012374877929688 25.678010940551757812 25.634321212768554688 25.596452713012695312 25.565433502197265625 25.542585372924804688 25.526113510131835938 25.514940261840820312 25.5072174072265625 25.501672744750976562 25.49724578857421875 25.494508743286132812 25.494495391845703125 25.498294830322265625 25.507196426391601562 25.521802902221679688 25.542467117309570312 25.56740570068359375 25.596059799194335938 25.6262359619140625 25.65758514404296875 25.688749313354492188 25.722051620483398438 25.75849151611328125 25.801343917846679688 25.851329803466796875 25.91150665283203125 25.978633880615234375 26.050912857055664062 26.121931076049804688 26.18956756591796875 26.247667312622070312 26.295011520385742188 26.32938385009765625 26.351825714111328125 26.361698150634765625 26.359348297119140625 26.345270156860351562 26.320970535278320312 26.2902374267578125 26.2554168701171875 26.22078704833984375 26.188428878784179688 26.161100387573242188 26.137561798095703125 26.117464065551757812 26.099035263061523438 26.081731796264648438 26.063695907592773438 26.043621063232421875 26.018587112426757812 25.987047195434570312 25.945703506469726562 25.893726348876953125 25.82958221435546875 25.758169174194335938 25.6812744140625 25.605096817016601562 25.531229019165039062 25.46463775634765625 25.40241241455078125 25.343458175659179688 25.282649993896484375 25.218561172485351562 25.146314620971679688 25.067514419555664062 24.982542037963867188 24.897333145141601562 24.812892913818359375 24.735164642333984375 24.6641387939453125 24.601205825805664062 24.541912078857421875 24.485385894775390625 24.427263259887695312 24.36688995361328125 24.302213668823242188 24.23708343505859375 24.172229766845703125 24.112094879150390625 24.0574493408203125 24.011363983154296875 23.971195220947265625 23.9356231689453125 23.900907516479492188 23.865392684936523438 23.825727462768554688 23.78221893310546875 23.734701156616210938 23.68572235107421875 23.6352996826171875 23.586071014404296875 23.537628173828125 23.491397857666015625 23.44586944580078125 23.401990890502929688 23.358303070068359375 23.3155975341796875 23.271924972534179688 23.227167129516601562 23.178884506225585938 23.126928329467773438 23.068836212158203125 23.005750656127929688 22.938035964965820312 22.869913101196289062 22.802412033081054688 22.7398681640625 22.6826324462890625 22.631097793579101562 22.580263137817382812 22.527284622192382812 22.466917037963867188 22.396509170532226562 22.312824249267578125 22.219141006469726562 22.116529464721679688 22.010061264038085938 21.900457382202148438 21.792100906372070312 21.681196212768554688 21.5659637451171875 21.439676284790039062 21.300230026245117188 21.141082763671875 20.964506149291992188 20.772603988647460938 20.575792312622070312 20.377376556396484375 20.188211441040039062 20.009382247924804688 19.84270477294921875 19.678297042846679688 19.51220703125 19.334516525268554688 19.141466140747070312 18.92749786376953125 18.698591232299804688 18.45572662353515625 18.207063674926757812 17.953165054321289062 17.702569961547851562 17.455768585205078125 17.221454620361328125 17.00020599365234375 16.800516128540039062 16.622711181640625 16.470195770263671875 16.335010528564453125 16.213384628295898438 16.097015380859375 15.981413841247558594 15.860898971557617188 15.737908363342285156 15.614846229553222656 15.497362136840820312 15.387950897216796875 15.291880607604980469 15.208453178405761719 15.136713027954101562 15.072511672973632812 15.013743400573730469 14.9567108154296875 14.89995574951171875 14.843143463134765625 14.788037300109863281 14.735429763793945312 14.687193870544433594 14.643816947937011719 14.605256080627441406 14.568955421447753906 14.532753944396972656 14.494034767150878906 14.450487136840820312 
29.827434539794921875 29.799432754516601562 29.8889923095703125 29.957838058471679688 29.908029556274414062 29.957773208618164062 30.061929702758789062 30.141710281372070312 30.066675186157226562 29.86827850341796875 30.044897079467773438 30.859958648681640625 31.665493011474609375 31.104419708251953125 30.392505645751953125 30.319314956665039062 30.390230178833007812 30.4553680419921875 30.531787872314453125 31.126310348510742188 31.43993377685546875 30.647624969482421875 30.443939208984375 30.6864776611328125 30.6407318115234375 30.53978729248046875 30.474248886108398438 30.42160797119140625 30.412290573120117188 30.416894912719726562 30.432567596435546875 30.468013763427734375 30.4852752685546875 30.497575759887695312 30.514715194702148438 30.52579498291015625 30.520292282104492188 30.486164093017578125 30.486055374145507812 30.532960891723632812 30.46381378173828125 30.30975341796875 30.444898605346679688 30.565092086791992188 30.620061874389648438 30.71759033203125 30.794542312622070312 30.86960601806640625 30.95284271240234375 30.990386962890625 31.04352569580078125 31.13057708740234375 31.268306732177734375 31.478229522705078125 31.737529754638671875 31.895338058471679688 31.867160797119140625 31.857286453247070312 31.735609054565429688 31.559621810913085938 32.061321258544921875 33.665836334228515625 34.63907623291015625 35.013397216796875 34.86992645263671875 34.35500335693359375 33.923206329345703125 33.92632293701171875 34.49010467529296875 35.136775970458984375 34.98081207275390625 34.269565582275390625 33.54693603515625 33.202129364013671875 33.06200408935546875 32.842288970947265625 32.668262481689453125 32.5756378173828125 32.519268035888671875 32.45597076416015625 32.40264892578125 32.30950927734375 32.120685577392578125 31.878980636596679688 31.726444244384765625 31.715789794921875 31.550806045532226562 31.235759735107421875 30.895303726196289062 30.590005874633789062 30.211988449096679688 29.785945892333984375 29.475988388061523438 29.20783233642578125 28.911806106567382812 28.595838546752929688 28.24021148681640625 27.824579238891601562 27.26583099365234375 26.729505538940429688 26.989437103271484375 27.838085174560546875 27.35376739501953125 26.547529220581054688 26.49237060546875 26.476964950561523438 26.4598236083984375 26.754976272583007812 27.284200668334960938 27.283788681030273438 27.243438720703125 27.18863677978515625 27.117624282836914062 27.032958984375 26.9324951171875 26.81964111328125 26.692663192749023438 26.559864044189453125 26.424114227294921875 26.295789718627929688 26.1782379150390625 26.080514907836914062 26.001806259155273438 25.940485000610351562 25.8900299072265625 25.846889495849609375 25.804958343505859375 25.76204681396484375 25.717126846313476562 25.673585891723632812 25.632478713989257812 25.597194671630859375 25.568796157836914062 25.548490524291992188 25.534509658813476562 25.525665283203125 25.52013397216796875 25.51654052734375 25.513912200927734375 25.512941360473632812 25.514970779418945312 25.521270751953125 25.533473968505859375 25.552270889282226562 25.578100204467773438 25.608728408813476562 25.643426895141601562 25.67948150634765625 25.716381072998046875 25.752300262451171875 25.789463043212890625 25.828546524047851562 25.8726959228515625 25.922389984130859375 25.980516433715820312 26.043992996215820312 26.111207962036132812 26.176239013671875 26.23711395263671875 26.288217544555664062 26.328432083129882812 26.356029510498046875 26.372117996215820312 26.3765106201171875 26.369655609130859375 26.352386474609375 26.326093673706054688 26.29443359375 26.259500503540039062 26.225358963012695312 26.193895339965820312 26.167768478393554688 26.145915985107421875 26.128152847290039062 26.112993240356445312 26.100008010864257812 26.087507247924804688 26.073488235473632812 26.054264068603515625 26.027118682861328125 25.987884521484375 25.934757232666015625 25.865995407104492188 25.78746795654296875 25.701948165893554688 25.617048263549804688 25.535282135009765625 25.46277618408203125 25.396575927734375 25.335393905639648438 25.273637771606445312 25.209535598754882812 25.137834548950195312 25.059886932373046875 24.976022720336914062 24.892108917236328125 24.809164047241210938 24.733051300048828125 24.663761138916015625 24.602544784545898438 24.544885635375976562 24.489751815795898438 24.43270111083984375 24.37294769287109375 24.308446884155273438 24.2431182861328125 24.177799224853515625 24.117048263549804688 24.061725616455078125 24.015010833740234375 23.97428131103515625 23.93825531005859375 23.903194427490234375 23.867473602294921875 23.827733993530273438 23.784219741821289062 23.736612319946289062 23.687295913696289062 23.636121749877929688 23.58557891845703125 23.535161972045898438 23.48645782470703125 23.438097000122070312 23.391305923461914062 23.344758987426757812 23.29949951171875 23.253570556640625 23.206867218017578125 23.156820297241210938 23.103261947631835938 23.043613433837890625 22.979030609130859375 22.9098968505859375 22.840559005737304688 22.772111892700195312 22.709001541137695312 22.651615142822265625 22.600214004516601562 22.549497604370117188 22.496297836303710938 22.43505096435546875 22.362802505493164062 22.27617645263671875 22.178686141967773438 22.071649551391601562 21.960540771484375 21.846300125122070312 21.73366546630859375 21.618753433227539062 21.499723434448242188 21.369573593139648438 21.22609710693359375 21.062498092651367188 20.881061553955078125 20.683904647827148438 20.481695175170898438 20.277780532836914062 20.083288192749023438 19.899463653564453125 19.72888946533203125 19.562494277954101562 19.39737701416015625 19.2244873046875 19.040912628173828125 18.840803146362304688 18.62807464599609375 18.401556015014648438 18.16670989990234375 17.922067642211914062 17.674245834350585938 17.424663543701171875 17.183961868286132812 16.954936981201171875 16.748382568359375 16.566524505615234375 16.413747787475585938 16.2812652587890625 16.164281845092773438 16.053394317626953125 15.942975997924804688 15.826605796813964844 15.70653533935546875 15.58553314208984375 15.469524383544921875 15.361358642578125 15.266574859619140625 15.184561729431152344 15.114168167114257812 15.051036834716796875 14.992798805236816406 14.9355621337890625 14.877712249755859375 14.819058418273925781 14.761585235595703125 14.706334114074707031 14.655432701110839844 14.609575271606445312 14.568871498107910156 14.530765533447265625 14.493127822875976562 14.453320503234863281 14.409063339233398438 
29.84496307373046875 29.845241546630859375 29.934171676635742188 29.947080612182617188 29.9418487548828125 30.024248123168945312 30.089391708374023438 30.053716659545898438 29.873874664306640625 29.962696075439453125 30.658176422119140625 31.569454193115234375 31.340936660766601562 30.52785491943359375 30.3347320556640625 30.36580657958984375 30.416255950927734375 30.477565765380859375 30.940729141235351562 31.478328704833984375 30.8565216064453125 30.38519287109375 30.630397796630859375 30.69509124755859375 30.583713531494140625 30.50368499755859375 30.447998046875 30.420934677124023438 30.415674209594726562 30.41880035400390625 30.424612045288085938 30.443975448608398438 30.46901702880859375 30.49651336669921875 30.52490997314453125 30.557374954223632812 30.569490432739257812 30.53398895263671875 30.527271270751953125 30.53603363037109375 30.377256393432617188 30.374956130981445312 30.488861083984375 30.552789688110351562 30.627435684204101562 30.7222137451171875 30.802667617797851562 30.8667449951171875 30.93505096435546875 30.996175765991210938 31.047153472900390625 31.137071609497070312 31.300495147705078125 31.51970672607421875 31.665950775146484375 31.753545761108398438 31.80458831787109375 31.845224380493164062 31.7104034423828125 31.5850067138671875 32.500553131103515625 34.031352996826171875 34.822612762451171875 35.01531219482421875 34.6719207763671875 34.15521240234375 33.787639617919921875 33.864482879638671875 34.441577911376953125 35.190166473388671875 35.335845947265625 34.619205474853515625 33.5642547607421875 33.142269134521484375 32.949066162109375 32.7952117919921875 32.69739532470703125 32.64337158203125 32.570095062255859375 32.47441864013671875 32.373134613037109375 32.245975494384765625 32.04853057861328125 31.825426101684570312 31.72159576416015625 31.705263137817382812 31.495557785034179688 31.152059555053710938 30.809970855712890625 30.515972137451171875 30.10964202880859375 29.704763412475585938 29.439191818237304688 29.202901840209960938 28.944942474365234375 28.67595672607421875 28.385187149047851562 28.061748504638671875 27.62200164794921875 27.503025054931640625 28.367723464965820312 28.662609100341796875 28.261789321899414062 26.706590652465820312 26.459421157836914062 26.44397735595703125 26.426877975463867188 26.728115081787109375 27.26723480224609375 27.265951156616210938 27.223964691162109375 27.167407989501953125 27.094646453857421875 27.00847625732421875 26.90691375732421875 26.793581008911132812 26.666864395141601562 26.534967422485351562 26.400604248046875 26.273897171020507812 26.158031463623046875 26.06183624267578125 25.984468460083007812 25.92435455322265625 25.875127792358398438 25.833322525024414062 25.792997360229492188 25.75199127197265625 25.70931243896484375 25.668195724487304688 25.629688262939453125 25.597021102905273438 25.571256637573242188 25.553478240966796875 25.541994094848632812 25.535543441772460938 25.532377243041992188 25.531061172485351562 25.530735015869140625 25.532167434692382812 25.536966323852539062 25.5465087890625 25.562719345092773438 25.58631134033203125 25.617794036865234375 25.65445709228515625 25.695409774780273438 25.737409591674804688 25.779781341552734375 25.820230484008789062 25.860889434814453125 25.9021453857421875 25.947004318237304688 25.995744705200195312 26.05107879638671875 26.110143661499023438 26.171537399291992188 26.229898452758789062 26.283435821533203125 26.327142715454101562 26.360013961791992188 26.38080596923828125 26.390661239624023438 26.389814376831054688 26.378789901733398438 26.35872650146484375 26.330896377563476562 26.29880523681640625 26.264303207397460938 26.23122406005859375 26.201265335083007812 26.17694091796875 26.157320022583007812 26.142274856567382812 26.130544662475585938 26.1217193603515625 26.114238739013671875 26.105482101440429688 26.091106414794921875 26.067422866821289062 26.029520034790039062 25.974782943725585938 25.90130615234375 25.8158721923828125 25.722135543823242188 25.62902069091796875 25.5398712158203125 25.461870193481445312 25.392026901245117188 25.328863143920898438 25.266347885131835938 25.202390670776367188 25.131381988525390625 25.054430007934570312 24.97180938720703125 24.88930511474609375 24.80792999267578125 24.733461380004882812 24.665882110595703125 24.60631561279296875 24.550195693969726562 24.496347427368164062 24.440275192260742188 24.381069183349609375 24.316692352294921875 24.251129150390625 24.185300827026367188 24.12386322021484375 24.067750930786132812 24.020246505737304688 23.97876739501953125 23.942111968994140625 23.906572341918945312 23.87059783935546875 23.83084869384765625 23.787502288818359375 23.740055084228515625 23.690673828125 23.639003753662109375 23.58733367919921875 23.535039901733398438 23.483861923217773438 23.432600021362304688 23.382776260375976562 23.333209991455078125 23.285228729248046875 23.23688507080078125 23.188106536865234375 23.136219024658203125 23.081058502197265625 23.019947052001953125 22.954051971435546875 22.883722305297851562 22.813343048095703125 22.743989944458007812 22.680156707763671875 22.62218475341796875 22.570238113403320312 22.518781661987304688 22.464435577392578125 22.401386260986328125 22.326490402221679688 22.23626708984375 22.134508132934570312 22.022754669189453125 21.906890869140625 21.78806304931640625 21.671360015869140625 21.55277252197265625 21.430322647094726562 21.2966766357421875 21.149446487426757812 20.981533050537109375 20.795202255249023438 20.5926361083984375 20.3848114013671875 20.175197601318359375 19.975252151489257812 19.786418914794921875 19.6120147705078125 19.443674087524414062 19.279451370239257812 19.111057281494140625 18.936346054077148438 18.749197006225585938 18.551694869995117188 18.34073638916015625 18.119379043579101562 17.884349822998046875 17.640493392944335938 17.3899993896484375 17.145090103149414062 16.910432815551757812 16.698719024658203125 16.513774871826171875 16.360845565795898438 16.230548858642578125 16.117338180541992188 16.011005401611328125 15.905083656311035156 15.792600631713867188 15.675623893737792969 15.55715179443359375 15.443239212036132812 15.336965560913085938 15.244002342224121094 15.163759231567382812 15.094884872436523438 15.032832145690917969 14.974979400634765625 14.917255401611328125 14.857909202575683594 14.79692840576171875 14.736569404602050781 14.678155899047851562 14.624126434326171875 14.575409889221191406 14.532312393188476562 14.492276191711425781 14.453225135803222656 14.412508964538574219 14.367893218994140625 
29.683353424072265625 29.7423248291015625 29.856723785400390625 29.90442657470703125 29.93820953369140625 30.019582748413085938 29.998809814453125 29.838808059692382812 29.923723220825195312 30.516641616821289062 31.518308639526367188 31.556409835815429688 30.69210052490234375 30.283962249755859375 30.323028564453125 30.355195999145507812 30.4474334716796875 30.761487960815429688 31.441493988037109375 30.991884231567382812 30.346094131469726562 30.5639495849609375 30.699590682983398438 30.60123443603515625 30.516399383544921875 30.46294403076171875 30.425249099731445312 30.404615402221679688 30.410350799560546875 30.42131805419921875 30.431428909301757812 30.431728363037109375 30.438930511474609375 30.469699859619140625 30.508295059204101562 30.558383941650390625 30.5871734619140625 30.581981658935546875 30.578649520874023438 30.496368408203125 30.392210006713867188 30.484140396118164062 30.52828216552734375 30.582302093505859375 30.67098236083984375 30.746273040771484375 30.820264816284179688 30.884918212890625 30.93558502197265625 30.99919891357421875 31.061037063598632812 31.1767578125 31.391216278076171875 31.5785675048828125 31.625736236572265625 31.640253067016601562 31.760591506958007812 31.830877304077148438 31.6464996337890625 31.737722396850585938 33.07018280029296875 34.407863616943359375 34.9632720947265625 34.91342926025390625 34.372539520263671875 33.87543487548828125 33.650936126708984375 33.82105255126953125 34.2675628662109375 35.001911163330078125 35.2135009765625 34.47902679443359375 33.55420684814453125 33.150966644287109375 32.904541015625 32.800121307373046875 32.76003265380859375 32.70915985107421875 32.60364532470703125 32.480449676513671875 32.361476898193359375 32.198101043701171875 31.982934951782226562 31.785266876220703125 31.725687026977539062 31.673297882080078125 31.418115615844726562 31.06911468505859375 30.74303436279296875 30.445791244506835938 30.013360977172851562 29.653293609619140625 29.429195404052734375 29.216197967529296875 28.992635726928710938 28.7714080810546875 28.554742813110351562 28.361494064331054688 28.25713348388671875 28.481916427612304688 28.727838516235351562 28.739576339721679688 28.58835601806640625 27.075643539428710938 26.426877975463867188 26.411375045776367188 26.394306182861328125 26.701435089111328125 27.2505950927734375 27.249326705932617188 27.206563949584960938 27.149023056030273438 27.075183868408203125 26.988031387329101562 26.885721206665039062 26.772050857543945312 26.645505905151367188 26.51422119140625 26.38077545166015625 26.255102157592773438 26.140254974365234375 26.04488372802734375 25.968149185180664062 25.908582687377929688 25.859991073608398438 25.819042205810546875 25.7799835205078125 25.740709304809570312 25.700235366821289062 25.661615371704101562 25.62584686279296875 25.595952987670898438 25.572965621948242188 25.557844161987304688 25.549007415771484375 25.545166015625 25.544691085815429688 25.54611968994140625 25.548738479614257812 25.553331375122070312 25.56172943115234375 25.575319290161132812 25.596279144287109375 25.625263214111328125 25.662828445434570312 25.705776214599609375 25.753061294555664062 25.80091094970703125 25.848476409912109375 25.893026351928710938 25.936605453491210938 25.979360580444335938 26.024175643920898438 26.0711822509765625 26.122930526733398438 26.17682647705078125 26.23169708251953125 26.282796859741210938 26.328538894653320312 26.36456298828125 26.389986038208007812 26.404039382934570312 26.40785980224609375 26.402074813842773438 26.3872528076171875 26.364809036254882812 26.335893630981445312 26.30385589599609375 26.270334243774414062 26.238910675048828125 26.211132049560546875 26.189302444458007812 26.172536849975585938 26.160631179809570312 26.152429580688476562 26.147418975830078125 26.144084930419921875 26.139314651489257812 26.128307342529296875 26.106672286987304688 26.068958282470703125 26.012004852294921875 25.933797836303710938 25.841928482055664062 25.740766525268554688 25.640352249145507812 25.544710159301757812 25.461925506591796875 25.388956069946289062 25.32416534423828125 25.261150360107421875 25.197536468505859375 25.127420425415039062 25.05167388916015625 24.970506668090820312 24.889591217041015625 24.809919357299804688 24.737146377563476562 24.671237945556640625 24.613206863403320312 24.558462142944335938 24.505733489990234375 24.450490951538085938 24.391740798950195312 24.327457427978515625 24.26165771484375 24.195316314697265625 24.133161544799804688 24.07616424560546875 24.0276947021484375 23.985240936279296875 23.947723388671875 23.911518096923828125 23.875192642211914062 23.835474014282226562 23.792463302612304688 23.745433807373046875 23.6962890625 23.644414901733398438 23.59185028076171875 23.537822723388671875 23.4842376708984375 23.430088043212890625 23.377222061157226562 23.32463836669921875 23.2739715576171875 23.223291397094726562 23.172563552856445312 23.1190032958984375 23.062437057495117188 23.00009918212890625 22.933130264282226562 22.861787796020507812 22.790433883666992188 22.720052719116210938 22.655101776123046875 22.595834732055664062 22.542354583740234375 22.488986968994140625 22.432277679443359375 22.366258621215820312 22.287736892700195312 22.193174362182617188 22.086652755737304688 21.969896316528320312 21.84918212890625 21.725818634033203125 21.60521697998046875 21.4832000732421875 21.3575897216796875 21.22068023681640625 21.0698394775390625 20.897615432739257812 20.706243515014648438 20.498016357421875 20.284288406372070312 20.068706512451171875 19.863138198852539062 19.66925048828125 19.491008758544921875 19.320604324340820312 19.15686798095703125 18.992115020751953125 18.824815750122070312 18.648649215698242188 18.4642333984375 18.266954421997070312 18.057943344116210938 17.832508087158203125 17.59404754638671875 17.34526824951171875 17.099456787109375 16.862649917602539062 16.648839950561523438 16.463018417358398438 16.31104278564453125 16.183195114135742188 16.0734405517578125 15.971075057983398438 15.869096755981445312 15.760190963745117188 15.646282196044921875 15.530505180358886719 15.418962478637695312 15.314864158630371094 15.223928451538085938 15.145550727844238281 15.078166007995605469 15.017053604125976562 14.95934295654296875 14.900796890258789062 14.839539527893066406 14.775768280029296875 14.71204376220703125 14.650008201599121094 14.592448234558105469 14.540556907653808594 14.494868278503417969 14.452836990356445312 14.412463188171386719 14.371092796325683594 14.326560020446777344 
29.79817962646484375 29.731698989868164062 29.73050689697265625 29.822526931762695312 29.770193099975585938 29.804307937622070312 29.790012359619140625 29.852354049682617188 30.3687286376953125 31.342681884765625 31.652965545654296875 30.871351242065429688 30.295841217041015625 30.237554550170898438 30.324375152587890625 30.39626312255859375 30.598011016845703125 31.194890975952148438 31.1804962158203125 30.413928985595703125 30.2779388427734375 30.576946258544921875 30.635036468505859375 30.542461395263671875 30.48194122314453125 30.44281768798828125 30.413866043090820312 30.399517059326171875 30.402200698852539062 30.404783248901367188 30.419897079467773438 30.432586669921875 30.446140289306640625 30.462894439697265625 30.484746932983398438 30.527069091796875 30.562368392944335938 30.61051177978515625 30.610906600952148438 30.37542724609375 30.450662612915039062 30.541429519653320312 30.5527801513671875 30.599355697631835938 30.664854049682617188 30.760669708251953125 30.856653213500976562 30.901174545288085938 30.947942733764648438 31.003467559814453125 31.06798553466796875 31.215396881103515625 31.480365753173828125 31.595064163208007812 31.611875534057617188 31.505704879760742188 31.596569061279296875 31.698373794555664062 31.617731094360351562 32.1138916015625 33.709644317626953125 34.714263916015625 35.02032470703125 34.6911773681640625 34.07100677490234375 33.648532867431640625 33.5587005615234375 33.801425933837890625 34.207386016845703125 34.893985748291015625 35.073883056640625 34.14044189453125 33.50980377197265625 33.134410858154296875 32.895107269287109375 32.83800506591796875 32.82427215576171875 32.75504302978515625 32.611980438232421875 32.458019256591796875 32.30689239501953125 32.134059906005859375 31.921010971069335938 31.764926910400390625 31.735540390014648438 31.636821746826171875 31.345203399658203125 30.990892410278320312 30.68157196044921875 30.35561370849609375 29.936431884765625 29.644268035888671875 29.436208724975585938 29.238130569458007812 29.041852951049804688 28.85903167724609375 28.699062347412109375 28.591211318969726562 28.598405838012695312 28.724538803100585938 28.77850341796875 28.766431808471679688 28.642574310302734375 27.120203018188476562 26.395381927490234375 26.379827499389648438 26.362798690795898438 26.675689697265625 27.2352294921875 27.235017776489257812 27.19248199462890625 27.134794235229492188 27.060546875 26.97287750244140625 26.870077133178710938 26.75609588623046875 26.629512786865234375 26.498430252075195312 26.365324020385742188 26.240003585815429688 26.125410079956054688 26.030101776123046875 25.953245162963867188 25.893529891967773438 25.844953536987304688 25.804363250732421875 25.766206741333007812 25.728460311889648438 25.690134048461914062 25.654054641723632812 25.6211395263671875 25.59416961669921875 25.574115753173828125 25.561811447143554688 25.555822372436523438 25.554849624633789062 25.557445526123046875 25.562128067016601562 25.568365097045898438 25.576883316040039062 25.589679718017578125 25.608053207397460938 25.634378433227539062 25.669155120849609375 25.712978363037109375 25.762166976928710938 25.815534591674804688 25.868804931640625 25.92096710205078125 25.968893051147460938 26.014562606811523438 26.057949066162109375 26.101835250854492188 26.146280288696289062 26.193689346313476562 26.241794586181640625 26.289648056030273438 26.33315277099609375 26.370931625366210938 26.399290084838867188 26.417469024658203125 26.42513275146484375 26.423383712768554688 26.413179397583007812 26.395114898681640625 26.370815277099609375 26.34133148193359375 26.309858322143554688 26.277851104736328125 26.24866485595703125 26.22371673583984375 26.205049514770507812 26.1917266845703125 26.183294296264648438 26.178564071655273438 26.176774978637695312 26.176347732543945312 26.173852920532226562 26.164278030395507812 26.1428985595703125 26.103984832763671875 26.044155120849609375 25.961376190185546875 25.863882064819335938 25.75653839111328125 25.650211334228515625 25.549406051635742188 25.462877273559570312 25.387529373168945312 25.321607589721679688 25.258428573608398438 25.19539642333984375 25.1263885498046875 25.052072525024414062 24.972576141357421875 24.893428802490234375 24.815568923950195312 24.744503021240234375 24.6801605224609375 24.62346649169921875 24.569852828979492188 24.517992019653320312 24.463369369506835938 24.4049530029296875 24.340724945068359375 24.274707794189453125 24.207887649536132812 24.145013809204101562 24.08705902099609375 24.0374603271484375 23.9937896728515625 23.955156326293945312 23.918054580688476562 23.881231307983398438 23.841516494750976562 23.798952102661132812 23.752553939819335938 23.703905105590820312 23.65210723876953125 23.598897933959960938 23.543338775634765625 23.487504959106445312 23.43061065673828125 23.374851226806640625 23.31943511962890625 23.266321182250976562 23.213603973388671875 23.161266326904296875 23.106397628784179688 23.048793792724609375 22.985582351684570312 22.917844772338867188 22.845706939697265625 22.77342987060546875 22.7018585205078125 22.635351181030273438 22.574031829833984375 22.51799774169921875 22.4615325927734375 22.401262283325195312 22.3311614990234375 22.248147964477539062 22.1486663818359375 22.037080764770507812 21.915227890014648438 21.78971099853515625 21.661952972412109375 21.537616729736328125 21.412334442138671875 21.283721923828125 21.143690109252929688 20.989351272583007812 20.81290435791015625 20.616550445556640625 20.40270233154296875 20.183115005493164062 19.961627960205078125 19.75052642822265625 19.551692962646484375 19.369625091552734375 19.196870803833007812 19.032835006713867188 18.870243072509765625 18.708021163940429688 18.539724349975585938 18.365049362182617188 18.178407669067382812 17.979681015014648438 17.763284683227539062 17.531618118286132812 17.287607192993164062 17.044952392578125 16.810400009155273438 16.598497390747070312 16.4148406982421875 16.2655487060546875 16.140838623046875 16.0344696044921875 15.935587882995605469 15.836965560913085938 15.731197357177734375 15.620119094848632812 15.506932258605957031 15.397729873657226562 15.295785903930664062 15.206798553466796875 15.130125045776367188 15.063995361328125 15.003527641296386719 14.94562530517578125 14.885897636413574219 14.822367668151855469 14.755450248718261719 14.688033103942871094 14.6220855712890625 14.560762405395507812 14.5055389404296875 14.457186698913574219 14.413193702697753906 14.371665000915527344 14.329953193664550781 14.285985946655273438 
30.134326934814453125 30.085153579711914062 29.94335174560546875 29.866132736206054688 29.68769073486328125 29.636137008666992188 29.808071136474609375 30.198150634765625 31.108001708984375 31.689825057983398438 30.995845794677734375 30.349809646606445312 30.19873809814453125 30.2882843017578125 30.393682479858398438 30.50075531005859375 31.129461288452148438 31.222970962524414062 30.585460662841796875 30.502864837646484375 30.575037002563476562 30.453350067138671875 30.426906585693359375 30.495874404907226562 30.50043487548828125 30.460130691528320312 30.426610946655273438 30.412120819091796875 30.400102615356445312 30.3939666748046875 30.403377532958984375 30.4161376953125 30.44977569580078125 30.465404510498046875 30.471487045288085938 30.50139617919921875 30.55229949951171875 30.63176727294921875 30.554531097412109375 30.371501922607421875 30.51070404052734375 30.511793136596679688 30.537061691284179688 30.591457366943359375 30.654264450073242188 30.747564315795898438 30.835361480712890625 30.870630264282226562 30.923437118530273438 30.974016189575195312 31.033290863037109375 31.241617202758789062 31.515254974365234375 31.495403289794921875 31.451246261596679688 31.365079879760742188 31.447719573974609375 31.553041458129882812 31.66696929931640625 32.753143310546875 34.150104522705078125 34.82996368408203125 34.95697021484375 34.4401092529296875 33.839710235595703125 33.534423828125 33.56830596923828125 33.85889434814453125 34.445587158203125 35.06821441650390625 35.08394622802734375 34.143962860107421875 33.50014495849609375 33.08679962158203125 32.88886260986328125 32.88932037353515625 32.88204193115234375 32.77220916748046875 32.59398651123046875 32.418079376220703125 32.244029998779296875 32.061824798583984375 31.865020751953125 31.763952255249023438 31.745779037475585938 31.590702056884765625 31.25823211669921875 30.911314010620117188 30.6162109375 30.2552642822265625 29.871610641479492188 29.638523101806640625 29.442350387573242188 29.258501052856445312 29.08277130126953125 28.925487518310546875 28.795482635498046875 28.713054656982421875 28.705312728881835938 28.776372909545898438 28.8043212890625 28.779348373413085938 28.644163131713867188 27.099100112915039062 26.364393234252929688 26.348798751831054688 26.331819534301757812 26.650075912475585938 27.2197113037109375 27.221286773681640625 27.179723739624023438 27.122524261474609375 27.048389434814453125 26.960603713989257812 26.857599258422851562 26.74347686767578125 26.616916656494140625 26.48598480224609375 26.353059768676757812 26.227834701538085938 26.1131439208984375 26.0174560546875 25.93996429443359375 25.879571914672851562 25.830488204956054688 25.789806365966796875 25.752202987670898438 25.715776443481445312 25.679513931274414062 25.64600372314453125 25.616054534912109375 25.592180252075195312 25.575273513793945312 25.566030502319335938 25.563182830810546875 25.565448760986328125 25.5715789794921875 25.580087661743164062 25.59063720703125 25.603826522827148438 25.621778488159179688 25.64560699462890625 25.677831649780273438 25.71872711181640625 25.7689056396484375 25.824220657348632812 25.883371353149414062 25.941616058349609375 25.997789382934570312 26.04840850830078125 26.095399856567382812 26.138622283935546875 26.180767059326171875 26.22187042236328125 26.264209747314453125 26.305889129638671875 26.346187591552734375 26.381702423095703125 26.41127777099609375 26.431915283203125 26.442981719970703125 26.444540023803710938 26.43762969970703125 26.4234771728515625 26.402679443359375 26.377025604248046875 26.34746551513671875 26.317041397094726562 26.287061691284179688 26.26064300537109375 26.239105224609375 26.224184036254882812 26.214801788330078125 26.210123062133789062 26.208805084228515625 26.209718704223632812 26.2111358642578125 26.209453582763671875 26.199649810791015625 26.176969528198242188 26.135623931884765625 26.072284698486328125 25.984968185424804688 25.8824310302734375 25.76984405517578125 25.658693313598632812 25.553792953491210938 25.464380264282226562 25.387302398681640625 25.320707321166992188 25.257701873779296875 25.1955108642578125 25.127849578857421875 25.055194854736328125 24.977588653564453125 24.900379180908203125 24.824441909790039062 24.755102157592773438 24.6922454833984375 24.63672637939453125 24.584033966064453125 24.53282928466796875 24.478639602661132812 24.420440673828125 24.356218338012695312 24.289976119995117188 24.222673416137695312 24.159048080444335938 24.100032806396484375 24.049114227294921875 24.003969192504882812 23.963932037353515625 23.925655364990234375 23.888116836547851562 23.84827423095703125 23.806125640869140625 23.760396957397460938 23.712337493896484375 23.660726547241210938 23.606977462768554688 23.549966812133789062 23.491945266723632812 23.432374954223632812 23.373809814453125 23.315690994262695312 23.260313034057617188 23.205804824829101562 23.152135848999023438 23.096265792846679688 23.037933349609375 22.974145889282226562 22.905895233154296875 22.833154678344726562 22.760036468505859375 22.687219619750976562 22.618927001953125 22.555124282836914062 22.495937347412109375 22.4356842041015625 22.371158599853515625 22.296354293823242188 22.208385467529296875 22.103708267211914062 21.986940383911132812 21.859949111938476562 21.729610443115234375 21.59737396240234375 21.4691162109375 21.340290069580078125 21.208383560180664062 21.0649871826171875 20.90705108642578125 20.726474761962890625 20.525453567504882812 20.30644989013671875 20.081518173217773438 19.854604721069335938 19.638309478759765625 19.434642791748046875 19.248537063598632812 19.072816848754882812 18.907369613647460938 18.74523162841796875 18.58573150634765625 18.422414779663085938 18.254495620727539062 18.075849533081054688 17.885656356811523438 17.677860260009765625 17.454217910766601562 17.21761322021484375 16.981624603271484375 16.75315093994140625 16.546651840209960938 16.367864608764648438 16.222871780395507812 16.102046966552734375 15.999154090881347656 15.90348052978515625 15.807821273803710938 15.704875946044921875 15.596444129943847656 15.485743522644042969 15.378811836242675781 15.278929710388183594 15.19173431396484375 15.116524696350097656 15.051347732543945312 14.991185188293457031 14.932736396789550781 14.871484756469726562 14.805368423461914062 14.735027313232421875 14.663683891296386719 14.593631744384765625 14.5283966064453125 14.469736099243164062 14.41867828369140625 14.372756004333496094 14.330193519592285156 14.288370132446289062 14.245324134826660156 
30.143316268920898438 30.148183822631835938 30.061807632446289062 29.934827804565429688 29.811231613159179688 29.841520309448242188 30.140193939208984375 30.900287628173828125 31.685089111328125 31.202295303344726562 30.43011474609375 30.201629638671875 30.244966506958007812 30.369281768798828125 30.475324630737304688 31.064554214477539062 31.488489151000976562 30.766521453857421875 30.487789154052734375 30.792575836181640625 30.869710922241210938 30.744508743286132812 30.458349227905273438 30.349626541137695312 30.441507339477539062 30.50023651123046875 30.471160888671875 30.438709259033203125 30.417360305786132812 30.410760879516601562 30.403167724609375 30.409807205200195312 30.43714141845703125 30.457227706909179688 30.459913253784179688 30.493898391723632812 30.572360992431640625 30.6041717529296875 30.398042678833007812 30.444639205932617188 30.567630767822265625 30.538125991821289062 30.558135986328125 30.583101272583007812 30.632196426391601562 30.713104248046875 30.792947769165039062 30.830707550048828125 30.88249969482421875 30.935869216918945312 31.002992630004882812 31.245542526245117188 31.433055877685546875 31.3708038330078125 31.319278717041015625 31.30500030517578125 31.381868362426757812 31.536685943603515625 31.8722686767578125 33.40924835205078125 34.53856658935546875 34.91272735595703125 34.78252410888671875 34.16037750244140625 33.615505218505859375 33.438457489013671875 33.59781646728515625 33.938396453857421875 34.75605010986328125 35.279880523681640625 34.946926116943359375 34.057220458984375 33.43795013427734375 33.044399261474609375 32.887714385986328125 32.95432281494140625 32.9239654541015625 32.7646331787109375 32.560760498046875 32.359889984130859375 32.175960540771484375 31.998250961303710938 31.820995330810546875 31.765077590942382812 31.736469268798828125 31.51605987548828125 31.159105300903320312 30.840425491333007812 30.551839828491210938 30.153669357299804688 29.806554794311523438 29.615421295166015625 29.440259933471679688 29.27069091796875 29.109075546264648438 28.965276718139648438 28.844541549682617188 28.757211685180664062 28.728374481201171875 28.788309097290039062 28.804782867431640625 28.776395797729492188 28.637945175170898438 27.076814651489257812 26.33461761474609375 26.318996429443359375 26.302080154418945312 26.624597549438476562 27.20261383056640625 27.206287384033203125 27.166109085083007812 27.109792709350585938 27.036163330078125 26.94864654541015625 26.845844268798828125 26.732006072998046875 26.60591888427734375 26.47557830810546875 26.343231201171875 26.218400955200195312 26.103765487670898438 26.007669448852539062 25.929330825805664062 25.867918014526367188 25.817903518676757812 25.776693344116210938 25.739246368408203125 25.703832626342773438 25.66942596435546875 25.638376235961914062 25.6113739013671875 25.590656280517578125 25.577037811279296875 25.571069717407226562 25.571660995483398438 25.577524185180664062 25.5876312255859375 25.600477218627929688 25.615917205810546875 25.63436126708984375 25.658008575439453125 25.687711715698242188 25.726085662841796875 25.773111343383789062 25.8294219970703125 25.890447616577148438 25.954803466796875 26.017345428466796875 26.076784133911132812 26.129346847534179688 26.176904678344726562 26.219240188598632812 26.258947372436523438 26.296085357666015625 26.332792282104492188 26.367588043212890625 26.399988174438476562 26.427310943603515625 26.448633193969726562 26.461679458618164062 26.465946197509765625 26.461851119995117188 26.4503326416015625 26.432828903198242188 26.409900665283203125 26.383447647094726562 26.354322433471679688 26.325405120849609375 26.297883987426757812 26.274637222290039062 26.256908416748046875 26.246095657348632812 26.240919113159179688 26.24007415771484375 26.241979598999023438 26.24506378173828125 26.2473907470703125 26.245298385620117188 26.23390960693359375 26.208683013916015625 26.1639251708984375 26.096588134765625 26.004789352416992188 25.897701263427734375 25.780664443969726562 25.665609359741210938 25.55753326416015625 25.46600341796875 25.387805938720703125 25.320993423461914062 25.258512496948242188 25.19742584228515625 25.1313323974609375 25.060520172119140625 24.984943389892578125 24.909763336181640625 24.835779190063476562 24.768123626708984375 24.706640243530273438 24.652126312255859375 24.60015106201171875 24.549402236938476562 24.495470046997070312 24.437360763549804688 24.373073577880859375 24.306568145751953125 24.238748550415039062 24.174314498901367188 24.114126205444335938 24.061712265014648438 24.014850616455078125 23.973134994506835938 23.933389663696289062 23.894849777221679688 23.854616165161132812 23.812658309936523438 23.767419815063476562 23.71981048583984375 23.6682891845703125 23.613943099975585938 23.555471420288085938 23.495290756225585938 23.433115005493164062 23.371852874755859375 23.31118011474609375 23.253721237182617188 23.197637557983398438 23.14287567138671875 23.0862579345703125 23.027446746826171875 22.963329315185546875 22.894792556762695312 22.821653366088867188 22.747873306274414062 22.673959732055664062 22.60399627685546875 22.537786483764648438 22.475505828857421875 22.411520004272460938 22.34282684326171875 22.263458251953125 22.170751571655273438 22.061168670654296875 21.93951416015625 21.807611465454101562 21.672510147094726562 21.535623550415039062 21.402982711791992188 21.269939422607421875 21.134033203125 20.986715316772460938 20.824968338012695312 20.640565872192382812 20.435728073120117188 20.212799072265625 19.983867645263671875 19.752777099609375 19.532161712646484375 19.323987960815429688 19.133525848388671875 18.953924179077148438 18.78558349609375 18.621873855590820312 18.462594985961914062 18.301416397094726562 18.137439727783203125 17.964323043823242188 17.780973434448242188 17.581174850463867188 17.366327285766601562 17.139055252075195312 16.912374496459960938 16.692895889282226562 16.494493484497070312 16.322662353515625 16.183208465576171875 16.066827774047851562 15.967461585998535156 15.874756813049316406 15.781724929809570312 15.681318283081054688 15.575334548950195312 15.466968536376953125 15.362157821655273438 15.264150619506835938 15.178478240966796875 15.104378700256347656 15.039752006530761719 14.979483604431152344 14.920121192932128906 14.857057571411132812 14.788180351257324219 14.714343070983886719 14.639080047607421875 14.564976692199707031 14.495912551879882812 14.433901786804199219 14.380219459533691406 14.332453727722167969 14.28896331787109375 14.247165679931640625 14.205220222473144531 
30.120758056640625 30.108350753784179688 30.029375076293945312 29.89751434326171875 30.04736328125 30.2872314453125 30.794420242309570312 31.675418853759765625 31.37998199462890625 30.5431365966796875 30.216135025024414062 30.225376129150390625 30.348270416259765625 30.44608306884765625 30.954866409301757812 31.637022018432617188 31.011548995971679688 30.522106170654296875 30.677804946899414062 30.711406707763671875 30.702615737915039062 30.765336990356445312 30.740644454956054688 30.543043136596679688 30.342115402221679688 30.368236541748046875 30.480459213256835938 30.4988250732421875 30.454341888427734375 30.432867050170898438 30.417736053466796875 30.41594696044921875 30.428979873657226562 30.450918197631835938 30.463476181030273438 30.511907577514648438 30.59589385986328125 30.498888015747070312 30.379018783569335938 30.534206390380859375 30.581935882568359375 30.579498291015625 30.603328704833984375 30.61273193359375 30.651857376098632812 30.719785690307617188 30.767015457153320312 30.816205978393554688 30.880382537841796875 30.92598724365234375 31.017488479614257812 31.19956207275390625 31.297388076782226562 31.321729660034179688 31.329896926879882812 31.350612640380859375 31.415395736694335938 31.5799102783203125 32.220058441162109375 33.83846282958984375 34.768871307373046875 34.95302581787109375 34.534107208251953125 33.857280731201171875 33.39563751220703125 33.388248443603515625 33.627872467041015625 34.06218719482421875 34.936840057373046875 35.28667449951171875 34.817226409912109375 33.9517669677734375 33.442020416259765625 32.99840545654296875 32.87220001220703125 33.02863311767578125 32.938541412353515625 32.746776580810546875 32.5289306640625 32.32675933837890625 32.115875244140625 31.936777114868164062 31.7813262939453125 31.764039993286132812 31.711391448974609375 31.41706085205078125 31.069293975830078125 30.778106689453125 30.477291107177734375 30.0649261474609375 29.769046783447265625 29.597385406494140625 29.433141708374023438 29.274026870727539062 29.121547698974609375 28.984289169311523438 28.864322662353515625 28.764894485473632812 28.729084014892578125 28.786130905151367188 28.797746658325195312 28.770664215087890625 28.631162643432617188 27.053997039794921875 26.305507659912109375 26.28987884521484375 26.273040771484375 26.598264694213867188 27.181949615478515625 27.1876220703125 27.14891815185546875 27.093633651733398438 27.020751953125 26.93386077880859375 26.83176422119140625 26.718866348266601562 26.59409332275390625 26.465282440185546875 26.334470748901367188 26.210889816284179688 26.096982955932617188 26.000864028930664062 25.921756744384765625 25.859161376953125 25.807889938354492188 25.7657470703125 25.728048324584960938 25.693311691284179688 25.660511016845703125 25.631776809692382812 25.6076812744140625 25.590188980102539062 25.580049514770507812 25.577650070190429688 25.582071304321289062 25.592000961303710938 25.606626510620117188 25.62438201904296875 25.645313262939453125 25.669580459594726562 25.699419021606445312 25.735355377197265625 25.780046463012695312 25.8331451416015625 25.895290374755859375 25.961553573608398438 26.0305023193359375 26.096666336059570312 26.158662796020507812 26.21248626708984375 26.25994873046875 26.300775527954101562 26.33744049072265625 26.3700408935546875 26.400560379028320312 26.427968978881835938 26.452037811279296875 26.470851898193359375 26.483751296997070312 26.489221572875976562 26.486890792846679688 26.477499008178710938 26.461851119995117188 26.441530227661132812 26.4170379638671875 26.390316009521484375 26.36212921142578125 26.335168838500976562 26.310520172119140625 26.290811538696289062 26.277219772338867188 26.270776748657226562 26.269975662231445312 26.272983551025390625 26.277933120727539062 26.282772064208984375 26.285314559936523438 26.28192901611328125 26.267971038818359375 26.239276885986328125 26.190351486206054688 26.118564605712890625 26.0221710205078125 25.910711288452148438 25.789623260498046875 25.671175003051757812 25.56048583984375 25.467363357543945312 25.388515472412109375 25.321893692016601562 25.260286331176757812 25.200597763061523438 25.136310577392578125 25.067523956298828125 24.994112014770507812 24.921041488647460938 24.849033355712890625 24.783033370971679688 24.722833633422851562 24.669202804565429688 24.617795944213867188 24.567348480224609375 24.51352691650390625 24.455392837524414062 24.390949249267578125 24.32410430908203125 24.25568389892578125 24.190328598022460938 24.128814697265625 24.074693679809570312 24.025850296020507812 23.982149124145507812 23.940584182739257812 23.90067291259765625 23.859659194946289062 23.817506790161132812 23.772378921508789062 23.724872589111328125 23.6731414794921875 23.617963790893554688 23.557865142822265625 23.495431900024414062 23.43061065673828125 23.366664886474609375 23.303491592407226562 23.244039535522460938 23.186489105224609375 23.130762100219726562 23.073537826538085938 23.014398574829101562 22.950109481811523438 22.881452560424804688 22.808103561401367188 22.733898162841796875 22.6591949462890625 22.58795166015625 22.51984405517578125 22.455066680908203125 22.388025283813476562 22.315877914428710938 22.232679367065429688 22.13594818115234375 22.022115707397460938 21.89608001708984375 21.759550094604492188 21.61965179443359375 21.477674484252929688 21.339773178100585938 21.201318740844726562 21.060190200805664062 20.907958984375 20.741954803466796875 20.554058074951171875 20.346582412719726562 20.12148284912109375 19.890491485595703125 19.656986236572265625 19.433229446411132812 19.220882415771484375 19.025499343872070312 18.840717315673828125 18.667631149291992188 18.500110626220703125 18.33863067626953125 18.1771392822265625 18.014865875244140625 17.845424652099609375 17.667715072631835938 17.475519180297851562 17.270036697387695312 17.053480148315429688 16.837993621826171875 16.629602432250976562 16.441242218017578125 16.27790069580078125 16.144945144653320312 16.033502578735351562 15.937802314758300781 15.847996711730957031 15.757440567016601562 15.659443855285644531 15.555816650390625 15.449694633483886719 15.346877098083496094 15.250543594360351562 15.1660919189453125 15.092706680297851562 15.028179168701171875 14.967358589172363281 14.906698226928710938 14.84154510498046875 14.76978302001953125 14.69245147705078125 14.613363265991210938 14.535361289978027344 14.462629318237304688 14.397404670715332031 14.341196060180664062 14.291652679443359375 14.24727630615234375 14.205531120300292969 14.164714813232421875 
30.110363006591796875 30.060682296752929688 29.910814285278320312 29.840190887451171875 30.19161224365234375 30.758176803588867188 31.652843475341796875 31.603084564208984375 30.722103118896484375 30.227148056030273438 30.220834732055664062 30.334444046020507812 30.436151504516601562 30.870630264282226562 31.607149124145507812 31.181707382202148438 30.544263839721679688 30.687120437622070312 30.7119903564453125 30.601472854614257812 30.55096435546875 30.574258804321289062 30.64319610595703125 30.687887191772460938 30.639543533325195312 30.497314453125 30.36383819580078125 30.40473175048828125 30.49607086181640625 30.488607406616210938 30.458879470825195312 30.429826736450195312 30.417934417724609375 30.4322052001953125 30.464344024658203125 30.535497665405273438 30.5586090087890625 30.414112091064453125 30.56363677978515625 30.619447708129882812 30.606473922729492188 30.609434127807617188 30.627559661865234375 30.649953842163085938 30.67407989501953125 30.7251739501953125 30.756107330322265625 30.82102203369140625 30.897409439086914062 30.957952499389648438 31.062896728515625 31.163524627685546875 31.222002029418945312 31.376062393188476562 31.461246490478515625 31.42815399169921875 31.507915496826171875 31.72859954833984375 32.756336212158203125 34.13985443115234375 34.899768829345703125 34.877529144287109375 34.2374725341796875 33.58935546875 33.280437469482421875 33.430027008056640625 33.743129730224609375 34.41710662841796875 35.152008056640625 35.07840728759765625 34.370067596435546875 33.687038421630859375 33.3067474365234375 32.93206787109375 32.8748626708984375 32.990947723388671875 32.909549713134765625 32.727962493896484375 32.4853057861328125 32.2659912109375 32.05997467041015625 31.881643295288085938 31.748102188110351562 31.755603790283203125 31.663305282592773438 31.328390121459960938 31.005664825439453125 30.735904693603515625 30.411626815795898438 29.99700927734375 29.741926193237304688 29.580282211303710938 29.421718597412109375 29.268724441528320312 29.121572494506835938 28.987491607666015625 28.86693572998046875 28.764034271240234375 28.730638504028320312 28.775747299194335938 28.782308578491210938 28.759487152099609375 28.432361602783203125 26.7963409423828125 26.27777099609375 26.262151718139648438 26.245410919189453125 26.571092605590820312 27.15630340576171875 27.163417816162109375 27.125904083251953125 27.07154083251953125 26.999494552612304688 26.913553237915039062 26.812772750854492188 26.701725006103515625 26.579498291015625 26.453643798828125 26.325887680053710938 26.2049713134765625 26.092990875244140625 25.997663497924804688 25.918191909790039062 25.854465484619140625 25.801729202270507812 25.758289337158203125 25.719896316528320312 25.685413360595703125 25.653848648071289062 25.627140045166015625 25.605768203735351562 25.59145355224609375 25.58489990234375 25.586320877075195312 25.59494781494140625 25.609386444091796875 25.629016876220703125 25.652166366577148438 25.679040908813476562 25.70949554443359375 25.745767593383789062 25.7880096435546875 25.838876724243164062 25.897661209106445312 25.965015411376953125 26.035736083984375 26.108396530151367188 26.17729949951171875 26.241016387939453125 26.29538726806640625 26.342134475708007812 26.3809356689453125 26.414112091064453125 26.441789627075195312 26.465780258178710938 26.485515594482421875 26.501041412353515625 26.511249542236328125 26.515764236450195312 26.513856887817382812 26.505311965942382812 26.491136550903320312 26.471967697143554688 26.449472427368164062 26.424047470092773438 26.397626876831054688 26.370868682861328125 26.346263885498046875 26.324800491333007812 26.308843612670898438 26.299505233764648438 26.29744720458984375 26.300928115844726562 26.30759429931640625 26.31528472900390625 26.321470260620117188 26.323713302612304688 26.318452835083007812 26.301334381103515625 26.268629074096679688 26.215091705322265625 26.138576507568359375 26.037494659423828125 25.921739578247070312 25.796804428100585938 25.675266265869140625 25.562330245971679688 25.468006134033203125 25.388914108276367188 25.3228607177734375 25.262477874755859375 25.204469680786132812 25.142198562622070312 25.075557708740234375 25.004358291625976562 24.933382034301757812 24.86328887939453125 24.79885101318359375 24.739824295043945312 24.686948776245117188 24.63597869873046875 24.58570098876953125 24.531862258911132812 24.473585128784179688 24.408872604370117188 24.341581344604492188 24.272441864013671875 24.2060394287109375 24.143041610717773438 24.08702850341796875 24.035968780517578125 23.989994049072265625 23.946256637573242188 23.90454864501953125 23.862237930297851562 23.819316864013671875 23.773693084716796875 23.725717544555664062 23.673257827758789062 23.616853713989257812 23.554861068725585938 23.490045547485351562 23.422542572021484375 23.355945587158203125 23.290340423583984375 23.228969573974609375 23.170024871826171875 23.113401412963867188 23.055646896362304688 22.996257781982421875 22.931888580322265625 22.863231658935546875 22.789876937866210938 22.71556854248046875 22.640590667724609375 22.568819046020507812 22.499843597412109375 22.433847427368164062 22.36521148681640625 22.29113006591796875 22.20563507080078125 22.106287002563476562 21.98944091796875 21.859952926635742188 21.719348907470703125 21.574710845947265625 21.427125930786132812 21.2828216552734375 21.137386322021484375 20.989427566528320312 20.830991744995117188 20.660188674926757812 20.469329833984375 20.260921478271484375 20.036151885986328125 19.805845260620117188 19.572439193725585938 19.347242355346679688 19.131259918212890625 18.9302978515625 18.738775253295898438 18.558782577514648438 18.384973526000976562 18.21883392333984375 18.054752349853515625 17.892251968383789062 17.7249298095703125 17.551786422729492188 17.366657257080078125 17.170597076416015625 16.965288162231445312 16.7618560791015625 16.565557479858398438 16.388204574584960938 16.234136581420898438 16.108179092407226562 16.001943588256835938 15.909997940063476562 15.823064804077148438 15.734904289245605469 15.639226913452148438 15.537856101989746094 15.433843612670898438 15.332820892333984375 15.237870216369628906 15.154234886169433594 15.0810546875 15.016093254089355469 14.954220771789550781 14.891884803771972656 14.82444000244140625 14.749822616577148438 14.669219970703125 14.586658477783203125 14.505167961120605469 14.429170608520507812 14.361063957214355469 14.302552223205566406 14.251352310180664062 14.206109046936035156 14.164343833923339844 14.12448883056640625 
30.09278106689453125 29.957513809204101562 29.77588653564453125 29.84801483154296875 30.375719070434570312 31.432445526123046875 31.724475860595703125 30.888692855834960938 30.30187225341796875 30.17840576171875 30.295133590698242188 30.395936965942382812 30.727514266967773438 31.55551910400390625 31.329927444458007812 30.49288177490234375 30.5529327392578125 30.694484710693359375 30.607608795166015625 30.549467086791992188 30.530542373657226562 30.506067276000976562 30.466615676879882812 30.50150299072265625 30.617855072021484375 30.693639755249023438 30.592630386352539062 30.385372161865234375 30.420064926147460938 30.491916656494140625 30.508296966552734375 30.473642349243164062 30.4340667724609375 30.421293258666992188 30.471166610717773438 30.5634002685546875 30.488056182861328125 30.432249069213867188 30.6317901611328125 30.62953948974609375 30.615926742553710938 30.627824783325195312 30.640293121337890625 30.662630081176757812 30.685510635375976562 30.706890106201171875 30.746202468872070312 30.81290435791015625 30.881998062133789062 30.975835800170898438 31.123571395874023438 31.266696929931640625 31.317211151123046875 31.50212860107421875 31.584835052490234375 31.490262985229492188 31.565027236938476562 31.931814193725585938 33.24109649658203125 34.474987030029296875 34.990406036376953125 34.69112396240234375 33.959575653076171875 33.38348388671875 33.234966278076171875 33.5183563232421875 33.915767669677734375 34.697444915771484375 35.265743255615234375 34.871761322021484375 34.10736083984375 33.47748565673828125 33.105876922607421875 32.899417877197265625 32.930446624755859375 32.935955047607421875 32.88022613525390625 32.70508575439453125 32.44141387939453125 32.20322418212890625 32.006351470947265625 31.831903457641601562 31.725267410278320312 31.73705291748046875 31.591737747192382812 31.2486572265625 30.954441070556640625 30.698551177978515625 30.334543228149414062 29.936504364013671875 29.717992782592773438 29.560546875 29.404867172241210938 29.255443572998046875 29.111555099487304688 28.979581832885742188 28.859409332275390625 28.756235122680664062 28.743535995483398438 28.776386260986328125 28.772388458251953125 28.748033523559570312 27.962549209594726562 26.41194915771484375 26.250864028930664062 26.235279083251953125 26.218658447265625 26.542161941528320312 27.123937606811523438 27.1316680908203125 27.09482574462890625 27.04108428955078125 26.969861984252929688 26.8851776123046875 26.78639984130859375 26.678287506103515625 26.560129165649414062 26.439029693603515625 26.316265106201171875 26.1998443603515625 26.091371536254882812 25.997957229614257812 25.918743133544921875 25.854074478149414062 25.799741744995117188 25.754673004150390625 25.715152740478515625 25.680492401123046875 25.649782180786132812 25.624811172485351562 25.605989456176757812 25.594831466674804688 25.592016220092773438 25.597578048706054688 25.61086273193359375 25.630334854125976562 25.655527114868164062 25.684602737426757812 25.717889785766601562 25.754886627197265625 25.797809600830078125 25.84639739990234375 25.90326690673828125 25.967332839965820312 26.03926849365234375 26.113676071166992188 26.189189910888671875 26.259984970092773438 26.324636459350585938 26.37889862060546875 26.424388885498046875 26.460714340209960938 26.4900054931640625 26.512407302856445312 26.52951812744140625 26.541255950927734375 26.54796600341796875 26.549381256103515625 26.5454559326171875 26.536273956298828125 26.521791458129882812 26.503246307373046875 26.481073379516601562 26.456956863403320312 26.43117523193359375 26.405580520629882812 26.380723953247070312 26.358861923217773438 26.340887069702148438 26.328874588012695312 26.323877334594726562 26.326173782348632812 26.33380889892578125 26.34392547607421875 26.354085922241210938 26.361309051513671875 26.3629150390625 26.35544586181640625 26.334821701049804688 26.297780990600585938 26.239324569702148438 26.157808303833007812 26.051807403564453125 25.931585311889648438 25.802705764770507812 25.678068161010742188 25.562982559204101562 25.467664718627929688 25.388624191284179688 25.32347869873046875 25.264667510986328125 25.208644866943359375 25.148618698120117188 25.084253311157226562 25.015317916870117188 24.946422576904296875 24.878190994262695312 24.81523895263671875 24.75730133056640625 24.70510101318359375 24.65447998046875 24.604284286499023438 24.550336837768554688 24.491823196411132812 24.426740646362304688 24.358884811401367188 24.288892745971679688 24.221281051635742188 24.156614303588867188 24.098482131958007812 24.044927597045898438 23.996341705322265625 23.95000457763671875 23.905981063842773438 23.861743927001953125 23.817342758178710938 23.770460128784179688 23.721277236938476562 23.667413711547851562 23.6092376708984375 23.544958114624023438 23.477512359619140625 23.407190322875976562 23.337881088256835938 23.269817352294921875 23.206512451171875 23.146154403686523438 23.088617324829101562 23.030317306518554688 22.970682144165039062 22.906261444091796875 22.837680816650390625 22.764499664306640625 22.690454483032226562 22.615816116333007812 22.5444488525390625 22.475927352905273438 22.410345077514648438 22.34198760986328125 22.267911911010742188 22.182035446166992188 22.081800460815429688 21.9633941650390625 21.831499099731445312 21.687395095825195312 21.537994384765625 21.384105682373046875 21.23200225830078125 21.077703475952148438 20.92099761962890625 20.754819869995117188 20.578557968139648438 20.385332107543945312 20.17794036865234375 19.956365585327148438 19.729883193969726562 19.499437332153320312 19.274694442749023438 19.0556182861328125 18.848236083984375 18.648138046264648438 18.458820343017578125 18.276098251342773438 18.1028900146484375 17.934215545654296875 17.76995849609375 17.603626251220703125 17.434320449829101562 17.255855560302734375 17.069126129150390625 16.875215530395507812 16.684154510498046875 16.500364303588867188 16.334459304809570312 16.190061569213867188 16.071414947509765625 15.970622062683105469 15.882596969604492188 15.798646926879882812 15.712950706481933594 15.619618415832519531 15.52048492431640625 15.418490409851074219 15.319078445434570312 15.225216865539550781 15.141971588134765625 15.068470954895019531 15.0025177001953125 14.939082145690917969 14.874690055847167969 14.804783821105957031 14.727400779724121094 14.643827438354492188 14.558232307434082031 14.473749160766601562 14.39495086669921875 14.324327468872070312 14.26373291015625 14.21096038818359375 14.164795875549316406 14.122832298278808594 14.083634376525878906 
30.009389877319335938 29.793214797973632812 29.8312530517578125 30.221010208129882812 31.190586090087890625 31.820123672485351562 31.089410781860351562 30.346652984619140625 30.12441253662109375 30.203916549682617188 30.321657180786132812 30.549043655395507812 31.368143081665039062 31.44872283935546875 30.6262054443359375 30.511083602905273438 30.654844284057617188 30.577638626098632812 30.5052642822265625 30.491725921630859375 30.496793746948242188 30.503881454467773438 30.49092864990234375 30.427736282348632812 30.387361526489257812 30.493896484375 30.6346282958984375 30.665155410766601562 30.541301727294921875 30.3686065673828125 30.388689041137695312 30.499090194702148438 30.486268997192382812 30.447488784790039062 30.503528594970703125 30.555850982666015625 30.429454803466796875 30.544992446899414062 30.633123397827148438 30.623699188232421875 30.6236114501953125 30.63348388671875 30.637475967407226562 30.652475357055664062 30.696462631225585938 30.716608047485351562 30.76482391357421875 30.829610824584960938 30.911701202392578125 31.0464019775390625 31.209039688110351562 31.374319076538085938 31.461114883422851562 31.60311126708984375 31.663351058959960938 31.585863113403320312 31.639385223388671875 32.295604705810546875 33.74494171142578125 34.79534149169921875 34.980640411376953125 34.47037506103515625 33.7568511962890625 33.276691436767578125 33.2811279296875 33.70705413818359375 34.274990081787109375 34.764453887939453125 35.00457000732421875 34.566036224365234375 33.865871429443359375 33.366390228271484375 32.991703033447265625 32.913463592529296875 32.9492645263671875 32.9213714599609375 32.864963531494140625 32.6755218505859375 32.4093170166015625 32.157466888427734375 31.9549560546875 31.787097930908203125 31.7078399658203125 31.70952606201171875 31.511199951171875 31.183849334716796875 30.908420562744140625 30.653942108154296875 30.255712509155273438 29.890359878540039062 29.693040847778320312 29.535737991333007812 29.3818359375 29.234544754028320312 29.092725753784179688 28.962133407592773438 28.843400955200195312 28.756406784057617188 28.760072708129882812 28.779104232788085938 28.767690658569335938 28.691463470458984375 27.317729949951171875 26.264923095703125 26.225482940673828125 26.209959030151367188 26.193483352661132812 26.51226043701171875 27.085575103759765625 27.092847824096679688 27.056035995483398438 27.002553939819335938 26.932088851928710938 26.848913192749023438 26.75274658203125 26.648532867431640625 26.535793304443359375 26.421037673950195312 26.304981231689453125 26.194700241088867188 26.091175079345703125 26.00072479248046875 25.922414779663085938 25.857084274291992188 25.801156997680664062 25.7542724609375 25.713327407836914062 25.678167343139648438 25.647993087768554688 25.624490737915039062 25.608020782470703125 25.59992218017578125 25.600870132446289062 25.610713958740234375 25.62888336181640625 25.65364837646484375 25.684659957885742188 25.719861984252929688 25.759675979614257812 25.803224563598632812 25.852687835693359375 25.907382965087890625 25.96987152099609375 26.038694381713867188 26.114551544189453125 26.191915512084960938 26.2695159912109375 26.341464996337890625 26.406375885009765625 26.459966659545898438 26.503744125366210938 26.537263870239257812 26.562448501586914062 26.579465866088867188 26.589696884155273438 26.593536376953125 26.591617584228515625 26.584512710571289062 26.572490692138671875 26.556432723999023438 26.536462783813476562 26.514020919799804688 26.489328384399414062 26.46405029296875 26.43833160400390625 26.413915634155273438 26.391237258911132812 26.372314453125 26.357940673828125 26.349901199340820312 26.349180221557617188 26.355684280395507812 26.367261886596679688 26.38057708740234375 26.39293670654296875 26.400936126708984375 26.401668548583984375 26.391788482666015625 26.36748504638671875 26.325969696044921875 26.26247406005859375 26.17586517333984375 26.064870834350585938 25.940145492553710938 25.807323455810546875 25.679645538330078125 25.562530517578125 25.466403961181640625 25.387651443481445312 25.323665618896484375 25.266672134399414062 25.212827682495117188 25.155172348022460938 25.093126296997070312 25.026426315307617188 24.95953369140625 24.893060684204101562 24.831487655639648438 24.774545669555664062 24.7229461669921875 24.6726226806640625 24.622472763061523438 24.568399429321289062 24.509647369384765625 24.444204330444335938 24.375789642333984375 24.304927825927734375 24.236059188842773438 24.169614791870117188 24.109197616577148438 24.0529022216796875 24.001377105712890625 23.952013015747070312 23.9051513671875 23.858348846435546875 23.811754226684570312 23.762857437133789062 23.71173858642578125 23.6558074951171875 23.595333099365234375 23.528394699096679688 23.458095550537109375 23.384838104248046875 23.312770843505859375 23.242242813110351562 23.176996231079101562 23.115207672119140625 23.056728363037109375 22.997861862182617188 22.937967300415039062 22.873500823974609375 22.805047988891601562 22.7321929931640625 22.658723831176757812 22.5849761962890625 22.514852523803710938 22.447973251342773438 22.384290695190429688 22.317907333374023438 22.245599746704101562 22.161085128784179688 22.061527252197265625 21.942897796630859375 21.80959320068359375 21.66262054443359375 21.50864410400390625 21.348150253295898438 21.187450408935546875 21.023159027099609375 20.856586456298828125 20.681873321533203125 20.50003814697265625 20.30530548095703125 20.100830078125 19.885051727294921875 19.665174484252929688 19.440214157104492188 19.217662811279296875 18.996118545532226562 18.781808853149414062 18.571794509887695312 18.371305465698242188 18.177602767944335938 17.995372772216796875 17.820415496826171875 17.653018951416015625 17.4865264892578125 17.32012939453125 17.147563934326171875 16.969537734985351562 16.78650665283203125 16.607419967651367188 16.435834884643554688 16.281171798706054688 16.146329879760742188 16.034954071044921875 15.939609527587890625 15.855530738830566406 15.774593353271484375 15.691354751586914062 15.600322723388671875 15.503309249877929688 15.4031524658203125 15.305094718933105469 15.211983680725097656 15.128712654113769531 15.054425239562988281 14.987033843994140625 14.921680450439453125 14.855055809020996094 14.782753944396972656 14.702956199645996094 14.616986274719238281 14.529059410095214844 14.442308425903320312 14.361349105834960938 14.288681983947753906 14.226258277893066406 14.171963691711425781 14.124737739562988281 14.082271575927734375 14.043280601501464844 
29.856767654418945312 29.780302047729492188 30.1213226318359375 31.053466796875 31.827545166015625 31.335048675537109375 30.516201019287109375 30.126344680786132812 30.079885482788085938 30.21056365966796875 30.493312835693359375 31.246194839477539062 31.511308670043945312 30.70233154296875 30.461496353149414062 30.653774261474609375 30.580232620239257812 30.488155364990234375 30.460235595703125 30.45455169677734375 30.472278594970703125 30.487398147583007812 30.499835968017578125 30.492994308471679688 30.437387466430664062 30.383176803588867188 30.416707992553710938 30.582490921020507812 30.718164443969726562 30.632520675659179688 30.432895660400390625 30.35497283935546875 30.430721282958984375 30.499176025390625 30.539358139038085938 30.452144622802734375 30.461790084838867188 30.602161407470703125 30.617506027221679688 30.610651016235351562 30.633901596069335938 30.6490020751953125 30.651189804077148438 30.661653518676757812 30.693056106567382812 30.733625411987304688 30.782770156860351562 30.856594085693359375 31.005578994750976562 31.156454086303710938 31.36362457275390625 31.498485565185546875 31.56159210205078125 31.679662704467773438 31.7645416259765625 31.711822509765625 31.799840927124023438 32.86330413818359375 34.22478485107421875 34.894565582275390625 34.78417205810546875 34.17887115478515625 33.5731201171875 33.239604949951171875 33.388286590576171875 33.831836700439453125 34.50273895263671875 34.908031463623046875 35.009944915771484375 34.4832916259765625 33.5965423583984375 33.194622039794921875 32.970890045166015625 32.916515350341796875 32.923801422119140625 32.916591644287109375 32.846622467041015625 32.6385955810546875 32.360286712646484375 32.105022430419921875 31.905628204345703125 31.749942779541015625 31.695898056030273438 31.674860000610351562 31.436641693115234375 31.12996673583984375 30.87296295166015625 30.610345840454101562 30.172815322875976562 29.828046798706054688 29.6565399169921875 29.504032135009765625 29.351770401000976562 29.205982208251953125 29.065855026245117188 28.93619537353515625 28.813619613647460938 28.745767593383789062 28.767114639282226562 28.77404022216796875 28.757045745849609375 28.450090408325195312 26.72080230712890625 26.218515396118164062 26.201105117797851562 26.185670852661132812 26.169368743896484375 26.481134414672851562 27.041507720947265625 27.0474090576171875 27.01009368896484375 26.9565887451171875 26.886859893798828125 26.805431365966796875 26.7123870849609375 26.6128387451171875 26.506542205810546875 26.3993072509765625 26.291223526000976562 26.188276290893554688 26.090753555297851562 26.004060745239257812 25.927154541015625 25.861408233642578125 25.803953170776367188 25.755193710327148438 25.71270751953125 25.676923751831054688 25.647182464599609375 25.625066757202148438 25.61090087890625 25.6058502197265625 25.61060333251953125 25.624805450439453125 25.647953033447265625 25.678098678588867188 25.714990615844726562 25.75632476806640625 25.80260467529296875 25.852579116821289062 25.9084014892578125 25.968976974487304688 26.0368194580078125 26.11011505126953125 26.18958282470703125 26.269580841064453125 26.348913192749023438 26.421649932861328125 26.486423492431640625 26.53894805908203125 26.580631256103515625 26.611034393310546875 26.631900787353515625 26.643465042114257812 26.646924972534179688 26.643133163452148438 26.6329803466796875 26.617801666259765625 26.598150253295898438 26.575643539428710938 26.550550460815429688 26.524496078491210938 26.4975128173828125 26.471242904663085938 26.44571685791015625 26.422571182250976562 26.402143478393554688 26.38620758056640625 26.37546539306640625 26.37142181396484375 26.37499237060546875 26.385713577270507812 26.401220321655273438 26.417694091796875 26.432165145874023438 26.4407958984375 26.440441131591796875 26.427890777587890625 26.399627685546875 26.353372573852539062 26.284618377685546875 26.192775726318359375 26.076738357543945312 25.947536468505859375 25.810871124267578125 25.68029022216796875 25.561321258544921875 25.464567184448242188 25.38629150390625 25.323642730712890625 25.268617630004882812 25.217073440551757812 25.161869049072265625 25.102174758911132812 25.037702560424804688 24.972784042358398438 24.908021926879882812 24.847776412963867188 24.791782379150390625 24.740756988525390625 24.69072723388671875 24.640661239624023438 24.586544036865234375 24.527688980102539062 24.462060928344726562 24.393268585205078125 24.321685791015625 24.251628875732421875 24.183366775512695312 24.120479583740234375 24.06111907958984375 24.006219863891601562 23.953296661376953125 23.903001785278320312 23.852983474731445312 23.803531646728515625 23.751949310302734375 23.698270797729492188 23.639696121215820312 23.576446533203125 23.5064697265625 23.433042526245117188 23.356649398803710938 23.281690597534179688 23.208600997924804688 23.141340255737304688 23.078062057495117188 23.018602371215820312 22.959140777587890625 22.89897918701171875 22.834482192993164062 22.766201019287109375 22.693780899047851562 22.621089935302734375 22.548566818237304688 22.48018646240234375 22.415651321411132812 22.354734420776367188 22.291311264038085938 22.22177886962890625 22.139617919921875 22.041612625122070312 21.923496246337890625 21.78934478759765625 21.6399078369140625 21.481594085693359375 21.314573287963867188 21.14520263671875 20.970788955688476562 20.794300079345703125 20.611217498779296875 20.424356460571289062 20.2291717529296875 20.0291748046875 19.821073532104492188 19.609712600708007812 19.391941070556640625 19.172756195068359375 18.9492340087890625 18.727766036987304688 18.507051467895507812 18.294202804565429688 18.08808135986328125 17.895320892333984375 17.71258544921875 17.540651321411132812 17.372705459594726562 17.2080841064453125 17.040464401245117188 16.870409011840820312 16.697711944580078125 16.5302276611328125 16.370611190795898438 16.227064132690429688 16.101720809936523438 15.997605323791503906 15.907729148864746094 15.8276214599609375 15.749698638916015625 15.668878555297851562 15.580047607421875 15.485004425048828125 15.386475563049316406 15.289520263671875 15.196864128112792969 15.113242149353027344 15.037842750549316406 14.968749046325683594 14.901330947875976562 14.832509994506835938 14.758081436157226562 14.676402091979980469 14.58876800537109375 14.499325752258300781 14.411098480224609375 14.3286285400390625 14.254334449768066406 14.190217971801757812 14.134305000305175781 14.085722923278808594 14.042315483093261719 14.002991676330566406 
29.85182952880859375 30.162221908569335938 30.8464202880859375 31.7276458740234375 31.453351974487304688 30.619432449340820312 30.257823944091796875 30.135669708251953125 30.147459030151367188 30.372964859008789062 31.119756698608398438 31.7578582763671875 30.909208297729492188 30.4869232177734375 30.648571014404296875 30.609272003173828125 30.492242813110351562 30.44358062744140625 30.438465118408203125 30.437419891357421875 30.475696563720703125 30.498529434204101562 30.49784088134765625 30.50018310546875 30.496011734008789062 30.4669342041015625 30.404056549072265625 30.402433395385742188 30.540431976318359375 30.715623855590820312 30.839811325073242188 30.575984954833984375 30.315019607543945312 30.3950347900390625 30.458553314208984375 30.356748580932617188 30.523296356201171875 30.5809173583984375 30.594297409057617188 30.597352981567382812 30.632249832153320312 30.657178878784179688 30.668500900268554688 30.693487167358398438 30.712224960327148438 30.755937576293945312 30.8059234619140625 30.890926361083984375 31.084581375122070312 31.284402847290039062 31.503450393676757812 31.650976181030273438 31.7108917236328125 31.786464691162109375 31.842317581176757812 31.7467803955078125 32.088817596435546875 33.46877288818359375 34.53997802734375 34.8904266357421875 34.518646240234375 33.881298065185546875 33.39694976806640625 33.20905303955078125 33.420101165771484375 33.686260223388671875 34.221195220947265625 34.8849945068359375 35.152187347412109375 34.480655670166015625 33.52993011474609375 33.192676544189453125 32.990570068359375 32.92395782470703125 32.923065185546875 32.911785125732421875 32.8198394775390625 32.59128570556640625 32.297344207763671875 32.0462493896484375 31.862283706665039062 31.71849822998046875 31.682811737060546875 31.641035079956054688 31.374448776245117188 31.076446533203125 30.82806396484375 30.539731979370117188 30.100406646728515625 29.78862762451171875 29.619131088256835938 29.46689605712890625 29.315210342407226562 29.170215606689453125 29.031812667846679688 28.905145645141601562 28.790668487548828125 28.7553863525390625 28.7781982421875 28.775482177734375 28.746408462524414062 27.958566665649414062 26.364168167114257812 26.193338394165039062 26.178396224975585938 26.163087844848632812 26.146986007690429688 26.449907302856445312 26.9936981201171875 26.997457504272460938 26.959197998046875 26.905462265014648438 26.836467742919921875 26.75695037841796875 26.667327880859375 26.572841644287109375 26.473455429077148438 26.374237060546875 26.274633407592773438 26.179508209228515625 26.088445663452148438 26.005895614624023438 25.930707931518554688 25.864795684814453125 25.80600738525390625 25.755527496337890625 25.711629867553710938 25.675327301025390625 25.646099090576171875 25.62541961669921875 25.613559722900390625 25.611507415771484375 25.61994171142578125 25.638317108154296875 25.666179656982421875 25.701375961303710938 25.743740081787109375 25.79073333740234375 25.842937469482421875 25.898775100708007812 25.960397720336914062 26.026361465454101562 26.09915924072265625 26.176664352416992188 26.25960540771484375 26.342182159423828125 26.423215866088867188 26.496690750122070312 26.561197280883789062 26.612440109252929688 26.65178680419921875 26.678890228271484375 26.695409774780273438 26.701734542846679688 26.6989593505859375 26.688348770141601562 26.670963287353515625 26.648754119873046875 26.622461318969726562 26.594287872314453125 26.564603805541992188 26.535219192504882812 26.506029129028320312 26.47870635986328125 26.453207015991210938 26.431119918823242188 26.412698745727539062 26.399515151977539062 26.3921966552734375 26.391984939575195312 26.399751663208007812 26.414667129516601562 26.4341278076171875 26.453786849975585938 26.470363616943359375 26.479555130004882812 26.4779510498046875 26.462499618530273438 26.430025100708007812 26.37882232666015625 26.30469512939453125 26.207654953002929688 26.086774826049804688 25.953418731689453125 25.81329345703125 25.68019866943359375 25.559709548950195312 25.462568283081054688 25.384901046752929688 25.323637008666992188 25.27056884765625 25.221273422241210938 25.168443679809570312 25.111019134521484375 25.048696517944335938 24.985675811767578125 24.922552108764648438 24.863576889038085938 24.808488845825195312 24.758024215698242188 24.708324432373046875 24.658445358276367188 24.604478836059570312 24.545806884765625 24.480367660522460938 24.411590576171875 24.339649200439453125 24.2686614990234375 24.198680877685546875 24.133220672607421875 24.070508956909179688 24.011814117431640625 23.954814910888671875 23.9005279541015625 23.846729278564453125 23.793888092041015625 23.739122390747070312 23.682432174682617188 23.620817184448242188 23.5544586181640625 23.481174468994140625 23.404413223266601562 23.324728012084960938 23.24676513671875 23.1710357666015625 23.101713180541992188 23.036914825439453125 22.976461410522460938 22.916408538818359375 22.855997085571289062 22.791494369506835938 22.723421096801757812 22.651479721069335938 22.57962799072265625 22.50841522216796875 22.44188690185546875 22.37982940673828125 22.321836471557617188 22.261541366577148438 22.194955825805664062 22.115312576293945312 22.01900482177734375 21.90154266357421875 21.7667388916015625 21.615156173706054688 21.453008651733398438 21.280233383178710938 21.103267669677734375 20.920085906982421875 20.735185623168945312 20.545312881469726562 20.354928970336914062 20.160646438598632812 19.966245651245117188 19.766752243041992188 19.56465911865234375 19.354709625244140625 19.139434814453125 18.914411544799804688 18.686162948608398438 18.454957962036132812 18.229719161987304688 18.010845184326171875 17.806852340698242188 17.615266799926757812 17.437458038330078125 17.266559600830078125 17.102197647094726562 16.938068389892578125 16.774721145629882812 16.611293792724609375 16.4545440673828125 16.306194305419921875 16.173227310180664062 16.056980133056640625 15.959837913513183594 15.875219345092773438 15.798913002014160156 15.72383880615234375 15.645243644714355469 15.558361053466796875 15.464982032775878906 15.367753982543945312 15.271578788757324219 15.17908477783203125 15.094872474670410156 15.018210411071777344 14.94739532470703125 14.878056526184082031 14.807394981384277344 14.731438636779785156 14.648733139038085938 14.560454368591308594 14.470557212829589844 14.38184356689453125 14.298632621765136719 14.223173141479492188 14.157466888427734375 14.099751472473144531 14.049406051635742188 14.00449371337890625 13.9641876220703125 
30.034105300903320312 30.689218521118164062 31.672891616821289062 31.56609344482421875 30.720127105712890625 30.340738296508789062 30.308229446411132812 30.195192337036132812 30.358184814453125 31.008687973022460938 31.5942535400390625 31.236377716064453125 30.582489013671875 30.677875518798828125 30.614156723022460938 30.48313140869140625 30.43215179443359375 30.420984268188476562 30.43115997314453125 30.427875518798828125 30.451192855834960938 30.489910125732421875 30.4956512451171875 30.495672225952148438 30.4954986572265625 30.488756179809570312 30.476009368896484375 30.439714431762695312 30.3714752197265625 30.432680130004882812 30.7223968505859375 30.83609771728515625 30.685552597045898438 30.505723953247070312 30.28975677490234375 30.242206573486328125 30.500141143798828125 30.585941314697265625 30.568021774291992188 30.590517044067382812 30.637811660766601562 30.663103103637695312 30.678524017333984375 30.714548110961914062 30.739999771118164062 30.783178329467773438 30.832767486572265625 30.929931640625 31.150281906127929688 31.367864608764648438 31.579816818237304688 31.77393341064453125 31.864648818969726562 31.93830108642578125 31.920103073120117188 31.786722183227539062 32.4810028076171875 33.942020416259765625 34.750263214111328125 34.816661834716796875 34.288944244384765625 33.697170257568359375 33.285190582275390625 33.190502166748046875 33.3576507568359375 33.517269134521484375 34.065052032470703125 34.768840789794921875 35.11235809326171875 34.5150909423828125 33.611812591552734375 33.212406158447265625 32.987155914306640625 32.9249114990234375 32.923091888427734375 32.903072357177734375 32.7847747802734375 32.53800201416015625 32.246673583984375 31.992919921875 31.81903076171875 31.680379867553710938 31.66490936279296875 31.603952407836914062 31.319181442260742188 31.020547866821289062 30.7816619873046875 30.459207534790039062 30.019071578979492188 29.742876052856445312 29.57794952392578125 29.4244232177734375 29.272085189819335938 29.126630783081054688 28.988922119140625 28.867099761962890625 28.783140182495117188 28.784427642822265625 28.793180465698242188 28.776851654052734375 28.703861236572265625 27.562097549438476562 26.24318695068359375 26.171720504760742188 26.156873703002929688 26.141721725463867188 26.125858306884765625 26.418304443359375 26.942272186279296875 26.943218231201171875 26.903665542602539062 26.849569320678710938 26.781358718872070312 26.70391845703125 26.617944717407226562 26.528734207153320312 26.436428070068359375 26.34534454345703125 26.254314422607421875 26.167093276977539062 26.082586288452148438 26.004308700561523438 25.931024551391601562 25.865167617797851562 25.805301666259765625 25.753385543823242188 25.708375930786132812 25.671863555908203125 25.643442153930664062 25.6244354248046875 25.615037918090820312 25.616024017333984375 25.628042221069335938 25.650335311889648438 25.682523727416992188 25.722272872924804688 25.769506454467773438 25.821493148803710938 25.878902435302734375 25.939907073974609375 26.0066986083984375 26.077566146850585938 26.155033111572265625 26.236722946166992188 26.323345184326171875 26.408842086791992188 26.491964340209960938 26.566484451293945312 26.630868911743164062 26.68076324462890625 26.717576980590820312 26.741199493408203125 26.75333404541015625 26.754667282104492188 26.746297836303710938 26.729862213134765625 26.706464767456054688 26.678466796875 26.646665573120117188 26.61365509033203125 26.579833984375 26.547220230102539062 26.515655517578125 26.486934661865234375 26.461011886596679688 26.439510345458984375 26.422651290893554688 26.411840438842773438 26.40765380859375 26.4111175537109375 26.423074722290039062 26.442327499389648438 26.465972900390625 26.489061355590820312 26.507925033569335938 26.517717361450195312 26.514703750610351562 26.496034622192382812 26.458955764770507812 26.40244293212890625 26.322704315185546875 26.2204437255859375 26.094944000244140625 25.957828521728515625 25.814741134643554688 25.67961883544921875 25.558023452758789062 25.460742950439453125 25.383785247802734375 25.323884963989257812 25.272678375244140625 25.225505828857421875 25.17493438720703125 25.119695663452148438 25.059469223022460938 24.998315811157226562 24.936819076538085938 24.879106521606445312 24.824930191040039062 24.775058746337890625 24.725778579711914062 24.676259994506835938 24.622735977172851562 24.564676284790039062 24.49997711181640625 24.431795120239257812 24.360033035278320312 24.288501739501953125 24.216958999633789062 24.148799896240234375 24.08235931396484375 24.019317626953125 23.957592010498046875 23.89865875244140625 23.840473175048828125 23.783735275268554688 23.725351333618164062 23.665285110473632812 23.600299835205078125 23.530536651611328125 23.45365142822265625 23.373287200927734375 23.29006195068359375 23.208883285522460938 23.130344390869140625 23.058839797973632812 22.99245452880859375 22.930978775024414062 22.87033843994140625 22.809701919555664062 22.745227813720703125 22.677394866943359375 22.605939865112304688 22.534883499145507812 22.464857101440429688 22.399957656860351562 22.340036392211914062 22.284517288208007812 22.226819992065429688 22.162614822387695312 22.08490753173828125 21.989759445190429688 21.87250518798828125 21.736818313598632812 21.583187103271484375 21.417776107788085938 21.240406036376953125 21.057664871215820312 20.86808013916015625 20.6773681640625 20.483282089233398438 20.29157257080078125 20.099788665771484375 19.9118194580078125 19.721204757690429688 19.52831268310546875 19.326040267944335938 19.114696502685546875 18.888536453247070312 18.65415191650390625 18.413198471069335938 18.1761627197265625 17.944776535034179688 17.729215621948242188 17.52782440185546875 17.342702865600585938 17.167127609252929688 17.001232147216796875 16.838909149169921875 16.680879592895507812 16.525625228881835938 16.378797531127929688 16.241117477416992188 16.1183013916015625 16.010833740234375 15.920436859130859375 15.840884208679199219 15.7682037353515625 15.695784568786621094 15.619174003601074219 15.533931732177734375 15.441866874694824219 15.345578193664550781 15.249850273132324219 15.157250404357910156 15.072296142578125 14.994351387023925781 14.921965599060058594 14.851049423217773438 14.779120445251464844 14.70246124267578125 14.619790077209472656 14.532071113586425781 14.442931175231933594 14.354814529418945312 14.271663665771484375 14.195453643798828125 14.128151893615722656 14.068295478820800781 14.015604019165039062 13.968472480773925781 13.926428794860839844 
30.54949951171875 31.548969268798828125 31.655790328979492188 30.786296844482421875 30.279649734497070312 30.32558441162109375 30.289552688598632812 30.302442550659179688 30.9179534912109375 31.68670654296875 31.30384063720703125 30.623439788818359375 30.65374755859375 30.650506973266601562 30.50736236572265625 30.45206451416015625 30.453266143798828125 30.45819854736328125 30.45397186279296875 30.443258285522460938 30.448810577392578125 30.458936691284179688 30.463907241821289062 30.478635787963867188 30.483430862426757812 30.468324661254882812 30.455493927001953125 30.451007843017578125 30.4162139892578125 30.37995147705078125 30.447172164916992188 30.692775726318359375 30.920415878295898438 30.8876800537109375 30.63470458984375 30.373950958251953125 30.3662872314453125 30.568864822387695312 30.592517852783203125 30.607051849365234375 30.644147872924804688 30.662172317504882812 30.681112289428710938 30.71439361572265625 30.7505645751953125 30.789306640625 30.838863372802734375 30.96942901611328125 31.1817169189453125 31.394603729248046875 31.632602691650390625 31.76114654541015625 31.871282577514648438 32.00699615478515625 31.908861160278320312 31.926073074340820312 32.98952484130859375 34.291599273681640625 34.8310394287109375 34.6876373291015625 34.081958770751953125 33.52845001220703125 33.208759307861328125 33.199222564697265625 33.308177947998046875 33.54372406005859375 34.23825836181640625 34.9553070068359375 35.048480987548828125 34.27129364013671875 33.75690460205078125 33.271282196044921875 32.96843719482421875 32.92024993896484375 32.9219818115234375 32.88842010498046875 32.748119354248046875 32.493030548095703125 32.1914215087890625 31.947851181030273438 31.777715682983398438 31.649566650390625 31.654300689697265625 31.554002761840820312 31.262578964233398438 30.974393844604492188 30.740888595581054688 30.373819351196289062 29.932126998901367188 29.682666778564453125 29.531286239624023438 29.37863922119140625 29.224925994873046875 29.077291488647460938 28.935396194458007812 28.819269180297851562 28.7942047119140625 28.808176040649414062 28.802190780639648438 28.77133941650390625 28.550489425659179688 26.903337478637695312 26.170339584350585938 26.151868820190429688 26.137157440185546875 26.122203826904296875 26.106609344482421875 26.3875274658203125 26.88951873779296875 26.88716888427734375 26.8460845947265625 26.79157257080078125 26.724199295043945312 26.648904800415039062 26.566568374633789062 26.482452392578125 26.3968048095703125 26.313261032104492188 26.23011016845703125 26.15013885498046875 26.071666717529296875 25.997381210327148438 25.92598724365234375 25.860395431518554688 25.799844741821289062 25.746976852416992188 25.701398849487304688 25.66519927978515625 25.638050079345703125 25.62107086181640625 25.6143341064453125 25.61835479736328125 25.633697509765625 25.65941619873046875 25.695203781127929688 25.738616943359375 25.789686203002929688 25.845554351806640625 25.907011032104492188 25.972080230712890625 26.043060302734375 26.11809539794921875 26.199817657470703125 26.285673141479492188 26.376329421997070312 26.465330123901367188 26.551218032836914062 26.627382278442382812 26.69203948974609375 26.740703582763671875 26.774938583374023438 26.7950439453125 26.802953720092773438 26.799816131591796875 26.786901473999023438 26.766130447387695312 26.738491058349609375 26.706478118896484375 26.6707611083984375 26.634059906005859375 26.596708297729492188 26.560960769653320312 26.526729583740234375 26.496049880981445312 26.468976974487304688 26.44730377197265625 26.431264877319335938 26.42218017578125 26.420598983764648438 26.42739105224609375 26.443410873413085938 26.467090606689453125 26.495159149169921875 26.521963119506835938 26.543361663818359375 26.553859710693359375 26.549337387084960938 26.527187347412109375 26.485174179077148438 26.423084259033203125 26.337627410888671875 26.230318069458007812 26.100671768188476562 25.960475921630859375 25.815196990966796875 25.678768157958984375 25.5566253662109375 25.459493637084960938 25.383287429809570312 25.324604034423828125 25.27500152587890625 25.229658126831054688 25.181079864501953125 25.127840042114257812 25.069583892822265625 25.010227203369140625 24.950323104858398438 24.893863677978515625 24.840602874755859375 24.791364669799804688 24.742624282836914062 24.693693161010742188 24.6409912109375 24.58409881591796875 24.520847320556640625 24.45401763916015625 24.383150100708007812 24.311624526977539062 24.238817214965820312 24.167924880981445312 24.097440719604492188 24.029558181762695312 23.962511062622070312 23.8983612060546875 23.835308074951171875 23.774335861206054688 23.71209716796875 23.648494720458984375 23.58000946044921875 23.50670623779296875 23.426059722900390625 23.341909408569335938 23.254953384399414062 23.17038726806640625 23.088895797729492188 23.015123367309570312 22.947111129760742188 22.884618759155273438 22.823421478271484375 22.762603759765625 22.698202133178710938 22.630624771118164062 22.559600830078125 22.489152908325195312 22.4199371337890625 22.356054306030273438 22.297361373901367188 22.243162155151367188 22.186731338500976562 22.123514175415039062 22.046361923217773438 21.951129913330078125 21.833070755004882812 21.695917129516601562 21.540258407592773438 21.372400283813476562 21.192241668701171875 21.006593704223632812 20.814327239990234375 20.621812820434570312 20.427341461181640625 20.237321853637695312 20.049818038940429688 19.868593215942382812 19.686124801635742188 19.501186370849609375 19.30535888671875 19.097309112548828125 18.870332717895507812 18.63104248046875 18.382062911987304688 18.134979248046875 17.892452239990234375 17.665861129760742188 17.454233169555664062 17.260555267333984375 17.078512191772460938 16.909030914306640625 16.746446609497070312 16.591909408569335938 16.443269729614257812 16.305093765258789062 16.177026748657226562 16.06352996826171875 15.964178085327148438 15.880006790161132812 15.80509185791015625 15.735668182373046875 15.665539741516113281 15.590518951416015625 15.506464958190917969 15.415228843688964844 15.319416046142578125 15.223753929138183594 15.130799293518066406 15.0450439453125 14.965975761413574219 14.892412185668945312 14.820547103881835938 14.748213768005371094 14.671956062316894531 14.59063720703125 14.504906654357910156 14.417904853820800781 14.33159637451171875 14.249382972717285156 14.172863960266113281 14.1039276123046875 14.041534423828125 13.985837936401367188 13.93569183349609375 13.891093254089355469 
31.380487442016601562 31.685247421264648438 30.934129714965820312 30.261249542236328125 30.2087554931640625 30.396657943725585938 30.372379302978515625 30.767141342163085938 31.584993362426757812 31.384679794311523438 30.651983261108398438 30.625860214233398438 30.663982391357421875 30.5439605712890625 30.485187530517578125 30.4688568115234375 30.478448867797851562 30.477262496948242188 30.464838027954101562 30.461957931518554688 30.473653793334960938 30.474132537841796875 30.4722747802734375 30.469091415405273438 30.458898544311523438 30.443347930908203125 30.421094894409179688 30.405740737915039062 30.392772674560546875 30.412057876586914062 30.438146591186523438 30.440662384033203125 30.581281661987304688 30.810174942016601562 30.8758087158203125 30.809528350830078125 30.527021408081054688 30.365726470947265625 30.452850341796875 30.584524154663085938 30.681200027465820312 30.684803009033203125 30.685367584228515625 30.72225189208984375 30.7743072509765625 30.824201583862304688 30.865205764770507812 30.983669281005859375 31.182300567626953125 31.417333602905273438 31.515306472778320312 31.430562973022460938 31.703115463256835938 32.00090789794921875 31.874090194702148438 32.354183197021484375 33.745059967041015625 34.602207183837890625 34.826686859130859375 34.486846923828125 33.827960968017578125 33.301464080810546875 33.10327911376953125 33.1717987060546875 33.266613006591796875 33.757610321044921875 34.48329925537109375 35.150951385498046875 35.042652130126953125 34.212554931640625 33.75948333740234375 33.206310272216796875 32.940380096435546875 32.914531707763671875 32.9210205078125 32.875324249267578125 32.714359283447265625 32.4453125 32.12859344482421875 31.903970718383789062 31.7358245849609375 31.624605178833007812 31.635690689086914062 31.498508453369140625 31.202882766723632812 30.9224700927734375 30.67447662353515625 30.28017425537109375 29.872934341430664062 29.646575927734375 29.486585617065429688 29.331254959106445312 29.175722122192382812 29.025669097900390625 28.876897811889648438 28.79169464111328125 28.82149505615234375 28.82608795166015625 28.803436279296875 28.762098312377929688 28.168867111206054688 26.413118362426757812 26.14730072021484375 26.133340835571289062 26.11881256103515625 26.104101181030273438 26.088817596435546875 26.357492446899414062 26.835859298706054688 26.8296966552734375 26.7868194580078125 26.731800079345703125 26.665256500244140625 26.592090606689453125 26.51326751708984375 26.433933258056640625 26.354375839233398438 26.277612686157226562 26.20149993896484375 26.127994537353515625 26.054931640625 25.984300613403320312 25.914781570434570312 25.849710464477539062 25.788927078247070312 25.735683441162109375 25.690174102783203125 25.654903411865234375 25.629587173461914062 25.61507415771484375 25.611284255981445312 25.618417739868164062 25.636920928955078125 25.6656494140625 25.70439910888671875 25.75067138671875 25.804616928100585938 25.863332748413085938 25.927732467651367188 25.995820999145507812 26.070064544677734375 26.148580551147460938 26.234188079833984375 26.324239730834960938 26.419332504272460938 26.512462615966796875 26.601831436157226562 26.680276870727539062 26.745626449584960938 26.79319000244140625 26.824802398681640625 26.841344833374023438 26.8451690673828125 26.8380584716796875 26.821611404418945312 26.797956466674804688 26.767803192138671875 26.733495712280273438 26.695394515991210938 26.656070709228515625 26.615697860717773438 26.576818466186523438 26.539522171020507812 26.506223678588867188 26.477186203002929688 26.454507827758789062 26.438495635986328125 26.430446624755859375 26.430917739868164062 26.44068145751953125 26.46063232421875 26.488834381103515625 26.521577835083007812 26.552396774291992188 26.576589584350585938 26.58789825439453125 26.58176422119140625 26.555850982666015625 26.508556365966796875 26.440599441528320312 26.349315643310546875 26.237140655517578125 26.10385894775390625 25.9613037109375 25.814655303955078125 25.677686691284179688 25.555591583251953125 25.458925247192382812 25.383514404296875 25.325901031494140625 25.277645111083984375 25.233850479125976562 25.187038421630859375 25.1356658935546875 25.079324722290039062 25.02176666259765625 24.963483810424804688 24.908311843872070312 24.855993270874023438 24.807430267333984375 24.759328842163085938 24.711187362670898438 24.65966033935546875 24.604463577270507812 24.543359756469726562 24.4786376953125 24.409381866455078125 24.338411331176757812 24.26462554931640625 24.190948486328125 24.116075515747070312 24.042825698852539062 23.969846725463867188 23.899898529052734375 23.831506729125976562 23.765981674194335938 23.699682235717773438 23.632406234741210938 23.560300827026367188 23.483310699462890625 23.3986968994140625 23.31050872802734375 23.219552993774414062 23.13134765625 23.046689987182617188 22.970502853393554688 22.900787353515625 22.837259292602539062 22.775524139404296875 22.71456146240234375 22.6502685546875 22.582948684692382812 22.51226043701171875 22.442169189453125 22.373285293579101562 22.309642791748046875 22.251058578491210938 22.196765899658203125 22.139982223510742188 22.076084136962890625 21.997854232788085938 21.901105880737304688 21.7811126708984375 21.641864776611328125 21.484195709228515625 21.314746856689453125 21.133661270141601562 20.948047637939453125 20.756885528564453125 20.5666046142578125 20.375555038452148438 20.190145492553710938 20.008514404296875 19.834066390991210938 19.658666610717773438 19.480072021484375 19.289134979248046875 19.08350372314453125 18.855926513671875 18.612970352172851562 18.357799530029296875 18.102624893188476562 17.850587844848632812 17.61379241943359375 17.3917999267578125 17.18862152099609375 16.998615264892578125 16.823780059814453125 16.659132003784179688 16.506494522094726562 16.363124847412109375 16.2324981689453125 16.113134384155273438 16.008218765258789062 15.916361808776855469 15.837896347045898438 15.767159461975097656 15.700566291809082031 15.632307052612304688 15.558427810668945312 15.475075721740722656 15.384176254272460938 15.288384437561035156 15.192437171936035156 15.098919868469238281 15.012360572814941406 14.9323883056640625 14.85810089111328125 14.785964012145996094 14.714130401611328125 14.639395713806152344 14.560735702514648438 14.478390693664550781 14.394865989685058594 14.311522483825683594 14.231072425842285156 14.154632568359375 14.083990097045898438 14.018635749816894531 13.959268569946289062 13.905321121215820312 13.857380867004394531 
31.715169906616210938 30.939496994018554688 30.297117233276367188 30.180982589721679688 30.32501220703125 30.422929763793945312 30.748561859130859375 31.470676422119140625 31.425266265869140625 30.666534423828125 30.59102630615234375 30.664854049682617188 30.544942855834960938 30.491497039794921875 30.496881484985351562 30.498260498046875 30.500400543212890625 30.485965728759765625 30.470378875732421875 30.477712631225585938 30.503770828247070312 30.498548507690429688 30.49115753173828125 30.472814559936523438 30.440036773681640625 30.429204940795898438 30.422214508056640625 30.412654876708984375 30.393596649169921875 30.403402328491210938 30.44158935546875 30.4570770263671875 30.449625015258789062 30.497377395629882812 30.65277099609375 30.861059188842773438 30.92101287841796875 30.713443756103515625 30.384975433349609375 30.328258514404296875 30.61653900146484375 30.796548843383789062 30.778104782104492188 30.772359848022460938 30.819667816162109375 30.889703750610351562 30.952627182006835938 31.071222305297851562 31.253833770751953125 31.430706024169921875 31.333906173706054688 31.3269805908203125 31.546680450439453125 31.7130584716796875 31.862749099731445312 32.987644195556640625 34.35047149658203125 34.82715606689453125 34.7580413818359375 34.198314666748046875 33.52358245849609375 33.1379241943359375 33.053684234619140625 33.1007843017578125 33.296783447265625 33.910175323486328125 34.473949432373046875 35.03736114501953125 34.931182861328125 34.16452789306640625 33.67801666259765625 33.104213714599609375 32.9163360595703125 32.910625457763671875 32.9174346923828125 32.857757568359375 32.673370361328125 32.382354736328125 32.069782257080078125 31.860626220703125 31.697259902954101562 31.620025634765625 31.601236343383789062 31.437826156616210938 31.132253646850585938 30.86791229248046875 30.59513092041015625 30.183912277221679688 29.807077407836914062 29.60486602783203125 29.4420166015625 29.284643173217773438 29.12854766845703125 28.978588104248046875 28.839923858642578125 28.816366195678710938 28.849369049072265625 28.836339950561523438 28.7976837158203125 28.744821548461914062 27.50609588623046875 26.206182479858398438 26.130491256713867188 26.116704940795898438 26.102407455444335938 26.087980270385742188 26.073047637939453125 26.329744338989257812 26.784679412841796875 26.774387359619140625 26.729434967041015625 26.673664093017578125 26.607686996459960938 26.53631591796875 26.4605255126953125 26.385305404663085938 26.3109283447265625 26.239900588989257812 26.169736862182617188 26.101732254028320312 26.03334808349609375 25.9660186767578125 25.898416519165039062 25.834217071533203125 25.773773193359375 25.720813751220703125 25.676036834716796875 25.642253875732421875 25.619203567504882812 25.607448577880859375 25.606756210327148438 25.617002487182617188 25.638509750366210938 25.669942855834960938 25.711194992065429688 25.759744644165039062 25.81584930419921875 25.876590728759765625 25.943014144897460938 26.013185501098632812 26.089780807495117188 26.170993804931640625 26.259870529174804688 26.353755950927734375 26.453161239624023438 26.550470352172851562 26.64347076416015625 26.724365234375 26.790529251098632812 26.8370361328125 26.866054534912109375 26.879152297973632812 26.879215240478515625 26.868755340576171875 26.849796295166015625 26.8246002197265625 26.79347991943359375 26.758396148681640625 26.719272613525390625 26.678325653076171875 26.635503768920898438 26.593633651733398438 26.553087234497070312 26.516740798950195312 26.48514556884765625 26.460796356201171875 26.4441070556640625 26.436418533325195312 26.438299179077148438 26.450481414794921875 26.473911285400390625 26.506317138671875 26.543519973754882812 26.578222274780273438 26.605119705200195312 26.617183685302734375 26.609380722045898438 26.579675674438476562 26.527139663696289062 26.453481674194335938 26.356710433959960938 26.240222930908203125 26.10407257080078125 25.960041046142578125 25.81293487548828125 25.6762237548828125 25.554788589477539062 25.458904266357421875 25.384349822998046875 25.327680587768554688 25.280536651611328125 25.23804473876953125 25.192804336547851562 25.143198013305664062 25.088750839233398438 25.033014297485351562 24.976385116577148438 24.92250823974609375 24.871099472045898438 24.823162078857421875 24.775659561157226562 24.72832489013671875 24.6780853271484375 24.624826431274414062 24.566234588623046875 24.504049301147460938 24.436841964721679688 24.366792678833007812 24.292276382446289062 24.215892791748046875 24.136566162109375 24.057786941528320312 23.978668212890625 23.9027252197265625 23.828861236572265625 23.758724212646484375 23.688352584838867188 23.617414474487304688 23.54169464111328125 23.46099090576171875 23.372331619262695312 23.279989242553710938 23.184892654418945312 23.0929107666015625 23.004972457885742188 22.926300048828125 22.854856491088867188 22.790296554565429688 22.728040695190429688 22.666948318481445312 22.602758407592773438 22.535642623901367188 22.465143203735351562 22.395107269287109375 22.326044082641601562 22.261869430541992188 22.202304840087890625 22.146595001220703125 22.08798980712890625 22.021978378295898438 21.94136810302734375 21.842100143432617188 21.719556808471679688 21.578081130981445312 21.418794631958007812 21.248746871948242188 21.068384170532226562 20.885095596313476562 20.69779205322265625 20.512523651123046875 20.327358245849609375 20.1482391357421875 19.973056793212890625 19.80472564697265625 19.634889602661132812 19.460811614990234375 19.273103713989257812 19.068952560424804688 18.840906143188476562 18.595462799072265625 18.335968017578125 18.07485198974609375 17.815387725830078125 17.5699920654296875 17.338609695434570312 17.126270294189453125 16.928148269653320312 16.747409820556640625 16.579860687255859375 16.428106307983398438 16.28887176513671875 16.164617538452148438 16.052768707275390625 15.955304145812988281 15.869907379150390625 15.79624176025390625 15.728882789611816406 15.664416313171386719 15.597387313842773438 15.524069786071777344 15.4408721923828125 15.349829673767089844 15.253659248352050781 15.157154083251953125 15.062951087951660156 14.975650787353515625 14.895032882690429688 14.82045745849609375 14.748640060424804688 14.678036689758300781 14.605673789978027344 14.530600547790527344 14.452595710754394531 14.373455047607421875 14.2938690185546875 14.215763092041015625 14.139740943908691406 14.067453384399414062 13.99898529052734375 13.935640335083007812 13.877489089965820312 13.825774192810058594 
31.032461166381835938 30.370824813842773438 30.207691192626953125 30.29673004150390625 30.399026870727539062 30.640369415283203125 31.439449310302734375 31.436975479125976562 30.64496612548828125 30.640745162963867188 30.768100738525390625 30.58531951904296875 30.4545745849609375 30.4373931884765625 30.4565887451171875 30.472415924072265625 30.482503890991210938 30.47893524169921875 30.475605010986328125 30.476915359497070312 30.488080978393554688 30.47698974609375 30.453027725219726562 30.42053985595703125 30.402965545654296875 30.400913238525390625 30.412998199462890625 30.42746734619140625 30.417280197143554688 30.405303955078125 30.42720794677734375 30.459314346313476562 30.49465179443359375 30.491846084594726562 30.4583587646484375 30.548418045043945312 30.834718704223632812 30.988006591796875 30.889568328857421875 30.48960113525390625 30.33768463134765625 30.689233779907226562 30.90804290771484375 30.909475326538085938 30.921726226806640625 31.00154876708984375 31.091520309448242188 31.206134796142578125 31.359527587890625 31.45749664306640625 31.3629302978515625 31.480983734130859375 31.594270706176757812 31.699163436889648438 32.087299346923828125 33.6439971923828125 34.70738983154296875 34.9589385986328125 34.619632720947265625 33.897113800048828125 33.290069580078125 33.06522369384765625 33.041248321533203125 33.0445709228515625 33.415088653564453125 34.00360107421875 34.405040740966796875 35.0220184326171875 34.9469146728515625 34.099163055419921875 33.58654022216796875 33.030826568603515625 32.89539337158203125 32.9060516357421875 32.9132843017578125 32.839649200439453125 32.63858795166015625 32.32071685791015625 32.011020660400390625 31.811201095581054688 31.655679702758789062 31.603506088256835938 31.550622940063476562 31.363201141357421875 31.05142974853515625 30.79384613037109375 30.493499755859375 30.087232589721679688 29.738317489624023438 29.553121566772460938 29.3943023681640625 29.237964630126953125 29.083662033081054688 28.936370849609375 28.824831008911132812 28.850328445434570312 28.865346908569335938 28.835901260375976562 28.786968231201171875 28.569688796997070312 26.869091033935546875 26.136150360107421875 26.115131378173828125 26.1015777587890625 26.087566375732421875 26.073474884033203125 26.058940887451171875 26.30438995361328125 26.736896514892578125 26.722164154052734375 26.674707412719726562 26.617725372314453125 26.551801681518554688 26.481649398803710938 26.408222198486328125 26.336343765258789062 26.266260147094726562 26.200044631958007812 26.134954452514648438 26.071737289428710938 26.007570266723632812 25.94342041015625 25.877973556518554688 25.815143585205078125 25.755697250366210938 25.7037200927734375 25.660314559936523438 25.628507614135742188 25.608066558837890625 25.599285125732421875 25.601819992065429688 25.6152496337890625 25.639797210693359375 25.673948287963867188 25.717672348022460938 25.768388748168945312 25.826444625854492188 25.888881683349609375 25.95685577392578125 26.028533935546875 26.1068267822265625 26.190059661865234375 26.281536102294921875 26.378643035888671875 26.4818115234375 26.582838058471679688 26.679075241088867188 26.762105941772460938 26.828844070434570312 26.874143600463867188 26.9005279541015625 26.910295486450195312 26.906894683837890625 26.8936004638671875 26.872903823852539062 26.847126007080078125 26.816114425659179688 26.781314849853515625 26.742124557495117188 26.7002716064453125 26.655431747436523438 26.6107330322265625 26.56687164306640625 26.527240753173828125 26.492710113525390625 26.4662322998046875 26.44834136962890625 26.440454483032226562 26.443147659301757812 26.4571533203125 26.483463287353515625 26.519502639770507812 26.560634613037109375 26.598772048950195312 26.628021240234375 26.6406097412109375 26.631055831909179688 26.597627639770507812 26.540081024169921875 26.461103439331054688 26.359399795532226562 26.23929595947265625 26.1011199951171875 25.956499099731445312 25.809810638427734375 25.674119949340820312 25.55393218994140625 25.459173202514648438 25.385599136352539062 25.329847335815429688 25.28371429443359375 25.242420196533203125 25.1987152099609375 25.15093231201171875 25.098497390747070312 25.044717788696289062 24.989858627319335938 24.937326431274414062 24.886775970458984375 24.83933258056640625 24.792255401611328125 24.745561599731445312 24.696483612060546875 24.645116806030273438 24.589084625244140625 24.52954864501953125 24.46453857421875 24.395565032958984375 24.320440292358398438 24.241422653198242188 24.157667160034179688 24.0733489990234375 23.988061904907226562 23.906095504760742188 23.826730728149414062 23.751964569091796875 23.677507400512695312 23.602880477905273438 23.523488998413085938 23.438974380493164062 23.346124649047851562 23.24945068359375 23.150022506713867188 23.054082870483398438 22.962709426879882812 22.881448745727539062 22.808214187622070312 22.742593765258789062 22.679803848266601562 22.618560791015625 22.5544281005859375 22.48741912841796875 22.41692352294921875 22.3466339111328125 22.276906967163085938 22.211515426635742188 22.150049209594726562 22.091836929321289062 22.030271530151367188 21.961114883422851562 21.877313613891601562 21.775096893310546875 21.65000152587890625 21.50670623779296875 21.346553802490234375 21.176914215087890625 20.998487472534179688 20.818834304809570312 20.6367034912109375 20.457576751708984375 20.279096603393554688 20.106540679931640625 19.937435150146484375 19.7741851806640625 19.608453750610351562 19.437353134155273438 19.251544952392578125 19.0481109619140625 18.819606781005859375 18.572479248046875 18.31005096435546875 18.04473876953125 17.779758453369140625 17.527601242065429688 17.288473129272460938 17.068323135375976562 16.863126754760742188 16.677150726318359375 16.506977081298828125 16.355951309204101562 16.220335006713867188 16.101650238037109375 15.99633026123046875 15.905244827270507812 15.825234413146972656 15.755359649658203125 15.690436363220214844 15.627253532409667969 15.560696601867675781 15.487290382385253906 15.4037017822265625 15.312087059020996094 15.215230941772460938 15.117989540100097656 15.023054122924804688 14.935107231140136719 14.854063034057617188 14.779531478881835938 14.708456993103027344 14.6395721435546875 14.5701141357421875 14.499182701110839844 14.426074028015136719 14.351836204528808594 14.276468276977539062 14.201081275939941406 14.125735282897949219 14.05194091796875 13.980398178100585938 13.91302490234375 13.850558280944824219 13.794901847839355469 
30.426561355590820312 30.292871475219726562 30.340131759643554688 30.433109283447265625 30.60932159423828125 31.262371063232421875 31.496463775634765625 30.725299835205078125 30.3781585693359375 30.622789382934570312 30.703868865966796875 30.574377059936523438 30.448965072631835938 30.416290283203125 30.415250778198242188 30.423069000244140625 30.4315643310546875 30.432464599609375 30.432647705078125 30.435901641845703125 30.44793701171875 30.44466400146484375 30.4245758056640625 30.395559310913085938 30.383880615234375 30.387393951416015625 30.397205352783203125 30.395503997802734375 30.396257400512695312 30.3959808349609375 30.4184722900390625 30.447294235229492188 30.479230880737304688 30.522365570068359375 30.525465011596679688 30.48778533935546875 30.529937744140625 30.71840667724609375 30.97281646728515625 30.808073043823242188 30.4315185546875 30.71556854248046875 31.068418502807617188 31.081539154052734375 30.98431396484375 31.05384063720703125 31.152042388916015625 31.272855758666992188 31.446683883666992188 31.527042388916015625 31.594961166381835938 31.827617645263671875 31.803548812866210938 31.793018341064453125 32.597263336181640625 34.18622589111328125 34.9207000732421875 34.963611602783203125 34.428272247314453125 33.668476104736328125 33.1732025146484375 33.039646148681640625 33.014743804931640625 33.07006072998046875 33.56241607666015625 34.01165771484375 34.64424896240234375 35.273502349853515625 34.748668670654296875 33.822261810302734375 33.3863983154296875 32.95850372314453125 32.88021087646484375 32.905055999755859375 32.905918121337890625 32.811016082763671875 32.585796356201171875 32.251087188720703125 31.954761505126953125 31.764295578002929688 31.615465164184570312 31.559965133666992188 31.504932403564453125 31.282690048217773438 30.96552276611328125 30.716552734375 30.378858566284179688 29.990297317504882812 29.690900802612304688 29.506618499755859375 29.346500396728515625 29.1931610107421875 29.04285430908203125 28.900159835815429688 28.834869384765625 28.87911224365234375 28.876224517822265625 28.831289291381835938 28.774066925048828125 28.4651031494140625 26.574554443359375 26.114915847778320312 26.101726531982421875 26.088460922241210938 26.074789047241210938 26.0610809326171875 26.046987533569335938 26.283008575439453125 26.696102142333984375 26.676801681518554688 26.626371383666992188 26.567539215087890625 26.500864028930664062 26.431013107299804688 26.358911514282226562 26.289279937744140625 26.222337722778320312 26.159833908081054688 26.098827362060546875 26.039636611938476562 25.979234695434570312 25.918210983276367188 25.855255126953125 25.794397354125976562 25.736696243286132812 25.686429977416992188 25.64499664306640625 25.615522384643554688 25.597835540771484375 25.592037200927734375 25.597749710083007812 25.614339828491210938 25.642011642456054688 25.679071426391601562 25.725515365600585938 25.778646469116210938 25.838827133178710938 25.9029998779296875 25.972379684448242188 26.045225143432617188 26.124675750732421875 26.2092132568359375 26.30237579345703125 26.401639938354492188 26.507375717163085938 26.610925674438476562 26.709276199340820312 26.793521881103515625 26.86019134521484375 26.90399169921875 26.927766799926757812 26.934476852416992188 26.928091049194335938 26.912557601928710938 26.890796661376953125 26.8651275634765625 26.834924697875976562 26.8010711669921875 26.762434005737304688 26.720211029052734375 26.673803329467773438 26.62660980224609375 26.579652786254882812 26.536828994750976562 26.499322891235351562 26.470539093017578125 26.451116561889648438 26.44255828857421875 26.445436477661132812 26.46048736572265625 26.488737106323242188 26.527372360229492188 26.571355819702148438 26.611959457397460938 26.642791748046875 26.655467987060546875 26.644128799438476562 26.607341766357421875 26.54547119140625 26.46207427978515625 26.356485366821289062 26.23384857177734375 26.094717025756835938 25.950494766235351562 25.805118560791015625 25.67118072509765625 25.552789688110351562 25.459482192993164062 25.387041091918945312 25.332227706909179688 25.287067413330078125 25.246942520141601562 25.204807281494140625 25.158966064453125 25.108713150024414062 25.057056427001953125 25.004083633422851562 24.952909469604492188 24.903104782104492188 24.855913162231445312 24.808925628662109375 24.762475967407226562 24.714128494262695312 24.664232254028320312 24.6103668212890625 24.55315399169921875 24.490110397338867188 24.422101974487304688 24.346416473388671875 24.264974594116210938 24.177133560180664062 24.08769989013671875 23.996698379516601562 23.909132003784179688 23.8246307373046875 23.745504379272460938 23.667148590087890625 23.5889434814453125 23.50594329833984375 23.417636871337890625 23.320589065551757812 23.219556808471679688 23.115756988525390625 23.015821456909179688 22.920980453491210938 22.837114334106445312 22.762086868286132812 22.695402145385742188 22.632055282592773438 22.570608139038085938 22.506439208984375 22.439382553100585938 22.368658065795898438 22.297786712646484375 22.2269439697265625 22.159748077392578125 22.095647811889648438 22.0341339111328125 21.9688568115234375 21.896005630493164062 21.808790206909179688 21.703870773315429688 21.57695770263671875 21.432910919189453125 21.273084640502929688 21.104936599731445312 20.92922210693359375 20.753475189208984375 20.576253890991210938 20.402540206909179688 20.229625701904296875 20.062227249145507812 19.897550582885742188 19.737644195556640625 19.574291229248046875 19.404642105102539062 19.219533920288085938 19.016134262084960938 18.787105560302734375 18.538873672485351562 18.274682998657226562 18.006864547729492188 17.73853302001953125 17.482152938842773438 17.238094329833984375 17.012964248657226562 16.803350448608398438 16.614316940307617188 16.443035125732421875 16.2933807373046875 16.161237716674804688 16.047357559204101562 15.947370529174804688 15.861250877380371094 15.785155296325683594 15.717694282531738281 15.653940200805664062 15.590928077697753906 15.523884773254394531 15.449628829956054688 15.365081787109375 15.272524833679199219 15.174774169921875 15.076735496520996094 14.981125831604003906 14.892686843872070312 14.811438560485839844 14.737201690673828125 14.667116165161132812 14.600150108337402344 14.533718109130859375 14.466951370239257812 14.398690223693847656 14.329285621643066406 14.258100509643554688 14.185482025146484375 14.110987663269042969 14.035989761352539062 13.96175384521484375 13.890757560729980469 13.824346542358398438 13.765035629272460938 
30.441949844360351562 30.342248916625976562 30.421693801879882812 30.676555633544921875 31.321990966796875 31.604852676391601562 30.886770248413085938 30.608640670776367188 30.746351242065429688 30.5737762451171875 30.457149505615234375 30.479112625122070312 30.4621429443359375 30.443210601806640625 30.419208526611328125 30.402523040771484375 30.404581069946289062 30.401086807250976562 30.388828277587890625 30.406930923461914062 30.407426834106445312 30.4020843505859375 30.392759323120117188 30.38458251953125 30.386999130249023438 30.39838409423828125 30.3778839111328125 30.37004852294921875 30.390804290771484375 30.395067214965820312 30.401273727416992188 30.422704696655273438 30.4618682861328125 30.519590377807617188 30.563982009887695312 30.5646514892578125 30.528051376342773438 30.521497726440429688 30.628236770629882812 30.620977401733398438 30.834115982055664062 31.09136962890625 31.12996673583984375 31.02752685546875 30.942218780517578125 31.056913375854492188 31.162593841552734375 31.280366897583007812 31.43662261962890625 31.584377288818359375 31.657052993774414062 31.818378448486328125 31.880479812622070312 31.920553207397460938 33.1763458251953125 34.56395721435546875 35.099140167236328125 34.879428863525390625 34.2117767333984375 33.517971038818359375 33.161205291748046875 33.0661468505859375 32.97795867919921875 33.09540557861328125 33.6450042724609375 34.161502838134765625 34.904117584228515625 35.39432525634765625 34.617969512939453125 33.603366851806640625 33.174610137939453125 32.90826416015625 32.8806915283203125 32.906291961669921875 32.888141632080078125 32.76844024658203125 32.512973785400390625 32.171573638916015625 31.894420623779296875 31.717227935791015625 31.590826034545898438 31.529056549072265625 31.455057144165039062 31.18666839599609375 30.868175506591796875 30.6016387939453125 30.248544692993164062 29.870199203491210938 29.604299545288085938 29.448299407958984375 29.297275543212890625 29.150007247924804688 29.0054779052734375 28.875843048095703125 28.868352890014648438 28.902849197387695312 28.879558563232421875 28.816556930541992188 28.7500457763671875 28.229442596435546875 26.459142684936523438 26.102827072143554688 26.089956283569335938 26.077045440673828125 26.063776016235351562 26.050510406494140625 26.036916732788085938 26.265790939331054688 26.663286209106445312 26.639272689819335938 26.585239410400390625 26.523687362670898438 26.455190658569335938 26.384462356567382812 26.312433242797851562 26.243822097778320312 26.178852081298828125 26.119047164916992188 26.06130218505859375 26.005596160888671875 25.948747634887695312 25.891023635864257812 25.831096649169921875 25.772975921630859375 25.717891693115234375 25.670137405395507812 25.63128662109375 25.604461669921875 25.589603424072265625 25.586732864379882812 25.595560073852539062 25.61536407470703125 25.646434783935546875 25.686906814575195312 25.736742019653320312 25.79299163818359375 25.855960845947265625 25.922369003295898438 25.993421554565429688 26.06742095947265625 26.147706985473632812 26.232908248901367188 26.32675933837890625 26.426845550537109375 26.533521652221679688 26.637880325317382812 26.73667144775390625 26.820728302001953125 26.886320114135742188 26.928131103515625 26.949251174926757812 26.953176498413085938 26.944265365600585938 26.92700958251953125 26.9046478271484375 26.879453659057617188 26.850362777709960938 26.817714691162109375 26.77989959716796875 26.73760223388671875 26.689971923828125 26.640636444091796875 26.59091949462890625 26.545162200927734375 26.504831314086914062 26.473735809326171875 26.452600479125976562 26.442989349365234375 26.445438385009765625 26.460695266723632812 26.48976898193359375 26.529687881469726562 26.575120925903320312 26.6168975830078125 26.648258209228515625 26.660411834716796875 26.647220611572265625 26.60753631591796875 26.54221343994140625 26.455524444580078125 26.347324371337890625 26.22341156005859375 26.08451080322265625 25.941724777221679688 25.7985687255859375 25.6671142578125 25.551082611083984375 25.459596633911132812 25.3885040283203125 25.334751129150390625 25.290651321411132812 25.251804351806640625 25.211423873901367188 25.167795181274414062 25.120038986206054688 25.07079315185546875 25.019908905029296875 24.970148086547851562 24.920949935913085938 24.873693466186523438 24.826318740844726562 24.779527664184570312 24.731243133544921875 24.682119369506835938 24.62972259521484375 24.574213027954101562 24.512630462646484375 24.445280075073242188 24.36896514892578125 24.285299301147460938 24.193805694580078125 24.099819183349609375 24.003726959228515625 23.911136627197265625 23.821958541870117188 23.73877716064453125 23.656698226928710938 23.574987411499023438 23.488370895385742188 23.39621734619140625 23.294885635375976562 23.18939971923828125 23.0811309814453125 22.977102279663085938 22.878717422485351562 22.792186737060546875 22.71532440185546875 22.647535324096679688 22.583576202392578125 22.521839141845703125 22.457492828369140625 22.39019012451171875 22.318958282470703125 22.247150421142578125 22.174745559692382812 22.105215072631835938 22.037855148315429688 21.97241973876953125 21.9029388427734375 21.826185226440429688 21.735769271850585938 21.628919601440429688 21.50151824951171875 21.358325958251953125 21.20040130615234375 21.034891128540039062 20.8623046875 20.689847946166992188 20.515949249267578125 20.345373153686523438 20.175333023071289062 20.01033782958984375 19.8475189208984375 19.688802719116210938 19.526079177856445312 19.356571197509765625 19.171230316162109375 18.967317581176757812 18.737583160400390625 18.488500595092773438 18.223310470581054688 17.954366683959960938 17.684766769409179688 17.427011489868164062 17.181560516357421875 16.955318450927734375 16.745145797729492188 16.556446075439453125 16.386667251586914062 16.239856719970703125 16.1116180419921875 16.002103805541992188 15.906413078308105469 15.823854446411132812 15.750118255615234375 15.683548927307128906 15.6195220947265625 15.555393218994140625 15.486757278442382812 15.410798072814941406 15.324698448181152344 15.230865478515625 15.132083892822265625 15.03327178955078125 14.937113761901855469 14.848367691040039062 14.767109870910644531 14.693333625793457031 14.624334335327148438 14.559273719787597656 14.4957122802734375 14.432796478271484375 14.368975639343261719 14.303994178771972656 14.236662864685058594 14.166673660278320312 14.093150138854980469 14.017333030700683594 13.940962791442871094 13.866990089416503906 13.797277450561523438 13.734852790832519531 
30.589433670043945312 30.448892593383789062 30.623790740966796875 31.251890182495117188 31.652973175048828125 30.98253631591796875 30.646099090576171875 30.843456268310546875 30.854907989501953125 30.727771759033203125 30.588962554931640625 30.450574874877929688 30.357639312744140625 30.397838592529296875 30.457353591918945312 30.447675704956054688 30.418064117431640625 30.398054122924804688 30.386640548706054688 30.383701324462890625 30.38460540771484375 30.371240615844726562 30.345094680786132812 30.357351303100585938 30.400341033935546875 30.422029495239257812 30.391885757446289062 30.380931854248046875 30.39899444580078125 30.404863357543945312 30.40518951416015625 30.417705535888671875 30.450656890869140625 30.509450912475585938 30.557098388671875 30.559835433959960938 30.5611419677734375 30.595991134643554688 30.645587921142578125 30.559381484985351562 30.814970016479492188 31.094411849975585938 31.165002822875976562 31.015848159790039062 30.89730072021484375 31.022844314575195312 31.30208587646484375 31.470972061157226562 31.54245758056640625 31.677492141723632812 31.723903656005859375 31.77077484130859375 31.815519332885742188 32.175647735595703125 33.7491455078125 34.83419036865234375 35.194919586181640625 34.815097808837890625 34.080806732177734375 33.44873046875 33.17041778564453125 33.069683074951171875 32.949466705322265625 33.153484344482421875 33.669322967529296875 34.50948333740234375 35.270107269287109375 35.26726531982421875 34.29651641845703125 33.455577850341796875 33.079437255859375 32.88751983642578125 32.883697509765625 32.9026641845703125 32.86664581298828125 32.7232666015625 32.434795379638671875 32.089092254638671875 31.828119277954101562 31.667308807373046875 31.59125518798828125 31.551481246948242188 31.390554428100585938 31.081914901733398438 30.761758804321289062 30.486501693725585938 30.122014999389648438 29.76348114013671875 29.5272216796875 29.390951156616210938 29.250911712646484375 29.111248016357421875 28.972650527954101562 28.873098373413085938 28.910421371459960938 28.919643402099609375 28.868696212768554688 28.7869720458984375 28.72670745849609375 27.789997100830078125 26.194849014282226562 26.092729568481445312 26.0802459716796875 26.067754745483398438 26.054944992065429688 26.042173385620117188 26.02912139892578125 26.253725051879882812 26.6406402587890625 26.611965179443359375 26.553760528564453125 26.488597869873046875 26.417108535766601562 26.344182968139648438 26.270816802978515625 26.201854705810546875 26.137582778930664062 26.0793914794921875 26.024051666259765625 25.971277236938476562 25.917783737182617188 25.863554000854492188 25.807229995727539062 25.75263214111328125 25.701030731201171875 25.65655517578125 25.620801925659179688 25.596799850463867188 25.58466339111328125 25.584482192993164062 25.5962066650390625 25.6191864013671875 25.653928756713867188 25.698413848876953125 25.752481460571289062 25.812784194946289062 25.87946319580078125 25.948869705200195312 26.022100448608398438 26.097429275512695312 26.178339004516601562 26.263570785522460938 26.3569793701171875 26.45627593994140625 26.5618438720703125 26.664819717407226562 26.761903762817382812 26.843973159790039062 26.907232284545898438 26.946498870849609375 26.964990615844726562 26.966535568237304688 26.955686569213867188 26.937250137329101562 26.914632797241210938 26.890008926391601562 26.861968994140625 26.830423355102539062 26.793378829956054688 26.751123428344726562 26.702594757080078125 26.651599884033203125 26.599683761596679688 26.551532745361328125 26.508819580078125 26.47566986083984375 26.45282745361328125 26.44189453125 26.44332122802734375 26.457845687866210938 26.486410140991210938 26.52597808837890625 26.571062088012695312 26.612340927124023438 26.642877578735351562 26.65373992919921875 26.638669967651367188 26.596761703491210938 26.529193878173828125 26.440710067749023438 26.3315277099609375 26.20784759521484375 26.070497512817382812 25.930217742919921875 25.790151596069335938 25.661848068237304688 25.548675537109375 25.459352493286132812 25.389841079711914062 25.337306976318359375 25.294401168823242188 25.256984710693359375 25.218580245971679688 25.177446365356445312 25.1324920654296875 25.08591461181640625 25.037290573120117188 24.988950729370117188 24.940172195434570312 24.892461776733398438 24.844129562377929688 24.796276092529296875 24.747188568115234375 24.697877883911132812 24.645933151245117188 24.591180801391601562 24.53026580810546875 24.463062286376953125 24.385980606079101562 24.300394058227539062 24.205913543701171875 24.1082611083984375 24.008068084716796875 23.911378860473632812 23.818288803100585938 23.7315826416015625 23.6461334228515625 23.561130523681640625 23.4710235595703125 23.375112533569335938 23.269594192504882812 23.159753799438476562 23.047115325927734375 22.939085006713867188 22.837221145629882812 22.748067855834960938 22.669374465942382812 22.600446701049804688 22.535797119140625 22.4736480712890625 22.408948898315429688 22.341173171997070312 22.26915740966796875 22.196092605590820312 22.12176513671875 22.049503326416015625 21.9784698486328125 21.908765792846679688 21.834913253784179688 21.754426956176757812 21.66144561767578125 21.553880691528320312 21.427766799926757812 21.287393569946289062 21.133129119873046875 20.9713287353515625 20.801858901977539062 20.6312408447265625 20.457891464233398438 20.2868194580078125 20.1156005859375 19.949085235595703125 19.784711837768554688 19.624637603759765625 19.460725784301757812 19.290172576904296875 19.103855133056640625 18.899000167846679688 18.66832733154296875 18.41844940185546875 18.152791976928710938 17.883943557739257812 17.615205764770507812 17.359287261962890625 17.116685867309570312 16.894130706787109375 16.688297271728515625 16.504312515258789062 16.33946990966796875 16.197513580322265625 16.073871612548828125 15.968332290649414062 15.875800132751464844 15.795223236083984375 15.722116470336914062 15.654772758483886719 15.58893585205078125 15.522358894348144531 15.451032638549804688 15.372572898864746094 15.284442901611328125 15.189145088195800781 15.08935546875 14.989934921264648438 14.893458366394042969 14.804628372192382812 14.72351837158203125 14.650244712829589844 14.582219123840332031 14.518741607666015625 14.457487106323242188 14.397607803344726562 14.337266921997070312 14.275768280029296875 14.211517333984375 14.143715858459472656 14.071168899536132812 13.995009422302246094 13.917318344116210938 13.841365814208984375 13.769380569458007812 13.704743385314941406 
30.529356002807617188 30.597921371459960938 31.189966201782226562 31.716552734375 31.126560211181640625 30.615825653076171875 30.751567840576171875 30.7373199462890625 30.6407928466796875 30.611354827880859375 30.626558303833007812 30.632108688354492188 30.571470260620117188 30.4389190673828125 30.388790130615234375 30.44649505615234375 30.485687255859375 30.469709396362304688 30.433071136474609375 30.388790130615234375 30.3667144775390625 30.35085296630859375 30.33800506591796875 30.346815109252929688 30.388072967529296875 30.415103912353515625 30.405975341796875 30.405368804931640625 30.403900146484375 30.399080276489257812 30.397233963012695312 30.40948486328125 30.438886642456054688 30.47271728515625 30.523633956909179688 30.553455352783203125 30.565950393676757812 30.598621368408203125 30.729871749877929688 30.908189773559570312 30.9382171630859375 30.741308212280273438 30.987451553344726562 31.0280303955078125 30.985843658447265625 31.049676895141601562 31.403230667114257812 31.562765121459960938 31.623456954956054688 31.69085693359375 31.757207870483398438 31.767894744873046875 31.774457931518554688 32.593044281005859375 34.23813629150390625 35.073680877685546875 35.146709442138671875 34.713352203369140625 33.977306365966796875 33.3710479736328125 33.1425628662109375 33.033397674560546875 32.91457366943359375 33.162689208984375 33.704742431640625 34.7661285400390625 35.603885650634765625 35.201389312744140625 34.0558929443359375 33.34095001220703125 33.011333465576171875 32.869007110595703125 32.87293243408203125 32.884708404541015625 32.836612701416015625 32.666408538818359375 32.34650421142578125 32.005889892578125 31.758243560791015625 31.628103256225585938 31.605159759521484375 31.539470672607421875 31.2949981689453125 30.96490478515625 30.641427993774414062 30.347187042236328125 29.987094879150390625 29.658725738525390625 29.4727020263671875 29.343023300170898438 29.209527969360351562 29.077425003051757812 28.946935653686523438 28.891384124755859375 28.936496734619140625 28.919279098510742188 28.8430633544921875 28.75873565673828125 28.707284927368164062 27.697679519653320312 26.167402267456054688 26.085004806518554688 26.076551437377929688 26.065050125122070312 26.052755355834960938 26.040470123291015625 26.027889251708984375 26.248088836669921875 26.625215530395507812 26.591846466064453125 26.529026031494140625 26.459552764892578125 26.384157180786132812 26.308010101318359375 26.232217788696289062 26.1618499755859375 26.097301483154296875 26.0399169921875 25.986368179321289062 25.936170578002929688 25.885980606079101562 25.835535049438476562 25.783420562744140625 25.733135223388671875 25.68585968017578125 25.645404815673828125 25.613267898559570312 25.59228515625 25.582811355590820312 25.58515167236328125 25.599639892578125 25.625835418701171875 25.664606094360351562 25.713771820068359375 25.772975921630859375 25.838319778442382812 25.909681320190429688 25.982885360717773438 26.058847427368164062 26.135723114013671875 26.217111587524414062 26.301822662353515625 26.393770217895507812 26.49080657958984375 26.5933990478515625 26.69298553466796875 26.786382675170898438 26.86479949951171875 26.924551010131835938 26.960737228393554688 26.976581573486328125 26.976064682006835938 26.963747024536132812 26.944545745849609375 26.921878814697265625 26.897792816162109375 26.870622634887695312 26.839952468872070312 26.80352020263671875 26.761312484741210938 26.712116241455078125 26.65985870361328125 26.606237411499023438 26.556182861328125 26.511510848999023438 26.4765625 26.45206451416015625 26.439594268798828125 26.439472198486328125 26.452396392822265625 26.479183197021484375 26.516815185546875 26.559785842895507812 26.598909378051757812 26.627237319946289062 26.63597869873046875 26.618894577026367188 26.575300216674804688 26.506540298461914062 26.417619705200195312 26.308963775634765625 26.18695831298828125 26.052455902099609375 25.91577911376953125 25.779737472534179688 25.655328750610351562 25.545602798461914062 25.458864212036132812 25.391237258911132812 25.340135574340820312 25.29860687255859375 25.262804031372070312 25.226606369018554688 25.18824005126953125 25.14636993408203125 25.1027069091796875 25.056491851806640625 25.00958251953125 24.961046218872070312 24.912527084350585938 24.862710952758789062 24.813138961791992188 24.76245880126953125 24.712093353271484375 24.65967559814453125 24.6048126220703125 24.5438232421875 24.47626495361328125 24.398225784301757812 24.310899734497070312 24.213924407958984375 24.113285064697265625 24.009756088256835938 23.9096832275390625 23.813264846801757812 23.72342681884765625 23.634857177734375 23.546710968017578125 23.453226089477539062 23.353670120239257812 23.244110107421875 23.130086898803710938 23.013250350952148438 22.90135955810546875 22.796102523803710938 22.704326629638671875 22.623722076416015625 22.5535125732421875 22.487989425659179688 22.425226211547851562 22.359975814819335938 22.291538238525390625 22.218547821044921875 22.14400482177734375 22.067474365234375 21.99212646484375 21.916971206665039062 21.842535018920898438 21.76396942138671875 21.6796722412109375 21.5844573974609375 21.47705078125 21.353618621826171875 21.2176666259765625 21.068508148193359375 20.911258697509765625 20.74477386474609375 20.574583053588867188 20.399188995361328125 20.22428131103515625 20.048183441162109375 19.876615524291992188 19.707668304443359375 19.544042587280273438 19.377437591552734375 19.204912185668945312 19.017063140869140625 18.810937881469726562 18.579099655151367188 18.3283843994140625 18.062608718872070312 17.794824600219726562 17.528753280639648438 17.277494430541992188 17.041566848754882812 16.82707977294921875 16.630098342895507812 16.4549102783203125 16.298248291015625 16.163110733032226562 16.044851303100585938 15.943102836608886719 15.852888107299804688 15.773066520690917969 15.699250221252441406 15.629877090454101562 15.561105728149414062 15.491151809692382812 15.416425704956054688 15.335042953491210938 15.244731903076171875 15.148067474365234375 15.047519683837890625 14.94780731201171875 14.851311683654785156 14.762591361999511719 14.681674957275390625 14.6087646484375 14.5413818359375 14.478949546813964844 14.419239044189453125 14.3614349365234375 14.303511619567871094 14.244471549987792969 14.182453155517578125 14.11632537841796875 14.044675827026367188 13.968555450439453125 13.890245437622070312 13.813208580017089844 13.739897727966308594 13.673898696899414062 
30.575853347778320312 31.089679718017578125 31.697330474853515625 31.157251358032226562 30.621242523193359375 30.744710922241210938 30.7077789306640625 30.574554443359375 30.513658523559570312 30.489612579345703125 30.491802215576171875 30.531488418579101562 30.62371826171875 30.6268768310546875 30.55861663818359375 30.4714202880859375 30.417377471923828125 30.457128524780273438 30.465112686157226562 30.422273635864257812 30.387125015258789062 30.373498916625976562 30.37410736083984375 30.3805389404296875 30.382923126220703125 30.384090423583984375 30.377105712890625 30.387582778930664062 30.397546768188476562 30.4031829833984375 30.397680282592773438 30.398595809936523438 30.423084259033203125 30.450138092041015625 30.488739013671875 30.539398193359375 30.566022872924804688 30.58856201171875 30.663793563842773438 30.7790069580078125 30.9024658203125 30.741849899291992188 30.704759597778320312 30.848207473754882812 31.08005523681640625 31.28974151611328125 31.44818878173828125 31.563062667846679688 31.660352706909179688 31.759050369262695312 31.817407608032226562 31.784183502197265625 31.893396377563476562 33.188793182373046875 34.6279754638671875 35.224239349365234375 35.05733489990234375 34.5567779541015625 33.825397491455078125 33.280094146728515625 33.105556488037109375 32.963588714599609375 32.9116973876953125 33.165157318115234375 33.724292755126953125 34.77970123291015625 35.6385955810546875 35.230945587158203125 34.0830841064453125 33.310016632080078125 32.9412689208984375 32.850559234619140625 32.86127471923828125 32.869110107421875 32.800617218017578125 32.59838104248046875 32.2548675537109375 31.921291351318359375 31.681766510009765625 31.593799591064453125 31.604160308837890625 31.48648834228515625 31.190389633178710938 30.838039398193359375 30.5262298583984375 30.208171844482421875 29.847606658935546875 29.569261550903320312 29.425556182861328125 29.302867889404296875 29.17413330078125 29.04953765869140625 28.937112808227539062 28.925275802612304688 28.947589874267578125 28.904150009155273438 28.814542770385742188 28.744342803955078125 28.616323471069335938 27.071559906005859375 26.109142303466796875 26.114877700805664062 26.352296829223632812 26.39595794677734375 26.382879257202148438 26.365911483764648438 26.344285964965820312 26.43819427490234375 26.620525360107421875 26.575557708740234375 26.508161544799804688 26.43426513671875 26.35471343994140625 26.274984359741210938 26.196306228637695312 26.124019622802734375 26.058641433715820312 26.001527786254882812 25.949308395385742188 25.9013671875 25.854358673095703125 25.807828903198242188 25.760295867919921875 25.714839935302734375 25.67246246337890625 25.6365203857421875 25.60832977294921875 25.590452194213867188 25.583539962768554688 25.588212966918945312 25.605295181274414062 25.634664535522460938 25.677644729614257812 25.731904983520507812 25.79682159423828125 25.8678436279296875 25.94451141357421875 26.022016525268554688 26.10102081298828125 26.179521560668945312 26.261199951171875 26.344923019409179688 26.434619903564453125 26.5283050537109375 26.626562118530273438 26.72132110595703125 26.809640884399414062 26.883266448974609375 26.938749313354492188 26.97156524658203125 26.984861373901367188 26.982608795166015625 26.96923065185546875 26.949586868286132812 26.926984786987304688 26.90332794189453125 26.876771926879882812 26.846696853637695312 26.810663223266601562 26.768461227416992188 26.718776702880859375 26.665607452392578125 26.610742568969726562 26.559268951416015625 26.5130767822265625 26.476640701293945312 26.450613021850585938 26.4365081787109375 26.434453964233398438 26.445087432861328125 26.469028472900390625 26.50335693359375 26.542669296264648438 26.578155517578125 26.60303497314453125 26.608882904052734375 26.5896148681640625 26.544757843017578125 26.475683212280273438 26.387472152709960938 26.280633926391601562 26.161546707153320312 26.031024932861328125 25.898916244506835938 25.767734527587890625 25.647897720336914062 25.542163848876953125 25.45841217041015625 25.3929595947265625 25.343486785888671875 25.303462982177734375 25.269359588623046875 25.235433578491210938 25.199893951416015625 25.161153793334960938 25.120412826538085938 25.076570510864257812 25.030992507934570312 24.982526779174804688 24.932949066162109375 24.881307601928710938 24.829593658447265625 24.77679443359375 24.724761962890625 24.671190261840820312 24.6155548095703125 24.553905487060546875 24.485584259033203125 24.406419754028320312 24.317468643188476562 24.218362808227539062 24.115253448486328125 24.008983612060546875 23.906101226806640625 23.806837081909179688 23.714229583740234375 23.622837066650390625 23.531812667846679688 23.435253143310546875 23.332429885864257812 23.219318389892578125 23.101655960083007812 22.981166839599609375 22.865873336791992188 22.75754547119140625 22.663259506225585938 22.580661773681640625 22.50894927978515625 22.442264556884765625 22.378614425659179688 22.312610626220703125 22.24343109130859375 22.169450759887695312 22.093435287475585938 22.014652252197265625 21.936046600341796875 21.856433868408203125 21.776811599731445312 21.693050384521484375 21.604574203491210938 21.506971359252929688 21.39990997314453125 21.279684066772460938 21.148834228515625 21.005382537841796875 20.85294342041015625 20.689128875732421875 20.518280029296875 20.339052200317382812 20.1580810546875 19.974687576293945312 19.795780181884765625 19.620311737060546875 19.451725006103515625 19.28147125244140625 19.106393814086914062 18.916675567626953125 18.709087371826171875 18.475963592529296875 18.22442626953125 17.958818435668945312 17.692821502685546875 17.430721282958984375 17.18614959716796875 16.95961761474609375 16.756305694580078125 16.571355819702148438 16.407804489135742188 16.261533737182617188 16.134481430053710938 16.0220184326171875 15.9238128662109375 15.835261344909667969 15.755377769470214844 15.680086135864257812 15.608129501342773438 15.536078453063964844 15.462625503540039062 15.384584426879882812 15.300562858581542969 15.208536148071289062 15.111080169677734375 15.010376930236816406 14.910909652709960938 14.814783096313476562 14.726317405700683594 14.645470619201660156 14.572531700134277344 14.505163192749023438 14.442922592163085938 14.383707046508789062 14.326776504516601562 14.270012855529785156 14.212253570556640625 14.151475906372070312 14.086366653442382812 14.015382766723632812 13.939515113830566406 13.861124038696289062 13.78375244140625 13.709947586059570312 13.643380165100097656 
30.90084075927734375 31.668897628784179688 31.337841033935546875 30.572849273681640625 30.697460174560546875 30.745426177978515625 30.603023529052734375 30.518781661987304688 30.481536865234375 30.44976806640625 30.425336837768554688 30.416835784912109375 30.4444122314453125 30.494230270385742188 30.575933456420898438 30.635751724243164062 30.546087265014648438 30.44918060302734375 30.396726608276367188 30.444940567016601562 30.486967086791992188 30.460603713989257812 30.435762405395507812 30.425401687622070312 30.40157318115234375 30.382610321044921875 30.352092742919921875 30.357137680053710938 30.383167266845703125 30.395109176635742188 30.392278671264648438 30.396587371826171875 30.417810440063476562 30.4363555908203125 30.47280120849609375 30.531005859375 30.568368911743164062 30.597467422485351562 30.644374847412109375 30.681489944458007812 30.737110137939453125 30.781620025634765625 30.741506576538085938 30.752099990844726562 31.179883956909179688 31.426883697509765625 31.463275909423828125 31.567935943603515625 31.71620941162109375 31.86835479736328125 31.83560943603515625 31.739553451538085938 32.230663299560546875 33.834972381591796875 34.922550201416015625 35.23111724853515625 34.91367340087890625 34.34902191162109375 33.61786651611328125 33.1753387451171875 33.04587554931640625 32.857486724853515625 32.862773895263671875 33.154544830322265625 33.8474578857421875 35.026645660400390625 35.74163055419921875 35.070331573486328125 33.967533111572265625 33.28546142578125 32.892139434814453125 32.845424652099609375 32.858089447021484375 32.85216522216796875 32.753223419189453125 32.525157928466796875 32.16464996337890625 31.836700439453125 31.614391326904296875 31.576013565063476562 31.576341629028320312 31.407159805297851562 31.074245452880859375 30.697061538696289062 30.375988006591796875 30.065084457397460938 29.737390518188476562 29.529790878295898438 29.39600372314453125 29.267847061157226562 29.140420913696289062 29.023227691650390625 28.938413619995117188 28.955984115600585938 28.946834564208984375 28.87779998779296875 28.784284591674804688 28.733675003051757812 28.589389801025390625 26.88263702392578125 26.084377288818359375 26.1462860107421875 26.664495468139648438 26.785037994384765625 26.771741867065429688 26.74910736083984375 26.715806961059570312 26.673101425170898438 26.620004653930664062 26.558290481567382812 26.48661041259765625 26.408563613891601562 26.325094223022460938 26.241964340209960938 26.160503387451171875 26.08629608154296875 26.019968032836914062 25.962940216064453125 25.911853790283203125 25.866031646728515625 25.8221893310546875 25.779741287231445312 25.737142562866210938 25.696977615356445312 25.659997940063476562 25.629018783569335938 25.605096817016601562 25.590473175048828125 25.586124420166015625 25.59307098388671875 25.612697601318359375 25.645290374755859375 25.692697525024414062 25.75243377685546875 25.82357025146484375 25.900800704956054688 25.983266830444335938 26.065441131591796875 26.147684097290039062 26.22780609130859375 26.3095703125 26.391902923583984375 26.478740692138671875 26.568281173706054688 26.661256790161132812 26.750211715698242188 26.832523345947265625 26.900600433349609375 26.951313018798828125 26.980581283569335938 26.991399765014648438 26.9876251220703125 26.973440170288085938 26.95352935791015625 26.93100738525390625 26.907621383666992188 26.8814239501953125 26.851667404174804688 26.815807342529296875 26.773523330688476562 26.723438262939453125 26.669588088989257812 26.613803863525390625 26.561260223388671875 26.51387786865234375 26.47620391845703125 26.448766708374023438 26.432956695556640625 26.428668975830078125 26.436426162719726562 26.456598281860351562 26.486410140991210938 26.520666122436523438 26.551153182983398438 26.571386337280273438 26.5735321044921875 26.551769256591796875 26.505838394165039062 26.437044143676757812 26.350414276123046875 26.246448516845703125 26.131380081176757812 26.005931854248046875 25.8794097900390625 25.754030227661132812 25.639577865600585938 25.53852081298828125 25.45827484130859375 25.395372390747070312 25.34777069091796875 25.30939483642578125 25.277057647705078125 25.245424270629882812 25.212694168090820312 25.177034378051757812 25.139139175415039062 25.097566604614257812 25.053197860717773438 25.004650115966796875 24.95383453369140625 24.900150299072265625 24.846029281616210938 24.790792465209960938 24.736715316772460938 24.681562423706054688 24.624727249145507812 24.562021255493164062 24.492618560791015625 24.412128448486328125 24.321504592895507812 24.220338821411132812 24.114925384521484375 24.006124496459960938 23.900640487670898438 23.79871368408203125 23.703485488891601562 23.609426498413085938 23.515735626220703125 23.416410446166992188 23.3107757568359375 23.194721221923828125 23.074113845825195312 22.950664520263671875 22.832546234130859375 22.721523284912109375 22.624807357788085938 22.540021896362304688 22.46643829345703125 22.398157119750976562 22.3332366943359375 22.26625823974609375 22.196323394775390625 22.121488571166992188 22.044155120849609375 21.963186264038085938 21.8811798095703125 21.796667098999023438 21.711139678955078125 21.621301651000976562 21.52774810791015625 21.4269561767578125 21.319683074951171875 21.202383041381835938 21.076555252075195312 20.93878173828125 20.791044235229492188 20.629568099975585938 20.457399368286132812 20.273357391357421875 20.085155487060546875 19.893218994140625 19.705797195434570312 19.5228118896484375 19.348535537719726562 19.174123764038085938 18.996173858642578125 18.804391860961914062 18.5952301025390625 18.360750198364257812 18.108419418334960938 17.843194961547851562 17.579494476318359375 17.322278976440429688 17.085794448852539062 16.87052154541015625 16.680501937866210938 16.509748458862304688 16.359762191772460938 16.225385665893554688 16.107278823852539062 16.000909805297851562 15.906142234802246094 15.818942070007324219 15.738667488098144531 15.661726951599121094 15.587271690368652344 15.512274742126464844 15.435871124267578125 15.355243682861328125 15.269457817077636719 15.176698684692382812 15.07944488525390625 14.979514122009277344 14.881028175354003906 14.785745620727539062 14.697632789611816406 14.61656951904296875 14.54297637939453125 14.474720954895019531 14.411568641662597656 14.351603507995605469 14.29424285888671875 14.237347602844238281 14.179693222045898438 14.119167327880859375 14.054387092590332031 13.983732223510742188 13.908147811889648438 13.829992294311523438 13.75279998779296875 13.679112434387207031 13.61260223388671875 
31.357023239135742188 31.353521347045898438 30.6582183837890625 30.657444000244140625 30.724039077758789062 30.597560882568359375 30.518678665161132812 30.484893798828125 30.462804794311523438 30.4269561767578125 30.396440505981445312 30.3811492919921875 30.367160797119140625 30.364027023315429688 30.40218353271484375 30.49724578857421875 30.5910186767578125 30.620227813720703125 30.512742996215820312 30.387178421020507812 30.467611312866210938 30.5299835205078125 30.504014968872070312 30.465333938598632812 30.418254852294921875 30.385553359985351562 30.3726348876953125 30.368421554565429688 30.377710342407226562 30.388767242431640625 30.38814544677734375 30.390089035034179688 30.403034210205078125 30.416021347045898438 30.45562744140625 30.5198974609375 30.574270248413085938 30.595705032348632812 30.627048492431640625 30.654941558837890625 30.695962905883789062 30.756799697875976562 30.803386688232421875 30.885196685791015625 31.149236679077148438 31.3715057373046875 31.5184173583984375 31.59218597412109375 31.725732803344726562 31.82688140869140625 31.7498626708984375 31.742525100708007812 32.802890777587890625 34.3269195556640625 35.124767303466796875 35.104030609130859375 34.6476898193359375 33.99118804931640625 33.32466888427734375 33.028717041015625 32.917575836181640625 32.783420562744140625 32.84111785888671875 33.202091217041015625 34.160053253173828125 35.38072967529296875 35.502529144287109375 34.67828369140625 33.704601287841796875 33.1236572265625 32.85842132568359375 32.841518402099609375 32.846927642822265625 32.821994781494140625 32.69835662841796875 32.443088531494140625 32.07306671142578125 31.761571884155273438 31.585887908935546875 31.57293701171875 31.5302886962890625 31.317901611328125 30.948726654052734375 30.566633224487304688 30.268932342529296875 29.941036224365234375 29.680309295654296875 29.513195037841796875 29.369482040405273438 29.233921051025390625 29.10390472412109375 28.987140655517578125 28.935979843139648438 28.964599609375 28.931074142456054688 28.843919754028320312 28.749286651611328125 28.7228546142578125 28.489809036254882812 26.759273529052734375 26.081272125244140625 26.142375946044921875 26.65180206298828125 26.772014617919921875 26.759992599487304688 26.737308502197265625 26.702642440795898438 26.657590866088867188 26.601377487182617188 26.53626251220703125 26.461093902587890625 26.379796981811523438 26.293365478515625 26.207735061645507812 26.12429046630859375 26.048757553100585938 25.981836318969726562 25.925029754638671875 25.87506103515625 25.831272125244140625 25.7905120849609375 25.752126693725585938 25.714542388916015625 25.679815292358398438 25.648408889770507812 25.622552871704101562 25.603008270263671875 25.59166717529296875 25.589847564697265625 25.5989990234375 25.621099472045898438 25.656877517700195312 25.708730697631835938 25.774026870727539062 25.851497650146484375 25.93505096435546875 26.023397445678710938 26.11025238037109375 26.195648193359375 26.277223587036132812 26.358831405639648438 26.439493179321289062 26.523149490356445312 26.608219146728515625 26.695592880249023438 26.77846527099609375 26.854549407958984375 26.91695404052734375 26.962886810302734375 26.988712310791015625 26.9972381591796875 26.992145538330078125 26.977315902709960938 26.957202911376953125 26.934671401977539062 26.91133880615234375 26.885190963745117188 26.855442047119140625 26.819499969482421875 26.777006149291992188 26.726545333862304688 26.672178268432617188 26.615732192993164062 26.562425613403320312 26.514169692993164062 26.475530624389648438 26.44687652587890625 26.42942047119140625 26.422769546508789062 26.427293777465820312 26.443052291870117188 26.467449188232421875 26.49558258056640625 26.51999664306640625 26.534620285034179688 26.532367706298828125 26.50777435302734375 26.460809707641601562 26.392642974853515625 26.308170318603515625 26.207818984985351562 26.0975799560546875 25.978054046630859375 25.857940673828125 25.739152908325195312 25.63079071044921875 25.535020828247070312 25.458751678466796875 25.398738861083984375 25.353212356567382812 25.316568374633789062 25.285955429077148438 25.256452560424804688 25.226282119750976562 25.193393707275390625 25.158025741577148438 25.1184234619140625 25.07503509521484375 25.026269912719726562 24.974164962768554688 24.918436050415039062 24.861919403076171875 24.804235458374023438 24.748056411743164062 24.69120025634765625 24.632997512817382812 24.569042205810546875 24.49837493896484375 24.41638946533203125 24.323965072631835938 24.220661163330078125 24.112895965576171875 24.001554489135742188 23.893487930297851562 23.788946151733398438 23.691190719604492188 23.594648361206054688 23.498605728149414062 23.397012710571289062 23.289272308349609375 23.171216964721679688 23.04871368408203125 22.9233551025390625 22.803297042846679688 22.690181732177734375 22.591228485107421875 22.504060745239257812 22.42816925048828125 22.357761383056640625 22.291133880615234375 22.222970962524414062 22.152387619018554688 22.077022552490234375 21.998760223388671875 21.915914535522460938 21.830568313598632812 21.7408447265625 21.64871978759765625 21.551801681518554688 21.451974868774414062 21.346685409545898438 21.2378997802734375 21.122283935546875 21.00037384033203125 20.867328643798828125 20.7235565185546875 20.5639190673828125 20.390201568603515625 20.201353073120117188 20.006097793579101562 19.805896759033203125 19.610269546508789062 19.420034408569335938 19.240259170532226562 19.061815261840820312 18.881063461303710938 18.687261581420898438 18.476566314697265625 18.240785598754882812 17.987751007080078125 17.723054885864257812 17.4618682861328125 17.209856033325195312 16.9818878173828125 16.778409957885742188 16.602252960205078125 16.446239471435546875 16.310247421264648438 16.188016891479492188 16.078884124755859375 15.978481292724609375 15.886983871459960938 15.801057815551757812 15.720536231994628906 15.642426490783691406 15.566325187683105469 15.489556312561035156 15.411604881286621094 15.329946517944335938 15.244006156921386719 15.152104377746582031 15.056516647338867188 14.958616256713867188 14.862048149108886719 14.768143653869628906 14.680419921875 14.598688125610351562 14.523572921752929688 14.453260421752929688 14.387824058532714844 14.325636863708496094 14.266376495361328125 14.207942962646484375 14.149132728576660156 14.087792396545410156 14.022545814514160156 13.951740264892578125 13.876287460327148438 13.798470497131347656 13.721760749816894531 13.648633956909179688 13.582685470581054688 
31.579986572265625 30.72098541259765625 30.587705612182617188 30.751163482666015625 30.592746734619140625 30.503353118896484375 30.484386444091796875 30.472970962524414062 30.460729598999023438 30.449159622192382812 30.4144287109375 30.372045516967773438 30.354017257690429688 30.337736129760742188 30.332273483276367188 30.370563507080078125 30.447160720825195312 30.560022354125976562 30.634832382202148438 30.597551345825195312 30.511114120483398438 30.450498580932617188 30.437503814697265625 30.437158584594726562 30.423719406127929688 30.422290802001953125 30.422349929809570312 30.420736312866210938 30.405416488647460938 30.384634017944335938 30.3761444091796875 30.373386383056640625 30.375209808349609375 30.400936126708984375 30.452829360961914062 30.510051727294921875 30.570262908935546875 30.5994720458984375 30.634202957153320312 30.66664886474609375 30.697351455688476562 30.723300933837890625 30.785045623779296875 30.96004486083984375 31.232164382934570312 31.392244338989257812 31.559619903564453125 31.608343124389648438 31.6650848388671875 31.707933425903320312 31.66989898681640625 31.951963424682617188 33.488208770751953125 34.731048583984375 35.185367584228515625 34.911937713623046875 34.30889129638671875 33.609012603759765625 33.111507415771484375 32.94181060791015625 32.806499481201171875 32.746234893798828125 32.9115753173828125 33.3906707763671875 34.53784942626953125 35.6824493408203125 35.40509796142578125 34.207851409912109375 33.41123199462890625 33.0012969970703125 32.834445953369140625 32.823871612548828125 32.82852935791015625 32.790569305419921875 32.6399688720703125 32.344940185546875 31.979768753051757812 31.701520919799804688 31.583141326904296875 31.548467636108398438 31.47774505615234375 31.208734512329101562 30.818302154541015625 30.430583953857421875 30.141918182373046875 29.833551406860351562 29.638477325439453125 29.487150192260742188 29.337724685668945312 29.195569992065429688 29.05966949462890625 28.940919876098632812 28.931116104125976562 28.959383010864257812 28.904954910278320312 28.808614730834960938 28.725292205810546875 28.67676544189453125 28.059423446655273438 26.482255935668945312 26.079708099365234375 26.139158248901367188 26.632940292358398438 26.750354766845703125 26.738704681396484375 26.715356826782226562 26.679048538208007812 26.631723403930664062 26.572845458984375 26.505056381225585938 26.427434921264648438 26.344141006469726562 26.256151199340820312 26.1694183349609375 26.08528900146484375 26.00948333740234375 25.942720413208007812 25.886579513549804688 25.83795166015625 25.796274185180664062 25.758611679077148438 25.724313735961914062 25.691820144653320312 25.662645339965820312 25.63695526123046875 25.616361618041992188 25.601324081420898438 25.593364715576171875 25.594148635864257812 25.605558395385742188 25.630186080932617188 25.6692047119140625 25.725580215454101562 25.796518325805664062 25.880395889282226562 25.970312118530273438 26.064523696899414062 26.155963897705078125 26.244335174560546875 26.32712554931640625 26.408315658569335938 26.487058639526367188 26.56734466552734375 26.647846221923828125 26.729619979858398438 26.806489944458007812 26.876493453979492188 26.93340301513671875 26.974750518798828125 26.997320175170898438 27.003717422485351562 26.997415542602539062 26.9819793701171875 26.961603164672851562 26.938892364501953125 26.915346145629882812 26.8889312744140625 26.858873367309570312 26.822576522827148438 26.779697418212890625 26.728811264038085938 26.673982620239257812 26.617017745971679688 26.563146591186523438 26.514249801635742188 26.474870681762695312 26.445180892944335938 26.426156997680664062 26.4170684814453125 26.418071746826171875 26.428861618041992188 26.447038650512695312 26.4680633544921875 26.485383987426757812 26.493432998657226562 26.486024856567382812 26.458120346069335938 26.409961700439453125 26.342548370361328125 26.260591506958007812 26.1644287109375 26.059747695922851562 25.9470062255859375 25.8342132568359375 25.722948074340820312 25.62154388427734375 25.531827926635742188 25.460134506225585938 25.403451919555664062 25.360263824462890625 25.3254547119140625 25.296514511108398438 25.268947601318359375 25.241022109985351562 25.210519790649414062 25.177280426025390625 25.139291763305664062 25.096624374389648438 25.047517776489257812 24.994123458862304688 24.936437606811523438 24.877664566040039062 24.81768798828125 24.75952911376953125 24.7010498046875 24.641498565673828125 24.576242446899414062 24.504182815551757812 24.42049407958984375 24.325979232788085938 24.220184326171875 24.109701156616210938 23.995464324951171875 23.884515762329101562 23.777143478393554688 23.676774978637695312 23.577823638916015625 23.479707717895507812 23.376373291015625 23.267330169677734375 23.148349761962890625 23.025165557861328125 22.899110794067382812 22.778120040893554688 22.663578033447265625 22.562551498413085938 22.472703933715820312 22.393917083740234375 22.320707321166992188 22.251817703247070312 22.182216644287109375 22.11113739013671875 22.035675048828125 21.956995010375976562 21.87265777587890625 21.784023284912109375 21.688634872436523438 21.588933944702148438 21.483514785766601562 21.375696182250976562 21.263973236083984375 21.151681900024414062 21.035778045654296875 20.91600799560546875 20.786190032958984375 20.645322799682617188 20.486993789672851562 20.31185150146484375 20.118875503540039062 19.917634963989257812 19.7104339599609375 19.507846832275390625 19.311433792114257812 19.126911163330078125 18.9449310302734375 18.761674880981445312 18.5660247802734375 18.353900909423828125 18.1169281005859375 17.863302230834960938 17.5992431640625 17.340648651123046875 17.093854904174804688 16.8743438720703125 16.68251800537109375 16.520017623901367188 16.378484725952148438 16.25620269775390625 16.145811080932617188 16.04537200927734375 15.950735092163085938 15.862477302551269531 15.778045654296875 15.697851181030273438 15.619565010070800781 15.543242454528808594 15.466474533081054688 15.38897705078125 15.308431625366210938 15.224485397338867188 15.135514259338378906 15.043455123901367188 14.94915771484375 14.855649948120117188 14.763754844665527344 14.676418304443359375 14.593417167663574219 14.515686988830566406 14.441881179809570312 14.372536659240722656 14.306448936462402344 14.24369049072265625 14.1822509765625 14.120998382568359375 14.057757377624511719 13.991205215454101562 13.919666290283203125 13.844036102294921875 13.766477584838867188 13.690366744995117188 13.618062019348144531 13.553056716918945312 
31.14302825927734375 30.518877029418945312 30.716373443603515625 30.661380767822265625 30.51216888427734375 30.478425979614257812 30.479768753051757812 30.479639053344726562 30.479963302612304688 30.47249603271484375 30.432834625244140625 30.395015716552734375 30.379331588745117188 30.34897613525390625 30.332998275756835938 30.3509368896484375 30.393596649169921875 30.447267532348632812 30.522005081176757812 30.605775833129882812 30.65709686279296875 30.617715835571289062 30.451732635498046875 30.329881668090820312 30.337902069091796875 30.427728652954101562 30.458255767822265625 30.452442169189453125 30.428293228149414062 30.401525497436523438 30.395826339721679688 30.38603973388671875 30.385700225830078125 30.426126480102539062 30.464689254760742188 30.514852523803710938 30.582403182983398438 30.611890792846679688 30.656696319580078125 30.681921005249023438 30.68964385986328125 30.700000762939453125 30.767971038818359375 30.994304656982421875 31.414251327514648438 31.2695159912109375 31.351873397827148438 31.507904052734375 31.582056045532226562 31.595762252807617188 31.620800018310546875 32.33736419677734375 33.908016204833984375 34.935459136962890625 35.116779327392578125 34.681110382080078125 33.985507965087890625 33.3275909423828125 32.973052978515625 32.86818695068359375 32.705051422119140625 32.73566436767578125 33.0413360595703125 33.550151824951171875 34.61602020263671875 35.725189208984375 35.443378448486328125 34.217906951904296875 33.332408905029296875 32.952392578125 32.820415496826171875 32.811428070068359375 32.8139495849609375 32.7606201171875 32.586330413818359375 32.25402069091796875 31.895410537719726562 31.655887603759765625 31.59279632568359375 31.529092788696289062 31.416814804077148438 31.08956146240234375 30.699493408203125 30.322751998901367188 30.032161712646484375 29.780374526977539062 29.608819961547851562 29.454742431640625 29.301248550415039062 29.153066635131835938 29.008230209350585938 28.90096282958984375 28.944124221801757812 28.952436447143554688 28.880044937133789062 28.785486221313476562 28.68154144287109375 28.3754425048828125 27.452104568481445312 26.32616424560546875 26.079633712768554688 26.136571884155273438 26.6077423095703125 26.719491958618164062 26.707042694091796875 26.68228912353515625 26.644063949584960938 26.594621658325195312 26.533655166625976562 26.464130401611328125 26.385351181030273438 26.301599502563476562 26.213756561279296875 26.127614974975585938 26.04438018798828125 25.969606399536132812 25.903949737548828125 25.849054336547851562 25.802059173583984375 25.762554168701171875 25.7278900146484375 25.697496414184570312 25.669866561889648438 25.6460113525390625 25.625822067260742188 25.610330581665039062 25.599706649780273438 25.595127105712890625 25.59857177734375 25.612321853637695312 25.63953399658203125 25.681781768798828125 25.74256134033203125 25.818912506103515625 25.90887451171875 26.004772186279296875 26.104421615600585938 26.200025558471679688 26.290966033935546875 26.374629974365234375 26.45514678955078125 26.531854629516601562 26.608823776245117188 26.685001373291015625 26.761608123779296875 26.833026885986328125 26.897558212280273438 26.949563980102539062 26.986852645874023438 27.006559371948242188 27.011091232299804688 27.003717422485351562 26.987695693969726562 26.966970443725585938 26.943895339965820312 26.919881820678710938 26.89290618896484375 26.862255096435546875 26.82535552978515625 26.781919479370117188 26.73053741455078125 26.67527008056640625 26.617885589599609375 26.563600540161132812 26.51425933837890625 26.474353790283203125 26.44384002685546875 26.423410415649414062 26.411960601806640625 26.409402847290039062 26.415025711059570312 26.426631927490234375 26.440074920654296875 26.449785232543945312 26.450740814208984375 26.437734603881835938 26.406198501586914062 26.356670379638671875 26.289972305297851562 26.210630416870117188 26.118885040283203125 26.020114898681640625 25.914617538452148438 25.809667587280273438 25.70648956298828125 25.612583160400390625 25.529424667358398438 25.462717056274414062 25.409662246704101562 25.368982315063476562 25.336040496826171875 25.308643341064453125 25.28271484375 25.256595611572265625 25.227947235107421875 25.19631195068359375 25.159471511840820312 25.117214202880859375 25.0676422119140625 25.013021469116210938 24.953573226928710938 24.892816543579101562 24.830844879150390625 24.770977020263671875 24.71108245849609375 24.65030670166015625 24.5837860107421875 24.510257720947265625 24.424663543701171875 24.3277435302734375 24.21905517578125 24.105436325073242188 23.98790740966796875 23.873785018920898438 23.763427734375 23.660482406616210938 23.559370040893554688 23.459651947021484375 23.355298995971679688 23.2459259033203125 23.127244949340820312 23.004709243774414062 22.879270553588867188 22.758453369140625 22.64325714111328125 22.540435791015625 22.447740554809570312 22.36559295654296875 22.288995742797851562 22.217340469360351562 22.146043777465820312 22.074554443359375 21.999326705932617188 21.920635223388671875 21.835126876831054688 21.743251800537109375 21.641843795776367188 21.533754348754882812 21.418607711791992188 21.3012237548828125 21.181179046630859375 21.063272476196289062 20.944820404052734375 20.825031280517578125 20.696552276611328125 20.557260513305664062 20.399660110473632812 20.223443984985351562 20.0275421142578125 19.822080612182617188 19.609937667846679688 19.402400970458984375 19.201536178588867188 19.013521194458007812 18.828855514526367188 18.643629074096679688 18.44647979736328125 18.233198165893554688 17.99530792236328125 17.741350173950195312 17.478086471557617188 17.222049713134765625 16.980169296264648438 16.768436431884765625 16.587217330932617188 16.437082290649414062 16.308633804321289062 16.1987152099609375 16.099004745483398438 16.006425857543945312 15.917085647583007812 15.832003593444824219 15.749408721923828125 15.670308113098144531 15.593050003051757812 15.51810455322265625 15.443240165710449219 15.368272781372070312 15.290999412536621094 15.211151123046875 15.127083778381347656 15.0402679443359375 14.950985908508300781 14.861533164978027344 14.772181510925292969 14.685209274291992188 14.600396156311035156 14.519086837768554688 14.440546989440917969 14.36591339111328125 14.294528007507324219 14.226981163024902344 14.161372184753417969 14.096671104431152344 14.030674934387207031 13.962141990661621094 13.889364242553710938 13.813229560852050781 13.735760688781738281 13.660235404968261719 13.588868141174316406 13.525041580200195312 
30.714384078979492188 30.719266891479492188 30.726917266845703125 30.562688827514648438 30.4778289794921875 30.457433700561523438 30.468236923217773438 30.478076934814453125 30.482275009155273438 30.472652435302734375 30.450559616088867188 30.438228607177734375 30.412416458129882812 30.368272781372070312 30.355077743530273438 30.362148284912109375 30.404998779296875 30.43466949462890625 30.45479583740234375 30.496843338012695312 30.570749282836914062 30.639429092407226562 30.638071060180664062 30.5564422607421875 30.402782440185546875 30.318304061889648438 30.445856094360351562 30.503652572631835938 30.483264923095703125 30.437883377075195312 30.414854049682617188 30.405935287475585938 30.414203643798828125 30.432176589965820312 30.438100814819335938 30.503561019897460938 30.590518951416015625 30.6060943603515625 30.637762069702148438 30.652637481689453125 30.687517166137695312 30.716798782348632812 30.782518386840820312 31.010875701904296875 31.444272994995117188 31.170282363891601562 31.088426589965820312 31.308210372924804688 31.5108795166015625 31.582439422607421875 31.673061370849609375 32.6831512451171875 34.120208740234375 35.02837371826171875 35.01116943359375 34.469081878662109375 33.755702972412109375 33.16840362548828125 32.923549652099609375 32.78453826904296875 32.68434906005859375 32.803394317626953125 33.188381195068359375 33.80188751220703125 34.910175323486328125 35.798290252685546875 35.263427734375 34.14935302734375 33.30466461181640625 32.90921783447265625 32.794162750244140625 32.7929229736328125 32.79032135009765625 32.7245635986328125 32.529865264892578125 32.17317962646484375 31.819835662841796875 31.62786865234375 31.625555038452148438 31.561822891235351562 31.346546173095703125 30.9782867431640625 30.582197189331054688 30.21578216552734375 29.9477081298828125 29.742359161376953125 29.576658248901367188 29.418676376342773438 29.261219024658203125 29.107839584350585938 28.95501708984375 28.878759384155273438 28.956264495849609375 28.936244964599609375 28.852384567260742188 28.764469146728515625 28.554784774780273438 27.97174072265625 27.10186767578125 26.2584228515625 26.080898284912109375 26.134489059448242188 26.576231002807617188 26.679683685302734375 26.665510177612304688 26.638820648193359375 26.598550796508789062 26.547237396240234375 26.48477935791015625 26.414419174194335938 26.335672378540039062 26.252849578857421875 26.166669845581054688 26.082614898681640625 26.001682281494140625 25.929105758666992188 25.8654327392578125 25.812349319458007812 25.767292022705078125 25.73004913330078125 25.698307037353515625 25.671627044677734375 25.648595809936523438 25.62978363037109375 25.614841461181640625 25.604282379150390625 25.598031997680664062 25.5969390869140625 25.603269577026367188 25.619623184204101562 25.649654388427734375 25.695268630981445312 25.760419845581054688 25.841978073120117188 25.937673568725585938 26.039117813110351562 26.143732070922851562 26.2430419921875 26.336145401000976562 26.4203643798828125 26.499988555908203125 26.574554443359375 26.648233413696289062 26.7202606201171875 26.792001724243164062 26.858356475830078125 26.917856216430664062 26.965394973754882812 26.999019622802734375 27.016180038452148438 27.019083023071289062 27.010782241821289062 26.994235992431640625 26.973134994506835938 26.949583053588867188 26.924922943115234375 26.897167205810546875 26.86569976806640625 26.827997207641601562 26.783868789672851562 26.731920242309570312 26.676214218139648438 26.61846923828125 26.563867568969726562 26.514202117919921875 26.473905563354492188 26.442693710327148438 26.420961380004882812 26.407213211059570312 26.401092529296875 26.40146636962890625 26.406337738037109375 26.411966323852539062 26.413806915283203125 26.407403945922851562 26.3885650634765625 26.35321044921875 26.302204132080078125 26.23618316650390625 26.159509658813476562 26.072330474853515625 25.979711532592773438 25.88179779052734375 25.785091400146484375 25.69043731689453125 25.604463577270507812 25.528270721435546875 25.466886520385742188 25.417730331420898438 25.379724502563476562 25.348699569702148438 25.32277679443359375 25.298273086547851562 25.273626327514648438 25.246417999267578125 25.215961456298828125 25.17987823486328125 25.137742996215820312 25.087553024291992188 25.031682968139648438 24.970539093017578125 24.9079132080078125 24.84407806396484375 24.782602310180664062 24.721338272094726562 24.6593170166015625 24.591419219970703125 24.516216278076171875 24.42839813232421875 24.32865142822265625 24.216581344604492188 24.099351882934570312 23.9781341552734375 23.860591888427734375 23.747219085693359375 23.64190673828125 23.5390777587890625 23.438405990600585938 23.333887100219726562 23.2252044677734375 23.107990264892578125 22.987300872802734375 22.863630294799804688 22.743944168090820312 22.628774642944335938 22.524454116821289062 22.428836822509765625 22.342992782592773438 22.26253509521484375 22.187633514404296875 22.114267349243164062 22.042165756225585938 21.9670867919921875 21.888309478759765625 21.801462173461914062 21.705984115600585938 21.597898483276367188 21.480457305908203125 21.354330062866210938 21.225904464721679688 21.095853805541992188 20.970523834228515625 20.847637176513671875 20.72605133056640625 20.597381591796875 20.4586029052734375 20.301265716552734375 20.124269485473632812 19.926401138305664062 19.7181243896484375 19.50267791748046875 19.291797637939453125 19.087856292724609375 18.897340774536132812 18.710681915283203125 18.523950576782226562 18.325664520263671875 18.111574172973632812 17.873188018798828125 17.619352340698242188 17.357290267944335938 17.104045867919921875 16.867044448852539062 16.662694931030273438 16.491319656372070312 16.352535247802734375 16.236032485961914062 16.1374053955078125 16.047487258911132812 15.962210655212402344 15.877949714660644531 15.796160697937011719 15.715819358825683594 15.638507843017578125 15.563221931457519531 15.49080657958984375 15.419156074523925781 15.348118782043457031 15.275557518005371094 15.201212882995605469 15.123379707336425781 15.0429840087890625 14.959695816040039062 14.875006675720214844 14.788590431213378906 14.701992034912109375 14.615026473999023438 14.529520034790039062 14.445450782775878906 14.364655494689941406 14.287114143371582031 14.214019775390625 14.143591880798339844 14.074910163879394531 14.005722999572753906 13.934866905212402344 13.860592842102050781 13.783782005310058594 13.706307411193847656 13.631352424621582031 13.560994148254394531 13.498497962951660156 
30.651155471801757812 30.82015228271484375 30.63489532470703125 30.511592864990234375 30.483934402465820312 30.459075927734375 30.47447967529296875 30.481180191040039062 30.480560302734375 30.473665237426757812 30.456724166870117188 30.453155517578125 30.427465438842773438 30.401746749877929688 30.396127700805664062 30.392698287963867188 30.417215347290039062 30.44521331787109375 30.459926605224609375 30.462705612182617188 30.479146957397460938 30.508106231689453125 30.564769744873046875 30.638360977172851562 30.636684417724609375 30.530641555786132812 30.464534759521484375 30.469541549682617188 30.517559051513671875 30.487667083740234375 30.458683013916015625 30.45610809326171875 30.456216812133789062 30.456752777099609375 30.461973190307617188 30.505870819091796875 30.5743865966796875 30.60420989990234375 30.628076553344726562 30.649408340454101562 30.704660415649414062 30.750865936279296875 30.83209228515625 31.138380050659179688 31.363805770874023438 31.201416015625 31.101680755615234375 31.278898239135742188 31.527286529541015625 31.613668441772460938 31.828216552734375 33.0503387451171875 34.455036163330078125 35.105434417724609375 34.86428070068359375 34.308650970458984375 33.633106231689453125 33.0789642333984375 32.8657684326171875 32.67719268798828125 32.6781768798828125 32.880496978759765625 33.3114166259765625 34.074428558349609375 35.29921722412109375 35.884532928466796875 35.00173187255859375 33.952728271484375 33.25104522705078125 32.85176849365234375 32.76641082763671875 32.781009674072265625 32.767986297607421875 32.68498992919921875 32.46936798095703125 32.094730377197265625 31.751241683959960938 31.625957489013671875 31.66303253173828125 31.5754547119140625 31.2575836181640625 30.886556625366210938 30.483341217041015625 30.124385833740234375 29.862215042114257812 29.693704605102539062 29.537847518920898438 29.380321502685546875 29.220643997192382812 29.064128875732421875 28.914720535278320312 28.895557403564453125 28.951019287109375 28.902332305908203125 28.80835723876953125 28.735965728759765625 28.469003677368164062 27.7729339599609375 26.948272705078125 26.230663299560546875 26.083364486694335938 26.132947921752929688 26.540069580078125 26.63336181640625 26.616968154907226562 26.588190078735351562 26.5460662841796875 26.493373870849609375 26.430181503295898438 26.359928131103515625 26.282327651977539062 26.201627731323242188 26.118350982666015625 26.037565231323242188 25.960025787353515625 25.890550613403320312 25.8295440673828125 25.7787017822265625 25.735776901245117188 25.700769424438476562 25.6717071533203125 25.648305892944335938 25.629285812377929688 25.61487579345703125 25.604574203491210938 25.598474502563476562 25.596349716186523438 25.598768234252929688 25.608221054077148438 25.62749481201171875 25.660617828369140625 25.709688186645507812 25.77901458740234375 25.865274429321289062 25.965972900390625 26.072134017944335938 26.180871963500976562 26.283170700073242188 26.377895355224609375 26.462337493896484375 26.540918350219726562 26.613367080688476562 26.683933258056640625 26.752117156982421875 26.819416046142578125 26.881191253662109375 26.936183929443359375 26.979761123657226562 27.01019287109375 27.025196075439453125 27.026784896850585938 27.017786026000976562 27.000867843627929688 26.979463577270507812 26.955430984497070312 26.930065155029296875 26.901430130004882812 26.869031906127929688 26.83042144775390625 26.785528182983398438 26.732988357543945312 26.676860809326171875 26.618801116943359375 26.563951492309570312 26.514043807983398438 26.473432540893554688 26.441617965698242188 26.418701171875 26.402828216552734375 26.393383026123046875 26.388843536376953125 26.387395858764648438 26.385683059692382812 26.380123138427734375 26.366790771484375 26.342447280883789062 26.303476333618164062 26.2510528564453125 26.185667037963867188 26.111536026000976562 26.028734207153320312 25.942056655883789062 25.851503372192382812 25.762828826904296875 25.676507949829101562 25.598318099975585938 25.52899169921875 25.472898483276367188 25.427637100219726562 25.39231109619140625 25.363176345825195312 25.338626861572265625 25.315334320068359375 25.291849136352539062 25.265699386596679688 25.236024856567382812 25.2003326416015625 25.15804290771484375 25.1070709228515625 25.049896240234375 24.987071990966796875 24.922624588012695312 24.856960296630859375 24.793867111206054688 24.731161117553710938 24.66774749755859375 24.598260879516601562 24.521108627319335938 24.43072509765625 24.327772140502929688 24.211940765380859375 24.090795516967773438 23.965724945068359375 23.8448028564453125 23.728723526000976562 23.621618270874023438 23.517869949340820312 23.417196273803710938 23.313568115234375 23.206651687622070312 23.09197235107421875 22.974124908447265625 22.853136062622070312 22.735349655151367188 22.620820999145507812 22.515415191650390625 22.41709136962890625 22.327579498291015625 22.243124008178710938 22.164697647094726562 22.088857650756835938 22.01564788818359375 21.940134048461914062 21.860652923583984375 21.771818161010742188 21.672098159790039062 21.556713104248046875 21.429309844970703125 21.29154205322265625 21.151338577270507812 21.010395050048828125 20.876583099365234375 20.748027801513671875 20.623392105102539062 20.493396759033203125 20.35430908203125 20.196868896484375 20.019327163696289062 19.82027435302734375 19.610334396362304688 19.392923355102539062 19.180013656616210938 18.9741363525390625 18.781953811645507812 18.593919754028320312 18.406158447265625 18.207181930541992188 17.99279022216796875 17.75453948974609375 17.501522064208984375 17.2412872314453125 16.991231918334960938 16.759141921997070312 16.561695098876953125 16.399168014526367188 16.270389556884765625 16.164346694946289062 16.0756072998046875 15.994351387023925781 15.91570281982421875 15.836277961730957031 15.757895469665527344 15.680164337158203125 15.605133056640625 15.532350540161132812 15.462967872619628906 15.395001411437988281 15.328311920166015625 15.260840415954589844 15.192319869995117188 15.120987892150878906 15.047222137451171875 14.9700927734375 14.890282630920410156 14.80687713623046875 14.720691680908203125 14.631580352783203125 14.541872978210449219 14.45227813720703125 14.365355491638183594 14.281737327575683594 14.203233718872070312 14.128170013427734375 14.055706024169921875 13.983516693115234375 13.910494804382324219 13.834828376770019531 13.757384300231933594 13.67990875244140625 13.605509757995605469 13.53614044189453125 13.474979400634765625 
30.738178253173828125 30.738771438598632812 30.5492401123046875 30.490108489990234375 30.488643646240234375 30.467647552490234375 30.472812652587890625 30.48572540283203125 30.479719161987304688 30.470287322998046875 30.459524154663085938 30.447420120239257812 30.422899246215820312 30.403411865234375 30.410121917724609375 30.428819656372070312 30.44629669189453125 30.458879470825195312 30.471822738647460938 30.463350296020507812 30.450746536254882812 30.44876861572265625 30.474767684936523438 30.541059494018554688 30.601963043212890625 30.656789779663085938 30.6517486572265625 30.541591644287109375 30.416055679321289062 30.42800140380859375 30.499370574951171875 30.533166885375976562 30.534589767456054688 30.511056900024414062 30.502294540405273438 30.526197433471679688 30.558507919311523438 30.600078582763671875 30.633676528930664062 30.664773941040039062 30.723241806030273438 30.753276824951171875 30.877996444702148438 31.202396392822265625 31.239404678344726562 31.189464569091796875 31.146137237548828125 31.296731948852539062 31.539602279663085938 31.609104156494140625 32.132343292236328125 33.4098968505859375 34.68866729736328125 35.0612640380859375 34.6911468505859375 34.152919769287109375 33.482242584228515625 32.9964752197265625 32.763393402099609375 32.568157196044921875 32.651538848876953125 32.928234100341796875 33.522480010986328125 34.577159881591796875 35.768100738525390625 35.818637847900390625 34.7174530029296875 33.841342926025390625 33.1910858154296875 32.781894683837890625 32.753406524658203125 32.7765045166015625 32.74454498291015625 32.6446075439453125 32.45958709716796875 32.06833648681640625 31.699914932250976562 31.647350311279296875 31.695417404174804688 31.541673660278320312 31.1544952392578125 30.80460357666015625 30.392822265625 30.058361053466796875 29.814800262451171875 29.653352737426757812 29.497587203979492188 29.340793609619140625 29.180360794067382812 29.021099090576171875 28.890974044799804688 28.930389404296875 28.944721221923828125 28.869279861450195312 28.771951675415039062 28.71009063720703125 28.35671234130859375 27.643138885498046875 26.86382293701171875 26.217569351196289062 26.0869598388671875 26.131877899169921875 26.499177932739257812 26.580738067626953125 26.561954498291015625 26.5312042236328125 26.487636566162109375 26.434192657470703125 26.371084213256835938 26.301876068115234375 26.226446151733398438 26.1489105224609375 26.069580078125 25.993040084838867188 25.919790267944335938 25.854169845581054688 25.796417236328125 25.748212814331054688 25.70761871337890625 25.674835205078125 25.648214340209960938 25.62763214111328125 25.611980438232421875 25.601266860961914062 25.594938278198242188 25.59281158447265625 25.59461212158203125 25.6006927490234375 25.613689422607421875 25.636402130126953125 25.673093795776367188 25.725872039794921875 25.79925537109375 25.889726638793945312 25.994649887084960938 26.104627609252929688 26.216569900512695312 26.321084976196289062 26.4168853759765625 26.501234054565429688 26.57865142822265625 26.649011611938476562 26.716602325439453125 26.781145095825195312 26.844251632690429688 26.901723861694335938 26.952510833740234375 26.992441177368164062 27.020002365112304688 27.033161163330078125 27.033727645874023438 27.0242919921875 27.007219314575195312 26.985666275024414062 26.961240768432617188 26.935190200805664062 26.905649185180664062 26.872270584106445312 26.83269500732421875 26.786996841430664062 26.733850479125976562 26.677310943603515625 26.61895751953125 26.563879013061523438 26.513742446899414062 26.472822189331054688 26.440410614013671875 26.416368484497070312 26.398517608642578125 26.386028289794921875 26.377025604248046875 26.369874954223632812 26.361553192138671875 26.349336624145507812 26.32978057861328125 26.300495147705078125 26.258275985717773438 26.20459747314453125 26.139833450317382812 26.068094253540039062 25.989419937133789062 25.908367156982421875 25.824823379516601562 25.743829727172851562 25.6655120849609375 25.59482574462890625 25.532159805297851562 25.481245040893554688 25.439840316772460938 25.407190322875976562 25.37994384765625 25.356721878051757812 25.334527969360351562 25.312000274658203125 25.286642074584960938 25.257459640502929688 25.22186279296875 25.179157257080078125 25.127197265625 25.068555831909179688 25.00391387939453125 24.937501907348632812 24.869838714599609375 24.80490875244140625 24.740474700927734375 24.675327301025390625 24.603855133056640625 24.524311065673828125 24.430873870849609375 24.32421112060546875 24.204151153564453125 24.078752517700195312 23.949674606323242188 23.82550811767578125 23.7071990966796875 23.599109649658203125 23.495510101318359375 23.396026611328125 23.2945404052734375 23.19055938720703125 23.0794677734375 22.965349197387695312 22.84780120849609375 22.73255157470703125 22.619207382202148438 22.513154983520507812 22.412466049194335938 22.319469451904296875 22.2310028076171875 22.148794174194335938 22.069925308227539062 21.994760513305664062 21.9177398681640625 21.83636474609375 21.744319915771484375 21.639230728149414062 21.515562057495117188 21.377399444580078125 21.227304458618164062 21.074687957763671875 20.922199249267578125 20.779188156127929688 20.644153594970703125 20.515651702880859375 20.383596420288085938 20.2436676025390625 20.085880279541015625 19.907924652099609375 19.708158493041992188 19.497255325317382812 19.2787017822265625 19.064573287963867188 18.857456207275390625 18.664136886596679688 18.4751434326171875 18.2867431640625 18.087533950805664062 17.873449325561523438 17.6361541748046875 17.384897232055664062 17.127420425415039062 16.881282806396484375 16.6544952392578125 16.463832855224609375 16.30951690673828125 16.189760208129882812 16.0930328369140625 16.013118743896484375 15.939728736877441406 15.867354393005371094 15.79280853271484375 15.718142509460449219 15.643441200256347656 15.571079254150390625 15.5010223388671875 15.434649467468261719 15.370145797729492188 15.307440757751464844 15.244604110717773438 15.181427955627441406 15.116136550903320312 15.048601150512695312 14.977306365966796875 14.902166366577148438 14.82169342041015625 14.736001968383789062 14.644989967346191406 14.551465988159179688 14.456853866577148438 14.364407539367675781 14.275396347045898438 14.1922149658203125 14.113262176513671875 14.037730216979980469 13.963190078735351562 13.888533592224121094 13.811855316162109375 13.734007835388183594 13.656636238098144531 13.582807540893554688 13.514388084411621094 13.454494476318359375 
30.842443466186523438 30.65790557861328125 30.516321182250976562 30.487848281860351562 30.489267349243164062 30.481302261352539062 30.481164932250976562 30.491315841674804688 30.4768218994140625 30.453042984008789062 30.439563751220703125 30.42795562744140625 30.417814254760742188 30.41290283203125 30.414419174194335938 30.443834304809570312 30.4688873291015625 30.469755172729492188 30.448156356811523438 30.404567718505859375 30.365234375 30.36939239501953125 30.420764923095703125 30.47766876220703125 30.511165618896484375 30.550863265991210938 30.604707717895507812 30.6295318603515625 30.55655670166015625 30.4788970947265625 30.438749313354492188 30.45737457275390625 30.548618316650390625 30.5727081298828125 30.561859130859375 30.544237136840820312 30.54161834716796875 30.598371505737304688 30.655927658081054688 30.6989593505859375 30.726999282836914062 30.763017654418945312 30.909189224243164062 31.101682662963867188 31.10239410400390625 31.136045455932617188 31.242551803588867188 31.395893096923828125 31.542310714721679688 31.69788360595703125 32.619663238525390625 33.860759735107421875 34.84932708740234375 34.916782379150390625 34.512805938720703125 33.9734344482421875 33.31507110595703125 32.902294158935546875 32.647937774658203125 32.551082611083984375 32.7339019775390625 33.0901031494140625 33.8963165283203125 35.075649261474609375 35.8739166259765625 35.54645538330078125 34.333789825439453125 33.48686981201171875 33.00176239013671875 32.73746490478515625 32.743076324462890625 32.76486968994140625 32.717742919921875 32.6255645751953125 32.5380706787109375 32.13407135009765625 31.66473388671875 31.659664154052734375 31.696805953979492188 31.4575653076171875 31.058704376220703125 30.730670928955078125 30.311822891235351562 30.000116348266601562 29.78387451171875 29.615144729614257812 29.457777023315429688 29.30364990234375 29.145809173583984375 28.981306076049804688 28.894315719604492188 28.970785140991210938 28.961086273193359375 28.8866119384765625 28.798864364624023438 28.708765029907226562 28.244213104248046875 27.5356903076171875 26.805774688720703125 26.210767745971679688 26.091472625732421875 26.131277084350585938 26.455495834350585938 26.524698257446289062 26.50383758544921875 26.471622467041015625 26.427324295043945312 26.373973846435546875 26.311880111694335938 26.244638442993164062 26.172260284423828125 26.098659515380859375 26.023960113525390625 25.952253341674804688 25.883802413940429688 25.822460174560546875 25.768310546875 25.722974777221679688 25.684783935546875 25.654088973999023438 25.629514694213867188 25.61107635498046875 25.597850799560546875 25.589803695678710938 25.586452484130859375 25.58753204345703125 25.59285736083984375 25.602655410766601562 25.619607925415039062 25.64630889892578125 25.687046051025390625 25.7437286376953125 25.820890426635742188 25.914812088012695312 26.022844314575195312 26.135385513305664062 26.249307632446289062 26.35504913330078125 26.451269149780273438 26.535226821899414062 26.611444473266601562 26.679874420166015625 26.74477386474609375 26.80600738525390625 26.865268707275390625 26.918788909912109375 26.965734481811523438 27.002378463745117188 27.027437210083007812 27.039112091064453125 27.0390167236328125 27.029470443725585938 27.012538909912109375 26.991086959838867188 26.966466903686523438 26.93987274169921875 26.909524917602539062 26.875230789184570312 26.834737777709960938 26.78826904296875 26.734548568725585938 26.67761993408203125 26.61898040771484375 26.56366729736328125 26.51326751708984375 26.471981048583984375 26.438945770263671875 26.413845062255859375 26.394269943237304688 26.379241943359375 26.366626739501953125 26.354938507080078125 26.3414154052734375 26.323995590209960938 26.299591064453125 26.266469955444335938 26.221750259399414062 26.167148590087890625 26.10298919677734375 26.033321380615234375 25.95819854736328125 25.88201141357421875 25.80457305908203125 25.73030853271484375 25.65903472900390625 25.594997406005859375 25.53827667236328125 25.49204254150390625 25.454183578491210938 25.424043655395507812 25.398595809936523438 25.376636505126953125 25.355432510375976562 25.333700180053710938 25.308917999267578125 25.279985427856445312 25.244232177734375 25.2008819580078125 25.147722244262695312 25.087432861328125 25.020780563354492188 24.952192306518554688 24.882266998291015625 24.815176010131835938 24.7486114501953125 24.681285858154296875 24.607339859008789062 24.524919509887695312 24.427953720092773438 24.317155838012695312 24.192544937133789062 24.062747955322265625 23.92977142333984375 23.802783966064453125 23.68305206298828125 23.575115203857421875 23.4730377197265625 23.376176834106445312 23.278215408325195312 23.1783294677734375 23.071706771850585938 22.961933135986328125 22.848297119140625 22.735980987548828125 22.624254226684570312 22.518091201782226562 22.415651321411132812 22.319711685180664062 22.227567672729492188 22.14153289794921875 22.05908203125 21.98085784912109375 21.900804519653320312 21.815853118896484375 21.718942642211914062 21.607135772705078125 21.474298477172851562 21.32498931884765625 21.162523269653320312 20.997659683227539062 20.83383941650390625 20.681734085083007812 20.5401458740234375 20.407560348510742188 20.273166656494140625 20.132152557373046875 19.973890304565429688 19.795581817626953125 19.595342636108398438 19.383853912353515625 19.164600372314453125 18.949695587158203125 18.74173736572265625 18.547605514526367188 18.357967376708984375 18.16930389404296875 17.970380783081054688 17.757328033447265625 17.521968841552734375 17.273601531982421875 17.019985198974609375 16.778629302978515625 16.557580947875976562 16.373517990112304688 16.226604461669921875 16.114618301391601562 16.025783538818359375 15.953372001647949219 15.886861801147460938 15.820322990417480469 15.750682830810546875 15.680025100708007812 15.608690261840820312 15.53914642333984375 15.471584320068359375 15.407525062561035156 15.345396995544433594 15.285311698913574219 15.225576400756835938 15.166159629821777344 15.10536956787109375 15.04268646240234375 14.976078033447265625 14.904801368713378906 14.826860427856445312 14.741764068603515625 14.649439811706542969 14.553103446960449219 14.454785346984863281 14.358325004577636719 14.265537261962890625 14.179291725158691406 14.098009109497070312 14.020839691162109375 13.945210456848144531 13.869935989379882812 13.792987823486328125 13.715176582336425781 13.638116836547851562 13.564867019653320312 13.497271537780761719 13.438437461853027344 
30.909723281860351562 30.6505126953125 30.519159317016601562 30.503229141235351562 30.500585556030273438 30.499828338623046875 30.495199203491210938 30.48892974853515625 30.468173980712890625 30.423532485961914062 30.406421661376953125 30.41594696044921875 30.439805984497070312 30.454183578491210938 30.448766708374023438 30.447107315063476562 30.453609466552734375 30.440166473388671875 30.368864059448242188 30.309457778930664062 30.287363052368164062 30.316194534301757812 30.38390350341796875 30.44248199462890625 30.46523284912109375 30.46840667724609375 30.496019363403320312 30.53849029541015625 30.5617523193359375 30.579568862915039062 30.552469253540039062 30.440446853637695312 30.408033370971679688 30.50862884521484375 30.613313674926757812 30.6117706298828125 30.582769393920898438 30.645380020141601562 30.7825927734375 30.848125457763671875 30.8001556396484375 30.828493118286132812 30.935239791870117188 31.050302505493164062 31.1283721923828125 31.218677520751953125 31.427776336669921875 31.574352264404296875 31.549388885498046875 31.900819778442382812 33.04618072509765625 34.219959259033203125 34.865631103515625 34.72557830810546875 34.31268310546875 33.734180450439453125 33.15128326416015625 32.816295623779296875 32.5629730224609375 32.591808319091796875 32.852687835693359375 33.33331298828125 34.3488616943359375 35.54184722900390625 35.8579864501953125 35.13565826416015625 33.95082855224609375 33.184814453125 32.862491607666015625 32.751903533935546875 32.741607666015625 32.74365234375 32.692707061767578125 32.61383056640625 32.512332916259765625 32.04083251953125 31.610975265502929688 31.663499832153320312 31.65643310546875 31.345912933349609375 30.982334136962890625 30.6654510498046875 30.259836196899414062 29.967845916748046875 29.732563018798828125 29.5648956298828125 29.414655685424804688 29.269191741943359375 29.122165679931640625 28.973491668701171875 28.927995681762695312 29.004026412963867188 28.984020233154296875 28.915195465087890625 28.8175048828125 28.635120391845703125 28.1057281494140625 27.436292648315429688 26.757379531860351562 26.20676422119140625 26.096902847290039062 26.131134033203125 26.408840179443359375 26.465112686157226562 26.44268035888671875 26.409692764282226562 26.36553192138671875 26.313226699829101562 26.253137588500976562 26.1887969970703125 26.120304107666015625 26.051328659057617188 25.9818267822265625 25.915410995483398438 25.852142333984375 25.795408248901367188 25.745151519775390625 25.702892303466796875 25.667173385620117188 25.63843536376953125 25.615503311157226562 25.59850311279296875 25.5867156982421875 25.58023834228515625 25.57881927490234375 25.582305908203125 25.590768814086914062 25.60440826416015625 25.625835418701171875 25.65720367431640625 25.702608108520507812 25.7635040283203125 25.844247817993164062 25.94089508056640625 26.050928115844726562 26.16478729248046875 26.279462814331054688 26.385465621948242188 26.48151397705078125 26.564847946166992188 26.639904022216796875 26.706609725952148438 26.769100189208984375 26.8272857666015625 26.882921218872070312 26.932668685913085938 26.975946426391601562 27.009485244750976562 27.03226470947265625 27.042724609375 27.04227447509765625 27.032941818237304688 27.016475677490234375 26.995416641235351562 26.970853805541992188 26.943914413452148438 26.912919998168945312 26.877832412719726562 26.836513519287109375 26.789342880249023438 26.735101699829101562 26.6778106689453125 26.618890762329101562 26.5633087158203125 26.5125732421875 26.470815658569335938 26.437059402465820312 26.410909652709960938 26.389812469482421875 26.372728347778320312 26.357366561889648438 26.342359542846679688 26.325120925903320312 26.304040908813476562 26.276269912719726562 26.2405242919921875 26.194141387939453125 26.13903045654296875 26.0755157470703125 26.007642745971679688 25.93552398681640625 25.86345672607421875 25.791217803955078125 25.72271728515625 25.657510757446289062 25.599239349365234375 25.547727584838867188 25.505655288696289062 25.471021652221679688 25.4432220458984375 25.41949462890625 25.398761749267578125 25.378503799438476562 25.357477188110351562 25.333133697509765625 25.304273605346679688 25.26815032958984375 25.223909378051757812 25.169275283813476562 25.107027053833007812 25.038013458251953125 24.966852188110351562 24.8942108154296875 24.8244476318359375 24.755186080932617188 24.685091018676757812 24.608072280883789062 24.522203445434570312 24.421175003051757812 24.305807113647460938 24.176342010498046875 24.042062759399414062 23.90538787841796875 23.776132583618164062 23.655954360961914062 23.549505233764648438 23.450529098510742188 23.357912063598632812 23.265020370483398438 23.170492172241210938 23.069269180297851562 22.964452743530273438 22.855154037475585938 22.746114730834960938 22.636394500732421875 22.530633926391601562 22.427045822143554688 22.328695297241210938 22.233167648315429688 22.143167495727539062 22.056400299072265625 21.973741531372070312 21.888784408569335938 21.798191070556640625 21.694385528564453125 21.574176788330078125 21.43100738525390625 21.269985198974609375 21.0950164794921875 20.918064117431640625 20.743194580078125 20.582248687744140625 20.434244155883789062 20.297590255737304688 20.160797119140625 20.018596649169921875 19.859758377075195312 19.681034088134765625 19.480310440063476562 19.268255233764648438 19.048358917236328125 18.832754135131835938 18.6240386962890625 18.429208755493164062 18.23912811279296875 18.050535202026367188 17.852443695068359375 17.6412353515625 17.408924102783203125 17.16473388671875 16.916276931762695312 16.680774688720703125 16.466150283813476562 16.288766860961914062 16.14871978759765625 16.043546676635742188 15.961465835571289062 15.895518302917480469 15.835176467895507812 15.77428436279296875 15.709780693054199219 15.643567085266113281 15.575991630554199219 15.509362220764160156 15.443881034851074219 15.381120681762695312 15.319863319396972656 15.260557174682617188 15.201882362365722656 15.144163131713867188 15.085895538330078125 15.026323318481445312 14.962967872619628906 14.894553184509277344 14.818657875061035156 14.734300613403320312 14.641402244567871094 14.543500900268554688 14.443093299865722656 14.344486236572265625 14.249905586242675781 14.162576675415039062 14.080873489379882812 14.003820419311523438 13.928650856018066406 13.854020118713378906 13.777740478515625 13.700559616088867188 13.624117851257324219 13.551516532897949219 13.48464202880859375 13.426645278930664062 
30.882707595825195312 30.693073272705078125 30.559345245361328125 30.519247055053710938 30.5048828125 30.49832916259765625 30.498754501342773438 30.496084213256835938 30.464244842529296875 30.4223175048828125 30.410432815551757812 30.430095672607421875 30.46038818359375 30.480012893676757812 30.47386932373046875 30.460567474365234375 30.449474334716796875 30.404520034790039062 30.340627670288085938 30.293924331665039062 30.2600555419921875 30.315998077392578125 30.37401580810546875 30.407903671264648438 30.423154830932617188 30.41973876953125 30.420747756958007812 30.443666458129882812 30.487514495849609375 30.5311431884765625 30.569055557250976562 30.576887130737304688 30.509389877319335938 30.435594558715820312 30.547986984252929688 30.62469482421875 30.631547927856445312 30.745965957641601562 30.957775115966796875 30.956163406372070312 30.888093948364257812 30.937665939331054688 30.977663040161132812 31.039972305297851562 31.132135391235351562 31.225648880004882812 31.41829681396484375 31.547269821166992188 31.592777252197265625 32.316925048828125 33.541919708251953125 34.56237030029296875 34.83425140380859375 34.521778106689453125 34.088085174560546875 33.52556610107421875 33.023834228515625 32.72156524658203125 32.531734466552734375 32.657688140869140625 32.946384429931640625 33.514804840087890625 34.648571014404296875 35.795314788818359375 35.94515228271484375 34.8060760498046875 33.57245635986328125 33.02323150634765625 32.800746917724609375 32.760616302490234375 32.735279083251953125 32.724399566650390625 32.670749664306640625 32.58917236328125 32.359577178955078125 31.845806121826171875 31.558618545532226562 31.663324356079101562 31.593919754028320312 31.258264541625976562 30.919908523559570312 30.598264694213867188 30.19025421142578125 29.878887176513671875 29.631988525390625 29.500179290771484375 29.369421005249023438 29.238065719604492188 29.107908248901367188 28.986452102661132812 28.96125030517578125 29.018236160278320312 28.988267898559570312 28.907632827758789062 28.778482437133789062 28.456308364868164062 27.937906265258789062 27.344297409057617188 26.717084884643554688 26.20484161376953125 26.10297393798828125 26.131496429443359375 26.3618316650390625 26.405267715454101562 26.381849288940429688 26.348836898803710938 26.305675506591796875 26.255292892456054688 26.198057174682617188 26.13735198974609375 26.073312759399414062 26.009326934814453125 25.945230484008789062 25.884197235107421875 25.826131820678710938 25.774003982543945312 25.727642059326171875 25.688434600830078125 25.65506744384765625 25.628002166748046875 25.606187820434570312 25.589817047119140625 25.578386306762695312 25.572282791137695312 25.57161712646484375 25.576539993286132812 25.587511062622070312 25.604799270629882812 25.63085174560546875 25.667194366455078125 25.717540740966796875 25.782697677612304688 25.866672515869140625 25.965299606323242188 26.0763092041015625 26.19039154052734375 26.30481719970703125 26.410369873046875 26.505926132202148438 26.588678359985351562 26.66287994384765625 26.7283172607421875 26.788909912109375 26.844512939453125 26.896902084350585938 26.94317626953125 26.983030319213867188 27.013669967651367188 27.03436279296875 27.043790817260742188 27.043178558349609375 27.034252166748046875 27.018457412719726562 26.9980010986328125 26.973722457885742188 26.946664810180664062 26.915250778198242188 26.879581451416015625 26.837635040283203125 26.789930343627929688 26.735300064086914062 26.677743911743164062 26.618595123291015625 26.562753677368164062 26.511640548706054688 26.469331741333007812 26.434785842895507812 26.407604217529296875 26.38516998291015625 26.36646270751953125 26.349117279052734375 26.331884384155273438 26.312265396118164062 26.2889251708984375 26.259153366088867188 26.221927642822265625 26.174716949462890625 26.11956024169921875 26.056825637817382812 25.990570068359375 25.920991897583007812 25.852338790893554688 25.784381866455078125 25.720621109008789062 25.66040802001953125 25.606893539428710938 25.559705734252929688 25.521127700805664062 25.4892425537109375 25.463474273681640625 25.441267013549804688 25.421628952026367188 25.402200698852539062 25.381753921508789062 25.357698440551757812 25.328737258911132812 25.292028427124023438 25.246641159057617188 25.190227508544921875 25.125680923461914062 25.053920745849609375 24.979780197143554688 24.903974533081054688 24.831083297729492188 24.758661270141601562 24.6853790283203125 24.604938507080078125 24.515398025512695312 24.410236358642578125 24.290414810180664062 24.1564178466796875 24.01818084716796875 23.878543853759765625 23.74796295166015625 23.6284942626953125 23.524835586547851562 23.430349349975585938 23.343317031860351562 23.256719589233398438 23.168531417846679688 23.073411941528320312 22.974002838134765625 22.869335174560546875 22.763782501220703125 22.656291961669921875 22.551225662231445312 22.446844100952148438 22.346364974975585938 22.247539520263671875 22.1533355712890625 22.061557769775390625 21.973291397094726562 21.881921768188476562 21.7841033935546875 21.671937942504882812 21.542264938354492188 21.38825225830078125 21.215585708618164062 21.028591156005859375 20.840246200561523438 20.6550750732421875 20.4858856201171875 20.331815719604492188 20.191209793090820312 20.0519561767578125 19.90839385986328125 19.748750686645507812 19.569379806518554688 19.367971420288085938 19.155199050903320312 18.934560775756835938 18.71822357177734375 18.508802413940429688 18.31341552734375 18.123138427734375 17.93499755859375 17.738264083862304688 17.529592514038085938 17.301183700561523438 17.062093734741210938 16.819646835327148438 16.590616226196289062 16.382658004760742188 16.211673736572265625 16.07769012451171875 15.97817230224609375 15.901551246643066406 15.840868949890136719 15.785795211791992188 15.730124473571777344 15.670717239379882812 15.609110832214355469 15.54544830322265625 15.48166656494140625 15.417795181274414062 15.355371475219726562 15.293610572814941406 15.2334136962890625 15.173931121826171875 15.115976333618164062 15.058330535888671875 15.0001373291015625 14.938570022583007812 14.871975898742675781 14.797595024108886719 14.714087486267089844 14.621352195739746094 14.523138999938964844 14.422261238098144531 14.323335647583007812 14.228877067565917969 14.142319679260253906 14.061947822570800781 13.98659515380859375 13.913280487060546875 13.840439796447753906 13.765715599060058594 13.689766883850097656 13.614314079284667969 13.542517662048339844 13.476360321044921875 13.419062614440917969 
30.554332733154296875 30.640298843383789062 30.622194290161132812 30.59719085693359375 30.56397247314453125 30.52452850341796875 30.517457962036132812 30.514360427856445312 30.476922988891601562 30.433986663818359375 30.434600830078125 30.4595794677734375 30.478677749633789062 30.488546371459960938 30.4858856201171875 30.495519638061523438 30.455434799194335938 30.374279022216796875 30.328310012817382812 30.303033828735351562 30.274370193481445312 30.310703277587890625 30.363851547241210938 30.393526077270507812 30.40250396728515625 30.404134750366210938 30.400180816650390625 30.407461166381835938 30.432355880737304688 30.4689483642578125 30.51280975341796875 30.55226898193359375 30.564847946166992188 30.582174301147460938 30.642322540283203125 30.662811279296875 30.686246871948242188 30.830509185791015625 30.997631072998046875 30.963527679443359375 31.002445220947265625 31.069883346557617188 31.072452545166015625 31.0907440185546875 31.153417587280273438 31.229124069213867188 31.350988388061523438 31.466846466064453125 31.767665863037109375 32.80893707275390625 33.98052215576171875 34.838283538818359375 34.786724090576171875 34.393962860107421875 33.886043548583984375 33.33090972900390625 32.901599884033203125 32.647418975830078125 32.603481292724609375 32.839740753173828125 33.2069854736328125 33.847599029541015625 35.00229644775390625 35.775302886962890625 35.70850372314453125 34.492427825927734375 33.35385894775390625 32.922580718994140625 32.732547760009765625 32.706096649169921875 32.71323394775390625 32.70352935791015625 32.6519775390625 32.542438507080078125 32.19016265869140625 31.710540771484375 31.535570144653320312 31.641263961791992188 31.532197952270507812 31.191431045532226562 30.857591629028320312 30.528036117553710938 30.16408538818359375 29.813747406005859375 29.546365737915039062 29.437860488891601562 29.324848175048828125 29.20696258544921875 29.092805862426757812 28.994565963745117188 28.984151840209960938 29.02840423583984375 28.992130279541015625 28.909809112548828125 28.764551162719726562 28.365133285522460938 27.830799102783203125 27.271604537963867188 26.684778213500976562 26.2047576904296875 26.1097412109375 26.132383346557617188 26.31415557861328125 26.34479522705078125 26.320917129516601562 26.288534164428710938 26.24712371826171875 26.199441909790039062 26.145818710327148438 26.0894012451171875 26.030321121215820312 25.971649169921875 25.9131317138671875 25.857542037963867188 25.8046722412109375 25.757106781005859375 25.714586257934570312 25.67833709716796875 25.647134780883789062 25.621412277221679688 25.600168228149414062 25.583639144897460938 25.571527481079101562 25.564662933349609375 25.563611984252929688 25.56899261474609375 25.581754684448242188 25.602331161499023438 25.632938385009765625 25.674335479736328125 25.729719161987304688 25.799106597900390625 25.88602447509765625 25.986093521118164062 26.097387313842773438 26.211009979248046875 26.324628829956054688 26.429454803466796875 26.524591445922851562 26.607137680053710938 26.681066513061523438 26.7458953857421875 26.805234909057617188 26.858758926391601562 26.908258438110351562 26.951269149780273438 26.987806320190429688 27.0155792236328125 27.034175872802734375 27.0425567626953125 27.041774749755859375 27.033266067504882812 27.0181884765625 26.9984283447265625 26.974580764770507812 26.947607040405273438 26.916011810302734375 26.880014419555664062 26.837694168090820312 26.789686203002929688 26.734867095947265625 26.6772003173828125 26.6179351806640625 26.561895370483398438 26.51041412353515625 26.467508316040039062 26.432104110717773438 26.403842926025390625 26.38010406494140625 26.359930038452148438 26.340940475463867188 26.321994781494140625 26.30066680908203125 26.275806427001953125 26.2447967529296875 26.206790924072265625 26.159357070922851562 26.104608535766601562 26.0429534912109375 25.978445053100585938 25.911355972290039062 25.845876693725585938 25.781780242919921875 25.722215652465820312 25.666372299194335938 25.616991043090820312 25.573541641235351562 25.537973403930664062 25.50844573974609375 25.484409332275390625 25.4634857177734375 25.444753646850585938 25.425994873046875 25.405981063842773438 25.382049560546875 25.352785110473632812 25.315229415893554688 25.268362045288085938 25.209735870361328125 25.142383575439453125 25.067310333251953125 24.989612579345703125 24.910076141357421875 24.83353424072265625 24.757503509521484375 24.680711746215820312 24.596693038940429688 24.50353240966796875 24.3945465087890625 24.27085113525390625 24.133157730102539062 23.991977691650390625 23.850549697875976562 23.719879150390625 23.602407455444335938 23.502794265747070312 23.414033889770507812 23.333738327026367188 23.254507064819335938 23.173595428466796875 23.085391998291015625 22.992034912109375 22.89249420166015625 22.790760040283203125 22.6856689453125 22.581302642822265625 22.475955963134765625 22.372999191284179688 22.270341873168945312 22.17121124267578125 22.073497772216796875 21.97853851318359375 21.879583358764648438 21.7734222412109375 21.651933670043945312 21.512128829956054688 21.346981048583984375 21.162738800048828125 20.964033126831054688 20.764705657958984375 20.569614410400390625 20.392398834228515625 20.232244491577148438 20.087451934814453125 19.945354461669921875 19.79996490478515625 19.639013290405273438 19.458538055419921875 19.25604248046875 19.042245864868164062 18.8206634521484375 18.60352325439453125 18.393463134765625 18.19773101806640625 18.007604598999023438 17.82037353515625 17.625547409057617188 17.420022964477539062 17.196163177490234375 16.962785720825195312 16.72686004638671875 16.504604339599609375 16.303333282470703125 16.138397216796875 16.009771347045898438 15.914969444274902344 15.842775344848632812 15.786412239074707031 15.735880851745605469 15.685050010681152344 15.630648612976074219 15.573721885681152344 15.514074325561523438 15.453114509582519531 15.390585899353027344 15.327925682067871094 15.264821052551269531 15.202692031860351562 15.141219139099121094 15.0817718505859375 15.02347564697265625 14.965480804443359375 14.904693603515625 14.839199066162109375 14.765979766845703125 14.683440208435058594 14.591442108154296875 14.493868827819824219 14.393732070922851562 14.29583740234375 14.202889442443847656 14.118425369262695312 14.040617942810058594 13.968075752258300781 13.897619247436523438 13.827434539794921875 13.755001068115234375 13.680875778198242188 13.606866836547851562 13.536197662353515625 13.470959663391113281 13.414445877075195312 
30.4224700927734375 30.409349441528320312 30.453868865966796875 30.54442596435546875 30.603710174560546875 30.598558425903320312 30.55860137939453125 30.520067214965820312 30.482913970947265625 30.466218948364257812 30.482355117797851562 30.5015869140625 30.503469467163085938 30.499837875366210938 30.506195068359375 30.502504348754882812 30.442169189453125 30.36899566650390625 30.33579254150390625 30.324230194091796875 30.33087158203125 30.341314315795898438 30.369783401489257812 30.402669906616210938 30.4141693115234375 30.4080352783203125 30.407804489135742188 30.416704177856445312 30.429523468017578125 30.4484710693359375 30.46673583984375 30.493356704711914062 30.529592514038085938 30.571249008178710938 30.617755889892578125 30.684688568115234375 30.738393783569335938 30.854656219482421875 30.92227935791015625 30.971494674682617188 31.077083587646484375 31.106309890747070312 31.168811798095703125 31.203510284423828125 31.2071685791015625 31.266305923461914062 31.366771697998046875 31.486898422241210938 32.169528961181640625 33.317966461181640625 34.3657989501953125 34.9371490478515625 34.71048736572265625 34.302425384521484375 33.73136138916015625 33.110729217529296875 32.685428619384765625 32.52152252197265625 32.631511688232421875 33.000530242919921875 33.646694183349609375 34.443115234375 35.249858856201171875 35.5061798095703125 34.99884033203125 33.968235015869140625 33.215015411376953125 32.862316131591796875 32.681095123291015625 32.67420196533203125 32.6935577392578125 32.68535614013671875 32.635326385498046875 32.5055999755859375 32.075160980224609375 31.64398193359375 31.561130523681640625 31.607751846313476562 31.462705612182617188 31.115507125854492188 30.797000885009765625 30.464490890502929688 30.131746292114257812 29.767026901245117188 29.496843338012695312 29.393428802490234375 29.285787582397460938 29.173723220825195312 29.066896438598632812 28.9868316650390625 28.997243881225585938 29.02657318115234375 28.97314453125 28.881986618041992188 28.731546401977539062 28.297084808349609375 27.757669448852539062 27.218755722045898438 26.661174774169921875 26.206354141235351562 26.11688232421875 26.133813858032226562 26.268524169921875 26.287061691284179688 26.263210296630859375 26.231998443603515625 26.192922592163085938 26.148494720458984375 26.098966598510742188 26.04718780517578125 25.993234634399414062 25.939853668212890625 25.88672637939453125 25.836284637451171875 25.788249969482421875 25.74488067626953125 25.705846786499023438 25.672216415405273438 25.642782211303710938 25.617919921875 25.59661102294921875 25.579113006591796875 25.565319061279296875 25.556596755981445312 25.554019927978515625 25.558788299560546875 25.572391510009765625 25.595508575439453125 25.630086898803710938 25.676080703735351562 25.736104965209960938 25.8093414306640625 25.898782730102539062 25.999849319458007812 26.111017227172851562 26.223888397216796875 26.33660888671875 26.440887451171875 26.536108016967773438 26.619190216064453125 26.693750381469726562 26.758905410766601562 26.817876815795898438 26.870042800903320312 26.917177200317382812 26.957263946533203125 26.990663528442382812 27.015613555908203125 27.032041549682617188 27.039226531982421875 27.038072586059570312 27.02978515625 27.015268325805664062 26.996137619018554688 26.972780227661132812 26.94606781005859375 26.9145660400390625 26.878566741943359375 26.836217880249023438 26.788234710693359375 26.733514785766601562 26.675970077514648438 26.616773605346679688 26.560665130615234375 26.508890151977539062 26.465412139892578125 26.429132461547851562 26.399755477905273438 26.374673843383789062 26.353015899658203125 26.332406997680664062 26.31182861328125 26.288936614990234375 26.26276397705078125 26.230798721313476562 26.192356109619140625 26.145111083984375 26.09120941162109375 26.031053543090820312 25.968626022338867188 25.904232025146484375 25.841939926147460938 25.781515121459960938 25.725795745849609375 25.673852920532226562 25.628076553344726562 25.587812423706054688 25.554738998413085938 25.527095794677734375 25.504375457763671875 25.484365463256835938 25.4662322998046875 25.447885513305664062 25.42809295654296875 25.404085159301757812 25.374307632446289062 25.335634231567382812 25.286939620971679688 25.225643157958984375 25.154962539672851562 25.07601165771484375 24.994211196899414062 24.910442352294921875 24.829868316650390625 24.74999237060546875 24.66967010498046875 24.58231353759765625 24.486095428466796875 24.374227523803710938 24.2479705810546875 24.108205795288085938 23.9658355712890625 23.824396133422851562 23.695245742797851562 23.581127166748046875 23.4865875244140625 23.404340744018554688 23.331388473510742188 23.260051727294921875 23.186918258666992188 23.106159210205078125 23.0193634033203125 22.925367355346679688 22.827686309814453125 22.724979400634765625 22.620973587036132812 22.5140228271484375 22.407747268676757812 22.300306320190429688 22.195310592651367188 22.090818405151367188 21.988523483276367188 21.88155364990234375 21.7668609619140625 21.636110305786132812 21.48650360107421875 21.310819625854492188 21.115802764892578125 20.906267166137695312 20.696783065795898438 20.492425918579101562 20.307516098022460938 20.141256332397460938 19.991939544677734375 19.846437454223632812 19.698535919189453125 19.535564422607421875 19.353328704833984375 19.149200439453125 18.933977127075195312 18.7111968994140625 18.493188858032226562 18.282632827758789062 18.086887359619140625 17.897375106811523438 17.711553573608398438 17.519115447998046875 17.317102432250976562 17.097990036010742188 16.8703155517578125 16.640697479248046875 16.424795150756835938 16.22959136962890625 16.069889068603515625 15.945631027221679688 15.854463577270507812 15.785596847534179688 15.732532501220703125 15.68566131591796875 15.639008522033691406 15.589144706726074219 15.536593437194824219 15.480752944946289062 15.422464370727539062 15.361123085021972656 15.298033714294433594 15.233328819274902344 15.168931961059570312 15.10503387451171875 15.043547630310058594 14.983941078186035156 14.925447463989257812 14.864781379699707031 14.799885749816894531 14.727559089660644531 14.646059989929199219 14.555201530456542969 14.458928108215332031 14.360348701477050781 14.264361381530761719 14.173758506774902344 14.092107772827148438 14.017477989196777344 13.948275566101074219 13.881158828735351562 13.814095497131347656 13.744433403015136719 13.672619819641113281 13.600535392761230469 13.531431198120117188 13.467479705810546875 13.412012100219726562 
30.520139694213867188 30.504243850708007812 30.445726394653320312 30.387912750244140625 30.406511306762695312 30.518970489501953125 30.5764312744140625 30.5560455322265625 30.529209136962890625 30.526216506958007812 30.5302581787109375 30.52410125732421875 30.51126861572265625 30.50283050537109375 30.514368057250976562 30.502119064331054688 30.436990737915039062 30.376354217529296875 30.358686447143554688 30.361772537231445312 30.379549026489257812 30.402097702026367188 30.419664382934570312 30.4295501708984375 30.429693222045898438 30.420856475830078125 30.411577224731445312 30.41539764404296875 30.44689178466796875 30.481201171875 30.493352890014648438 30.498144149780273438 30.538419723510742188 30.589494705200195312 30.60939788818359375 30.67250823974609375 30.776397705078125 30.869533538818359375 30.910581588745117188 31.031375885009765625 31.11090850830078125 31.133251190185546875 31.193141937255859375 31.293756484985351562 31.38019561767578125 31.415609359741210938 31.399333953857421875 31.619915008544921875 32.745105743408203125 33.822536468505859375 34.792346954345703125 35.004638671875 34.67150115966796875 34.197956085205078125 33.51834869384765625 32.887630462646484375 32.524822235107421875 32.493618011474609375 32.707096099853515625 33.176387786865234375 33.97049713134765625 34.897518157958984375 35.583705902099609375 35.555156707763671875 34.56697845458984375 33.577747344970703125 33.072963714599609375 32.771411895751953125 32.640903472900390625 32.65598297119140625 32.67682647705078125 32.67032623291015625 32.633075714111328125 32.493373870849609375 31.991662979125976562 31.622255325317382812 31.617404937744140625 31.586050033569335938 31.382833480834960938 31.02831268310546875 30.732959747314453125 30.407629013061523438 30.09283447265625 29.733234405517578125 29.482936859130859375 29.365488052368164062 29.250749588012695312 29.135648727416992188 29.023006439208984375 28.92919921875 28.977611541748046875 29.012090682983398438 28.938127517700195312 28.818944931030273438 28.619659423828125 28.197088241577148438 27.691570281982421875 27.176441192626953125 26.643589019775390625 26.209337234497070312 26.12448883056640625 26.135852813720703125 26.224704742431640625 26.231723785400390625 26.208316802978515625 26.17874908447265625 26.142526626586914062 26.1018524169921875 26.056852340698242188 26.01001739501953125 25.961324691772460938 25.913181304931640625 25.865234375 25.819622039794921875 25.776027679443359375 25.73644256591796875 25.700481414794921875 25.66904449462890625 25.640905380249023438 25.616350173950195312 25.5942840576171875 25.574977874755859375 25.558488845825195312 25.546804428100585938 25.541532516479492188 25.544546127319335938 25.557909011840820312 25.58261871337890625 25.620340347290039062 25.670240402221679688 25.734317779541015625 25.810930252075195312 25.902515411376953125 26.0043182373046875 26.115255355834960938 26.227466583251953125 26.33962249755859375 26.443967819213867188 26.540180206298828125 26.624908447265625 26.701322555541992188 26.767986297607421875 26.827650070190429688 26.879259109497070312 26.924556732177734375 26.961984634399414062 26.992300033569335938 27.0142974853515625 27.028293609619140625 27.033916473388671875 27.031986236572265625 27.023532867431640625 27.009256362915039062 26.990570068359375 26.967693328857421875 26.941404342651367188 26.910295486450195312 26.87467193603515625 26.832721710205078125 26.785167694091796875 26.730915069580078125 26.673801422119140625 26.614925384521484375 26.558935165405273438 26.506992340087890625 26.463001251220703125 26.425823211669921875 26.395233154296875 26.368616104125976562 26.345186233520507812 26.3225555419921875 26.299871444702148438 26.274913787841796875 26.246997833251953125 26.213777542114257812 26.174831390380859375 26.127985000610351562 26.075376510620117188 26.017330169677734375 25.957639694213867188 25.896562576293945312 25.8379364013671875 25.781480789184570312 25.729717254638671875 25.681629180908203125 25.6392822265625 25.601924896240234375 25.570989608764648438 25.544816970825195312 25.522985458374023438 25.503467559814453125 25.48555755615234375 25.467306137084960938 25.447488784790039062 25.42317962646484375 25.39263153076171875 25.352512359619140625 25.301534652709960938 25.236959457397460938 25.16222381591796875 25.078617095947265625 24.99196624755859375 24.903314590454101562 24.81822967529296875 24.734270095825195312 24.650480270385742188 24.56021881103515625 24.461797714233398438 24.3484039306640625 24.221416473388671875 24.081787109375 23.940555572509765625 23.80139923095703125 23.675760269165039062 23.566555023193359375 23.478137969970703125 23.403106689453125 23.337972640991210938 23.274951934814453125 23.210107803344726562 23.137479782104492188 23.057987213134765625 22.970193862915039062 22.876943588256835938 22.776559829711914062 22.672273635864257812 22.562528610229492188 22.451425552368164062 22.337572097778320312 22.225240707397460938 22.1128387451171875 22.002597808837890625 21.887468338012695312 21.76448822021484375 21.625009536743164062 21.46631622314453125 21.280920028686523438 21.075941085815429688 20.856319427490234375 20.637241363525390625 20.423921585083007812 20.231281280517578125 20.058500289916992188 19.903944015502929688 19.75411224365234375 19.602682113647460938 19.436662673950195312 19.251752853393554688 19.04521942138671875 18.827999114990234375 18.603666305541992188 18.384691238403320312 18.173803329467773438 17.978473663330078125 17.790157318115234375 17.606365203857421875 17.41684722900390625 17.218658447265625 17.004312515258789062 16.782045364379882812 16.558191299438476562 16.347913742065429688 16.1579132080078125 16.002523422241210938 15.881689071655273438 15.793230056762695312 15.726789474487304688 15.676190376281738281 15.632219314575195312 15.589095115661621094 15.543232917785644531 15.494657516479492188 15.442358016967773438 15.386631011962890625 15.326519966125488281 15.26318359375 15.197136878967285156 15.130739212036132812 15.064626693725585938 15.001189231872558594 14.940202713012695312 14.881014823913574219 14.82022857666015625 14.7557220458984375 14.684187889099121094 14.603811264038085938 14.514364242553710938 14.419793128967285156 14.32323455810546875 14.229600906372070312 14.141711235046386719 14.063112258911132812 13.99179840087890625 13.926039695739746094 13.862392425537109375 13.798669815063476562 13.732135772705078125 13.663141250610351562 13.593581199645996094 13.526668548583984375 13.464599609375 13.410670280456542969 
30.472919464111328125 30.496673583984375 30.52887725830078125 30.517942428588867188 30.413587570190429688 30.33130645751953125 30.422328948974609375 30.489606857299804688 30.551059722900390625 30.585178375244140625 30.570529937744140625 30.533168792724609375 30.505292892456054688 30.5099029541015625 30.522592544555664062 30.494029998779296875 30.424015045166015625 30.399898529052734375 30.418500900268554688 30.421205520629882812 30.418367385864257812 30.423641204833984375 30.440404891967773438 30.453451156616210938 30.450984954833984375 30.441171646118164062 30.423009872436523438 30.420846939086914062 30.445596694946289062 30.480377197265625 30.515752792358398438 30.549228668212890625 30.581502914428710938 30.610918045043945312 30.639453887939453125 30.702859878540039062 30.783843994140625 30.84200286865234375 30.929805755615234375 31.10706329345703125 31.237186431884765625 31.209005355834960938 31.219570159912109375 31.296560287475585938 31.404878616333007812 31.461988449096679688 31.409648895263671875 31.899324417114257812 33.184894561767578125 34.28357696533203125 35.1000823974609375 34.974369049072265625 34.58238983154296875 34.019687652587890625 33.276714324951171875 32.702693939208984375 32.460109710693359375 32.531650543212890625 32.8355560302734375 33.4149322509765625 34.257061004638671875 35.1421966552734375 35.79843902587890625 35.364788055419921875 34.097698211669921875 33.3624114990234375 32.9703826904296875 32.692432403564453125 32.601348876953125 32.637958526611328125 32.66623687744140625 32.66204833984375 32.62783050537109375 32.418018341064453125 31.88232421875 31.6270751953125 31.664781570434570312 31.574953079223632812 31.292238235473632812 30.939863204956054688 30.659069061279296875 30.342571258544921875 30.058807373046875 29.6950225830078125 29.479059219360351562 29.344882965087890625 29.218172073364257812 29.095926284790039062 28.9748077392578125 28.8685455322265625 28.929914474487304688 28.983579635620117188 28.899295806884765625 28.769533157348632812 28.542537689208984375 28.118045806884765625 27.638917922973632812 27.145277023315429688 26.632081985473632812 26.213451385498046875 26.132207870483398438 26.138462066650390625 26.185194015502929688 26.18194580078125 26.159358978271484375 26.131769180297851562 26.09870147705078125 26.062009811401367188 26.021661758422851562 25.979742050170898438 25.936098098754882812 25.892793655395507812 25.849470138549804688 25.808038711547851562 25.768175125122070312 25.731672286987304688 25.698110580444335938 25.668233871459960938 25.640750885009765625 25.615850448608398438 25.592317581176757812 25.570425033569335938 25.55036163330078125 25.534755706787109375 25.525728225708007812 25.525859832763671875 25.537763595581054688 25.562803268432617188 25.602390289306640625 25.655008316040039062 25.722095489501953125 25.801280975341796875 25.894504547119140625 25.996877670288085938 26.107738494873046875 26.219747543334960938 26.332096099853515625 26.437511444091796875 26.535968780517578125 26.62371826171875 26.703426361083984375 26.772958755493164062 26.834527969360351562 26.886522293090820312 26.930644989013671875 26.965789794921875 26.993143081665039062 27.012088775634765625 27.023344039916992188 27.026950836181640625 27.023685455322265625 27.014514923095703125 26.999994277954101562 26.981428146362304688 26.958929061889648438 26.933191299438476562 26.902784347534179688 26.867954254150390625 26.82688140869140625 26.780221939086914062 26.726861953735351562 26.670537948608398438 26.612285614013671875 26.556653976440429688 26.504730224609375 26.460344314575195312 26.422313690185546875 26.390432357788085938 26.362049102783203125 26.336429595947265625 26.31113433837890625 26.285509109497070312 26.257549285888671875 26.227006912231445312 26.1918182373046875 26.15196990966796875 26.105535507202148438 26.054609298706054688 25.999330520629882812 25.943157196044921875 25.88619232177734375 25.831895828247070312 25.77988433837890625 25.7323455810546875 25.688203811645507812 25.649206161499023438 25.614521026611328125 25.58536529541015625 25.560205459594726562 25.538766860961914062 25.519229888916015625 25.501085281372070312 25.48255157470703125 25.462421417236328125 25.437566757202148438 25.406007766723632812 25.36412811279296875 25.310445785522460938 25.242013931274414062 25.1625518798828125 25.073577880859375 24.98143768310546875 24.887380599975585938 24.79749298095703125 24.709438323974609375 24.62253570556640625 24.530157089233398438 24.4308013916015625 24.317731857299804688 24.192388534545898438 24.055665969848632812 23.91839599609375 23.784198760986328125 23.664236068725585938 23.56142425537109375 23.47985076904296875 23.412220001220703125 23.354787826538085938 23.299913406372070312 23.243368148803710938 23.179189682006835938 23.107511520385742188 23.026409149169921875 22.937814712524414062 22.839496612548828125 22.734012603759765625 22.619939804077148438 22.502170562744140625 22.380033493041992188 22.258832931518554688 22.1375885009765625 22.01927947998046875 21.896579742431640625 21.766439437866210938 21.619709014892578125 21.453554153442382812 21.260066986083984375 21.046586990356445312 20.818124771118164062 20.5903778076171875 20.368658065795898438 20.168378829956054688 19.98870849609375 19.82816314697265625 19.672994613647460938 19.516910552978515625 19.346704483032226562 19.158107757568359375 18.94832611083984375 18.728494644165039062 18.5022430419921875 18.282222747802734375 18.071237564086914062 17.876825332641601562 17.690351486206054688 17.509202957153320312 17.323038101196289062 17.128753662109375 16.9187774658203125 16.701084136962890625 16.481832504272460938 16.275846481323242188 16.08966064453125 15.937296867370605469 15.818737983703613281 15.731986045837402344 15.667050361633300781 15.618043899536132812 15.576096534729003906 15.535611152648925781 15.492878913879394531 15.44753265380859375 15.398232460021972656 15.344837188720703125 15.286103248596191406 15.223047256469726562 15.156456947326660156 15.088984489440917969 15.021579742431640625 14.956959724426269531 14.895128250122070312 14.835536956787109375 14.774759292602539062 14.71067047119140625 14.639934539794921875 14.560718536376953125 14.47277069091796875 14.380002021789550781 14.285523414611816406 14.194202423095703125 14.108838081359863281 14.032932281494140625 13.96446990966796875 13.901678085327148438 13.841112136840820312 13.78054046630859375 13.71721649169921875 13.651406288146972656 13.584936141967773438 13.520894050598144531 13.461400032043457031 13.409630775451660156 
30.465579986572265625 30.4703216552734375 30.482585906982421875 30.492551803588867188 30.500223159790039062 30.4696502685546875 30.401453018188476562 30.340417861938476562 30.357587814331054688 30.483606338500976562 30.570219039916992188 30.552152633666992188 30.518157958984375 30.50467681884765625 30.505481719970703125 30.464763641357421875 30.410543441772460938 30.43643951416015625 30.490144729614257812 30.507778167724609375 30.489114761352539062 30.462892532348632812 30.450761795043945312 30.459140777587890625 30.457889556884765625 30.437940597534179688 30.432310104370117188 30.435848236083984375 30.443614959716796875 30.471830368041992188 30.533405303955078125 30.589593887329101562 30.625415802001953125 30.654216766357421875 30.697553634643554688 30.7495269775390625 30.801059722900390625 30.842121124267578125 30.93276214599609375 31.095363616943359375 31.323574066162109375 31.253393173217773438 31.260959625244140625 31.312135696411132812 31.384889602661132812 31.402097702026367188 31.421541213989257812 32.251781463623046875 33.4774017333984375 34.60455322265625 35.137516021728515625 34.841815948486328125 34.36907958984375 33.68964385986328125 33.032779693603515625 32.567028045654296875 32.45444488525390625 32.61690521240234375 32.973773956298828125 33.812061309814453125 34.7883453369140625 35.484531402587890625 35.75475311279296875 34.93378448486328125 33.708843231201171875 33.2336578369140625 32.91051483154296875 32.641315460205078125 32.575046539306640625 32.62331390380859375 32.6539154052734375 32.644947052001953125 32.5989532470703125 32.300823211669921875 31.784992218017578125 31.643278121948242188 31.689424514770507812 31.544698715209960938 31.1977386474609375 30.860792160034179688 30.5799713134765625 30.258066177368164062 29.974821090698242188 29.643476486206054688 29.45763397216796875 29.319889068603515625 29.184160232543945312 29.055936813354492188 28.932170867919921875 28.855855941772460938 28.929948806762695312 28.944974899291992188 28.849193572998046875 28.726991653442382812 28.477933883666992188 28.068897247314453125 27.606801986694335938 27.126981735229492188 26.626850128173828125 26.218778610229492188 26.140155792236328125 26.141725540161132812 26.149667739868164062 26.137125015258789062 26.115633010864257812 26.090314865112304688 26.060665130615234375 26.028146743774414062 25.9925384521484375 25.955492019653320312 25.916681289672851562 25.877836227416992188 25.838617324829101562 25.800760269165039062 25.763967514038085938 25.729888916015625 25.69808197021484375 25.669162750244140625 25.641735076904296875 25.6158905029296875 25.590261459350585938 25.565118789672851562 25.540744781494140625 25.520410537719726562 25.506700515747070312 25.502920150756835938 25.512166976928710938 25.536226272583007812 25.5762786865234375 25.630281448364257812 25.6991729736328125 25.780004501342773438 25.874288558959960938 25.977052688598632812 26.088047027587890625 26.200399398803710938 26.313810348510742188 26.421430587768554688 26.5235137939453125 26.615777969360351562 26.700323104858398438 26.774152755737304688 26.83887481689453125 26.89218902587890625 26.9357452392578125 26.968900680541992188 26.99332427978515625 27.009021759033203125 27.01714324951171875 27.018207550048828125 27.013004302978515625 27.002527236938476562 26.987253189086914062 26.96846771240234375 26.946229934692382812 26.921155929565429688 26.89174652099609375 26.858119964599609375 26.81839752197265625 26.773105621337890625 26.721075057983398438 26.66591644287109375 26.608617782592773438 26.553613662719726562 26.501922607421875 26.4572906494140625 26.418468475341796875 26.38523101806640625 26.354845046997070312 26.326602935791015625 26.2979583740234375 26.268503189086914062 26.236522674560546875 26.202386856079101562 26.164422988891601562 26.123193740844726562 26.077100753784179688 26.028188705444335938 25.976305007934570312 25.92443084716796875 25.872406005859375 25.82318115234375 25.776210784912109375 25.73331451416015625 25.693368911743164062 25.657808303833007812 25.625715255737304688 25.598114013671875 25.57361602783203125 25.552150726318359375 25.5321502685546875 25.513355255126953125 25.4941864013671875 25.473474502563476562 25.447832107543945312 25.415004730224609375 25.37103271484375 25.314188003540039062 25.2412872314453125 25.1563873291015625 25.061288833618164062 24.962968826293945312 24.862951278686523438 24.767934799194335938 24.675760269165039062 24.58608245849609375 24.492353439331054688 24.393312454223632812 24.282375335693359375 24.160993576049804688 24.029880523681640625 23.899312973022460938 23.772649765014648438 23.660425186157226562 23.565378189086914062 23.491254806518554688 23.431095123291015625 23.381139755249023438 23.334127426147460938 23.285795211791992188 23.230291366577148438 23.1668548583984375 23.092851638793945312 23.009061813354492188 22.912469863891601562 22.804779052734375 22.68474578857421875 22.558366775512695312 22.425985336303710938 22.294309616088867188 22.163248062133789062 22.0367431640625 21.907073974609375 21.7708892822265625 21.6183624267578125 21.44628143310546875 21.246164321899414062 21.025411605834960938 20.78908538818359375 20.553310394287109375 20.3234710693359375 20.11541748046875 19.928316116333007812 19.76091766357421875 19.599325180053710938 19.437417984008789062 19.261861801147460938 19.06855010986328125 18.854671478271484375 18.63161468505859375 18.403074264526367188 18.181934356689453125 17.971088409423828125 17.778108596801757812 17.594160079956054688 17.416334152221679688 17.234067916870117188 17.043920516967773438 16.838148117065429688 16.624456405639648438 16.408933639526367188 16.206188201904296875 16.022686004638671875 15.872255325317382812 15.754961967468261719 15.668995857238769531 15.604681015014648438 15.556409835815429688 15.515605926513671875 15.476861000061035156 15.4363861083984375 15.393532752990722656 15.346714019775390625 15.295469284057617188 15.238343238830566406 15.176218032836914062 15.110037803649902344 15.042601585388183594 14.975043296813964844 14.910248756408691406 14.84836578369140625 14.788926124572753906 14.728534698486328125 14.665106773376464844 14.595335960388183594 14.517416954040527344 14.431080818176269531 14.340178489685058594 14.247755050659179688 14.158588409423828125 14.075428962707519531 14.001722335815429688 13.935514450073242188 13.87509918212890625 13.817124366760253906 13.759435653686523438 13.699354171752929688 13.63707733154296875 13.574274063110351562 13.513808250427246094 13.45763397216796875 13.408694267272949219 
30.464906692504882812 30.46855926513671875 30.464338302612304688 30.452213287353515625 30.446193695068359375 30.453554153442382812 30.471042633056640625 30.467336654663085938 30.432844161987304688 30.348064422607421875 30.389661788940429688 30.432573318481445312 30.492214202880859375 30.494771957397460938 30.489122390747070312 30.449552536010742188 30.42421722412109375 30.464281082153320312 30.516908645629882812 30.549837112426757812 30.551168441772460938 30.514154434204101562 30.472852706909179688 30.456226348876953125 30.449048995971679688 30.444721221923828125 30.444721221923828125 30.448024749755859375 30.454969406127929688 30.472204208374023438 30.536432266235351562 30.608629226684570312 30.667934417724609375 30.714756011962890625 30.752285003662109375 30.781995773315429688 30.8147125244140625 30.855546951293945312 30.938922882080078125 31.115634918212890625 31.315067291259765625 31.226650238037109375 31.263072967529296875 31.345262527465820312 31.415225982666015625 31.360509872436523438 31.570051193237304688 32.64324951171875 33.83054351806640625 34.87237548828125 34.9743194580078125 34.62471771240234375 34.037387847900390625 33.34543609619140625 32.836986541748046875 32.495548248291015625 32.496524810791015625 32.7065582275390625 33.107227325439453125 34.130889892578125 35.315135955810546875 35.600353240966796875 35.27529144287109375 34.30252838134765625 33.45821380615234375 33.153385162353515625 32.859649658203125 32.599910736083984375 32.5572967529296875 32.61031341552734375 32.642925262451171875 32.634521484375 32.532375335693359375 32.13471221923828125 31.708522796630859375 31.659582138061523438 31.69751739501953125 31.491151809692382812 31.097919464111328125 30.791540145874023438 30.505338668823242188 30.199728012084960938 29.903635025024414062 29.61865997314453125 29.44292449951171875 29.291627883911132812 29.14810943603515625 29.015880584716796875 28.896022796630859375 28.88426971435546875 28.974309921264648438 28.922733306884765625 28.819271087646484375 28.725793838500976562 28.470457077026367188 28.061222076416015625 27.601961135864257812 27.124464035034179688 26.62859344482421875 26.2251129150390625 26.147960662841796875 26.145460128784179688 26.1195831298828125 26.099199295043945312 26.079050064086914062 26.0561370849609375 26.029916763305664062 26.001461029052734375 25.970348358154296875 25.937803268432617188 25.9033203125 25.86832427978515625 25.832502365112304688 25.7974853515625 25.763013839721679688 25.730657577514648438 25.699970245361328125 25.671457290649414062 25.643617630004882812 25.616453170776367188 25.58843231201171875 25.559831619262695312 25.530981063842773438 25.505718231201171875 25.486997604370117188 25.478761672973632812 25.484493255615234375 25.506387710571289062 25.545454025268554688 25.599321365356445312 25.668554306030273438 25.749826431274414062 25.844341278076171875 25.947130203247070312 26.058290481567382812 26.171358108520507812 26.2864990234375 26.397197723388671875 26.503946304321289062 26.601837158203125 26.69235992431640625 26.7715606689453125 26.840396881103515625 26.89579010009765625 26.9393310546875 26.970838546752929688 26.992479324340820312 27.004901885986328125 27.009708404541015625 27.007917404174804688 27.000383377075195312 26.988193511962890625 26.971796035766601562 26.9525299072265625 26.930446624755859375 26.906095504760742188 26.87786865234375 26.845716476440429688 26.807668685913085938 26.764064788818359375 26.713672637939453125 26.6599578857421875 26.6038665771484375 26.549716949462890625 26.498470306396484375 26.453775405883789062 26.41431427001953125 26.379819869995117188 26.347459793090820312 26.316526412963867188 26.28435516357421875 26.25078582763671875 26.214433670043945312 26.176349639892578125 26.135301589965820312 26.092493057250976562 26.046693801879882812 25.999883651733398438 25.951574325561523438 25.904218673706054688 25.857355117797851562 25.81336212158203125 25.771511077880859375 25.733257293701171875 25.697437286376953125 25.665180206298828125 25.635499954223632812 25.609233856201171875 25.585155487060546875 25.563411712646484375 25.542694091796875 25.523015975952148438 25.503002166748046875 25.48152923583984375 25.454938888549804688 25.420679092407226562 25.374431610107421875 25.314212799072265625 25.236583709716796875 25.145969390869140625 25.04448699951171875 24.939786911010742188 24.833709716796875 24.733602523803710938 24.637523651123046875 24.545490264892578125 24.451082229614257812 24.3532867431640625 24.245733261108398438 24.129835128784179688 24.006031036376953125 23.883817672729492188 23.766145706176757812 23.662687301635742188 23.575878143310546875 23.509080886840820312 23.455829620361328125 23.4125213623046875 23.372449874877929688 23.331499099731445312 23.284025192260742188 23.228351593017578125 23.161029815673828125 23.081594467163085938 22.98614501953125 22.875455856323242188 22.748485565185546875 22.612497329711914062 22.468982696533203125 22.326242446899414062 22.185207366943359375 22.050878524780273438 21.915075302124023438 21.77400970458984375 21.617059707641601562 21.440485000610351562 21.235141754150390625 21.008371353149414062 20.765272140502929688 20.52231597900390625 20.284942626953125 20.06937408447265625 19.874780654907226562 19.7002105712890625 19.531694412231445312 19.363382339477539062 19.181879043579101562 18.983335494995117188 18.764947891235351562 18.538393020629882812 18.307439804077148438 18.085222244262695312 17.874729156494140625 17.683557510375976562 17.502607345581054688 17.3285980224609375 17.15067291259765625 16.964977264404296875 16.763532638549804688 16.553750991821289062 16.341676712036132812 16.141714096069335938 15.960280418395996094 15.811036109924316406 15.694140434265136719 15.608011245727539062 15.543297767639160156 15.494711875915527344 15.453976631164550781 15.415926933288574219 15.376734733581542969 15.335565567016601562 15.290647506713867188 15.241293907165527344 15.185896873474121094 15.125211715698242188 15.06023406982421875 14.993792533874511719 14.927094459533691406 14.863067626953125 14.8019256591796875 14.743255615234375 14.6837310791015625 14.621323585510253906 14.55279541015625 14.476392745971679688 14.391837120056152344 14.302883148193359375 14.212491989135742188 14.125324249267578125 14.044051170349121094 13.972055435180664062 13.907506942749023438 13.848851203918457031 13.79291534423828125 13.737714767456054688 13.680708885192871094 13.622043609619140625 13.56316375732421875 13.50664520263671875 13.454198837280273438 13.408472061157226562 
30.4682769775390625 30.473461151123046875 30.452482223510742188 30.418615341186523438 30.397882461547851562 30.41284942626953125 30.443307876586914062 30.471200942993164062 30.489213943481445312 30.505678176879882812 30.428724288940429688 30.327655792236328125 30.324121475219726562 30.42897796630859375 30.4918060302734375 30.506055831909179688 30.495126724243164062 30.499357223510742188 30.5192413330078125 30.552707672119140625 30.584026336669921875 30.553218841552734375 30.50533294677734375 30.478479385375976562 30.458917617797851562 30.461973190307617188 30.466096878051757812 30.457492828369140625 30.46413421630859375 30.489923477172851562 30.536329269409179688 30.596284866333007812 30.679445266723632812 30.74123382568359375 30.775903701782226562 30.80329132080078125 30.828327178955078125 30.865680694580078125 30.934635162353515625 31.110353469848632812 31.1955718994140625 31.156494140625 31.235401153564453125 31.350679397583007812 31.412109375 31.311122894287109375 31.788312911987304688 32.94385528564453125 34.119232177734375 35.012912750244140625 34.892383575439453125 34.464710235595703125 33.775875091552734375 33.128692626953125 32.7121429443359375 32.477474212646484375 32.578022003173828125 32.85211944580078125 33.31638336181640625 34.247600555419921875 35.41730499267578125 35.71515655517578125 34.999187469482421875 33.88336181640625 33.319278717041015625 33.044788360595703125 32.776668548583984375 32.55593109130859375 32.541774749755859375 32.601322174072265625 32.634246826171875 32.6130523681640625 32.415248870849609375 31.96186065673828125 31.648561477661132812 31.6704864501953125 31.679098129272460938 31.400270462036132812 31.000581741333007812 30.725841522216796875 30.4279937744140625 30.116838455200195312 29.840780258178710938 29.602094650268554688 29.417476654052734375 29.256435394287109375 29.107126235961914062 28.972087860107421875 28.856349945068359375 28.900651931762695312 28.972509384155273438 28.885700225830078125 28.7884674072265625 28.72186279296875 28.514451980590820312 28.104410171508789062 27.626125335693359375 27.136651992797851562 26.63646697998046875 26.232402801513671875 26.155752182006835938 26.149694442749023438 26.094158172607421875 26.067243576049804688 26.048704147338867188 26.028322219848632812 26.005506515502929688 25.980955123901367188 25.9540557861328125 25.925626754760742188 25.894977569580078125 25.863264083862304688 25.830221176147460938 25.797414779663085938 25.76464080810546875 25.733432769775390625 25.703355789184570312 25.67484283447265625 25.646284103393554688 25.617618560791015625 25.587152481079101562 25.55518341064453125 25.522037506103515625 25.492008209228515625 25.468294143676757812 25.455350875854492188 25.45691680908203125 25.475559234619140625 25.512180328369140625 25.564302444458007812 25.632261276245117188 25.71257781982421875 25.8062896728515625 25.90851593017578125 26.01966094970703125 26.133617401123046875 26.250951766967773438 26.36541748046875 26.4777069091796875 26.582187652587890625 26.679693222045898438 26.765209197998046875 26.839002609252929688 26.897115707397460938 26.9410858154296875 26.971195220947265625 26.990148544311523438 26.9992523193359375 27.00058746337890625 26.995714187622070312 26.985574722290039062 26.971395492553710938 26.9536285400390625 26.933712005615234375 26.911716461181640625 26.888126373291015625 26.861211776733398438 26.83072662353515625 26.794584274291992188 26.752916336059570312 26.704410552978515625 26.652376174926757812 26.597726821899414062 26.544652938842773438 26.494066238403320312 26.449514389038085938 26.409616470336914062 26.374059677124023438 26.3399200439453125 26.306489944458007812 26.270984649658203125 26.233489990234375 26.192949295043945312 26.15106964111328125 26.107051849365234375 26.062726974487304688 26.017223358154296875 25.972463607788085938 25.927629470825195312 25.884656906127929688 25.8427886962890625 25.803842544555664062 25.766920089721679688 25.733114242553710938 25.701234817504882812 25.672115325927734375 25.644704818725585938 25.619670867919921875 25.595930099487304688 25.573846817016601562 25.552350997924804688 25.5317230224609375 25.51078033447265625 25.488445281982421875 25.46077728271484375 25.424947738647460938 25.376268386840820312 25.312520980834960938 25.23000335693359375 25.133531570434570312 25.025556564331054688 24.914417266845703125 24.802288055419921875 24.6971893310546875 24.59740447998046875 24.503326416015625 24.408681869506835938 24.312704086303710938 24.209260940551757812 24.099691390991210938 23.984102249145507812 23.871074676513671875 23.763055801391601562 23.668725967407226562 23.590127944946289062 23.5302276611328125 23.483127593994140625 23.445505142211914062 23.411281585693359375 23.376621246337890625 23.336132049560546875 23.287275314331054688 23.2257537841796875 23.149877548217773438 23.0548248291015625 22.94046783447265625 22.805955886840820312 22.659877777099609375 22.504901885986328125 22.350973129272460938 22.200077056884765625 22.058290481567382812 21.916936874389648438 21.771724700927734375 21.611185073852539062 21.43097686767578125 21.221250534057617188 20.989227294921875 20.740026473999023438 20.49042510986328125 20.245897293090820312 20.023006439208984375 19.820924758911132812 19.639028549194335938 19.463338851928710938 19.2883148193359375 19.100561141967773438 18.896541595458984375 18.67346954345703125 18.443328857421875 18.2099609375 17.986761093139648438 17.77681732177734375 17.587757110595703125 17.410211563110351562 17.240528106689453125 17.0675506591796875 16.886997222900390625 16.69065093994140625 16.485551834106445312 16.277612686157226562 16.080919265747070312 15.901745796203613281 15.753482818603515625 15.636371612548828125 15.549143791198730469 15.482882499694824219 15.432745933532714844 15.390856742858886719 15.352412223815917969 15.313580513000488281 15.2733917236328125 15.229902267456054688 15.182247161865234375 15.128670692443847656 15.069798469543457031 15.006612777709960938 14.941896438598632812 14.876864433288574219 14.814400672912597656 14.754741668701171875 14.697492599487304688 14.639421463012695312 14.578553199768066406 14.511732101440429688 14.43724822998046875 14.354823112487792969 14.268085479736328125 14.179890632629394531 14.094750404357910156 14.015241622924804688 13.944674491882324219 13.881391525268554688 13.824062347412109375 13.769753456115722656 13.716732978820800781 13.662641525268554688 13.60760498046875 13.55278778076171875 13.500444412231445312 13.451979637145996094 13.409696578979492188 
30.459325790405273438 30.466886520385742188 30.426425933837890625 30.391321182250976562 30.37752532958984375 30.39989471435546875 30.429231643676757812 30.450469970703125 30.4398193359375 30.522205352783203125 30.509897232055664062 30.485815048217773438 30.41358184814453125 30.351621627807617188 30.322948455810546875 30.386775970458984375 30.514654159545898438 30.567682266235351562 30.57097625732421875 30.559963226318359375 30.580535888671875 30.572336196899414062 30.536081314086914062 30.503557205200195312 30.491214752197265625 30.482572555541992188 30.473718643188476562 30.471792221069335938 30.484972000122070312 30.517854690551757812 30.557641983032226562 30.595834732055664062 30.659181594848632812 30.734083175659179688 30.787824630737304688 30.81252288818359375 30.831401824951171875 30.870515823364257812 30.954420089721679688 31.076498031616210938 31.112117767333984375 31.152767181396484375 31.249118804931640625 31.362787246704101562 31.3533782958984375 31.327733993530273438 32.05548858642578125 33.212909698486328125 34.329746246337890625 34.913562774658203125 34.752758026123046875 34.21958160400390625 33.541553497314453125 32.984500885009765625 32.63652801513671875 32.50794219970703125 32.67254638671875 32.987438201904296875 33.584064483642578125 34.506866455078125 35.54986572265625 35.772579193115234375 34.870197296142578125 33.685710906982421875 33.2241668701171875 32.95688629150390625 32.696399688720703125 32.509510040283203125 32.5303192138671875 32.59877777099609375 32.622005462646484375 32.54669952392578125 32.242462158203125 31.831075668334960938 31.598646163940429688 31.667634963989257812 31.6392364501953125 31.306095123291015625 30.918401718139648438 30.654407501220703125 30.341321945190429688 30.044948577880859375 29.75662994384765625 29.551313400268554688 29.375244140625 29.213468551635742188 29.061565399169921875 28.923685073852539062 28.822355270385742188 28.90830230712890625 28.92346954345703125 28.828241348266601562 28.747900009155273438 28.699640274047851562 28.601892471313476562 28.205806732177734375 27.67018890380859375 27.157197952270507812 26.647684097290039062 26.23995208740234375 26.163156509399414062 26.154211044311523438 26.07454681396484375 26.042736053466796875 26.025997161865234375 26.008098602294921875 25.988409042358398438 25.967306137084960938 25.944013595581054688 25.919004440307617188 25.891439437866210938 25.862257003784179688 25.831241607666015625 25.799943923950195312 25.768218994140625 25.73760986328125 25.707700729370117188 25.67889404296875 25.64949798583984375 25.619421005249023438 25.586854934692382812 25.552106857299804688 25.515468597412109375 25.481494903564453125 25.453460693359375 25.436136245727539062 25.433322906494140625 25.447870254516601562 25.48065948486328125 25.529369354248046875 25.5942840576171875 25.67205810546875 25.763721466064453125 25.864599227905273438 25.97533416748046875 26.090097427368164062 26.209783554077148438 26.328325271606445312 26.446557998657226562 26.558073043823242188 26.663038253784179688 26.755336761474609375 26.834529876708984375 26.895757675170898438 26.940494537353515625 26.969476699829101562 26.985952377319335938 26.991886138916015625 26.989841461181640625 26.981924057006835938 26.969171524047851562 26.952968597412109375 26.933782577514648438 26.9131622314453125 26.891214370727539062 26.868364334106445312 26.842760086059570312 26.813955307006835938 26.779760360717773438 26.740087509155273438 26.693546295166015625 26.6432952880859375 26.590219497680664062 26.538379669189453125 26.488645553588867188 26.444467544555664062 26.4044189453125 26.368165969848632812 26.332729339599609375 26.297414779663085938 26.25936126708984375 26.218852996826171875 26.175096511840820312 26.13031768798828125 26.084056854248046875 26.038633346557617188 25.993471145629882812 25.950439453125 25.908477783203125 25.869113922119140625 25.831369400024414062 25.79662322998046875 25.763837814331054688 25.7338104248046875 25.705308914184570312 25.678920745849609375 25.653528213500976562 25.629638671875 25.606288909912109375 25.584001541137695312 25.5619049072265625 25.5404815673828125 25.518703460693359375 25.495515823364257812 25.46674346923828125 25.429315567016601562 25.378232955932617188 25.311071395874023438 25.223911285400390625 25.121936798095703125 25.007913589477539062 24.8908233642578125 24.773149490356445312 24.663534164428710938 24.56047821044921875 24.464712142944335938 24.370088577270507812 24.27606201171875 24.176717758178710938 24.073299407958984375 23.965581893920898438 23.861225128173828125 23.762172698974609375 23.676118850708007812 23.604694366455078125 23.550497055053710938 23.5081787109375 23.474727630615234375 23.444665908813476562 23.414487838745117188 23.379053115844726562 23.335123062133789062 23.27765655517578125 23.203931808471679688 23.108316421508789062 22.989931106567382812 22.848093032836914062 22.692575454711914062 22.527070999145507812 22.3629913330078125 22.203245162963867188 22.0548553466796875 21.9086761474609375 21.759939193725585938 21.59639739990234375 21.413135528564453125 21.199651718139648438 20.963039398193359375 20.708431243896484375 20.452867507934570312 20.20185089111328125 19.972234725952148438 19.763210296630859375 19.574464797973632812 19.392026901245117188 19.21068572998046875 19.017055511474609375 18.8079071044921875 18.580495834350585938 18.34708404541015625 18.111574172973632812 17.887607574462890625 17.678369522094726562 17.491533279418945312 17.317541122436523438 17.152444839477539062 16.984891891479492188 16.810255050659179688 16.620128631591796875 16.421060562133789062 16.218654632568359375 16.026439666748046875 15.850363731384277344 15.703329086303710938 15.585619926452636719 15.49639129638671875 15.427346229553222656 15.374280929565429688 15.329874992370605469 15.289869308471679688 15.250453948974609375 15.21054840087890625 15.168005943298339844 15.121792793273925781 15.069988250732421875 15.0130767822265625 14.951992988586425781 14.88944244384765625 14.826613426208496094 14.766307830810546875 14.708760261535644531 14.653571128845214844 14.597579002380371094 14.53884124755859375 14.474278450012207031 14.402201652526855469 14.322316169738769531 14.238107681274414062 14.152318954467773438 14.0692901611328125 13.991497993469238281 13.922179222106933594 13.859866142272949219 13.803492546081542969 13.750412940979003906 13.699182510375976562 13.64766693115234375 13.595986366271972656 13.545013427734375 13.496664047241210938 13.452040672302246094 13.413079261779785156 
30.419626235961914062 30.41880035400390625 30.417367935180664062 30.418859481811523438 30.402210235595703125 30.392869949340820312 30.42733001708984375 30.419939041137695312 30.438861846923828125 30.465137481689453125 30.462268829345703125 30.46369171142578125 30.476776123046875 30.499963760375976562 30.427103042602539062 30.316455841064453125 30.353559494018554688 30.466508865356445312 30.596967697143554688 30.592733383178710938 30.592237472534179688 30.597011566162109375 30.558948516845703125 30.516483306884765625 30.497943878173828125 30.4720916748046875 30.466876983642578125 30.478551864624023438 30.496074676513671875 30.513088226318359375 30.549602508544921875 30.591833114624023438 30.67238616943359375 30.750286102294921875 30.803056716918945312 30.830078125 30.842760086059570312 30.888639450073242188 30.991779327392578125 31.077959060668945312 31.094015121459960938 31.164051055908203125 31.297376632690429688 31.397052764892578125 31.299158096313476562 31.436979293823242188 32.36212158203125 33.48223876953125 34.41733551025390625 34.72258758544921875 34.504192352294921875 33.924213409423828125 33.33800506591796875 32.892536163330078125 32.638702392578125 32.582576751708984375 32.76326751708984375 33.121433258056640625 33.91445159912109375 35.158985137939453125 36.0385894775390625 35.69612884521484375 34.4810638427734375 33.55716705322265625 33.15682220458984375 32.876285552978515625 32.615081787109375 32.46734619140625 32.515777587890625 32.587371826171875 32.597499847412109375 32.467449188232421875 32.09606170654296875 31.735383987426757812 31.573818206787109375 31.660173416137695312 31.581060409545898438 31.20864105224609375 30.84427642822265625 30.577882766723632812 30.24108123779296875 29.9450836181640625 29.659067153930664062 29.482828140258789062 29.321680068969726562 29.163898468017578125 29.011186599731445312 28.870027542114257812 28.789075851440429688 28.881292343139648438 28.859189987182617188 28.760622024536132812 28.707838058471679688 28.691677093505859375 28.64328765869140625 28.26918792724609375 27.703521728515625 27.175912857055664062 26.658878326416015625 26.247377395629882812 26.170289993286132812 26.159090042114257812 26.060413360595703125 26.0251922607421875 26.010440826416015625 25.994964599609375 25.978086471557617188 25.9599151611328125 25.939565658569335938 25.917245864868164062 25.891992568969726562 25.86460113525390625 25.834909439086914062 25.80448150634765625 25.773242950439453125 25.742773056030273438 25.712690353393554688 25.683408737182617188 25.653200149536132812 25.621980667114257812 25.587884902954101562 25.5512542724609375 25.512279510498046875 25.475553512573242188 25.44422149658203125 25.423112869262695312 25.415876388549804688 25.425525665283203125 25.453012466430664062 25.496463775634765625 25.556329727172851562 25.629709243774414062 25.717809677124023438 25.816310882568359375 25.926013946533203125 26.041307449340820312 26.163328170776367188 26.286111831665039062 26.410572052001953125 26.529466629028320312 26.642284393310546875 26.741762161254882812 26.826730728149414062 26.891387939453125 26.937147140502929688 26.965198516845703125 26.9793548583984375 26.982250213623046875 26.976942062377929688 26.966083526611328125 26.950811386108398438 26.932661056518554688 26.912109375 26.890811920166015625 26.86890411376953125 26.846757888793945312 26.822412490844726562 26.795240402221679688 26.762958526611328125 26.725275039672851562 26.680738449096679688 26.632349014282226562 26.58097076416015625 26.5305328369140625 26.481866836547851562 26.438320159912109375 26.398469924926757812 26.361986160278320312 26.3259124755859375 26.289583206176757812 26.25014495849609375 26.208013534545898438 26.1625518798828125 26.116273880004882812 26.068920135498046875 26.023084640502929688 25.978361129760742188 25.9365997314453125 25.896623611450195312 25.859731674194335938 25.824848175048828125 25.793102264404296875 25.763385772705078125 25.73626708984375 25.710468292236328125 25.686357498168945312 25.662761688232421875 25.640033721923828125 25.617282867431640625 25.59511566162109375 25.572782516479492188 25.550882339477539062 25.528476715087890625 25.504514694213867188 25.47463226318359375 25.435594558715820312 25.38214874267578125 25.311740875244140625 25.22027587890625 25.11328125 24.99379730224609375 24.871377944946289062 24.748775482177734375 24.635190963745117188 24.529298782348632812 24.432109832763671875 24.3375701904296875 24.245306015014648438 24.149576187133789062 24.05152130126953125 23.950595855712890625 23.853641510009765625 23.762119293212890625 23.682847976684570312 23.617067337036132812 23.567050933837890625 23.527898788452148438 23.496906280517578125 23.469083786010742188 23.441251754760742188 23.408483505249023438 23.367074966430664062 23.3114013671875 23.238023757934570312 23.140680313110351562 23.017984390258789062 22.869356155395507812 22.705526351928710938 22.530948638916015625 22.358198165893554688 22.190874099731445312 22.036745071411132812 21.886255264282226562 21.734243392944335938 21.567804336547851562 21.381549835205078125 21.16443634033203125 20.923463821411132812 20.663778305053710938 20.402662277221679688 20.145648956298828125 19.90985870361328125 19.694494247436523438 19.49953460693359375 19.31101226806640625 19.124006271362304688 18.925151824951171875 18.71148681640625 18.4803009033203125 18.244100570678710938 18.006849288940429688 17.782396316528320312 17.574016571044921875 17.389463424682617188 17.219125747680664062 17.058925628662109375 16.897466659545898438 16.729932785034179688 16.54782867431640625 16.35703277587890625 16.162555694580078125 15.976984024047851562 15.80565643310546875 15.660618782043457031 15.542141914367675781 15.449977874755859375 15.376722335815429688 15.319100379943847656 15.27060699462890625 15.227764129638671875 15.186819076538085938 15.146557807922363281 15.10456085205078125 15.059580802917480469 15.009476661682128906 14.954566001892089844 14.895732879638671875 14.835610389709472656 14.775363922119140625 14.717716217041015625 14.662896156311035156 14.610469818115234375 14.557322502136230469 14.501495361328125 14.439949989318847656 14.370976448059082031 14.294245719909667969 14.213076591491699219 14.130098342895507812 14.049459457397460938 13.973526954650878906 13.905455589294433594 13.843997001647949219 13.788365364074707031 13.736233711242675781 13.686472892761230469 13.637197494506835938 13.588533401489257812 13.541077613830566406 13.496415138244628906 13.455343246459960938 13.419449806213378906 
30.395692825317382812 30.38831329345703125 30.418483734130859375 30.439664840698242188 30.431276321411132812 30.427373886108398438 30.4246673583984375 30.391866683959960938 30.453126907348632812 30.452089309692382812 30.434236526489257812 30.427507400512695312 30.443761825561523438 30.48360443115234375 30.503911972045898438 30.487234115600585938 30.449472427368164062 30.354383468627929688 30.363439559936523438 30.476961135864257812 30.597293853759765625 30.648176193237304688 30.619501113891601562 30.547342300415039062 30.4981842041015625 30.45655059814453125 30.43169403076171875 30.433744430541992188 30.461456298828125 30.479976654052734375 30.518802642822265625 30.5767822265625 30.6672821044921875 30.746030807495117188 30.79729461669921875 30.835023880004882812 30.862804412841796875 30.926691055297851562 31.0547332763671875 31.096010208129882812 31.090902328491210938 31.16667938232421875 31.31764984130859375 31.356319427490234375 31.29640960693359375 31.85523223876953125 32.725292205810546875 33.686786651611328125 34.396587371826171875 34.53308868408203125 34.25739288330078125 33.708404541015625 33.212718963623046875 32.894195556640625 32.72664642333984375 32.68358612060546875 32.838214874267578125 33.3287353515625 34.352863311767578125 35.68723297119140625 36.355953216552734375 35.785430908203125 34.500518798828125 33.520755767822265625 33.0768890380859375 32.806182861328125 32.566593170166015625 32.447910308837890625 32.500885009765625 32.5616912841796875 32.56229400634765625 32.39569854736328125 32.001201629638671875 31.672481536865234375 31.59139251708984375 31.664920806884765625 31.50995635986328125 31.101749420166015625 30.775957107543945312 30.494922637939453125 30.147930145263671875 29.853404998779296875 29.58286285400390625 29.42205810546875 29.267988204956054688 29.114084243774414062 28.9613800048828125 28.81317138671875 28.749860763549804688 28.841886520385742188 28.871290206909179688 28.8393402099609375 28.781949996948242188 28.732440948486328125 28.643465042114257812 28.24774932861328125 27.709779739379882812 27.185857772827148438 26.66699981689453125 26.2537841796875 26.176656723022460938 26.163990020751953125 26.05239105224609375 26.015302658081054688 26.002534866333007812 25.989240646362304688 25.974653244018554688 25.958696365356445312 25.940427780151367188 25.919889450073242188 25.896051406860351562 25.86962890625 25.840518951416015625 25.810331344604492188 25.779050827026367188 25.748321533203125 25.717805862426757812 25.687974929809570312 25.657121658325195312 25.625213623046875 25.590404510498046875 25.553071975708007812 25.513277053833007812 25.4753875732421875 25.442213058471679688 25.418363571166992188 25.407108306884765625 25.411481857299804688 25.432592391967773438 25.469287872314453125 25.522378921508789062 25.5897064208984375 25.67284393310546875 25.7679443359375 25.875890731811523438 25.991230010986328125 26.115251541137695312 26.242017745971679688 26.37245941162109375 26.498510360717773438 26.618982315063476562 26.725494384765625 26.816171646118164062 26.88428497314453125 26.931188583374023438 26.958505630493164062 26.970605850219726562 26.970752716064453125 26.962493896484375 26.949003219604492188 26.931505203247070312 26.911651611328125 26.889919281005859375 26.868038177490234375 26.846166610717773438 26.824626922607421875 26.801382064819335938 26.775659561157226562 26.745105743408203125 26.709268569946289062 26.666646957397460938 26.620100021362304688 26.570461273193359375 26.521524429321289062 26.474086761474609375 26.431398391723632812 26.392078399658203125 26.355863571166992188 26.319896697998046875 26.283601760864257812 26.244211196899414062 26.202196121215820312 26.156940460205078125 26.110948562622070312 26.06397247314453125 26.01859283447265625 25.974422454833984375 25.933320999145507812 25.894161224365234375 25.858257293701171875 25.82459259033203125 25.794286727905273438 25.766256332397460938 25.740926742553710938 25.716962814331054688 25.694566726684570312 25.672504425048828125 25.650989532470703125 25.629140853881835938 25.607545852661132812 25.585485458374023438 25.563568115234375 25.54085540771484375 25.516277313232421875 25.48535919189453125 25.44478607177734375 25.389158248901367188 25.315877914428710938 25.220746994018554688 25.109588623046875 24.985639572143554688 24.858911514282226562 24.732362747192382812 24.61562347412109375 24.5074920654296875 24.409166336059570312 24.314640045166015625 24.223642349243164062 24.130527496337890625 24.036340713500976562 23.940271377563476562 23.848531723022460938 23.762193679809570312 23.687412261962890625 23.625093460083007812 23.577268600463867188 23.53932952880859375 23.508808135986328125 23.481027603149414062 23.453075408935546875 23.420162200927734375 23.378400802612304688 23.32183837890625 23.246717453002929688 23.146406173706054688 23.019319534301757812 22.8649139404296875 22.694536209106445312 22.513040542602539062 22.33373260498046875 22.16057586669921875 22.001798629760742188 21.847539901733398438 21.692388534545898438 21.52297210693359375 21.33361053466796875 21.112865447998046875 20.867719650268554688 20.603336334228515625 20.337230682373046875 20.074953079223632812 19.8338775634765625 19.613201141357421875 19.41313934326171875 19.219709396362304688 19.028211593627929688 18.825275421142578125 18.608150482177734375 18.374135971069335938 18.13592529296875 17.897525787353515625 17.672939300537109375 17.465518951416015625 17.28314208984375 17.1163177490234375 16.961048126220703125 16.8061065673828125 16.646707534790039062 16.4743804931640625 16.294179916381835938 16.110200881958007812 15.93367767333984375 15.769029617309570312 15.627049446105957031 15.507918357849121094 15.412140846252441406 15.333490371704101562 15.269906044006347656 15.21595001220703125 15.169170379638671875 15.125887870788574219 15.084726333618164062 15.042911529541015625 14.998929977416992188 14.950342178344726562 14.89728546142578125 14.840609550476074219 14.782912254333496094 14.725363731384277344 14.6706390380859375 14.61898040771484375 14.569893836975097656 14.520262718200683594 14.468056678771972656 14.410243988037109375 14.34503173828125 14.272044181823730469 14.194409370422363281 14.114645957946777344 14.036699295043945312 13.962835311889648438 13.896108627319335938 13.835496902465820312 13.78049468994140625 13.729086875915527344 13.680459022521972656 13.632976531982421875 13.586796760559082031 13.542266845703125 13.500681877136230469 13.462567329406738281 13.429203033447265625 
30.375682830810546875 30.39095306396484375 30.426420211791992188 30.431932449340820312 30.421783447265625 30.424015045166015625 30.406110763549804688 30.393999099731445312 30.452974319458007812 30.474025726318359375 30.451595306396484375 30.447618484497070312 30.439327239990234375 30.443271636962890625 30.433492660522460938 30.464021682739257812 30.528051376342773438 30.518291473388671875 30.437395095825195312 30.353715896606445312 30.356149673461914062 30.492389678955078125 30.612760543823242188 30.611286163330078125 30.557428359985351562 30.489240646362304688 30.42903900146484375 30.422330856323242188 30.44792938232421875 30.4693145751953125 30.518184661865234375 30.59673309326171875 30.6776123046875 30.74666595458984375 30.80422210693359375 30.837127685546875 30.875278472900390625 30.970983505249023438 31.117923736572265625 31.10703277587890625 31.114442825317382812 31.20013427734375 31.309419631958007812 31.271791458129882812 31.444189071655273438 32.42926025390625 33.2069854736328125 34.024745941162109375 34.457347869873046875 34.3699798583984375 34.027881622314453125 33.565784454345703125 33.155780792236328125 32.911556243896484375 32.779880523681640625 32.75494384765625 32.974597930908203125 33.596912384033203125 34.711910247802734375 35.840602874755859375 36.12050628662109375 35.562320709228515625 34.552822113037109375 33.43804168701171875 32.9789581298828125 32.75853729248046875 32.555599212646484375 32.43720245361328125 32.48323822021484375 32.53009796142578125 32.52280426025390625 32.314792633056640625 31.918184280395507812 31.632921218872070312 31.626214981079101562 31.660650253295898438 31.409633636474609375 30.993013381958007812 30.70571136474609375 30.402225494384765625 30.07523345947265625 29.747293472290039062 29.501552581787109375 29.364759445190429688 29.217390060424804688 29.066747665405273438 28.915990829467773438 28.771291732788085938 28.738466262817382812 28.826967239379882812 28.90415191650390625 28.923215866088867188 28.84436798095703125 28.748065948486328125 28.63771820068359375 28.239332199096679688 27.707347869873046875 27.18825531005859375 26.671449661254882812 26.25931549072265625 26.182565689086914062 26.169034957885742188 26.049558639526367188 26.0118560791015625 26.00096893310546875 25.989568710327148438 25.976787567138671875 25.96244049072265625 25.945552825927734375 25.926073074340820312 25.90293121337890625 25.87682342529296875 25.847696304321289062 25.817235946655273438 25.785488128662109375 25.754179000854492188 25.723028182983398438 25.692600250244140625 25.661260604858398438 25.62906646728515625 25.594251632690429688 25.5572357177734375 25.5179290771484375 25.4802703857421875 25.4465789794921875 25.421016693115234375 25.40631103515625 25.405389785766601562 25.419567108154296875 25.448591232299804688 25.493772506713867188 25.55388641357421875 25.630987167358398438 25.721807479858398438 25.827268600463867188 25.942066192626953125 26.067575454711914062 26.197872161865234375 26.333866119384765625 26.466686248779296875 26.594472885131835938 26.707759857177734375 26.803974151611328125 26.875482559204101562 26.923572540283203125 26.950284957885742188 26.960508346557617188 26.958120346069335938 26.94713592529296875 26.931217193603515625 26.911670684814453125 26.890247344970703125 26.867414474487304688 26.844974517822265625 26.823083877563476562 26.802043914794921875 26.779758453369140625 26.755342483520507812 26.726404190063476562 26.69235992431640625 26.651678085327148438 26.607057571411132812 26.559286117553710938 26.512002944946289062 26.465944290161132812 26.424253463745117188 26.385641098022460938 26.349973678588867188 26.314586639404296875 26.279054641723632812 26.240793228149414062 26.200283050537109375 26.156795501708984375 26.112577438354492188 26.0672149658203125 26.023031234741210938 25.979522705078125 25.938579559326171875 25.899280548095703125 25.863147735595703125 25.829378128051757812 25.799291610717773438 25.77190399169921875 25.747564315795898438 25.724863052368164062 25.70386505126953125 25.683269500732421875 25.663152694702148438 25.642587661743164062 25.622043609619140625 25.600763320922851562 25.579252243041992188 25.556516647338867188 25.53143310546875 25.499490737915039062 25.45738983154296875 25.399669647216796875 25.323778152465820312 25.225475311279296875 25.110837936401367188 24.983242034912109375 24.853054046630859375 24.723367691040039062 24.604145050048828125 24.494258880615234375 24.395023345947265625 24.300432205200195312 24.210264205932617188 24.11891937255859375 24.027345657348632812 23.934507369995117188 23.846139907836914062 23.762996673583984375 23.690740585327148438 23.629993438720703125 23.582609176635742188 23.544149398803710938 23.512338638305664062 23.482666015625 23.45245361328125 23.416975021362304688 23.372396469116210938 23.312601089477539062 23.233823776245117188 23.129253387451171875 22.997346878051757812 22.837545394897460938 22.661563873291015625 22.474399566650390625 22.289762496948242188 22.111745834350585938 21.948843002319335938 21.790943145751953125 21.632511138916015625 21.4598541259765625 21.267129898071289062 21.042627334594726562 20.793376922607421875 20.524545669555664062 20.25386810302734375 19.986917495727539062 19.741289138793945312 19.516178131103515625 19.311977386474609375 19.114671707153320312 18.919713973999023438 18.713714599609375 18.494066238403320312 18.258068084716796875 18.018548965454101562 17.779539108276367188 17.555156707763671875 17.348812103271484375 17.168544769287109375 17.005144119262695312 16.85488128662109375 16.7068939208984375 16.556604385375976562 16.395702362060546875 16.22826385498046875 16.05719757080078125 15.892035484313964844 15.735993385314941406 15.598275184631347656 15.478898048400878906 15.379235267639160156 15.294477462768554688 15.22399139404296875 15.1636199951171875 15.112134933471679688 15.065955162048339844 15.023519515991210938 14.981632232666015625 14.938480377197265625 14.891283035278320312 14.839980125427246094 14.785399436950683594 14.730133056640625 14.675382614135742188 14.623811721801757812 14.575682640075683594 14.530426025390625 14.484898567199707031 14.436960220336914062 14.383558273315429688 14.322779655456542969 14.254181861877441406 14.180683135986328125 14.104681968688964844 14.029891014099121094 13.95847320556640625 13.893362045288085938 13.83376312255859375 13.779433250427246094 13.728688240051269531 13.681017875671386719 13.635035514831542969 13.590949058532714844 13.548884391784667969 13.509876251220703125 13.474211692810058594 13.442895889282226562 
30.365314483642578125 30.396114349365234375 30.415971755981445312 30.41226959228515625 30.410009384155273438 30.39185333251953125 30.393266677856445312 30.422235488891601562 30.440652847290039062 30.485843658447265625 30.462629318237304688 30.447223663330078125 30.4145965576171875 30.39911651611328125 30.387706756591796875 30.44037628173828125 30.50762939453125 30.530611038208007812 30.536773681640625 30.523624420166015625 30.4359588623046875 30.338479995727539062 30.331823348999023438 30.4501953125 30.573665618896484375 30.582828521728515625 30.527429580688476562 30.487689971923828125 30.470270156860351562 30.456438064575195312 30.498678207397460938 30.609724044799804688 30.70180511474609375 30.773210525512695312 30.832986831665039062 30.859182357788085938 30.880231857299804688 31.0322113037109375 31.148258209228515625 31.10894775390625 31.142742156982421875 31.237066268920898438 31.293796539306640625 31.234477996826171875 31.768299102783203125 32.65311431884765625 33.4977569580078125 34.26123046875 34.39031219482421875 34.174625396728515625 33.77861785888671875 33.365055084228515625 33.06702423095703125 32.89881134033203125 32.804340362548828125 32.88573455810546875 33.264984130859375 34.004367828369140625 35.092502593994140625 35.83453369140625 35.58159637451171875 34.642299652099609375 34.004741668701171875 33.255153656005859375 32.89892578125 32.734714508056640625 32.564441680908203125 32.433399200439453125 32.4686279296875 32.50604248046875 32.482410430908203125 32.220794677734375 31.836496353149414062 31.607915878295898438 31.653623580932617188 31.634576797485351562 31.296316146850585938 30.90411376953125 30.637212753295898438 30.319646835327148438 30.007656097412109375 29.67304229736328125 29.46424102783203125 29.322866439819335938 29.174413681030273438 29.025423049926757812 28.8790130615234375 28.756458282470703125 28.77080535888671875 28.824701309204101562 28.88246917724609375 28.885692596435546875 28.78401947021484375 28.707275390625 28.63013458251953125 28.231565475463867188 27.698621749877929688 27.183279037475585938 26.671567916870117188 26.263833999633789062 26.187999725341796875 26.174127578735351562 26.051443099975585938 26.013952255249023438 26.004499435424804688 25.9944915771484375 25.982969284057617188 25.969661712646484375 25.953571319580078125 25.934581756591796875 25.911594390869140625 25.885303497314453125 25.855716705322265625 25.824611663818359375 25.79209136962890625 25.759984970092773438 25.728078842163085938 25.697053909301757812 25.665369033813476562 25.63320159912109375 25.59889984130859375 25.562932968139648438 25.52506256103515625 25.488695144653320312 25.455615997314453125 25.429418563842773438 25.412235260009765625 25.406793594360351562 25.414615631103515625 25.436342239379882812 25.47379302978515625 25.526685714721679688 25.597558975219726562 25.683740615844726562 25.786195755004882812 25.89978790283203125 26.025983810424804688 26.158903121948242188 26.2994384765625 26.438001632690429688 26.572113037109375 26.69132232666015625 26.792417526245117188 26.866943359375 26.916110992431640625 26.942312240600585938 26.950895309448242188 26.946262359619140625 26.932836532592773438 26.914705276489257812 26.89324951171875 26.87032318115234375 26.846391677856445312 26.823324203491210938 26.80129241943359375 26.7805938720703125 26.759092330932617188 26.735830307006835938 26.708398818969726562 26.676113128662109375 26.637418746948242188 26.594827651977539062 26.549051284790039062 26.503520965576171875 26.458890914916992188 26.418163299560546875 26.380170822143554688 26.344991683959960938 26.310224533081054688 26.275674819946289062 26.239023208618164062 26.200742721557617188 26.159912109375 26.118341445922851562 26.075334548950195312 26.032785415649414062 25.989980697631835938 25.9488525390625 25.908782958984375 25.871648788452148438 25.836946487426757812 25.806341171264648438 25.77899932861328125 25.755231857299804688 25.733539581298828125 25.713855743408203125 25.694812774658203125 25.676332473754882812 25.657407760620117188 25.638324737548828125 25.618228912353515625 25.59745025634765625 25.57489776611328125 25.549375534057617188 25.516414642333984375 25.472795486450195312 25.413091659545898438 25.334865570068359375 25.233896255493164062 25.1164703369140625 24.986042022705078125 24.853219985961914062 24.72119140625 24.600133895874023438 24.488962173461914062 24.389049530029296875 24.294366836547851562 24.20470428466796875 24.114473342895507812 24.024524688720703125 23.933637619018554688 23.847187042236328125 23.765661239624023438 23.69435882568359375 23.6336517333984375 23.585283279418945312 23.5449066162109375 23.510423660278320312 23.477403640747070312 23.443387985229492188 23.403669357299804688 23.354585647583007812 23.289941787719726562 23.2061309814453125 23.096254348754882812 22.958940505981445312 22.793581008911132812 22.612157821655273438 22.419647216796875 22.230039596557617188 22.047410964965820312 21.880434036254882812 21.7187957763671875 21.556911468505859375 21.380847930908203125 21.184701919555664062 20.956548690795898438 20.703495025634765625 20.43070220947265625 20.156095504760742188 19.885251998901367188 19.635955810546875 19.407390594482421875 19.200077056884765625 18.999950408935546875 18.802568435668945312 18.594507217407226562 18.373243331909179688 18.136072158813476562 17.895904541015625 17.656785964965820312 17.432891845703125 17.227689743041992188 17.0493927001953125 16.889171600341796875 16.743707656860351562 16.602609634399414062 16.4616546630859375 16.312770843505859375 16.159027099609375 16.002027511596679688 15.849447250366210938 15.70319366455078125 15.5707244873046875 15.451852798461914062 15.348814964294433594 15.258272171020507812 15.181051254272460938 15.114323616027832031 15.058117866516113281 15.008971214294433594 14.965153694152832031 14.923063278198242188 14.880597114562988281 14.834643363952636719 14.784955024719238281 14.73235321044921875 14.679431915283203125 14.62743377685546875 14.579018592834472656 14.534482955932617188 14.493178367614746094 14.451936721801757812 14.408509254455566406 14.359819412231445312 14.303830146789550781 14.240026473999023438 14.171088218688964844 14.099285125732421875 14.028074264526367188 13.95949554443359375 13.896335601806640625 13.838015556335449219 13.784537315368652344 13.734521865844726562 13.687741279602050781 13.64305877685546875 13.600724220275878906 13.5606842041015625 13.52375030517578125 13.490004539489746094 13.460216522216796875 
30.37050628662109375 30.399169921875 30.3924713134765625 30.396047592163085938 30.399379730224609375 30.346099853515625 30.378475189208984375 30.437650680541992188 30.434728622436523438 30.480342864990234375 30.449419021606445312 30.428066253662109375 30.393545150756835938 30.352956771850585938 30.360963821411132812 30.427402496337890625 30.478118896484375 30.512912750244140625 30.5242767333984375 30.558145523071289062 30.552331924438476562 30.516706466674804688 30.423727035522460938 30.334201812744140625 30.341098785400390625 30.421895980834960938 30.5226898193359375 30.558837890625 30.576208114624023438 30.544210433959960938 30.557567596435546875 30.62481689453125 30.684139251708984375 30.769542694091796875 30.856855392456054688 30.869764328002929688 30.886077880859375 31.05109405517578125 31.148992538452148438 31.118318557739257812 31.146131515502929688 31.22768402099609375 31.233877182006835938 31.317583084106445312 32.36474609375 33.17305755615234375 33.83636474609375 34.32820892333984375 34.225757598876953125 33.917217254638671875 33.54693603515625 33.181324005126953125 32.985363006591796875 32.8794403076171875 32.857421875 33.0516815185546875 33.608051300048828125 34.5081939697265625 35.485935211181640625 35.740436553955078125 35.072460174560546875 34.004543304443359375 33.481349945068359375 33.071369171142578125 32.844512939453125 32.7163848876953125 32.571258544921875 32.430973052978515625 32.4472198486328125 32.48494720458984375 32.435359954833984375 32.1320648193359375 31.760892868041992188 31.5873870849609375 31.663480758666992188 31.573808670043945312 31.177701950073242188 30.8337860107421875 30.565153121948242188 30.263162612915039062 29.948671340942382812 29.626016616821289062 29.443716049194335938 29.290548324584960938 29.136770248413085938 28.987865447998046875 28.8431243896484375 28.7445526123046875 28.809434890747070312 28.8519439697265625 28.85711669921875 28.793720245361328125 28.707654953002929688 28.680467605590820312 28.612039566040039062 28.209835052490234375 27.67645263671875 27.167999267578125 26.66625213623046875 26.267187118530273438 26.19301605224609375 26.179304122924804688 26.057401657104492188 26.020496368408203125 26.011796951293945312 26.002590179443359375 25.991815567016601562 25.979116439819335938 25.963443756103515625 25.944606781005859375 25.92144775390625 25.894670486450195312 25.864332199096679688 25.83232879638671875 25.798826217651367188 25.765771865844726562 25.73302459716796875 25.701398849487304688 25.669466018676757812 25.6375274658203125 25.604066848754882812 25.569610595703125 25.533784866333007812 25.499454498291015625 25.467884063720703125 25.442073822021484375 25.423583984375 25.414886474609375 25.417669296264648438 25.433307647705078125 25.464061737060546875 25.510448455810546875 25.57541656494140625 25.656856536865234375 25.75582122802734375 25.867437362670898438 25.9933013916015625 26.127683639526367188 26.2714996337890625 26.414552688598632812 26.553796768188476562 26.677906036376953125 26.783084869384765625 26.860139846801757812 26.910190582275390625 26.935909271240234375 26.94301605224609375 26.936344146728515625 26.920640945434570312 26.900362014770507812 26.876962661743164062 26.852420806884765625 26.827220916748046875 26.803333282470703125 26.780961990356445312 26.7604217529296875 26.739561080932617188 26.717372894287109375 26.691450119018554688 26.66103363037109375 26.62453460693359375 26.584230422973632812 26.5406951904296875 26.497091293334960938 26.453920364379882812 26.414005279541015625 26.37631988525390625 26.341241836547851562 26.306718826293945312 26.272886276245117188 26.237768173217773438 26.201860427856445312 26.163988113403320312 26.125429153442382812 26.085115432739257812 26.04441070556640625 26.0023193359375 25.960832595825195312 25.919696807861328125 25.88121795654296875 25.84526824951171875 25.813922882080078125 25.786540985107421875 25.76338958740234375 25.742868423461914062 25.724756240844726562 25.707609176635742188 25.691160202026367188 25.674304962158203125 25.657087326049804688 25.6385345458984375 25.618745803833007812 25.596494674682617188 25.570528030395507812 25.536464691162109375 25.491247177124023438 25.42954254150390625 25.349100112915039062 25.2457733154296875 25.126018524169921875 24.99332427978515625 24.858463287353515625 24.724658966064453125 24.602239608764648438 24.49011993408203125 24.389713287353515625 24.29496002197265625 24.205652236938476562 24.116189956665039062 24.02734375 23.93770599365234375 23.8523406982421875 23.771484375 23.700128555297851562 23.638399124145507812 23.587980270385742188 23.544589996337890625 23.506343841552734375 23.4688720703125 23.429965972900390625 23.384916305541992188 23.330251693725585938 23.259670257568359375 23.169748306274414062 23.053461074829101562 22.909646987915039062 22.737627029418945312 22.549694061279296875 22.350816726684570312 22.155298233032226562 21.967210769653320312 21.795444488525390625 21.629480361938476562 21.463716506958007812 21.283979415893554688 21.084323883056640625 20.852626800537109375 20.5960540771484375 20.319746017456054688 20.041780471801757812 19.767721176147460938 19.515501022338867188 19.284284591674804688 19.074678421020507812 18.872570037841796875 18.67357635498046875 18.464237213134765625 18.242076873779296875 18.004384994506835938 17.764104843139648438 17.525289535522460938 17.302141189575195312 17.098169326782226562 16.9217681884765625 16.764556884765625 16.623712539672851562 16.489397048950195312 16.357830047607421875 16.221239089965820312 16.081693649291992188 15.939462661743164062 15.800326347351074219 15.664847373962402344 15.538689613342285156 15.421430587768554688 15.316092491149902344 15.220773696899414062 15.137684822082519531 15.065287590026855469 15.004810333251953125 14.952948570251464844 14.9078369140625 14.865528106689453125 14.823678016662597656 14.778891563415527344 14.730769157409667969 14.68011474609375 14.629520416259765625 14.58026123046875 14.534990310668945312 14.494028091430664062 14.456677436828613281 14.419760704040527344 14.380954742431640625 14.337182044982910156 14.28630828857421875 14.227743148803710938 14.163898468017578125 14.096877098083496094 14.029841423034667969 13.964679718017578125 13.903992652893066406 13.847397804260253906 13.795124053955078125 13.746088027954101562 13.700321197509765625 13.656927108764648438 13.616198539733886719 13.577930450439453125 13.542733192443847656 13.510507583618164062 13.481818199157714844 
30.368473052978515625 30.385639190673828125 30.380342483520507812 30.39604949951171875 30.386877059936523438 30.371561050415039062 30.407487869262695312 30.446025848388671875 30.42962646484375 30.469882965087890625 30.447704315185546875 30.419708251953125 30.364559173583984375 30.305727005004882812 30.3441162109375 30.399206161499023438 30.434185028076171875 30.478391647338867188 30.500684738159179688 30.53319549560546875 30.532243728637695312 30.54113006591796875 30.559942245483398438 30.551502227783203125 30.5108642578125 30.414724349975585938 30.287965774536132812 30.390233993530273438 30.649372100830078125 30.715478897094726562 30.779453277587890625 30.797075271606445312 30.73374176025390625 30.772314071655273438 30.845895767211914062 30.878885269165039062 30.969970703125 31.111280441284179688 31.135593414306640625 31.120588302612304688 31.140056610107421875 31.192758560180664062 31.167566299438476562 31.5649871826171875 32.85099029541015625 33.597332000732421875 34.20801544189453125 34.316120147705078125 34.0163116455078125 33.6282806396484375 33.28690338134765625 33.038585662841796875 32.947360992431640625 32.861728668212890625 32.859348297119140625 33.042209625244140625 33.76930999755859375 34.80991363525390625 35.45400238037109375 35.3470306396484375 34.621387481689453125 33.7039794921875 33.26702880859375 32.994396209716796875 32.830322265625 32.7322540283203125 32.5993804931640625 32.455089569091796875 32.439952850341796875 32.46836090087890625 32.377475738525390625 32.041896820068359375 31.694158554077148438 31.5891876220703125 31.656930923461914062 31.483982086181640625 31.068912506103515625 30.77552032470703125 30.500705718994140625 30.216497421264648438 29.875593185424804688 29.598400115966796875 29.423074722290039062 29.260982513427734375 29.1024017333984375 28.953107833862304688 28.814052581787109375 28.739023208618164062 28.789279937744140625 28.8432159423828125 28.835109710693359375 28.756061553955078125 28.701475143432617188 28.68712615966796875 28.593662261962890625 28.158914566040039062 27.631879806518554688 27.13909149169921875 26.654415130615234375 26.26912689208984375 26.197500228881835938 26.18437957763671875 26.066608428955078125 26.030208587646484375 26.021272659301757812 26.012104034423828125 26.001535415649414062 25.9890899658203125 25.973606109619140625 25.954776763916015625 25.931333541870117188 25.903959274291992188 25.872768402099609375 25.83977508544921875 25.805223464965820312 25.771188735961914062 25.737604141235351562 25.705415725708007812 25.673305511474609375 25.641681671142578125 25.60916900634765625 25.576337814331054688 25.542737960815429688 25.51078033447265625 25.481334686279296875 25.456903457641601562 25.438617706298828125 25.42867279052734375 25.428819656372070312 25.440845489501953125 25.467243194580078125 25.509006500244140625 25.569284439086914062 25.646427154541015625 25.741666793823242188 25.85051727294921875 25.97480010986328125 26.109098434448242188 26.25441741943359375 26.400144577026367188 26.542737960815429688 26.670190811157226562 26.778211593627929688 26.85701751708984375 26.907609939575195312 26.932842254638671875 26.938671112060546875 26.930227279663085938 26.912456512451171875 26.890092849731445312 26.864667892456054688 26.838329315185546875 26.811611175537109375 26.78662872314453125 26.763650894165039062 26.743047714233398438 26.722665786743164062 26.70146942138671875 26.67707061767578125 26.648645401000976562 26.614572525024414062 26.576822280883789062 26.535764694213867188 26.49420166015625 26.45241546630859375 26.412984848022460938 26.375036239624023438 26.339338302612304688 26.304250717163085938 26.270341873168945312 26.236040115356445312 26.201936721801757812 26.166584014892578125 26.1307220458984375 26.092885971069335938 26.053895950317382812 26.012460708618164062 25.970623016357421875 25.928501129150390625 25.88883209228515625 25.85186767578125 25.820104598999023438 25.793085098266601562 25.771007537841796875 25.7521514892578125 25.736104965209960938 25.721332550048828125 25.707347869873046875 25.69293975830078125 25.677890777587890625 25.661104202270507812 25.64243316650390625 25.620515823364257812 25.594049453735351562 25.5587921142578125 25.511899948120117188 25.44818878173828125 25.365657806396484375 25.260255813598632812 25.138589859008789062 25.004137039184570312 24.867761611938476562 24.732679367065429688 24.6092987060546875 24.496526718139648438 24.395801544189453125 24.301054000854492188 24.2120819091796875 24.12328338623046875 24.035358428955078125 23.946706771850585938 23.862091064453125 23.781480789184570312 23.709568023681640625 23.6462249755859375 23.593109130859375 23.546045303344726562 23.50342559814453125 23.46097564697265625 23.416805267333984375 23.366191864013671875 23.30577850341796875 23.229021072387695312 23.132547378540039062 23.009073257446289062 22.857553482055664062 22.677244186401367188 22.480945587158203125 22.27374267578125 22.07048797607421875 21.875360488891601562 21.697629928588867188 21.526538848876953125 21.356454849243164062 21.172901153564453125 20.969860076904296875 20.734954833984375 20.47537994384765625 20.1962127685546875 19.915636062622070312 19.63918304443359375 19.384878158569335938 19.151849746704101562 18.940761566162109375 18.737459182739257812 18.537593841552734375 18.327676773071289062 18.105251312255859375 17.86759185791015625 17.627645492553710938 17.389471054077148438 17.167261123657226562 16.964551925659179688 16.7899017333984375 16.635400772094726562 16.498716354370117188 16.370580673217773438 16.247671127319335938 16.122539520263671875 15.996373176574707031 15.868250846862792969 15.742222785949707031 15.617657661437988281 15.498576164245605469 15.384319305419921875 15.278501510620117188 15.180433273315429688 15.093438148498535156 15.017067909240722656 14.953527450561523438 14.899699211120605469 14.853658676147460938 14.811243057250976562 14.769968032836914062 14.726265907287597656 14.679633140563964844 14.630846977233886719 14.582475662231445312 14.535795211791992188 14.493428230285644531 14.455713272094726562 14.42193603515625 14.388963699340820312 14.354460716247558594 14.315407752990722656 14.269628524780273438 14.216461181640625 14.158032417297363281 14.09622955322265625 14.033886909484863281 13.972697257995605469 13.915040969848632812 13.860703468322753906 13.81009674072265625 13.762409210205078125 13.717897415161132812 13.67588043212890625 13.636687278747558594 13.599987030029296875 13.566217422485351562 13.535130500793457031 13.507107734680175781 
30.379693984985351562 30.374868392944335938 30.371099472045898438 30.382349014282226562 30.364597320556640625 30.397760391235351562 30.420345306396484375 30.454191207885742188 30.441270828247070312 30.469388961791992188 30.464906692504882812 30.412286758422851562 30.353654861450195312 30.311492919921875 30.344381332397460938 30.38726043701171875 30.414609909057617188 30.450763702392578125 30.48663330078125 30.501983642578125 30.5077056884765625 30.519268035888671875 30.563318252563476562 30.634721755981445312 30.694200515747070312 30.669771194458007812 30.363109588623046875 30.3705596923828125 30.39990234375 30.477016448974609375 30.783769607543945312 30.988290786743164062 30.95257568359375 30.888299942016601562 30.862638473510742188 30.921510696411132812 31.0662384033203125 31.149322509765625 31.080842971801757812 31.090606689453125 31.13698577880859375 31.158853530883789062 31.169427871704101562 31.961381912231445312 33.166843414306640625 33.94136810302734375 34.351207733154296875 34.204845428466796875 33.79586029052734375 33.400585174560546875 33.098358154296875 32.94434356689453125 32.941890716552734375 32.858264923095703125 32.816680908203125 33.029468536376953125 33.73844146728515625 34.8674468994140625 35.6534881591796875 35.338836669921875 34.24041748046875 33.491825103759765625 33.1640472412109375 32.95774078369140625 32.848316192626953125 32.812007904052734375 32.700542449951171875 32.5229644775390625 32.453868865966796875 32.454280853271484375 32.308528900146484375 31.946229934692382812 31.633443832397460938 31.600351333618164062 31.630113601684570312 31.375688552856445312 30.977060317993164062 30.712371826171875 30.446277618408203125 30.172466278076171875 29.80985260009765625 29.575826644897460938 29.398004531860351562 29.229623794555664062 29.066864013671875 28.916086196899414062 28.782770156860351562 28.7652587890625 28.818065643310546875 28.826183319091796875 28.808900833129882812 28.769573211669921875 28.754198074340820312 28.711421966552734375 28.49777984619140625 28.041948318481445312 27.557102203369140625 27.094024658203125 26.635290145874023438 26.26971435546875 26.20166015625 26.189512252807617188 26.078729629516601562 26.042375564575195312 26.031991958618164062 26.0219879150390625 26.0110931396484375 25.998643875122070312 25.9832763671875 25.964488983154296875 25.940820693969726562 25.912897109985351562 25.8808746337890625 25.846906661987304688 25.81131744384765625 25.776315689086914062 25.741926193237304688 25.7092132568359375 25.676946640014648438 25.645635604858398438 25.614023208618164062 25.582719802856445312 25.55126953125 25.521787643432617188 25.494939804077148438 25.472881317138671875 25.456539154052734375 25.447832107543945312 25.448434829711914062 25.460096359252929688 25.485258102416992188 25.524927139282226562 25.582195281982421875 25.655702590942382812 25.746999740600585938 25.8521728515625 25.9734039306640625 26.105802536010742188 26.250577926635742188 26.396907806396484375 26.540836334228515625 26.6698760986328125 26.779325485229492188 26.858968734741210938 26.90966033935546875 26.934320449829101562 26.938993453979492188 26.928958892822265625 26.909221649169921875 26.884698867797851562 26.857011795043945312 26.828535079956054688 26.799894332885742188 26.77342987060546875 26.749507904052734375 26.728597640991210938 26.708555221557617188 26.688327789306640625 26.66556549072265625 26.63938140869140625 26.608110427856445312 26.573324203491210938 26.53509521484375 26.495756149291992188 26.455263137817382812 26.41588592529296875 26.376895904541015625 26.33956146240234375 26.30272674560546875 26.267526626586914062 26.232845306396484375 26.199481964111328125 26.16571807861328125 26.13181304931640625 26.095903396606445312 26.05831146240234375 26.017452239990234375 25.975412368774414062 25.932657241821289062 25.892314910888671875 25.85500335693359375 25.823579788208007812 25.797769546508789062 25.777629852294921875 25.761310577392578125 25.748136520385742188 25.7364654541015625 25.725536346435546875 25.714036941528320312 25.701486587524414062 25.68666839599609375 25.66919708251953125 25.647588729858398438 25.620508193969726562 25.583892822265625 25.535175323486328125 25.469364166259765625 25.384754180908203125 25.277431488037109375 25.154123306274414062 25.018253326416015625 24.880723953247070312 24.7447052001953125 24.620624542236328125 24.507379531860351562 24.40645599365234375 24.31180572509765625 24.22325897216796875 24.13525390625 24.048419952392578125 23.960948944091796875 23.877233505249023438 23.79693603515625 23.724386215209960938 23.659160614013671875 23.602926254272460938 23.55168914794921875 23.504240036010742188 23.456493377685546875 23.406986236572265625 23.350999832153320312 23.285129547119140625 23.202358245849609375 23.099117279052734375 22.96761322021484375 22.806737899780273438 22.6157073974609375 22.408147811889648438 22.189516067504882812 21.975595474243164062 21.770914077758789062 21.58538818359375 21.4079437255859375 21.232868194580078125 21.045253753662109375 20.83892059326171875 20.60114288330078125 20.339061737060546875 20.057659149169921875 19.7751617431640625 19.497034072875976562 19.241334915161132812 19.007146835327148438 18.795171737670898438 18.5912322998046875 18.39101409912109375 18.181016921997070312 17.958805084228515625 17.721630096435546875 17.482416152954101562 17.245203018188476562 17.024145126342773438 16.822790145874023438 16.64983367919921875 16.497808456420898438 16.364862442016601562 16.242267608642578125 16.127149581909179688 16.012395858764648438 15.898462295532226562 15.783445358276367188 15.669928550720214844 15.556298255920410156 15.445165634155273438 15.335643768310546875 15.231682777404785156 15.133507728576660156 15.045193672180175781 14.967100143432617188 14.90212249755859375 14.847363471984863281 14.800932884216308594 14.758625030517578125 14.717952728271484375 14.675312042236328125 14.630164146423339844 14.583242416381835938 14.537049293518066406 14.492823600769042969 14.453111648559570312 14.418252944946289062 14.387564659118652344 14.358042716979980469 14.327425956726074219 14.292822837829589844 14.252107620239257812 14.204558372497558594 14.151974678039550781 14.095981597900390625 14.039026260375976562 13.982554435729980469 13.92867279052734375 13.877305984497070312 13.829007148742675781 13.783217430114746094 13.740380287170410156 13.70001220703125 13.662461280822753906 13.627301216125488281 13.594797134399414062 13.56458282470703125 13.536875724792480469 
30.377382278442382812 30.38045501708984375 30.385578155517578125 30.365915298461914062 30.365514755249023438 30.400453567504882812 30.404989242553710938 30.445150375366210938 30.462129592895507812 30.44775390625 30.474527359008789062 30.421031951904296875 30.382930755615234375 30.371601104736328125 30.361972808837890625 30.383726119995117188 30.40259552001953125 30.43195343017578125 30.470478057861328125 30.493448257446289062 30.505130767822265625 30.524808883666992188 30.562505722045898438 30.610118865966796875 30.644701004028320312 30.515768051147460938 30.438047409057617188 30.603677749633789062 30.558807373046875 30.43498992919921875 30.486158370971679688 30.733123779296875 30.932176589965820312 30.870946884155273438 30.978013992309570312 31.149875640869140625 31.085550308227539062 31.017024993896484375 31.018848419189453125 31.059045791625976562 31.114561080932617188 31.116588592529296875 31.338510513305664062 32.430973052978515625 33.431659698486328125 34.173534393310546875 34.301563262939453125 34.03717803955078125 33.60996246337890625 33.2784881591796875 33.0186767578125 32.9228363037109375 32.909564971923828125 32.835086822509765625 32.843677520751953125 33.138744354248046875 33.87580108642578125 35.243877410888671875 36.12029266357421875 35.60146331787109375 34.18102264404296875 33.390777587890625 33.102817535400390625 32.939731597900390625 32.889545440673828125 32.895671844482421875 32.83039093017578125 32.6260223388671875 32.478122711181640625 32.43597412109375 32.23336029052734375 31.858188629150390625 31.589191436767578125 31.608034133911132812 31.574872970581054688 31.247617721557617188 30.89698028564453125 30.642093658447265625 30.401615142822265625 30.101427078247070312 29.7530975341796875 29.54761505126953125 29.368618011474609375 29.1962432861328125 29.029460906982421875 28.874355316162109375 28.747158050537109375 28.789350509643554688 28.886911392211914062 28.8756866455078125 28.823822021484375 28.770185470581054688 28.7293243408203125 28.630014419555664062 28.311090469360351562 27.895778656005859375 27.462663650512695312 27.037099838256835938 26.610521316528320312 26.26911163330078125 26.205410003662109375 26.194536209106445312 26.0929718017578125 26.056102752685546875 26.04312896728515625 26.031482696533203125 26.0197601318359375 26.007062911987304688 25.991764068603515625 25.97309112548828125 25.949337005615234375 25.92101287841796875 25.888317108154296875 25.85352325439453125 25.8170318603515625 25.781179428100585938 25.746065139770507812 25.712863922119140625 25.680423736572265625 25.649341583251953125 25.618457794189453125 25.588438034057617188 25.558885574340820312 25.53179931640625 25.507848739624023438 25.489027023315429688 25.47628021240234375 25.471279144287109375 25.4754791259765625 25.49013519287109375 25.517351150512695312 25.557683944702148438 25.61388397216796875 25.684717178344726562 25.772153854370117188 25.8730010986328125 25.989925384521484375 26.118743896484375 26.260965347290039062 26.405778884887695312 26.548917770385742188 26.677633285522460938 26.786931991577148438 26.866342544555664062 26.916551589965820312 26.9404449462890625 26.944011688232421875 26.932529449462890625 26.910932540893554688 26.884229660034179688 26.8541259765625 26.823266983032226562 26.792415618896484375 26.764171600341796875 26.739042282104492188 26.717626571655273438 26.697786331176757812 26.678476333618164062 26.657390594482421875 26.633584976196289062 26.605337142944335938 26.57375335693359375 26.538532257080078125 26.50145721435546875 26.462083816528320312 26.422304153442382812 26.381536483764648438 26.341619491577148438 26.301914215087890625 26.264219284057617188 26.22789764404296875 26.194059371948242188 26.160745620727539062 26.127832412719726562 26.093097686767578125 26.056453704833984375 26.016054153442382812 25.97402191162109375 25.931110382080078125 25.890766143798828125 25.853921890258789062 25.8237152099609375 25.800020217895507812 25.782693862915039062 25.769739151000976562 25.760166168212890625 25.7522125244140625 25.744792938232421875 25.736524581909179688 25.726657867431640625 25.713907241821289062 25.69765472412109375 25.676321029663085938 25.648572921752929688 25.610563278198242188 25.560029983520507812 25.492212295532226562 25.405735015869140625 25.29683685302734375 25.172332763671875 25.035539627075195312 24.897317886352539062 24.760744094848632812 24.636199951171875 24.522569656372070312 24.421426773071289062 24.32680511474609375 24.238630294799804688 24.151432037353515625 24.065807342529296875 23.97969818115234375 23.897069931030273438 23.817203521728515625 23.744007110595703125 23.676700592041015625 23.616991043090820312 23.561162948608398438 23.508544921875 23.45534515380859375 23.40065765380859375 23.339796066284179688 23.269153594970703125 23.18100738525390625 23.071344375610351562 22.931631088256835938 22.760496139526367188 22.557130813598632812 22.336252212524414062 22.103914260864257812 21.877168655395507812 21.661092758178710938 21.466485977172851562 21.281904220581054688 21.101505279541015625 20.909845352172851562 20.70050048828125 20.460321426391601562 20.19631195068359375 19.91330718994140625 19.629499435424804688 19.350246429443359375 19.09355926513671875 18.858469009399414062 18.645748138427734375 18.441267013549804688 18.240800857543945312 18.030910491943359375 17.809213638305664062 17.572938919067382812 17.3349151611328125 17.099107742309570312 16.879560470581054688 16.679769515991210938 16.50850677490234375 16.358699798583984375 16.2289276123046875 16.110960006713867188 16.0023193359375 15.896227836608886719 15.792627334594726562 15.688885688781738281 15.586487770080566406 15.4831085205078125 15.380275726318359375 15.276904106140136719 15.177006721496582031 15.081371307373046875 14.994405746459960938 14.916961669921875 14.8522796630859375 14.797710418701171875 14.75148773193359375 14.709536552429199219 14.669492721557617188 14.627863883972167969 14.584143638610839844 14.539004325866699219 14.494840621948242188 14.452816009521484375 14.415366172790527344 14.382813453674316406 14.35455322265625 14.327778816223144531 14.300391197204589844 14.269697189331054688 14.233700752258300781 14.191638946533203125 14.144975662231445312 14.09503173828125 14.043839454650878906 13.992567062377929688 13.943011283874511719 13.895197868347167969 13.849778175354003906 13.806416511535644531 13.765681266784667969 13.727266311645507812 13.691517829895019531 13.657925605773925781 13.626607894897460938 13.59709930419921875 13.569456100463867188 
30.371675491333007812 30.3816070556640625 30.387144088745117188 30.370365142822265625 30.400493621826171875 30.395471572875976562 30.3968353271484375 30.433343887329101562 30.466051101684570312 30.442682266235351562 30.4510650634765625 30.456426620483398438 30.419612884521484375 30.413427352905273438 30.393777847290039062 30.380823135375976562 30.378656387329101562 30.398725509643554688 30.439601898193359375 30.4779052734375 30.498378753662109375 30.536956787109375 30.5814666748046875 30.580091476440429688 30.579839706420898438 30.426210403442382812 30.51415252685546875 30.605859756469726562 30.5825958251953125 30.578569412231445312 30.5982818603515625 30.672222137451171875 30.73626708984375 30.7260894775390625 31.106508255004882812 31.219274520874023438 31.040216445922851562 30.931554794311523438 30.959377288818359375 31.026790618896484375 31.083238601684570312 31.083425521850585938 31.681573867797851562 32.886020660400390625 33.699596405029296875 34.28206634521484375 34.23519134521484375 33.908660888671875 33.515094757080078125 33.214813232421875 32.986743927001953125 32.89073944091796875 32.828754425048828125 32.821529388427734375 32.96450042724609375 33.371417999267578125 34.169742584228515625 35.431255340576171875 36.13961029052734375 35.60736083984375 34.332477569580078125 33.4005889892578125 33.034343719482421875 32.935211181640625 32.933429718017578125 32.94732666015625 32.91677093505859375 32.718517303466796875 32.506198883056640625 32.4016571044921875 32.1200408935546875 31.755270004272460938 31.556699752807617188 31.61342620849609375 31.485891342163085938 31.12088775634765625 30.825588226318359375 30.571735382080078125 30.340850830078125 30.015422821044921875 29.7129669189453125 29.517988204956054688 29.335601806640625 29.160015106201171875 28.989393234252929688 28.82677459716796875 28.72137451171875 28.795320510864257812 28.875095367431640625 28.8690338134765625 28.835752487182617188 28.777456283569335938 28.68361663818359375 28.483533859252929688 28.126787185668945312 27.748579025268554688 27.358325958251953125 26.971582412719726562 26.581178665161132812 26.267614364624023438 26.208934783935546875 26.199598312377929688 26.10936737060546875 26.071710586547851562 26.05527496337890625 26.0413055419921875 26.028280258178710938 26.015047073364257812 25.9996795654296875 25.981113433837890625 25.957365036010742188 25.928800582885742188 25.895631790161132812 25.8602142333984375 25.82300567626953125 25.786426544189453125 25.750638961791992188 25.71692657470703125 25.684228897094726562 25.653247833251953125 25.622943878173828125 25.594051361083984375 25.56630706787109375 25.541713714599609375 25.521089553833007812 25.50638580322265625 25.498729705810546875 25.499542236328125 25.509960174560546875 25.530382156372070312 25.562358856201171875 25.605632781982421875 25.662405014038085938 25.731412887573242188 25.815137863159179688 25.911197662353515625 26.022823333740234375 26.146671295166015625 26.28461456298828125 26.4260406494140625 26.566463470458984375 26.693071365356445312 26.800676345825195312 26.878717422485351562 26.927701950073242188 26.950422286987304688 26.952692031860351562 26.939702987670898438 26.916212081909179688 26.887248992919921875 26.854595184326171875 26.821187973022460938 26.787937164306640625 26.7577362060546875 26.731231689453125 26.709177017211914062 26.689449310302734375 26.671016693115234375 26.651622772216796875 26.630277633666992188 26.605184555053710938 26.57694244384765625 26.544828414916992188 26.510007858276367188 26.471578598022460938 26.43102264404296875 26.387887954711914062 26.3446502685546875 26.30120086669921875 26.260074615478515625 26.221136093139648438 26.185880661010742188 26.152132034301757812 26.119462966918945312 26.085317611694335938 26.0492706298828125 26.009244918823242188 25.967390060424804688 25.924711227416992188 25.884908676147460938 25.849203109741210938 25.820943832397460938 25.80013275146484375 25.786367416381835938 25.77750396728515625 25.772176742553710938 25.768499374389648438 25.765020370483398438 25.760301589965820312 25.753337860107421875 25.7427978515625 25.727853775024414062 25.706850051879882812 25.678487777709960938 25.639169692993164062 25.58698272705078125 25.5174407958984375 25.429529190063476562 25.319673538208007812 25.194690704345703125 25.057725906372070312 24.919473648071289062 24.782831192016601562 24.6580352783203125 24.543954849243164062 24.442319869995117188 24.347345352172851562 24.25914764404296875 24.172433853149414062 24.087831497192382812 24.002988815307617188 23.921358108520507812 23.841747283935546875 23.767551422119140625 23.697565078735351562 23.633558273315429688 23.572208404541015625 23.513540267944335938 23.454183578491210938 23.393947601318359375 23.328229904174804688 23.2531280517578125 23.1600494384765625 23.044345855712890625 22.896589279174804688 22.714982986450195312 22.498682022094726562 22.263624191284179688 22.016590118408203125 21.77605438232421875 21.547765731811523438 21.343517303466796875 21.151485443115234375 20.965681076049804688 20.770071029663085938 20.557971954345703125 20.315755844116210938 20.050230026245117188 19.766000747680664062 19.481145858764648438 19.200822830200195312 18.94292449951171875 18.706418991088867188 18.492258071899414062 18.2865142822265625 18.0852203369140625 17.875139236450195312 17.654071807861328125 17.419183731079101562 17.183078765869140625 16.9495086669921875 16.732234954833984375 16.534582138061523438 16.3652801513671875 16.217641830444335938 16.090663909912109375 15.976599693298339844 15.873393058776855469 15.774606704711914062 15.679833412170410156 15.585935592651367188 15.493559837341308594 15.399881362915039062 15.305594444274902344 15.209429740905761719 15.115273475646972656 15.024187088012695312 14.940613746643066406 14.865642547607421875 14.802609443664550781 14.749119758605957031 14.703602790832519531 14.662232398986816406 14.622865676879882812 14.582227706909179688 14.539895057678222656 14.496465682983398438 14.454201698303222656 14.4141693115234375 14.378663063049316406 14.34798431396484375 14.321638107299804688 14.297060012817382812 14.272385597229003906 14.245160102844238281 14.213580131530761719 14.176857948303222656 14.136122703552246094 14.092375755310058594 14.047219276428222656 14.001530647277832031 13.956776618957519531 13.913056373596191406 13.8710784912109375 13.830691337585449219 13.792551040649414062 13.756498336791992188 13.722859382629394531 13.691048622131347656 13.661031723022460938 13.632248878479003906 13.604612350463867188 
30.368419647216796875 30.386552810668945312 30.382005691528320312 30.391420364379882812 30.41555023193359375 30.392024993896484375 30.399372100830078125 30.434436798095703125 30.459146499633789062 30.468017578125 30.438894271850585938 30.463260650634765625 30.445714950561523438 30.42816162109375 30.411607742309570312 30.380771636962890625 30.35577392578125 30.368902206420898438 30.406618118286132812 30.445398330688476562 30.483419418334960938 30.527841567993164062 30.577989578247070312 30.569599151611328125 30.503618240356445312 30.466489791870117188 30.584444046020507812 30.557115554809570312 30.554143905639648438 30.591459274291992188 30.635868072509765625 30.682598114013671875 30.67227935791015625 30.6944580078125 31.004482269287109375 31.11602020263671875 31.015264511108398438 30.952793121337890625 30.948482513427734375 31.013494491577148438 31.06143951416015625 31.1529541015625 32.0550537109375 33.145755767822265625 33.92279052734375 34.307483673095703125 34.17299652099609375 33.81082916259765625 33.49045562744140625 33.213314056396484375 32.99742889404296875 32.9166107177734375 32.8822479248046875 32.9330902099609375 33.15117645263671875 33.596477508544921875 34.457012176513671875 35.53272247314453125 35.882068634033203125 35.25270843505859375 34.242824554443359375 33.40099334716796875 32.980083465576171875 32.93729400634765625 32.9499053955078125 32.97548675537109375 32.963787078857421875 32.768035888671875 32.511745452880859375 32.309185028076171875 31.98467254638671875 31.658315658569335938 31.545978546142578125 31.597713470458984375 31.372859954833984375 31.0122222900390625 30.752019882202148438 30.517221450805664062 30.261079788208007812 29.928401947021484375 29.681043624877929688 29.487119674682617188 29.300685882568359375 29.123041152954101562 28.95034027099609375 28.7860260009765625 28.718172073364257812 28.802669525146484375 28.85160064697265625 28.84832763671875 28.823385238647460938 28.766744613647460938 28.62186431884765625 28.317182540893554688 27.958974838256835938 27.607011795043945312 27.252239227294921875 26.9027252197265625 26.549631118774414062 26.265529632568359375 26.21216583251953125 26.204519271850585938 26.12702178955078125 26.088636398315429688 26.06835174560546875 26.051660537719726562 26.03694915771484375 26.022855758666992188 26.007183074951171875 25.988605499267578125 25.964895248413085938 25.9362640380859375 25.902894973754882812 25.867156982421875 25.829509735107421875 25.792398452758789062 25.756002426147460938 25.721721649169921875 25.688632965087890625 25.65758514404296875 25.627689361572265625 25.599803924560546875 25.573846817016601562 25.551885604858398438 25.534959793090820312 25.525028228759765625 25.523488998413085938 25.53150177001953125 25.549831390380859375 25.577821731567382812 25.616365432739257812 25.6641845703125 25.722827911376953125 25.7908935546875 25.871368408203125 25.962682723999023438 26.068630218505859375 26.186725616455078125 26.319217681884765625 26.455827713012695312 26.591947555541992188 26.714895248413085938 26.819372177124023438 26.894895553588867188 26.941808700561523438 26.96279144287109375 26.963418960571289062 26.948749542236328125 26.923307418823242188 26.892107009887695312 26.856967926025390625 26.821102142333984375 26.785543441772460938 26.753450393676757812 26.725603103637695312 26.702890396118164062 26.683214187622070312 26.665563583374023438 26.647733688354492188 26.628694534301757812 26.606584548950195312 26.581495285034179688 26.552278518676757812 26.51949310302734375 26.481769561767578125 26.440191268920898438 26.39441680908203125 26.347551345825195312 26.29999542236328125 26.2550201416015625 26.212965011596679688 26.175731658935546875 26.140964508056640625 26.108003616333007812 26.074008941650390625 26.038280487060546875 25.998546600341796875 25.956987380981445312 25.914808273315429688 25.875917434692382812 25.841783523559570312 25.815906524658203125 25.79840087890625 25.788572311401367188 25.784135818481445312 25.783329010009765625 25.78414154052734375 25.784746170043945312 25.783664703369140625 25.779666900634765625 25.771394729614257812 25.75783538818359375 25.73729705810546875 25.708528518676757812 25.668218612670898438 25.614824295043945312 25.544172286987304688 25.455621719360351562 25.345796585083007812 25.2214202880859375 25.085355758666992188 24.94797515869140625 24.81189727783203125 24.687078475952148438 24.572357177734375 24.469728469848632812 24.373685836791992188 24.28469085693359375 24.197721481323242188 24.11353302001953125 24.02944183349609375 23.9483184814453125 23.868412017822265625 23.79253387451171875 23.718965530395507812 23.649591445922851562 23.581562042236328125 23.515758514404296875 23.44933319091796875 23.382959365844726562 23.312189102172851562 23.232820510864257812 23.13535308837890625 23.014434814453125 22.859708786010742188 22.668874740600585938 22.441019058227539062 22.193189620971679688 21.932851791381835938 21.679796218872070312 21.440408706665039062 21.227405548095703125 21.028631210327148438 20.837972640991210938 20.638883590698242188 20.424444198608398438 20.180597305297851562 19.913904190063476562 19.628671646118164062 19.342733383178710938 19.060968399047851562 18.801050186157226562 18.561883926391601562 18.34481048583984375 18.136301040649414062 17.93292999267578125 17.721860885620117188 17.50130462646484375 17.268304824829101562 17.035036087036132812 16.80481719970703125 16.590887069702148438 16.396205902099609375 16.229290008544921875 16.083835601806640625 15.959256172180175781 15.8483123779296875 15.749378204345703125 15.656392097473144531 15.568755149841308594 15.482996940612792969 15.399167060852050781 15.314120292663574219 15.227941513061523438 15.139207839965820312 15.051530838012695312 14.966062545776367188 14.887061119079589844 14.815673828125 14.755143165588378906 14.703316688537597656 14.658848762512207031 14.618221282958984375 14.579557418823242188 14.539846420288085938 14.498775482177734375 14.45687103271484375 14.416261672973632812 14.3779144287109375 14.343976020812988281 14.314726829528808594 14.289793014526367188 14.266870498657226562 14.244340896606445312 14.220006942749023438 14.192284584045410156 14.160372734069824219 14.1251068115234375 14.087182998657226562 14.047818183898925781 14.00762176513671875 13.967749595642089844 13.928342819213867188 13.89012908935546875 13.853095054626464844 13.817943572998046875 13.784621238708496094 13.753407478332519531 13.723647117614746094 13.69515228271484375 13.66727447509765625 13.639780044555664062 
30.3759002685546875 30.386638641357421875 30.365896224975585938 30.379680633544921875 30.3853302001953125 30.38608551025390625 30.40656280517578125 30.444759368896484375 30.456567764282226562 30.470121383666992188 30.4491729736328125 30.42522430419921875 30.47615814208984375 30.449558258056640625 30.407979965209960938 30.366146087646484375 30.349592208862304688 30.344409942626953125 30.3660430908203125 30.401103973388671875 30.455902099609375 30.525119781494140625 30.587545394897460938 30.553979873657226562 30.391786575317382812 30.501617431640625 30.538351058959960938 30.500833511352539062 30.527311325073242188 30.556741714477539062 30.599168777465820312 30.650554656982421875 30.703107833862304688 30.73860931396484375 30.854005813598632812 31.061891555786132812 31.010141372680664062 30.959667205810546875 30.98715972900390625 31.0539398193359375 31.061162948608398438 31.434984207153320312 32.437164306640625 33.342327117919921875 34.016201019287109375 34.167728424072265625 33.990077972412109375 33.662448883056640625 33.415721893310546875 33.18605804443359375 33.017856597900390625 32.94298553466796875 32.9436187744140625 33.06043243408203125 33.310596466064453125 33.785625457763671875 34.742107391357421875 35.754337310791015625 35.481098175048828125 34.4241790771484375 33.645801544189453125 33.164783477783203125 32.937053680419921875 32.942569732666015625 32.969272613525390625 32.998241424560546875 32.98641204833984375 32.79433441162109375 32.51595306396484375 32.2091827392578125 31.8589630126953125 31.576486587524414062 31.550924301147460938 31.549877166748046875 31.251316070556640625 30.924341201782226562 30.681756973266601562 30.464956283569335938 30.15526580810546875 29.851932525634765625 29.64104461669921875 29.448841094970703125 29.261913299560546875 29.084468841552734375 28.91269683837890625 28.7532501220703125 28.73531341552734375 28.81343841552734375 28.837797164916992188 28.82804107666015625 28.7918701171875 28.718112945556640625 28.491443634033203125 28.1262359619140625 27.779447555541992188 27.456075668334960938 27.138309478759765625 26.828260421752929688 26.5152740478515625 26.262933731079101562 26.215274810791015625 26.2094573974609375 26.14617919921875 26.107419967651367188 26.08313751220703125 26.063444137573242188 26.046663284301757812 26.031307220458984375 26.014970779418945312 25.996160507202148438 25.972459793090820312 25.943941116333007812 25.910692214965820312 25.875005722045898438 25.837255477905273438 25.799823760986328125 25.762851715087890625 25.727884292602539062 25.694194793701171875 25.66286468505859375 25.633226394653320312 25.606340408325195312 25.582342147827148438 25.5633697509765625 25.550691604614257812 25.546253204345703125 25.551753997802734375 25.568037033081054688 25.595487594604492188 25.632291793823242188 25.67864990234375 25.732164382934570312 25.793701171875 25.861619949340820312 25.939397811889648438 26.02620697021484375 26.1263580322265625 26.238187789916992188 26.36429595947265625 26.49485015869140625 26.625207901000976562 26.742982864379882812 26.842859268188476562 26.91458892822265625 26.958364486694335938 26.976787567138671875 26.975160598754882812 26.958414077758789062 26.930816650390625 26.897342681884765625 26.859821319580078125 26.821674346923828125 26.784023284912109375 26.750234603881835938 26.721179962158203125 26.697870254516601562 26.67822265625 26.661258697509765625 26.644826889038085938 26.627870559692382812 26.608461380004882812 26.58621978759765625 26.559583663940429688 26.528543472290039062 26.491283416748046875 26.448505401611328125 26.399969100952148438 26.349382400512695312 26.297624588012695312 26.248666763305664062 26.203296661376953125 26.163820266723632812 26.127717971801757812 26.094158172607421875 26.060045242309570312 26.024463653564453125 25.984975814819335938 25.943780899047851562 25.902273178100585938 25.864528656005859375 25.83223724365234375 25.80902099609375 25.7950897216796875 25.789445877075195312 25.789655685424804688 25.793560028076171875 25.799016952514648438 25.803821563720703125 25.806474685668945312 25.80553436279296875 25.799652099609375 25.787645339965820312 25.767808914184570312 25.738965988159179688 25.698141098022460938 25.644176483154296875 25.573270797729492188 25.48516845703125 25.376718521118164062 25.254396438598632812 25.12065887451171875 24.985332489013671875 24.850614547729492188 24.725996017456054688 24.610286712646484375 24.505865097045898438 24.407667160034179688 24.316680908203125 24.22829437255859375 24.143533706665039062 24.0593109130859375 23.977853775024414062 23.896709442138671875 23.818027496337890625 23.73946380615234375 23.663068771362304688 23.586559295654296875 23.511877059936523438 23.436803817749023438 23.363079071044921875 23.286493301391601562 23.20263671875 23.10109710693359375 22.975854873657226562 22.815649032592773438 22.617654800415039062 22.380817413330078125 22.123029708862304688 21.852281570434570312 21.589385986328125 21.341207504272460938 21.121189117431640625 20.916942596435546875 20.722288131713867188 20.5203094482421875 20.303934097290039062 20.05877685546875 19.791116714477539062 19.504840850830078125 19.217416763305664062 18.9333038330078125 18.66985321044921875 18.425905227661132812 18.203481674194335938 17.989765167236328125 17.782281875610351562 17.568895339965820312 17.34853363037109375 17.118036270141601562 16.888864517211914062 16.663593292236328125 16.454576492309570312 16.264133453369140625 16.100339889526367188 15.957304000854492188 15.834897994995117188 15.726465225219726562 15.630866050720214844 15.542489051818847656 15.460662841796875 15.381692886352539062 15.30519866943359375 15.227817535400390625 15.149175643920898438 15.067717552185058594 14.986720085144042969 14.9073028564453125 14.833423614501953125 14.766180992126464844 14.708623886108398438 14.658824920654296875 14.615647315979003906 14.57590484619140625 14.53798675537109375 14.4991607666015625 14.459231376647949219 14.418666839599609375 14.379475593566894531 14.342528343200683594 14.309843063354492188 14.281681060791015625 14.257793426513671875 14.236124992370605469 14.215299606323242188 14.193367958068847656 14.168961524963378906 14.141285896301269531 14.110932350158691406 14.078339576721191406 14.044399261474609375 14.009491920471191406 13.974501609802246094 13.939586639404296875 13.90545654296875 13.872198104858398438 13.840512275695800781 13.810415267944335938 13.782111167907714844 13.754861831665039062 13.728314399719238281 13.701732635498046875 13.674715995788574219 
30.388437271118164062 30.380926132202148438 30.361585617065429688 30.361074447631835938 30.3673095703125 30.372694015502929688 30.404085159301757812 30.446836471557617188 30.4621124267578125 30.47406768798828125 30.474996566772460938 30.424594879150390625 30.47882843017578125 30.474155426025390625 30.415569305419921875 30.365453720092773438 30.332574844360351562 30.32161712646484375 30.325632095336914062 30.356798171997070312 30.421312332153320312 30.498582839965820312 30.570886611938476562 30.4828948974609375 30.38774871826171875 30.50797271728515625 30.452556610107421875 30.455471038818359375 30.492612838745117188 30.525312423706054688 30.577596664428710938 30.639896392822265625 30.69777679443359375 30.724575042724609375 30.815113067626953125 31.01358795166015625 30.7654876708984375 30.700204849243164062 30.835285186767578125 31.009960174560546875 31.1021728515625 31.866998672485351562 32.8217620849609375 33.400371551513671875 33.903026580810546875 33.950206756591796875 33.743350982666015625 33.48873138427734375 33.282379150390625 33.119228363037109375 33.011322021484375 32.9553680419921875 33.007175445556640625 33.18166351318359375 33.48860931396484375 34.038543701171875 34.954120635986328125 35.775707244873046875 35.20365142822265625 33.935955047607421875 33.323337554931640625 33.013965606689453125 32.9231719970703125 32.95085906982421875 32.98541259765625 33.0113677978515625 33.00403594970703125 32.829742431640625 32.51146697998046875 32.123790740966796875 31.763339996337890625 31.527944564819335938 31.560253143310546875 31.484508514404296875 31.15021514892578125 30.850427627563476562 30.62981414794921875 30.382966995239257812 30.0489501953125 29.7930908203125 29.596004486083984375 29.405763626098632812 29.220394134521484375 29.04506683349609375 28.877033233642578125 28.744375228881835938 28.772737503051757812 28.830699920654296875 28.837200164794921875 28.816907882690429688 28.766401290893554688 28.587299346923828125 28.234012603759765625 27.883907318115234375 27.571249008178710938 27.287973403930664062 27.014621734619140625 26.749113082885742188 26.479368209838867188 26.260034561157226562 26.218206405639648438 26.214244842529296875 26.165874481201171875 26.127370834350585938 26.099428176879882812 26.076749801635742188 26.057636260986328125 26.040613174438476562 26.023187637329101562 26.003828048706054688 25.980054855346679688 25.951826095581054688 25.919069290161132812 25.88387298583984375 25.846435546875 25.808946609497070312 25.771442413330078125 25.735647201538085938 25.701112747192382812 25.669256210327148438 25.639726638793945312 25.613864898681640625 25.592054367065429688 25.576440811157226562 25.568456649780273438 25.569957733154296875 25.582874298095703125 25.60768890380859375 25.644449234008789062 25.69024658203125 25.7446746826171875 25.804277420043945312 25.869310379028320312 25.937856674194335938 26.013772964477539062 26.09680938720703125 26.191675186157226562 26.297376632690429688 26.416778564453125 26.54056549072265625 26.664142608642578125 26.77556610107421875 26.869579315185546875 26.936315536499023438 26.975856781005859375 26.990802764892578125 26.986196517944335938 26.966894149780273438 26.936931610107421875 26.901258468627929688 26.861646652221679688 26.821641921997070312 26.782379150390625 26.7473297119140625 26.717390060424804688 26.693643569946289062 26.674036026000976562 26.657611846923828125 26.642278671264648438 26.62696075439453125 26.609682083129882812 26.589673995971679688 26.565021514892578125 26.535249710083007812 26.498159408569335938 26.454149246215820312 26.40305328369140625 26.349100112915039062 26.2935638427734375 26.241024017333984375 26.192626953125 26.151048660278320312 26.113628387451171875 26.079402923583984375 26.045074462890625 26.009555816650390625 25.970273971557617188 25.929456710815429688 25.888662338256835938 25.852102279663085938 25.8216705322265625 25.80107879638671875 25.790620803833007812 25.789012908935546875 25.793689727783203125 25.802106857299804688 25.812005996704101562 25.820831298828125 25.82707977294921875 25.829126358032226562 25.825656890869140625 25.815349578857421875 25.796514511108398438 25.76806640625 25.72739410400390625 25.673734664916992188 25.603704452514648438 25.517414093017578125 25.411960601806640625 25.293394088745117188 25.163623809814453125 25.0316925048828125 24.899221420288085938 24.775026321411132812 24.657878875732421875 24.550689697265625 24.448995590209960938 24.354532241821289062 24.263235092163085938 24.1765594482421875 24.090969085693359375 24.007991790771484375 23.92435455322265625 23.84149169921875 23.756319046020507812 23.671113967895507812 23.58422088623046875 23.498828887939453125 23.413423538208007812 23.330997467041015625 23.247661590576171875 23.1589813232421875 23.053754806518554688 22.92543792724609375 22.762033462524414062 22.560239791870117188 22.318773269653320312 22.055891036987304688 21.779798507690429688 21.51177215576171875 21.258871078491210938 21.034894943237304688 20.827367782592773438 20.630155563354492188 20.42620086669921875 20.208431243896484375 19.962310791015625 19.693815231323242188 19.406312942504882812 19.11675262451171875 18.829038619995117188 18.560079574584960938 18.308668136596679688 18.077859878540039062 17.85590362548828125 17.641757965087890625 17.424325942993164062 17.203638076782226562 16.976222991943359375 16.75251007080078125 16.533945083618164062 16.331602096557617188 16.146823883056640625 15.986992835998535156 15.846661567687988281 15.7262115478515625 15.61965179443359375 15.5264129638671875 15.441396713256835938 15.363968849182128906 15.29027557373046875 15.219622611999511719 15.148495674133300781 15.076183319091796875 15.001008987426757812 14.925946235656738281 14.852029800415039062 14.782917022705078125 14.7196197509765625 14.664972305297851562 14.617224693298339844 14.575408935546875 14.536619186401367188 14.49945831298828125 14.461439132690429688 14.422457695007324219 14.382953643798828125 14.344844818115234375 14.30893707275390625 14.277155876159667969 14.249756813049316406 14.226592063903808594 14.205810546875 14.186239242553710938 14.1661224365234375 14.144275665283203125 14.119924545288085938 14.093502044677734375 14.06526947021484375 14.035901069641113281 14.005617141723632812 13.975111961364746094 13.944539070129394531 13.914560317993164062 13.885298728942871094 13.857418060302734375 13.830961227416992188 13.806025505065917969 13.781778335571289062 13.757688522338867188 13.732915878295898438 13.706882476806640625 
30.395288467407226562 30.378969192504882812 30.370571136474609375 30.344757080078125 30.351591110229492188 30.363574981689453125 30.403493881225585938 30.439319610595703125 30.455142974853515625 30.466297149658203125 30.47789764404296875 30.4614105224609375 30.457714080810546875 30.489789962768554688 30.437356948852539062 30.366943359375 30.31729888916015625 30.3059234619140625 30.316686630249023438 30.34644317626953125 30.415426254272460938 30.485788345336914062 30.503026962280273438 30.370243072509765625 30.438604354858398438 30.473566055297851562 30.432558059692382812 30.434591293334960938 30.452264785766601562 30.483568191528320312 30.545581817626953125 30.62940216064453125 30.675153732299804688 30.692022323608398438 30.800371170043945312 30.778995513916015625 30.499067306518554688 30.44042205810546875 30.604450225830078125 30.922527313232421875 31.215450286865234375 32.163516998291015625 33.0841217041015625 33.706630706787109375 33.890850067138671875 33.80231475830078125 33.58136749267578125 33.366245269775390625 33.201751708984375 33.1211395263671875 33.069240570068359375 33.016063690185546875 33.10790252685546875 33.311992645263671875 33.64191436767578125 34.36631011962890625 35.428798675537109375 35.808475494384765625 34.8887786865234375 33.70998382568359375 33.18552398681640625 32.9468231201171875 32.925994873046875 32.95897674560546875 32.997020721435546875 33.0240478515625 33.02063751220703125 32.861804962158203125 32.465015411376953125 32.022838592529296875 31.6759185791015625 31.51824188232421875 31.565652847290039062 31.393266677856445312 31.048480987548828125 30.78919219970703125 30.578237533569335938 30.273456573486328125 29.955059051513671875 29.73925018310546875 29.545703887939453125 29.357921600341796875 29.175020217895507812 29.002637863159179688 28.8393402099609375 28.745786666870117188 28.802257537841796875 28.835866928100585938 28.842388153076171875 28.8041534423828125 28.651144027709960938 28.263437271118164062 27.861118316650390625 27.559633255004882812 27.30796051025390625 27.0849761962890625 26.871257781982421875 26.6620025634765625 26.442724227905273438 26.257341384887695312 26.221118927001953125 26.219015121459960938 26.18621826171875 26.14875030517578125 26.117588043212890625 26.09198760986328125 26.070287704467773438 26.051166534423828125 26.032178878784179688 26.011922836303710938 25.987981796264648438 25.960237503051757812 25.928380966186523438 25.894163131713867188 25.857488632202148438 25.820234298706054688 25.782251358032226562 25.745481491088867188 25.709852218627929688 25.6772308349609375 25.647684097290039062 25.622936248779296875 25.603639602661132812 25.59185028076171875 25.589078903198242188 25.596967697143554688 25.617586135864257812 25.650997161865234375 25.696966171264648438 25.751621246337890625 25.814075469970703125 25.879941940307617188 25.948978424072265625 26.018953323364257812 26.093963623046875 26.174137115478515625 26.264406204223632812 26.364252090454101562 26.476701736450195312 26.593008041381835938 26.708726882934570312 26.812517166137695312 26.8992767333984375 26.959672927856445312 26.993732452392578125 27.00414276123046875 26.99570465087890625 26.973276138305664062 26.940694808959960938 26.902894973754882812 26.861530303955078125 26.820159912109375 26.779832839965820312 26.744014739990234375 26.713552474975585938 26.689548492431640625 26.669971466064453125 26.653909683227539062 26.639318466186523438 26.625135421752929688 26.609346389770507812 26.59088897705078125 26.56757354736328125 26.53856658935546875 26.50136566162109375 26.45613861083984375 26.402782440185546875 26.345949172973632812 26.28722381591796875 26.231672286987304688 26.18073272705078125 26.137369155883789062 26.098819732666015625 26.064016342163085938 26.029493331909179688 25.994035720825195312 25.954967498779296875 25.914545059204101562 25.87447357177734375 25.839090347290039062 25.810468673706054688 25.792400360107421875 25.785257339477539062 25.787485122680664062 25.796398162841796875 25.8090972900390625 25.82321929931640625 25.835887908935546875 25.845605850219726562 25.8506011962890625 25.849613189697265625 25.841207504272460938 25.82373809814453125 25.796228408813476562 25.756473541259765625 25.704103469848632812 25.636201858520507812 25.553239822387695312 25.45257568359375 25.33965301513671875 25.215662002563476562 25.088594436645507812 24.959320068359375 24.835765838623046875 24.716634750366210938 24.605543136596679688 24.498805999755859375 24.399143218994140625 24.303195953369140625 24.213041305541992188 24.1246185302734375 24.038707733154296875 23.951061248779296875 23.862340927124023438 23.768585205078125 23.67237091064453125 23.572744369506835938 23.474338531494140625 23.376440048217773438 23.283496856689453125 23.19205474853515625 23.097856521606445312 22.989070892333984375 22.858823776245117188 22.694570541381835938 22.49260711669921875 22.2513275146484375 21.988796234130859375 21.713054656982421875 21.4452056884765625 21.192157745361328125 20.967634201049804688 20.759252548217773438 20.561048507690429688 20.356107711791992188 20.137544631958007812 19.890865325927734375 19.62174224853515625 19.332876205444335938 19.040533065795898438 18.747882843017578125 18.471258163452148438 18.209394454956054688 17.966794967651367188 17.7331695556640625 17.509466171264648438 17.286029815673828125 17.064413070678710938 16.840726852416992188 16.62400054931640625 16.414142608642578125 16.22048187255859375 16.04302215576171875 15.888155937194824219 15.750940322875976562 15.632337570190429688 15.527138710021972656 15.435442924499511719 15.352755546569824219 15.278557777404785156 15.208868980407714844 15.14275360107421875 15.076571464538574219 15.009336471557617188 14.939279556274414062 14.869116783142089844 14.799803733825683594 14.734752655029296875 14.674894332885742188 14.6228790283203125 14.57707977294921875 14.536637306213378906 14.498858451843261719 14.462484359741210938 14.42520904541015625 14.386995315551757812 14.348279953002929688 14.310936927795410156 14.275738716125488281 14.244568824768066406 14.217682838439941406 14.195017814636230469 14.174867630004882812 14.156197547912597656 14.137399673461914062 14.117419242858886719 14.095517158508300781 14.072054862976074219 14.047211647033691406 14.021552085876464844 13.995225906372070312 13.968820571899414062 13.9424591064453125 13.916726112365722656 13.891734123229980469 13.868069648742675781 13.84575653076171875 13.824755668640136719 13.8041229248046875 13.783124923706054688 13.760807991027832031 13.736393928527832031 
30.394613265991210938 30.3767242431640625 30.362997055053710938 30.33524322509765625 30.360754013061523438 30.386400222778320312 30.420923233032226562 30.448352813720703125 30.454067230224609375 30.461589813232421875 30.475248336791992188 30.485748291015625 30.440492630004882812 30.486608505249023438 30.467824935913085938 30.376962661743164062 30.325183868408203125 30.308391571044921875 30.324560165405273438 30.35509490966796875 30.426767349243164062 30.502717971801757812 30.430669784545898438 30.351720809936523438 30.453556060791015625 30.430116653442382812 30.428609848022460938 30.42661285400390625 30.43196868896484375 30.470193862915039062 30.523340225219726562 30.626379013061523438 30.689235687255859375 30.698062896728515625 30.882390975952148438 30.71743011474609375 30.470552444458007812 30.432300567626953125 30.6593017578125 30.992048263549804688 31.433603286743164062 32.270587921142578125 33.17249298095703125 33.77852630615234375 33.829986572265625 33.700946807861328125 33.512447357177734375 33.323444366455078125 33.17237091064453125 33.126811981201171875 33.13451385498046875 33.110401153564453125 33.204669952392578125 33.401943206787109375 33.7674560546875 34.782573699951171875 35.8151702880859375 35.675220489501953125 34.508495330810546875 33.518680572509765625 33.108432769775390625 32.9036407470703125 32.91382598876953125 32.967510223388671875 33.008510589599609375 33.033077239990234375 33.029296875 32.865787506103515625 32.386318206787109375 31.921924591064453125 31.60671234130859375 31.54553985595703125 31.5424652099609375 31.281949996948242188 30.950963973999023438 30.735403060913085938 30.492919921875 30.166414260864257812 29.87862396240234375 29.683191299438476562 29.49267578125 29.308073043823242188 29.128065109252929688 28.958890914916992188 28.801677703857421875 28.764093399047851562 28.839315414428710938 28.85298919677734375 28.828845977783203125 28.652368545532226562 28.224901199340820312 27.704071044921875 27.357418060302734375 27.151544570922851562 26.991762161254882812 26.850080490112304688 26.711984634399414062 26.573694229125976562 26.418361663818359375 26.262929916381835938 26.227109909057617188 26.2250518798828125 26.20600128173828125 26.169832229614257812 26.135944366455078125 26.107618331909179688 26.083278656005859375 26.061861038208007812 26.041070938110351562 26.019744873046875 25.995626449584960938 25.968553543090820312 25.937929153442382812 25.905084609985351562 25.869562149047851562 25.832838058471679688 25.794536590576171875 25.756816864013671875 25.720033645629882812 25.68656158447265625 25.656934738159179688 25.633306503295898438 25.616598129272460938 25.60871124267578125 25.611162185668945312 25.625303268432617188 25.653261184692382812 25.694667816162109375 25.749094009399414062 25.811891555786132812 25.881845474243164062 25.953823089599609375 26.027231216430664062 26.099485397338867188 26.1747589111328125 26.253274917602539062 26.33998870849609375 26.434598922729492188 26.540159225463867188 26.648550033569335938 26.755601882934570312 26.850755691528320312 26.92917633056640625 26.982242584228515625 27.009979248046875 27.015216827392578125 27.002515792846679688 26.976774215698242188 26.94164276123046875 26.90203094482421875 26.85941314697265625 26.817256927490234375 26.776449203491210938 26.740346908569335938 26.70966339111328125 26.68548583984375 26.665826797485351562 26.649831771850585938 26.635515213012695312 26.621858596801757812 26.606836318969726562 26.58919525146484375 26.566549301147460938 26.537824630737304688 26.500301361083984375 26.453998565673828125 26.3988494873046875 26.339811325073242188 26.278680801391601562 26.22087860107421875 26.168043136596679688 26.12335205078125 26.083965301513671875 26.048746109008789062 26.014123916625976562 25.978786468505859375 25.939992904663085938 25.900030136108398438 25.86072540283203125 25.826509475708007812 25.799608230590820312 25.783864974975585938 25.779726028442382812 25.785394668579101562 25.798091888427734375 25.814607620239257812 25.832498550415039062 25.848604202270507812 25.861463546752929688 25.869190216064453125 25.870595932006835938 25.86415863037109375 25.848314285278320312 25.8221893310546875 25.783992767333984375 25.733716964721679688 25.668924331665039062 25.590402603149414062 25.4957733154296875 25.389738082885742188 25.272691726684570312 25.1514129638671875 25.0259246826171875 24.9031219482421875 24.781641006469726562 24.665895462036132812 24.553070068359375 24.447015762329101562 24.345157623291015625 24.25031280517578125 24.157869338989257812 24.0678558349609375 23.974988937377929688 23.879148483276367188 23.775440216064453125 23.666780471801757812 23.552928924560546875 23.440076828002929688 23.328325271606445312 23.2236785888671875 23.123172760009765625 23.022918701171875 22.910608291625976562 22.779232025146484375 22.615880966186523438 22.416561126708984375 22.179258346557617188 21.921407699584960938 21.65058135986328125 21.387186050415039062 21.137693405151367188 20.915409088134765625 20.708196640014648438 20.510389328002929688 20.305463790893554688 20.086877822875976562 19.840373992919921875 19.571308135986328125 19.2816009521484375 18.986680984497070312 18.688846588134765625 18.403722763061523438 18.129964828491210938 17.873773574829101562 17.62657928466796875 17.391660690307617188 17.161058425903320312 16.9381256103515625 16.718503952026367188 16.509607315063476562 16.3095703125 16.125713348388671875 15.956483840942382812 15.807107925415039062 15.673153877258300781 15.556191444396972656 15.451832771301269531 15.360883712768554688 15.279482841491699219 15.207288742065429688 15.14023590087890625 15.077223777770996094 15.014516830444335938 14.950939178466796875 14.884650230407714844 14.818167686462402344 14.752383232116699219 14.690514564514160156 14.633432388305664062 14.583636283874511719 14.539569854736328125 14.500423431396484375 14.463639259338378906 14.428028106689453125 14.391397476196289062 14.353754043579101562 14.315558433532714844 14.278669357299804688 14.243871688842773438 14.21303558349609375 14.186445236206054688 14.164091110229492188 14.144351005554199219 14.126280784606933594 14.108356475830078125 14.089604377746582031 14.069333076477050781 14.047905921936035156 14.025504112243652344 14.002676010131835938 13.979580879211425781 13.956768035888671875 13.934317588806152344 13.912714958190917969 13.892019271850585938 13.872710227966308594 13.854755401611328125 13.837964057922363281 13.821275711059570312 13.803762435913085938 13.784351348876953125 13.762066841125488281 
30.457483291625976562 30.446626663208007812 30.412954330444335938 30.375619888305664062 30.3887481689453125 30.410184860229492188 30.43164825439453125 30.447900772094726562 30.454700469970703125 30.469768524169921875 30.490476608276367188 30.500207901000976562 30.461774826049804688 30.461048126220703125 30.490556716918945312 30.399820327758789062 30.350788116455078125 30.328744888305664062 30.3437347412109375 30.391054153442382812 30.451246261596679688 30.48309326171875 30.349561691284179688 30.389635086059570312 30.431751251220703125 30.399953842163085938 30.394792556762695312 30.410121917724609375 30.4228057861328125 30.471187591552734375 30.530426025390625 30.627489089965820312 30.746747970581054688 30.795787811279296875 30.82570648193359375 30.631753921508789062 30.5117034912109375 30.497528076171875 30.823558807373046875 31.144098281860351562 31.821111679077148438 32.5823211669921875 33.31352996826171875 33.6930694580078125 33.69376373291015625 33.5849151611328125 33.443523406982421875 33.285060882568359375 33.1759490966796875 33.156497955322265625 33.22308349609375 33.2017059326171875 33.280773162841796875 33.469692230224609375 33.9598388671875 35.172344207763671875 36.024127960205078125 35.51058197021484375 34.264904022216796875 33.4261474609375 33.042022705078125 32.883556365966796875 32.92916107177734375 32.980686187744140625 33.013034820556640625 33.03113555908203125 33.027286529541015625 32.829357147216796875 32.286197662353515625 31.827972412109375 31.568386077880859375 31.569017410278320312 31.473688125610351562 31.15587615966796875 30.861047744750976562 30.658176422119140625 30.384508132934570312 30.057092666625976562 29.806795120239257812 29.6226043701171875 29.436735153198242188 29.256031036376953125 29.0792999267578125 28.912683486938476562 28.770275115966796875 28.792913436889648438 28.876117706298828125 28.858491897583007812 28.723041534423828125 28.329687118530273438 27.7236175537109375 27.046703338623046875 26.821516036987304688 26.7576446533203125 26.698970794677734375 26.6383056640625 26.57321929931640625 26.505542755126953125 26.4307098388671875 26.346315383911132812 26.297008514404296875 26.26377105712890625 26.229288101196289062 26.190088272094726562 26.153680801391601562 26.122722625732421875 26.095739364624023438 26.07196807861328125 26.049325942993164062 26.0269317626953125 26.002737045288085938 25.976551055908203125 25.9474639892578125 25.916339874267578125 25.882333755493164062 25.846462249755859375 25.808099746704101562 25.769611358642578125 25.731794357299804688 25.697530746459960938 25.667835235595703125 25.645294189453125 25.631090164184570312 25.626955032348632812 25.634374618530273438 25.654390335083007812 25.689151763916015625 25.737886428833007812 25.800050735473632812 25.870382308959960938 25.947484970092773438 26.025632858276367188 26.104013442993164062 26.17961883544921875 26.256500244140625 26.334680557250976562 26.4188995361328125 26.508790969848632812 26.607286453247070312 26.707000732421875 26.804224014282226562 26.889423370361328125 26.9582061767578125 27.002899169921875 27.023578643798828125 27.023225784301757812 27.006113052368164062 26.977153778076171875 26.939777374267578125 26.898813247680664062 26.855508804321289062 26.813137054443359375 26.772367477416992188 26.736345291137695312 26.70560455322265625 26.681192398071289062 26.66118621826171875 26.644834518432617188 26.63024139404296875 26.616474151611328125 26.601531982421875 26.584058761596679688 26.561525344848632812 26.53270721435546875 26.4947357177734375 26.44753265380859375 26.391046524047851562 26.330434799194335938 26.267629623413085938 26.208272933959960938 26.154134750366210938 26.10852813720703125 26.068576812744140625 26.033115386962890625 25.998514175415039062 25.963411331176757812 25.925045013427734375 25.885713577270507812 25.84734344482421875 25.81441497802734375 25.789279937744140625 25.77579498291015625 25.774463653564453125 25.783281326293945312 25.799398422241210938 25.819337844848632812 25.84059906005859375 25.859783172607421875 25.875478744506835938 25.885721206665039062 25.8894195556640625 25.884996414184570312 25.870985031127929688 25.846622467041015625 25.810516357421875 25.762981414794921875 25.702051162719726562 25.628780364990234375 25.541040420532226562 25.442714691162109375 25.333354949951171875 25.218431472778320312 25.097064971923828125 24.975055694580078125 24.850955963134765625 24.7300262451171875 24.610378265380859375 24.497072219848632812 24.388357162475585938 24.287855148315429688 24.19039154052734375 24.095256805419921875 23.996088027954101562 23.891998291015625 23.777120590209960938 23.654756546020507812 23.525379180908203125 23.396802902221679688 23.269954681396484375 23.15247344970703125 23.041912078857421875 22.934881210327148438 22.818706512451171875 22.686376571655273438 22.524751663208007812 22.32962799072265625 22.098531723022460938 21.84798431396484375 21.58487701416015625 21.328582763671875 21.0849456787109375 20.866641998291015625 20.661909103393554688 20.465503692626953125 20.2614898681640625 20.0438232421875 19.79863739013671875 19.530920028686523438 19.241708755493164062 18.945384979248046875 18.64324951171875 18.35002899169921875 18.064273834228515625 17.793987274169921875 17.532522201538085938 17.285696029663085938 17.047428131103515625 16.823040008544921875 16.60770416259765625 16.407114028930664062 16.217500686645507812 16.044036865234375 15.88350677490234375 15.739871978759765625 15.609204292297363281 15.493661880493164062 15.389684677124023438 15.298787117004394531 15.217740058898925781 15.146436691284179688 15.080773353576660156 15.019574165344238281 14.959054946899414062 14.897943496704101562 14.834339141845703125 14.770608901977539062 14.707571029663085938 14.6482696533203125 14.593506813049316406 14.545642852783203125 14.5031585693359375 14.465250015258789062 14.429438591003417969 14.394562721252441406 14.358491897583007812 14.321261405944824219 14.283373832702636719 14.246703147888183594 14.212069511413574219 14.181365966796875 14.154908180236816406 14.13272857666015625 14.113251686096191406 14.095580101013183594 14.078236579895019531 14.060301780700683594 14.041131019592285156 14.021142005920410156 14.000571250915527344 13.980022430419921875 13.959710121154785156 13.940195083618164062 13.921502113342285156 13.90399932861328125 13.887659072875976562 13.872829437255859375 13.85939788818359375 13.847011566162109375 13.834502220153808594 13.820760726928710938 13.804612159729003906 13.784893035888671875 
30.48370361328125 30.55982208251953125 30.55228424072265625 30.496562957763671875 30.464691162109375 30.442113876342773438 30.44211578369140625 30.450145721435546875 30.465114593505859375 30.4808197021484375 30.500303268432617188 30.50629425048828125 30.486230850219726562 30.451543807983398438 30.494768142700195312 30.455751419067382812 30.3795166015625 30.356128692626953125 30.364053726196289062 30.428680419921875 30.47309112548828125 30.403993606567382812 30.354795455932617188 30.425418853759765625 30.40676116943359375 30.397363662719726562 30.39180755615234375 30.396203994750976562 30.41040802001953125 30.468780517578125 30.52339935302734375 30.603593826293945312 30.757526397705078125 30.96518707275390625 30.833784103393554688 30.54206085205078125 30.479745864868164062 30.594034194946289062 30.974805831909179688 31.338184356689453125 32.116641998291015625 32.876956939697265625 33.469478607177734375 33.6122589111328125 33.56974029541015625 33.4651031494140625 33.355686187744140625 33.2434539794921875 33.17375946044921875 33.15932464599609375 33.2042083740234375 33.233020782470703125 33.350727081298828125 33.594829559326171875 34.143680572509765625 35.356822967529296875 36.21085357666015625 35.6349639892578125 34.27313232421875 33.393825531005859375 32.9796295166015625 32.88561248779296875 32.948413848876953125 32.988109588623046875 33.0148773193359375 33.034442901611328125 33.023937225341796875 32.757537841796875 32.176532745361328125 31.738521575927734375 31.543058395385742188 31.550333023071289062 31.370733261108398438 31.039918899536132812 30.791795730590820312 30.571344375610351562 30.2694549560546875 29.954620361328125 29.73921966552734375 29.56143951416015625 29.381586074829101562 29.205509185791015625 29.032598495483398438 28.86765289306640625 28.754968643188476562 28.831310272216796875 28.886423110961914062 28.812589645385742188 28.549449920654296875 28.064508438110351562 27.448810577392578125 26.8527984619140625 26.714593887329101562 26.68903350830078125 26.654247283935546875 26.611944198608398438 26.562894821166992188 26.510465621948242188 26.455415725708007812 26.4011077880859375 26.347881317138671875 26.297845840454101562 26.250476837158203125 26.207578659057617188 26.16878509521484375 26.135362625122070312 26.105951309204101562 26.080074310302734375 26.055837631225585938 26.03261566162109375 26.00856781005859375 25.98345947265625 25.956098556518554688 25.926893234252929688 25.894639968872070312 25.859922409057617188 25.821870803833007812 25.78301239013671875 25.744525909423828125 25.709728240966796875 25.6800537109375 25.65845489501953125 25.646348953247070312 25.645330429077148438 25.656862258911132812 25.681734085083007812 25.722120285034179688 25.776935577392578125 25.845611572265625 25.92246246337890625 26.00605010986328125 26.090223312377929688 26.174091339111328125 26.25414276123046875 26.334096908569335938 26.413434982299804688 26.496438980102539062 26.582353591918945312 26.6738433837890625 26.764360427856445312 26.850860595703125 26.925104141235351562 26.9833526611328125 27.019100189208984375 27.032541275024414062 27.026752471923828125 27.00565338134765625 26.974065780639648438 26.935144424438476562 26.893545150756835938 26.85024261474609375 26.808248519897460938 26.767978668212890625 26.732301712036132812 26.701534271240234375 26.676685333251953125 26.65593719482421875 26.638698577880859375 26.623189926147460938 26.608644485473632812 26.593105316162109375 26.575201034545898438 26.552305221557617188 26.523118972778320312 26.484676361083984375 26.436853408813476562 26.379583358764648438 26.318117141723632812 26.25443267822265625 26.194280624389648438 26.13947296142578125 26.0933990478515625 26.053186416625976562 26.017679214477539062 25.98325347900390625 25.94854736328125 25.910814285278320312 25.872356414794921875 25.835155487060546875 25.80368804931640625 25.780376434326171875 25.769052505493164062 25.77025604248046875 25.781812667846679688 25.800832748413085938 25.823635101318359375 25.847686767578125 25.869409561157226562 25.887460708618164062 25.899839401245117188 25.905559539794921875 25.903032302856445312 25.890897750854492188 25.868497848510742188 25.834781646728515625 25.790315628051757812 25.733545303344726562 25.66571044921875 25.584901809692382812 25.49419403076171875 25.392353057861328125 25.283588409423828125 25.166179656982421875 25.044878005981445312 24.918149948120117188 24.792062759399414062 24.66559600830078125 24.544963836669921875 24.42917633056640625 24.3226470947265625 24.219655990600585938 24.118837356567382812 24.012805938720703125 23.899990081787109375 23.773595809936523438 23.63732147216796875 23.492292404174804688 23.347894668579101562 23.205804824829101562 23.0752410888671875 22.954236984252929688 22.839967727661132812 22.719465255737304688 22.585824966430664062 22.425746917724609375 22.234899520874023438 22.01035308837890625 21.767637252807617188 21.512887954711914062 21.264345169067382812 21.027164459228515625 20.8133392333984375 20.611572265625 20.417131423950195312 20.214803695678710938 19.999132156372070312 19.756746292114257812 19.49222564697265625 19.205654144287109375 18.910190582275390625 18.606060028076171875 18.306919097900390625 18.011165618896484375 17.728496551513671875 17.454179763793945312 17.196485519409179688 16.95119476318359375 16.725559234619140625 16.514339447021484375 16.321619033813476562 16.141843795776367188 15.978167533874511719 15.825806617736816406 15.687520980834960938 15.559812545776367188 15.445356369018554688 15.341320991516113281 15.249848365783691406 15.168269157409667969 15.096749305725097656 15.031214714050292969 14.970517158508300781 14.910888671875 14.85106658935546875 14.789121627807617188 14.727292060852050781 14.666296005249023438 14.609012603759765625 14.556150436401367188 14.509926795959472656 14.468829154968261719 14.432034492492675781 14.397105216979980469 14.362875938415527344 14.327252388000488281 14.290284156799316406 14.252527236938476562 14.215891838073730469 14.181241989135742188 14.150519371032714844 14.124072074890136719 14.101967811584472656 14.082650184631347656 14.06524658203125 14.04830169677734375 14.030919075012207031 14.012507438659667969 13.993564605712890625 13.974409103393554688 13.955729484558105469 13.937824249267578125 13.921293258666992188 13.906093597412109375 13.892468452453613281 13.880285263061523438 13.869746208190917969 13.86064910888671875 13.852492332458496094 13.844033241271972656 13.834009170532226562 13.82117462158203125 13.804220199584960938 
30.562887191772460938 30.415163040161132812 30.492397308349609375 30.598903656005859375 30.616834640502929688 30.572576522827148438 30.51857757568359375 30.499294281005859375 30.494731903076171875 30.500041961669921875 30.501567840576171875 30.504037857055664062 30.502971649169921875 30.468875885009765625 30.4647674560546875 30.490613937377929688 30.4189453125 30.383512496948242188 30.397825241088867188 30.457372665405273438 30.4697265625 30.37041473388671875 30.435934066772460938 30.42282867431640625 30.399011611938476562 30.412042617797851562 30.416019439697265625 30.40297698974609375 30.414257049560546875 30.455511093139648438 30.502325057983398438 30.5808563232421875 30.779022216796875 31.03174591064453125 30.692918777465820312 30.465410232543945312 30.471548080444335938 30.76415252685546875 31.131280899047851562 31.582859039306640625 32.278980255126953125 32.89437103271484375 33.39936065673828125 33.592586517333984375 33.523983001708984375 33.452869415283203125 33.376461029052734375 33.2520599365234375 33.192539215087890625 33.189746856689453125 33.229656219482421875 33.282989501953125 33.441082000732421875 33.73752593994140625 34.32884979248046875 35.49407196044921875 36.15630340576171875 35.448780059814453125 34.22046661376953125 33.34937286376953125 32.937229156494140625 32.889560699462890625 32.95349884033203125 32.9896697998046875 33.0171661376953125 33.033123016357421875 33.0010223388671875 32.6375732421875 32.0471343994140625 31.651338577270507812 31.521488189697265625 31.496685028076171875 31.246141433715820312 30.936794281005859375 30.729944229125976562 30.472284317016601562 30.154062271118164062 29.857309341430664062 29.669811248779296875 29.500812530517578125 29.327398300170898438 29.157052993774414062 28.989231109619140625 28.830059051513671875 28.78658294677734375 28.878894805908203125 28.8587799072265625 28.726879119873046875 28.369350433349609375 27.875749588012695312 27.318658828735351562 26.831712722778320312 26.724283218383789062 26.701890945434570312 26.66998291015625 26.63006591796875 26.582864761352539062 26.531635284423828125 26.477077484130859375 26.42250823974609375 26.368190765380859375 26.316461563110351562 26.266931533813476562 26.22162628173828125 26.180315017700195312 26.144502639770507812 26.112936019897460938 26.085351943969726562 26.05997467041015625 26.036355972290039062 26.012800216674804688 25.989004135131835938 25.963541030883789062 25.93642425537109375 25.906154632568359375 25.872934341430664062 25.835693359375 25.797040939331054688 25.758447647094726562 25.72353363037109375 25.694044113159179688 25.6732025146484375 25.662611007690429688 25.66381072998046875 25.678295135498046875 25.70671844482421875 25.751321792602539062 25.810840606689453125 25.88477325439453125 25.967197418212890625 26.056749343872070312 26.147020339965820312 26.237157821655273438 26.3230438232421875 26.407808303833007812 26.490007400512695312 26.573163986206054688 26.655780792236328125 26.740076065063476562 26.820501327514648438 26.894962310791015625 26.956853866577148438 27.003377914428710938 27.029500961303710938 27.035604476928710938 27.024753570556640625 27.000383377075195312 26.967069625854492188 26.927576065063476562 26.886241912841796875 26.843736648559570312 26.802743911743164062 26.763395309448242188 26.72823333740234375 26.69733428955078125 26.67168426513671875 26.649621963500976562 26.630807876586914062 26.61362457275390625 26.597558975219726562 26.580743789672851562 26.561853408813476562 26.5381927490234375 26.508447647094726562 26.469594955444335938 26.421482086181640625 26.364007949829101562 26.30240631103515625 26.2386322021484375 26.178419113159179688 26.12355804443359375 26.07745361328125 26.0372772216796875 26.001939773559570312 25.967884063720703125 25.933797836303710938 25.897006988525390625 25.859788894653320312 25.824131011962890625 25.794437408447265625 25.77315521240234375 25.76401519775390625 25.76758575439453125 25.78154754638671875 25.80301666259765625 25.828161239624023438 25.854448318481445312 25.878183364868164062 25.898103713989257812 25.912220001220703125 25.919673919677734375 25.918888092041015625 25.908639907836914062 25.888347625732421875 25.857240676879882812 25.81604766845703125 25.763532638549804688 25.701051712036132812 25.62685394287109375 25.54326629638671875 25.44835662841796875 25.345211029052734375 25.231351852416992188 25.11058807373046875 24.98131561279296875 24.850309371948242188 24.717319488525390625 24.589590072631835938 24.466802597045898438 24.354078292846679688 24.245195388793945312 24.138231277465820312 24.024854660034179688 23.902919769287109375 23.764768600463867188 23.614511489868164062 23.453851699829101562 23.2936553955078125 23.136260986328125 22.992374420166015625 22.860462188720703125 22.73827362060546875 22.612575531005859375 22.47663116455078125 22.316999435424804688 22.129293441772460938 21.9101409912109375 21.674154281616210938 21.426727294921875 21.185047149658203125 20.953592300415039062 20.743761062622070312 20.54477691650390625 20.35253143310546875 20.152612686157226562 19.940248489379882812 19.702646255493164062 19.443897247314453125 19.16303253173828125 18.8717803955078125 18.569208145141601562 18.267667770385742188 17.965330123901367188 17.673349380493164062 17.388841629028320312 17.122318267822265625 16.871328353881835938 16.64490509033203125 16.437524795532226562 16.251861572265625 16.08081817626953125 15.925785064697265625 15.780618667602539062 15.647008895874023438 15.52179718017578125 15.408060073852539062 15.303558349609375 15.210934638977050781 15.12799072265625 15.055180549621582031 14.988549232482910156 14.92710113525390625 14.867160797119140625 14.8076019287109375 14.746497154235839844 14.685959815979003906 14.62654876708984375 14.570959091186523438 14.519759178161621094 14.475004196166992188 14.435156822204589844 14.399365425109863281 14.365221023559570312 14.33154296875 14.296260833740234375 14.259434700012207031 14.221676826477050781 14.184948921203613281 14.150167465209960938 14.119325637817382812 14.092818260192871094 14.070735931396484375 14.051537513732910156 14.03436279296875 14.017767906188964844 14.000878334045410156 13.983147621154785156 13.965154647827148438 13.947305679321289062 13.930382728576660156 13.914763450622558594 13.901091575622558594 13.889254570007324219 13.879361152648925781 13.871165275573730469 13.864714622497558594 13.859710693359375 13.855527877807617188 13.850887298583984375 13.844430923461914062 13.834883689880371094 13.820845603942871094 
31.0722503662109375 30.667881011962890625 30.554315567016601562 30.443357467651367188 30.435533523559570312 30.51668548583984375 30.55709075927734375 30.561304092407226562 30.52835845947265625 30.511005401611328125 30.502155303955078125 30.49407196044921875 30.493495941162109375 30.473943710327148438 30.43933868408203125 30.481180191040039062 30.447357177734375 30.419132232666015625 30.442117691040039062 30.467134475708007812 30.3946075439453125 30.361860275268554688 30.448198318481445312 30.41458892822265625 30.408113479614257812 30.425676345825195312 30.431268692016601562 30.425413131713867188 30.416093826293945312 30.450786590576171875 30.485094070434570312 30.583456039428710938 30.881656646728515625 30.9698944091796875 30.547397613525390625 30.39789581298828125 30.511777877807617188 30.954427719116210938 31.326864242553710938 31.898189544677734375 32.3624114990234375 32.8447265625 33.274044036865234375 33.583515167236328125 33.566829681396484375 33.529727935791015625 33.4966278076171875 33.328411102294921875 33.259159088134765625 33.2645721435546875 33.3115692138671875 33.367336273193359375 33.4996185302734375 33.778850555419921875 34.5041961669921875 35.56433868408203125 35.953960418701171875 35.0989227294921875 33.90908050537109375 33.25514984130859375 32.91173553466796875 32.892059326171875 32.956279754638671875 32.987773895263671875 33.013885498046875 33.02700042724609375 32.951389312744140625 32.481975555419921875 31.918231964111328125 31.560701370239257812 31.488550186157226562 31.4159088134765625 31.117204666137695312 30.852094650268554688 30.642614364624023438 30.362154006958007812 30.03899383544921875 29.77799224853515625 29.608158111572265625 29.444400787353515625 29.277284622192382812 29.113817214965820312 28.954135894775390625 28.809793472290039062 28.837636947631835938 28.893939971923828125 28.8007659912109375 28.583530426025390625 28.194250106811523438 27.739725112915039062 27.240955352783203125 26.820287704467773438 26.729095458984375 26.709489822387695312 26.68044281005859375 26.643213272094726562 26.598356246948242188 26.548847198486328125 26.495172500610351562 26.440441131591796875 26.384853363037109375 26.3310394287109375 26.27887725830078125 26.230783462524414062 26.186794281005859375 26.148748397827148438 26.11548614501953125 26.086816787719726562 26.06098175048828125 26.037567138671875 26.014911651611328125 25.992610931396484375 25.969089508056640625 25.944074630737304688 25.915889739990234375 25.88446044921875 25.848588943481445312 25.810869216918945312 25.772914886474609375 25.738462448120117188 25.709400177001953125 25.689067840576171875 25.67919921875 25.681394577026367188 25.697263717651367188 25.727499008178710938 25.774480819702148438 25.836940765380859375 25.914537429809570312 26.001287460327148438 26.096021652221679688 26.192226409912109375 26.289197921752929688 26.38211822509765625 26.473287582397460938 26.55997467041015625 26.644666671752929688 26.724779129028320312 26.80193328857421875 26.871715545654296875 26.933246612548828125 26.981882095336914062 27.016021728515625 27.032381057739257812 27.031579971313476562 27.016536712646484375 26.990056991577148438 26.956266403198242188 26.91741180419921875 26.877363204956054688 26.83646392822265625 26.797027587890625 26.758913040161132812 26.724313735961914062 26.693056106567382812 26.666156768798828125 26.642156600952148438 26.621053695678710938 26.601446151733398438 26.583164215087890625 26.564474105834960938 26.544145584106445312 26.519433975219726562 26.48905181884765625 26.449937820434570312 26.401929855346679688 26.344861984252929688 26.28385162353515625 26.220767974853515625 26.161214828491210938 26.106906890869140625 26.061201095581054688 26.021366119384765625 25.986421585083007812 25.952947616577148438 25.919733047485351562 25.884222030639648438 25.848638534545898438 25.8149261474609375 25.787328720092773438 25.768255233764648438 25.761280059814453125 25.76696014404296875 25.782888412475585938 25.806219100952148438 25.833047866821289062 25.860874176025390625 25.885957717895507812 25.907135009765625 25.922466278076171875 25.931230545043945312 25.931905746459960938 25.923410415649414062 25.905214309692382812 25.876726150512695312 25.838714599609375 25.790155410766601562 25.732402801513671875 25.663801193237304688 25.586069107055664062 25.49674224853515625 25.398036956787109375 25.286897659301757812 25.166408538818359375 25.034898757934570312 24.89969635009765625 24.761119842529296875 24.627216339111328125 24.498157501220703125 24.379629135131835938 24.264984130859375 24.15187835693359375 24.031206130981445312 23.900403976440429688 23.751094818115234375 23.5877838134765625 23.41262054443359375 23.23773956298828125 23.066003799438476562 22.909395217895507812 22.766693115234375 22.636186599731445312 22.5043792724609375 22.364717483520507812 22.203611373901367188 22.0166778564453125 21.800165176391601562 21.568023681640625 21.325040817260742188 21.087617874145507812 20.859699249267578125 20.652301788330078125 20.455179214477539062 20.264921188354492188 20.067928314208984375 19.860134124755859375 19.629362106323242188 19.379146575927734375 19.107419967651367188 18.824327468872070312 18.527759552001953125 18.22856903076171875 17.924627304077148438 17.628124237060546875 17.337781906127929688 17.065868377685546875 16.81146240234375 16.585023880004882812 16.380922317504882812 16.2008056640625 16.03646087646484375 15.887982368469238281 15.748247146606445312 15.618137359619140625 15.494707107543945312 15.381270408630371094 15.275970458984375 15.181769371032714844 15.09677886962890625 15.021753311157226562 14.952939987182617188 14.889613151550292969 14.828294754028320312 14.768110275268554688 14.707159042358398438 14.647423744201660156 14.5892486572265625 14.535108566284179688 14.485375404357910156 14.441907882690429688 14.403132438659667969 14.368174552917480469 14.334651947021484375 14.301383018493652344 14.266317367553710938 14.229534149169921875 14.191692352294921875 14.154806137084960938 14.119838714599609375 14.088834762573242188 14.062230110168457031 14.0401458740234375 14.021059036254882812 14.004126548767089844 13.987924575805664062 13.971594810485839844 13.9546356201171875 13.937684059143066406 13.921208381652832031 13.906060218811035156 13.892676353454589844 13.881722450256347656 13.873018264770507812 13.866537094116210938 13.861925125122070312 13.859086990356445312 13.857629776000976562 13.856842994689941406 13.855470657348632812 13.852124214172363281 13.845561981201171875 13.834361076354980469 
30.95388031005859375 31.109697341918945312 31.124237060546875 30.774568557739257812 30.56554412841796875 30.392595291137695312 30.3800506591796875 30.475091934204101562 30.570753097534179688 30.56255340576171875 30.527179718017578125 30.501377105712890625 30.490983963012695312 30.468580245971679688 30.448047637939453125 30.46743011474609375 30.453344345092773438 30.4614715576171875 30.485088348388671875 30.451311111450195312 30.346269607543945312 30.409337997436523438 30.432804107666015625 30.4097442626953125 30.407854080200195312 30.430505752563476562 30.446973800659179688 30.459733963012695312 30.4396209716796875 30.4642333984375 30.490644454956054688 30.565950393676757812 30.742763519287109375 30.73265838623046875 30.479457855224609375 30.422887802124023438 30.663982391357421875 31.10262298583984375 31.56339263916015625 32.12375640869140625 32.443065643310546875 32.81557464599609375 33.22267913818359375 33.54648590087890625 33.577510833740234375 33.57187652587890625 33.536518096923828125 33.396251678466796875 33.35767364501953125 33.37261199951171875 33.4079742431640625 33.4610748291015625 33.599460601806640625 33.877651214599609375 34.659061431884765625 35.691051483154296875 35.898456573486328125 35.03415679931640625 33.79766082763671875 33.18273162841796875 32.88906097412109375 32.9012451171875 32.961948394775390625 32.99390411376953125 33.016193389892578125 33.016773223876953125 32.85400390625 32.284221649169921875 31.775899887084960938 31.46204376220703125 31.446004867553710938 31.313199996948242188 31.004184722900390625 30.769985198974609375 30.530469894409179688 30.233469009399414062 29.919385910034179688 29.707036972045898438 29.548868179321289062 29.3902130126953125 29.229473114013671875 29.0735321044921875 28.923603057861328125 28.823579788208007812 28.884080886840820312 28.86997222900390625 28.727069854736328125 28.438215255737304688 28.053094863891601562 27.634397506713867188 27.1836700439453125 26.809530258178710938 26.72934722900390625 26.712139129638671875 26.6859130859375 26.651632308959960938 26.609561920166015625 26.562246322631835938 26.509828567504882812 26.455064773559570312 26.398057937622070312 26.341823577880859375 26.286624908447265625 26.235416412353515625 26.188615798950195312 26.14849853515625 26.113971710205078125 26.0847930908203125 26.059129714965820312 26.036464691162109375 26.015085220336914062 25.99444580078125 25.97290802001953125 25.950021743774414062 25.9240570068359375 25.894756317138671875 25.860872268676757812 25.824884414672851562 25.788404464721679688 25.755096435546875 25.726835250854492188 25.706920623779296875 25.6971588134765625 25.699331283569335938 25.715251922607421875 25.745809555053710938 25.793605804443359375 25.857538223266601562 25.937488555908203125 26.027555465698242188 26.126840591430664062 26.228841781616210938 26.33309173583984375 26.433977127075195312 26.532772064208984375 26.625165939331054688 26.712375640869140625 26.790447235107421875 26.8602752685546875 26.91872406005859375 26.966363906860351562 27.00080108642578125 27.021884918212890625 27.028324127197265625 27.021020889282226562 27.002592086791992188 26.975076675415039062 26.941957473754882812 26.904827117919921875 26.866926193237304688 26.828266143798828125 26.790775299072265625 26.754053115844726562 26.719938278198242188 26.688018798828125 26.659379959106445312 26.6328125 26.608737945556640625 26.586009979248046875 26.56488800048828125 26.543796539306640625 26.521656036376953125 26.495676040649414062 26.4646148681640625 26.425403594970703125 26.37786865234375 26.32175445556640625 26.261983871459960938 26.200283050537109375 26.14203643798828125 26.088830947875976562 26.043928146362304688 26.004747390747070312 25.970449447631835938 25.937814712524414062 25.905780792236328125 25.871952056884765625 25.8384552001953125 25.807140350341796875 25.78200531005859375 25.765352249145507812 25.760522842407226562 25.768045425415039062 25.78546905517578125 25.810039520263671875 25.837860107421875 25.866506576538085938 25.892269134521484375 25.914104461669921875 25.930166244506835938 25.939874649047851562 25.941802978515625 25.935018539428710938 25.91901397705078125 25.89327239990234375 25.85848236083984375 25.813718795776367188 25.760219573974609375 25.696353912353515625 25.623353958129882812 25.538396835327148438 25.44305419921875 25.333864212036132812 25.213390350341796875 25.079906463623046875 24.941144943237304688 24.797815322875976562 24.65856170654296875 24.523874282836914062 24.399866104125976562 24.279529571533203125 24.160243988037109375 24.032268524169921875 23.892774581909179688 23.732782363891601562 23.557180404663085938 23.368429183959960938 23.179744720458984375 22.99434661865234375 22.82530975341796875 22.671617507934570312 22.532052993774414062 22.392862319946289062 22.2477264404296875 22.082874298095703125 21.894021987915039062 21.677080154418945312 21.445604324340820312 21.203905105590820312 20.967891693115234375 20.741086959838867188 20.534351348876953125 20.337985992431640625 20.149335861206054688 19.955610275268554688 19.753482818603515625 19.531406402587890625 19.292295455932617188 19.032957077026367188 18.7617950439453125 18.475519180297851562 18.183298110961914062 17.882635116577148438 17.586351394653320312 17.294534683227539062 17.020757675170898438 16.765380859375 16.539960861206054688 16.338909149169921875 16.163198471069335938 16.003892898559570312 15.860234260559082031 15.724457740783691406 15.596893310546875 15.474698066711425781 15.361286163330078125 15.2550048828125 15.158979415893554688 15.071500778198242188 14.993618965148925781 14.92185211181640625 14.855853080749511719 14.792401313781738281 14.730976104736328125 14.66973114013671875 14.610500335693359375 14.553360939025878906 14.500529289245605469 14.452136993408203125 14.409811019897460938 14.371936798095703125 14.337633132934570312 14.3045654296875 14.271554946899414062 14.236598014831542969 14.199793815612792969 14.161839485168457031 14.12477874755859375 14.089612960815429688 14.0584259033203125 14.031686782836914062 14.009552955627441406 13.99053955078125 13.973845481872558594 13.958079338073730469 13.942425727844238281 13.926408767700195312 13.910703659057617188 13.895801544189453125 13.882586479187011719 13.871523857116699219 13.863268852233886719 13.857573509216308594 13.854279518127441406 13.852935791015625 13.853302955627441406 13.854916572570800781 13.857007026672363281 13.8583984375 13.857751846313476562 13.853908538818359375 13.845496177673339844 
30.39501953125 30.638980865478515625 30.911291122436523438 30.874631881713867188 30.879777908325195312 30.837354660034179688 30.646703720092773438 30.44431304931640625 30.392742156982421875 30.5181427001953125 30.59336090087890625 30.576847076416015625 30.530330657958984375 30.473489761352539062 30.473695755004882812 30.464359283447265625 30.455553054809570312 30.482696533203125 30.498205184936523438 30.402774810791015625 30.376621246337890625 30.407365798950195312 30.40419769287109375 30.400463104248046875 30.390155792236328125 30.4239654541015625 30.461910247802734375 30.47660064697265625 30.47016143798828125 30.48847198486328125 30.493045806884765625 30.45267486572265625 30.52141571044921875 30.631885528564453125 30.482028961181640625 30.493848800659179688 30.84946441650390625 31.201572418212890625 31.673763275146484375 32.169536590576171875 32.541248321533203125 32.86907196044921875 33.20827484130859375 33.456851959228515625 33.52789306640625 33.555591583251953125 33.500091552734375 33.450656890869140625 33.442264556884765625 33.477497100830078125 33.51338958740234375 33.55035400390625 33.686077117919921875 34.02579498291015625 34.8647003173828125 35.82173919677734375 35.70893096923828125 34.6537933349609375 33.566295623779296875 33.075061798095703125 32.878917694091796875 32.9072113037109375 32.961536407470703125 32.99085235595703125 33.007831573486328125 32.989959716796875 32.691867828369140625 32.0760040283203125 31.647680282592773438 31.432703018188476562 31.41417694091796875 31.200191497802734375 30.903881072998046875 30.681415557861328125 30.4091796875 30.104051589965820312 29.82354736328125 29.647592544555664062 29.493291854858398438 29.339153289794921875 29.18462371826171875 29.035701751708984375 28.891504287719726562 28.832353591918945312 28.8930511474609375 28.840677261352539062 28.657941818237304688 28.326528549194335938 27.949907302856445312 27.555253982543945312 27.13958740234375 26.798276901245117188 26.725683212280273438 26.710323333740234375 26.68657684326171875 26.655118942260742188 26.615869522094726562 26.570880889892578125 26.519903182983398438 26.4652862548828125 26.40700531005859375 26.348484039306640625 26.29039764404296875 26.236265182495117188 26.18692779541015625 26.145097732543945312 26.109737396240234375 26.080495834350585938 26.0554046630859375 26.033786773681640625 26.013824462890625 25.994838714599609375 25.975198745727539062 25.954374313354492188 25.930665969848632812 25.903728485107421875 25.872327804565429688 25.838747024536132812 25.804494857788085938 25.773008346557617188 25.746026992797851562 25.726682662963867188 25.716814041137695312 25.718442916870117188 25.73365020751953125 25.763622283935546875 25.8112335205078125 25.875640869140625 25.956975936889648438 26.049482345581054688 26.152547836303710938 26.259737014770507812 26.370838165283203125 26.479457855224609375 26.585798263549804688 26.683919906616210938 26.773723602294921875 26.84984588623046875 26.912420272827148438 26.959615707397460938 26.993497848510742188 27.01396942138671875 27.022380828857421875 27.019453048706054688 27.006378173828125 26.98537445068359375 26.95764923095703125 26.92592620849609375 26.891084671020507812 26.855672836303710938 26.819385528564453125 26.783803939819335938 26.748302459716796875 26.714418411254882812 26.681524276733398438 26.650814056396484375 26.621335983276367188 26.593957901000976562 26.567796707153320312 26.5435638427734375 26.5198516845703125 26.495746612548828125 26.4684295654296875 26.436717987060546875 26.397550582885742188 26.350742340087890625 26.295942306518554688 26.237833023071289062 26.177968978881835938 26.121463775634765625 26.069753646850585938 26.025976181030273438 25.987718582153320312 25.954315185546875 25.922771453857421875 25.892190933227539062 25.860364913940429688 25.829290390014648438 25.800661087036132812 25.778162002563476562 25.763935089111328125 25.761020660400390625 25.76990509033203125 25.788158416748046875 25.813173294067382812 25.841154098510742188 25.869802474975585938 25.895526885986328125 25.91741180419921875 25.933742523193359375 25.9440765380859375 25.94710540771484375 25.942045211791992188 25.928375244140625 25.9055633544921875 25.874109268188476562 25.833070755004882812 25.78347015380859375 25.723636627197265625 25.65442657470703125 25.572803497314453125 25.479902267456054688 25.372014999389648438 25.2513580322265625 25.116174697875976562 24.974466323852539062 24.827192306518554688 24.683408737182617188 24.543788909912109375 24.414764404296875 24.289033889770507812 24.163814544677734375 24.0288848876953125 23.8812713623046875 23.711528778076171875 23.524875640869140625 23.323945999145507812 23.122791290283203125 22.924833297729492188 22.744007110595703125 22.579376220703125 22.430215835571289062 22.282558441162109375 22.130388259887695312 21.959791183471679688 21.7666778564453125 21.546693801879882812 21.313207626342773438 21.0701446533203125 20.833147048950195312 20.605419158935546875 20.397825241088867188 20.201175689697265625 20.01357269287109375 19.822984695434570312 19.626800537109375 19.414083480834960938 19.1871337890625 18.941682815551757812 18.684423446655273438 18.410961151123046875 18.12877655029296875 17.834980010986328125 17.542676925659179688 17.253053665161132812 16.980556488037109375 16.7265472412109375 16.503345489501953125 16.30551910400390625 16.133607864379882812 15.978302001953125 15.838308334350585938 15.705519676208496094 15.579912185668945312 15.458691596984863281 15.345288276672363281 15.238140106201171875 15.140432357788085938 15.050555229187011719 14.969821929931640625 14.895040512084960938 14.826254844665527344 14.760524749755859375 14.697705268859863281 14.636005401611328125 14.577117919921875 14.520842552185058594 14.469129562377929688 14.421863555908203125 14.38043975830078125 14.343211174011230469 14.309317588806152344 14.276486396789550781 14.243577957153320312 14.208636283874511719 14.171792030334472656 14.13375091552734375 14.096564292907714844 14.061237335205078125 14.0298614501953125 14.002921104431152344 13.980631828308105469 13.961565971374511719 13.945002555847167969 13.929609298706054688 13.914645195007324219 13.899660110473632812 13.885324478149414062 13.872120857238769531 13.860915184020996094 13.852167129516601562 13.846487998962402344 13.843565940856933594 13.843126296997070312 13.844631195068359375 13.84771728515625 13.851859092712402344 13.856268882751464844 13.859889030456542969 13.861481666564941406 13.860016822814941406 13.854228973388671875 
30.291423797607421875 30.308008193969726562 30.380857467651367188 30.473085403442382812 30.648843765258789062 30.836025238037109375 31.000873565673828125 30.90261077880859375 30.567140579223632812 30.504913330078125 30.403177261352539062 30.451412200927734375 30.571660995483398438 30.565250396728515625 30.547075271606445312 30.505651473999023438 30.475481033325195312 30.494916915893554688 30.476665496826171875 30.338788986206054688 30.388418197631835938 30.377832412719726562 30.389232635498046875 30.40755462646484375 30.393779754638671875 30.430696487426757812 30.471784591674804688 30.488656997680664062 30.510616302490234375 30.515321731567382812 30.479661941528320312 30.33289337158203125 30.780706405639648438 31.117481231689453125 30.94651031494140625 30.807699203491210938 31.031919479370117188 31.322355270385742188 31.771373748779296875 32.25496673583984375 32.693447113037109375 33.014556884765625 33.254207611083984375 33.39752197265625 33.50380706787109375 33.570590972900390625 33.50023651123046875 33.471111297607421875 33.48563385009765625 33.625759124755859375 33.6551055908203125 33.64775848388671875 33.834804534912109375 34.266109466552734375 35.2167205810546875 36.065704345703125 35.6867828369140625 34.3180694580078125 33.390781402587890625 33.0360565185546875 32.870288848876953125 32.910839080810546875 32.9609527587890625 32.984706878662109375 32.99547576904296875 32.934963226318359375 32.4739532470703125 31.893016815185546875 31.581274032592773438 31.50609588623046875 31.388460159301757812 31.085308074951171875 30.800710678100585938 30.571336746215820312 30.278398513793945312 29.978967666625976562 29.751604080200195312 29.592447280883789062 29.438306808471679688 29.288187026977539062 29.139923095703125 28.999155044555664062 28.868976593017578125 28.846317291259765625 28.873378753662109375 28.802692413330078125 28.579486846923828125 28.237268447875976562 27.868167877197265625 27.491481781005859375 27.102434158325195312 26.78583526611328125 26.718700408935546875 26.704618453979492188 26.682872772216796875 26.65387725830078125 26.617219924926757812 26.5744781494140625 26.525012969970703125 26.470775604248046875 26.41161346435546875 26.35129547119140625 26.290880203247070312 26.2343902587890625 26.183046340942382812 26.13995361328125 26.10411834716796875 26.075071334838867188 26.050724029541015625 26.0302276611328125 26.011669158935546875 25.994258880615234375 25.976428985595703125 25.957637786865234375 25.93628692626953125 25.91199493408203125 25.883592605590820312 25.853105545043945312 25.821865081787109375 25.792959213256835938 25.767925262451171875 25.749614715576171875 25.739873886108398438 25.740987777709960938 25.755340576171875 25.784465789794921875 25.831546783447265625 25.896032333374023438 25.97829437255859375 26.07271575927734375 26.178930282592773438 26.290575027465820312 26.40765380859375 26.5230560302734375 26.635961532592773438 26.738920211791992188 26.830585479736328125 26.904291152954101562 26.959455490112304688 26.99552154541015625 27.01599884033203125 27.023012161254882812 27.019365310668945312 27.007719039916992188 26.9895172119140625 26.96651458740234375 26.939060211181640625 26.9090576171875 26.876638412475585938 26.843631744384765625 26.809459686279296875 26.775417327880859375 26.740705490112304688 26.706628799438476562 26.672391891479492188 26.639324188232421875 26.606716156005859375 26.575870513916015625 26.546148300170898438 26.518712997436523438 26.4923095703125 26.4662017822265625 26.437543869018554688 26.405229568481445312 26.366212844848632812 26.32030487060546875 26.267057418823242188 26.21088409423828125 26.153165817260742188 26.098718643188476562 26.048814773559570312 26.006456375122070312 25.96941375732421875 25.937191009521484375 25.907047271728515625 25.878255844116210938 25.848798751831054688 25.82049560546875 25.794839859008789062 25.775121688842773438 25.763261795043945312 25.761941909790039062 25.771589279174804688 25.789876937866210938 25.814411163330078125 25.841609954833984375 25.86936187744140625 25.894298553466796875 25.915645599365234375 25.931844711303710938 25.942594528198242188 25.946718215942382812 25.943582534790039062 25.9326171875 25.913190841674804688 25.885503768920898438 25.848506927490234375 25.802896499633789062 25.746906280517578125 25.681074142456054688 25.602252960205078125 25.511287689208984375 25.404321670532226562 25.283351898193359375 25.1466064453125 25.002288818359375 24.851514816284179688 24.703643798828125 24.559457778930664062 24.425628662109375 24.29462432861328125 24.163587570190429688 24.021915435791015625 23.866586685180664062 23.687774658203125 23.490976333618164062 23.278856277465820312 23.06610870361328125 22.856187820434570312 22.663692474365234375 22.487672805786132812 22.3279266357421875 22.170360565185546875 22.009405136108398438 21.831058502197265625 21.631591796875 21.406404495239257812 21.1688232421875 20.92240142822265625 20.682645797729492188 20.45246124267578125 20.242809295654296875 20.044954299926757812 19.857761383056640625 19.669893264770507812 19.479448318481445312 19.27606201171875 19.061456680297851562 18.83038330078125 18.587896347045898438 18.328603744506835938 18.058353424072265625 17.77387237548828125 17.488311767578125 17.203741073608398438 16.935152053833007812 16.684705734252929688 16.46521759033203125 16.271451950073242188 16.103654861450195312 15.952336311340332031 15.815845489501953125 15.68590545654296875 15.562252044677734375 15.442151069641113281 15.329021453857421875 15.221377372741699219 15.122427940368652344 15.030642509460449219 14.947564125061035156 14.870261192321777344 14.799128532409667969 14.731485366821289062 14.667517662048339844 14.605488777160644531 14.5469512939453125 14.491448402404785156 14.440684318542480469 14.394312858581542969 14.353518486022949219 14.316645622253417969 14.282884597778320312 14.250051498413085938 14.217080116271972656 14.182085037231445312 14.145228385925292969 14.107188224792480469 14.069974899291992188 14.034557342529296875 14.002986907958984375 13.975740432739257812 13.953106880187988281 13.933764457702636719 13.917119979858398438 13.901947021484375 13.887618064880371094 13.873709678649902344 13.860857009887695312 13.849491119384765625 13.8404083251953125 13.834021568298339844 13.830867767333984375 13.830568313598632812 13.832743644714355469 13.836792945861816406 13.842236518859863281 13.848505973815917969 13.854821205139160156 13.86028289794921875 13.86379241943359375 13.86447906494140625 13.861227989196777344 
30.428483963012695312 30.361537933349609375 30.296377182006835938 30.256525039672851562 30.256891250610351562 30.34418487548828125 30.61133575439453125 30.812870025634765625 30.892625808715820312 30.819814682006835938 30.355909347534179688 30.173330307006835938 30.25493621826171875 30.410203933715820312 30.521013259887695312 30.575847625732421875 30.544956207275390625 30.518167495727539062 30.428119659423828125 30.39774322509765625 30.476690292358398438 30.39365386962890625 30.383264541625976562 30.401163101196289062 30.408346176147460938 30.444616317749023438 30.484216690063476562 30.505842208862304688 30.517221450805664062 30.507261276245117188 30.451419830322265625 30.365777969360351562 31.057180404663085938 31.428426742553710938 31.429559707641601562 31.2982940673828125 31.20391082763671875 31.525278091430664062 31.992658615112304688 32.4662933349609375 32.87564849853515625 33.19408416748046875 33.346721649169921875 33.461212158203125 33.567279815673828125 33.599254608154296875 33.514308929443359375 33.42098236083984375 33.409893035888671875 33.674041748046875 33.760593414306640625 33.740657806396484375 33.979610443115234375 34.582698822021484375 35.5422210693359375 36.20819854736328125 35.5838470458984375 34.183917999267578125 33.38707733154296875 33.005321502685546875 32.86493682861328125 32.913482666015625 32.95792388916015625 32.981884002685546875 32.985431671142578125 32.82979583740234375 32.236476898193359375 31.74683380126953125 31.560400009155273438 31.531581878662109375 31.304691314697265625 30.966745376586914062 30.70442962646484375 30.448545455932617188 30.148097991943359375 29.870296478271484375 29.683397293090820312 29.532726287841796875 29.3830413818359375 29.237545013427734375 29.094976425170898438 28.961215972900390625 28.853494644165039062 28.857570648193359375 28.84052276611328125 28.756692886352539062 28.516706466674804688 28.16576385498046875 27.801309585571289062 27.438442230224609375 27.070140838623046875 26.77265167236328125 26.709354400634765625 26.695863723754882812 26.675352096557617188 26.648067474365234375 26.613344192504882812 26.5724029541015625 26.524316787719726562 26.47072601318359375 26.411373138427734375 26.3502349853515625 26.2886199951171875 26.230867385864257812 26.1784515380859375 26.134725570678710938 26.098743438720703125 26.069972991943359375 26.046262741088867188 26.026674270629882812 26.009252548217773438 25.993165969848632812 25.976940155029296875 25.960062026977539062 25.941070556640625 25.919586181640625 25.89453125 25.867643356323242188 25.840047836303710938 25.814422607421875 25.792070388793945312 25.775499343872070312 25.766551971435546875 25.767736434936523438 25.781749725341796875 25.810443878173828125 25.857301712036132812 25.922040939331054688 26.005193710327148438 26.10120391845703125 26.2098541259765625 26.3247833251953125 26.44611358642578125 26.566167831420898438 26.683328628540039062 26.789011001586914062 26.880884170532226562 26.95131683349609375 26.999170303344726562 27.025012969970703125 27.033548355102539062 27.02878570556640625 27.014741897583007812 26.995708465576171875 26.973299026489257812 26.94879913330078125 26.921756744384765625 26.893304824829101562 26.86286163330078125 26.831613540649414062 26.798770904541015625 26.76546478271484375 26.730792999267578125 26.69594573974609375 26.660022735595703125 26.624502182006835938 26.58885955810546875 26.554769515991210938 26.521783828735351562 26.491434097290039062 26.462589263916015625 26.434673309326171875 26.404827117919921875 26.372018814086914062 26.333223342895507812 26.288251876831054688 26.236576080322265625 26.182359695434570312 26.126821517944335938 26.074499130249023438 26.026525497436523438 25.985769271850585938 25.95017242431640625 25.919391632080078125 25.890932083129882812 25.864206314086914062 25.837377548217773438 25.812046051025390625 25.789455413818359375 25.772451400756835938 25.762681961059570312 25.762437820434570312 25.772066116333007812 25.7894439697265625 25.812448501586914062 25.837842941284179688 25.86376190185546875 25.8871612548828125 25.907415390014648438 25.923147201538085938 25.934175491333007812 25.939456939697265625 25.938508987426757812 25.9306640625 25.915130615234375 25.891714096069335938 25.859186172485351562 25.8178253173828125 25.765727996826171875 25.703136444091796875 25.626878738403320312 25.537591934204101562 25.431354522705078125 25.310024261474609375 25.17183685302734375 25.025159835815429688 24.871219635009765625 24.719625473022460938 24.57122039794921875 24.432891845703125 24.296918869018554688 24.160442352294921875 24.01256561279296875 23.850282669067382812 23.663455963134765625 23.457790374755859375 23.235845565795898438 23.012722015380859375 22.791759490966796875 22.587999343872070312 22.400388717651367188 22.22930908203125 22.06067657470703125 21.889530181884765625 21.701898574829101562 21.494577407836914062 21.262765884399414062 21.019792556762695312 20.76882171630859375 20.525266647338867188 20.2917022705078125 20.079202651977539062 19.87940216064453125 19.691858291625976562 19.505834579467773438 19.320062637329101562 19.124683380126953125 18.920961380004882812 18.70282745361328125 18.47396087646484375 18.228158950805664062 17.969867706298828125 17.695501327514648438 17.4180908203125 17.140386581420898438 16.87764739990234375 16.632642745971679688 16.418436050415039062 16.22997283935546875 16.06722259521484375 15.9206085205078125 15.788171768188476562 15.661547660827636719 15.54029083251953125 15.421772956848144531 15.309452056884765625 15.201971054077148438 15.102602958679199219 15.009932518005371094 14.925665855407714844 14.847054481506347656 14.774718284606933594 14.706149101257324219 14.641750335693359375 14.579812049865722656 14.521771430969238281 14.46697998046875 14.416949272155761719 14.371157646179199219 14.330638885498046875 14.29376220703125 14.259810447692871094 14.226708412170410156 14.193508148193359375 14.158415794372558594 14.121619224548339844 14.083721160888671875 14.046637535095214844 14.011239051818847656 13.979481697082519531 13.951802253723144531 13.928578376770019531 13.908654212951660156 13.891615867614746094 13.876394271850585938 13.862535476684570312 13.849642753601074219 13.838286399841308594 13.828791618347167969 13.821845054626464844 13.817766189575195312 13.816982269287109375 13.819057464599609375 13.823523521423339844 13.829740524291992188 13.837133407592773438 13.845114707946777344 13.852931976318359375 13.859854698181152344 13.864953041076660156 13.867522239685058594 13.866623878479003906 
30.49214935302734375 30.486352920532226562 30.41777801513671875 30.35805511474609375 30.254537582397460938 30.205152511596679688 30.3115997314453125 30.278507232666015625 30.479726791381835938 30.574329376220703125 30.298799514770507812 30.158632278442382812 30.167104721069335938 30.33364105224609375 30.343921661376953125 30.37115478515625 30.459161758422851562 30.508035659790039062 30.4767913818359375 30.544010162353515625 30.51641845703125 30.423854827880859375 30.406436920166015625 30.421840667724609375 30.432003021240234375 30.453334808349609375 30.49819183349609375 30.509960174560546875 30.516012191772460938 30.5013885498046875 30.363664627075195312 30.547550201416015625 31.219608306884765625 31.327762603759765625 31.411041259765625 31.321847915649414062 31.277097702026367188 31.663818359375 32.122180938720703125 32.5907440185546875 32.964534759521484375 33.267826080322265625 33.420749664306640625 33.531642913818359375 33.5979156494140625 33.57196044921875 33.468921661376953125 33.373218536376953125 33.410247802734375 33.758892059326171875 33.876087188720703125 33.89833831787109375 34.20729827880859375 34.944522857666015625 35.769001007080078125 36.07714080810546875 35.3027496337890625 34.12567901611328125 33.37329864501953125 32.960071563720703125 32.863842010498046875 32.915599822998046875 32.961376190185546875 32.984523773193359375 32.961284637451171875 32.64568328857421875 32.016063690185546875 31.639575958251953125 31.55330657958984375 31.480428695678710938 31.177785873413085938 30.840906143188476562 30.590785980224609375 30.323282241821289062 30.02082061767578125 29.77042388916015625 29.612895965576171875 29.469186782836914062 29.325122833251953125 29.184747695922851562 29.046892166137695312 28.91600799560546875 28.82657623291015625 28.841278076171875 28.804609298706054688 28.727991104125976562 28.468252182006835938 28.098943710327148438 27.737699508666992188 27.388067245483398438 27.03876495361328125 26.758356094360351562 26.698009490966796875 26.684366226196289062 26.664155960083007812 26.637582778930664062 26.603872299194335938 26.564065933227539062 26.517124176025390625 26.464517593383789062 26.405923843383789062 26.345327377319335938 26.284082412719726562 26.226566314697265625 26.174304962158203125 26.130693435668945312 26.09484100341796875 26.066263198852539062 26.042871475219726562 26.023761749267578125 26.007059097290039062 25.991964340209960938 25.977128982543945312 25.962085723876953125 25.945520401000976562 25.927068710327148438 25.905759811401367188 25.883028030395507812 25.859788894653320312 25.838275909423828125 25.819562911987304688 25.805776596069335938 25.798746109008789062 25.801137924194335938 25.815937042236328125 25.845241546630859375 25.892816543579101562 25.958547592163085938 26.043033599853515625 26.140625 26.251087188720703125 26.367948532104492188 26.491289138793945312 26.6130828857421875 26.731225967407226562 26.836551666259765625 26.926118850708007812 26.99184417724609375 27.032247543334960938 27.048833847045898438 27.047138214111328125 27.03260040283203125 27.010103225708007812 26.985147476196289062 26.959405899047851562 26.933717727661132812 26.906923294067382812 26.879468917846679688 26.85013580322265625 26.81958770751953125 26.786895751953125 26.753179550170898438 26.717523574829101562 26.681146621704101562 26.643117904663085938 26.605083465576171875 26.566616058349609375 26.52967071533203125 26.493894577026367188 26.461091995239257812 26.430206298828125 26.400787353515625 26.369974136352539062 26.336795806884765625 26.298261642456054688 26.25418853759765625 26.203983306884765625 26.151605606079101562 26.098148345947265625 26.047914505004882812 26.001928329467773438 25.962940216064453125 25.92905426025390625 25.900037765502929688 25.873615264892578125 25.849302291870117188 25.8254241943359375 25.803297042846679688 25.783870697021484375 25.769489288330078125 25.761468887329101562 25.76166534423828125 25.770343780517578125 25.7856903076171875 25.805942535400390625 25.828348159790039062 25.851369857788085938 25.87241363525390625 25.891008377075195312 25.905975341796875 25.917236328125 25.923883438110351562 25.92557525634765625 25.921499252319335938 25.910654067993164062 25.892339706420898438 25.8650970458984375 25.82868194580078125 25.781011581420898438 25.722021102905273438 25.648550033569335938 25.561063766479492188 25.45560455322265625 25.33393096923828125 25.194307327270507812 25.045276641845703125 24.88818359375 24.73288726806640625 24.580310821533203125 24.43756103515625 24.29677581787109375 24.155124664306640625 24.001468658447265625 23.832851409912109375 23.638868331909179688 23.425340652465820312 23.194593429565429688 22.961917877197265625 22.730381011962890625 22.515275955200195312 22.315364837646484375 22.131723403930664062 21.950450897216796875 21.767429351806640625 21.568878173828125 21.35233306884765625 21.112812042236328125 20.863630294799804688 20.607456207275390625 20.359556198120117188 20.122095108032226562 19.906187057495117188 19.703741073608398438 19.51494598388671875 19.32955169677734375 19.14687347412109375 18.957471847534179688 18.762304306030273438 18.554681777954101562 18.337240219116210938 18.103168487548828125 17.85582733154296875 17.591400146484375 17.322740554809570312 17.053094863891601562 16.797807693481445312 16.560115814208984375 16.353128433227539062 16.171916961669921875 16.016057968139648438 15.875871658325195312 15.748996734619140625 15.626965522766113281 15.509111404418945312 15.3930511474609375 15.282373428344726562 15.17598724365234375 15.077345848083496094 14.985243797302246094 14.901471138000488281 14.823342323303222656 14.751514434814453125 14.683531761169433594 14.619826316833496094 14.558686256408691406 14.501455307006835938 14.447392463684082031 14.397890090942382812 14.352335929870605469 14.311694145202636719 14.274402618408203125 14.239888191223144531 14.206223487854003906 14.172618865966796875 14.137401580810546875 14.100788116455078125 14.063238143920898438 14.026494979858398438 13.991271018981933594 13.959331512451171875 13.931043624877929688 13.906900405883789062 13.885976791381835938 13.868119239807128906 13.852480888366699219 13.838852882385253906 13.826878547668457031 13.817025184631347656 13.809453010559082031 13.804693222045898438 13.802920341491699219 13.804411888122558594 13.808684349060058594 13.815197944641113281 13.823290824890136719 13.832327842712402344 13.841714859008789062 13.850750923156738281 13.858876228332519531 13.865342140197753906 13.869619369506835938 13.8709564208984375 
30.459781646728515625 30.481138229370117188 30.501682281494140625 30.5025177001953125 30.437990188598632812 30.365749359130859375 30.425592422485351562 30.302709579467773438 30.18225860595703125 30.2201995849609375 30.242158889770507812 30.197694778442382812 30.313577651977539062 30.660314559936523438 30.617868423461914062 30.37667083740234375 30.285161972045898438 30.304845809936523438 30.386932373046875 30.580715179443359375 30.616558074951171875 30.554676055908203125 30.489971160888671875 30.470355987548828125 30.470455169677734375 30.472246170043945312 30.501455307006835938 30.512729644775390625 30.533191680908203125 30.5443572998046875 30.404573440551757812 30.821725845336914062 31.267322540283203125 31.29595184326171875 31.404384613037109375 31.2903594970703125 31.37409210205078125 31.77904510498046875 32.239044189453125 32.722320556640625 33.097034454345703125 33.3438568115234375 33.487751007080078125 33.567974090576171875 33.599376678466796875 33.546051025390625 33.43841552734375 33.369873046875 33.476776123046875 33.76013946533203125 33.918033599853515625 34.057720184326171875 34.382904052734375 35.247943878173828125 35.90338897705078125 35.713893890380859375 34.85326385498046875 33.9473114013671875 33.277446746826171875 32.917133331298828125 32.861785888671875 32.91678619384765625 32.960094451904296875 32.97548675537109375 32.89568328857421875 32.407100677490234375 31.839321136474609375 31.5813140869140625 31.536928176879882812 31.3751373291015625 31.036865234375 30.714860916137695312 30.481380462646484375 30.196981430053710938 29.895536422729492188 29.6795654296875 29.541759490966796875 29.405483245849609375 29.267011642456054688 29.131959915161132812 28.999074935913085938 28.868373870849609375 28.798780441284179688 28.821596145629882812 28.783483505249023438 28.691492080688476562 28.388881683349609375 28.019159317016601562 27.669698715209960938 27.336534500122070312 27.006925582885742188 26.743333816528320312 26.685392379760742188 26.670848846435546875 26.649951934814453125 26.622989654541015625 26.589242935180664062 26.54979705810546875 26.503686904907226562 26.452392578125 26.395586013793945312 26.337011337280273438 26.277851104736328125 26.222208023071289062 26.171417236328125 26.128692626953125 26.093206405639648438 26.064657211303710938 26.0411529541015625 26.021991729736328125 26.005491256713867188 25.990997314453125 25.97728729248046875 25.963937759399414062 25.9497833251953125 25.934461593627929688 25.917116165161132812 25.898878097534179688 25.880496978759765625 25.86376190185546875 25.849565505981445312 25.83963775634765625 25.835813522338867188 25.840791702270507812 25.857816696166992188 25.88909912109375 25.938638687133789062 26.006357192993164062 26.092794418334960938 26.192022323608398438 26.303617477416992188 26.420848846435546875 26.543582916259765625 26.663698196411132812 26.778995513916015625 26.880392074584960938 26.964801788330078125 27.024301528930664062 27.057352066040039062 27.06612396240234375 27.05652618408203125 27.034839630126953125 27.006364822387695312 26.977281570434570312 26.949182510375976562 26.922536849975585938 26.8956298828125 26.868383407592773438 26.839059829711914062 26.807973861694335938 26.77414703369140625 26.7388458251953125 26.701211929321289062 26.662645339965820312 26.62225341796875 26.581851959228515625 26.541015625 26.501848220825195312 26.464010238647460938 26.429439544677734375 26.397090911865234375 26.366601943969726562 26.335107803344726562 26.30169677734375 26.263397216796875 26.220035552978515625 26.170988082885742188 26.120080947875976562 26.068342208862304688 26.019910812377929688 25.975767135620117188 25.938562393188476562 25.9065399169921875 25.879510879516601562 25.855382919311523438 25.833705902099609375 25.81291961669921875 25.7940216064453125 25.777643203735351562 25.765604019165039062 25.75885009765625 25.758800506591796875 25.765634536743164062 25.77794647216796875 25.794389724731445312 25.812814712524414062 25.8320770263671875 25.850124359130859375 25.866643905639648438 25.880647659301757812 25.892145156860351562 25.90033721923828125 25.9050140380859375 25.905181884765625 25.89959716796875 25.887002944946289062 25.865682601928710938 25.834798812866210938 25.792083740234375 25.73712921142578125 25.66680908203125 25.581394195556640625 25.476917266845703125 25.35501861572265625 25.214019775390625 25.062664031982421875 24.902448654174804688 24.74352264404296875 24.586912155151367188 24.439981460571289062 24.29474639892578125 24.148424148559570312 23.989665985107421875 23.815572738647460938 23.615499496459960938 23.395298004150390625 23.156946182250976562 22.915750503540039062 22.674373626708984375 22.448194503784179688 22.235736846923828125 22.038869857788085938 21.844036102294921875 21.648174285888671875 21.437852859497070312 21.2115325927734375 20.964048385620117188 20.7086181640625 20.447299957275390625 20.195087432861328125 19.953617095947265625 19.73394012451171875 19.528150558471679688 19.336986541748046875 19.150598526000976562 18.968824386596679688 18.782573699951171875 18.59268951416015625 18.392095565795898438 18.182771682739257812 17.9575347900390625 17.719051361083984375 17.463380813598632812 17.20317840576171875 16.942012786865234375 16.695171356201171875 16.46620941162109375 16.26811981201171875 16.09600067138671875 15.948897361755371094 15.81696319580078125 15.697284698486328125 15.581233978271484375 15.467878341674804688 15.355204582214355469 15.247053146362304688 15.142763137817382812 15.04608154296875 14.956135749816894531 14.874718666076660156 14.799069404602050781 14.729661941528320312 14.663952827453613281 14.602197647094726562 14.542646408081054688 14.486577033996582031 14.433277130126953125 14.384105682373046875 14.338470458984375 14.297339439392089844 14.259281158447265625 14.223900794982910156 14.189441680908203125 14.155315399169921875 14.119990348815917969 14.083700180053710938 14.046712875366210938 14.010528564453125 13.975625038146972656 13.943525314331054688 13.914481163024902344 13.889117240905761719 13.866807937622070312 13.847718238830566406 13.831284523010253906 13.817607879638671875 13.80637359619140625 13.797924041748046875 13.792211532592773438 13.789567947387695312 13.789982795715332031 13.793558120727539062 13.799764633178710938 13.808020591735839844 13.817667007446289062 13.82802581787109375 13.838522911071777344 13.848512649536132812 13.857604026794433594 13.865216255187988281 13.870988845825195312 13.874344825744628906 
30.470998764038085938 30.479730606079101562 30.485921859741210938 30.48388671875 30.494241714477539062 30.47299957275390625 30.511592864990234375 30.467325210571289062 30.344760894775390625 30.311397552490234375 30.32884979248046875 30.225055694580078125 30.382627487182617188 30.8375091552734375 30.836965560913085938 30.593767166137695312 30.54190826416015625 30.53144073486328125 30.39121246337890625 30.384395599365234375 30.520044326782226562 30.608318328857421875 30.599643707275390625 30.580997467041015625 30.563571929931640625 30.542325973510742188 30.53912353515625 30.550939559936523438 30.580104827880859375 30.570341110229492188 30.559453964233398438 31.0341949462890625 31.243206024169921875 31.194683074951171875 31.297124862670898438 31.297262191772460938 31.536174774169921875 31.981832504272460938 32.436656951904296875 32.88893890380859375 33.19464874267578125 33.4187164306640625 33.563629150390625 33.647663116455078125 33.633708953857421875 33.560413360595703125 33.459880828857421875 33.412540435791015625 33.60345458984375 33.86206817626953125 34.0076904296875 34.175182342529296875 34.553256988525390625 35.495697021484375 36.04924774169921875 35.553314208984375 34.405933380126953125 33.7194366455078125 33.166187286376953125 32.871006011962890625 32.854740142822265625 32.911502838134765625 32.948368072509765625 32.947856903076171875 32.73284912109375 32.139446258544921875 31.70388031005859375 31.550899505615234375 31.482425689697265625 31.243341445922851562 30.888828277587890625 30.599435806274414062 30.361776351928710938 30.059896469116210938 29.775356292724609375 29.603933334350585938 29.473194122314453125 29.340740203857421875 29.206996917724609375 29.077829360961914062 28.952411651611328125 28.836393356323242188 28.80286407470703125 28.816761016845703125 28.760583877563476562 28.573017120361328125 28.246576309204101562 27.913228988647460938 27.588827133178710938 27.278188705444335938 26.971548080444335938 26.726518630981445312 26.67081451416015625 26.654695510864257812 26.63230133056640625 26.60410308837890625 26.569555282592773438 26.529949188232421875 26.48453521728515625 26.434932708740234375 26.380840301513671875 26.325572967529296875 26.269960403442382812 26.217571258544921875 26.16937255859375 26.128202438354492188 26.093313217163085938 26.064693450927734375 26.040760040283203125 26.021150588989257812 26.004482269287109375 25.990327835083007812 25.97759246826171875 25.965902328491210938 25.954236984252929688 25.942232131958007812 25.9291534423828125 25.91583251953125 25.90288543701171875 25.89166259765625 25.882921218872070312 25.877973556518554688 25.878667831420898438 25.887638092041015625 25.908323287963867188 25.94293212890625 25.99564361572265625 26.066287994384765625 26.155231475830078125 26.256114959716796875 26.368162155151367188 26.4842681884765625 26.603918075561523438 26.719133377075195312 26.827966690063476562 26.922021865844726562 26.998479843139648438 27.050134658813476562 27.07562255859375 27.077573776245117188 27.061861038208007812 27.03510284423828125 27.002613067626953125 26.970800399780273438 26.941061019897460938 26.913572311401367188 26.886199951171875 26.85849761962890625 26.8283233642578125 26.795795440673828125 26.759944915771484375 26.7222747802734375 26.68204498291015625 26.640918731689453125 26.598093032836914062 26.555536270141601562 26.512765884399414062 26.471933364868164062 26.432643890380859375 26.39687347412109375 26.363542556762695312 26.332326889038085938 26.300359725952148438 26.266757965087890625 26.2285614013671875 26.185606002807617188 26.137271881103515625 26.0873260498046875 26.036802291870117188 25.989767074584960938 25.947216033935546875 25.9117431640625 25.881683349609375 25.85683441162109375 25.835218429565429688 25.816356658935546875 25.7987518310546875 25.783054351806640625 25.769565582275390625 25.759576797485351562 25.753652572631835938 25.75278472900390625 25.757062911987304688 25.76556396484375 25.777400970458984375 25.791118621826171875 25.805995941162109375 25.8206024169921875 25.834764480590820312 25.847688674926757812 25.859430313110351562 25.869293212890625 25.877170562744140625 25.881866455078125 25.88189697265625 25.875421524047851562 25.860467910766601562 25.835588455200195312 25.798326492309570312 25.747900009155273438 25.6811981201171875 25.5982666015625 25.495103836059570312 25.373216629028320312 25.230985641479492188 25.07738494873046875 24.914110183715820312 24.751630783081054688 24.591129302978515625 24.44024658203125 24.2908935546875 24.14032745361328125 23.976987838745117188 23.798013687133789062 23.592535018920898438 23.366369247436523438 23.121080398559570312 22.87188720703125 22.620981216430664062 22.383726119995117188 22.158374786376953125 21.947690963745117188 21.738595962524414062 21.529237747192382812 21.3066558837890625 21.070375442504882812 20.81502532958984375 20.55358123779296875 20.287328720092773438 20.03081512451171875 19.784994125366210938 19.560747146606445312 19.350330352783203125 19.155096054077148438 18.9655914306640625 18.782260894775390625 18.596364974975585938 18.40883636474609375 18.2123565673828125 18.008546829223632812 17.79001617431640625 17.559009552001953125 17.311513900756835938 17.059946060180664062 16.808034896850585938 16.570852279663085938 16.352130889892578125 16.164581298828125 16.003263473510742188 15.866580009460449219 15.7444915771484375 15.63343048095703125 15.524585723876953125 15.416715621948242188 15.308287620544433594 15.203485488891601562 15.102202415466308594 15.008588790893554688 14.922174453735351562 14.844698905944824219 14.773211479187011719 14.707834243774414062 14.645823478698730469 14.587088584899902344 14.529814720153808594 14.475245475769042969 14.422793388366699219 14.373862266540527344 14.327955245971679688 14.2861328125 14.247119903564453125 14.210728645324707031 14.175388336181640625 14.140727996826171875 14.105372428894042969 14.0695648193359375 14.033334732055664062 13.997891426086425781 13.963440895080566406 13.931201934814453125 13.901280403137207031 13.874460220336914062 13.850453376770019531 13.829794883728027344 13.812256813049316406 13.798284530639648438 13.787627220153808594 13.780475616455078125 13.776548385620117188 13.775943756103515625 13.778441429138183594 13.783941268920898438 13.791882514953613281 13.8016510009765625 13.812611579895019531 13.824064254760742188 13.835462570190429688 13.846227645874023438 13.856122016906738281 13.864721298217773438 13.871821403503417969 13.877004623413085938 
30.464237213134765625 30.470701217651367188 30.476709365844726562 30.475927352905273438 30.460504531860351562 30.464323043823242188 30.475210189819335938 30.47322845458984375 30.475444793701171875 30.488420486450195312 30.446737289428710938 30.3088226318359375 30.4941558837890625 30.866735458374023438 30.822832107543945312 30.68680572509765625 30.70269012451171875 30.818494796752929688 30.722864151000976562 30.6315765380859375 30.639440536499023438 30.575847625732421875 30.434295654296875 30.510711669921875 30.640844345092773438 30.683397293090820312 30.668817520141601562 30.694288253784179688 30.72490692138671875 30.596345901489257812 30.712430953979492188 30.936410903930664062 31.0551605224609375 31.149442672729492188 31.2753448486328125 31.411865234375 31.752756118774414062 32.189304351806640625 32.610198974609375 32.997104644775390625 33.31687164306640625 33.54827880859375 33.706523895263671875 33.764255523681640625 33.755077362060546875 33.62896728515625 33.5039825439453125 33.514415740966796875 33.688625335693359375 33.9003143310546875 34.10283660888671875 34.28530120849609375 34.809001922607421875 35.7499542236328125 36.0229644775390625 35.38622283935546875 34.169422149658203125 33.55937957763671875 33.052516937255859375 32.83689117431640625 32.84925079345703125 32.900371551513671875 32.9297943115234375 32.890224456787109375 32.4773406982421875 31.913415908813476562 31.601140975952148438 31.512462615966796875 31.4050140380859375 31.101055145263671875 30.745700836181640625 30.493188858032226562 30.23554229736328125 29.92966461181640625 29.688709259033203125 29.541582107543945312 29.407928466796875 29.27642822265625 29.146295547485351562 29.023103713989257812 28.907726287841796875 28.823108673095703125 28.826910018920898438 28.793951034545898438 28.643642425537109375 28.383052825927734375 28.087572097778320312 27.791818618774414062 27.497562408447265625 27.213466644287109375 26.932622909545898438 26.70786285400390625 26.654327392578125 26.636165618896484375 26.6118011474609375 26.581935882568359375 26.546255111694335938 26.506319046020507812 26.461650848388671875 26.414056777954101562 26.36327362060546875 26.312082290649414062 26.260869979858398438 26.212543487548828125 26.167600631713867188 26.128412246704101562 26.094310760498046875 26.065629959106445312 26.04116058349609375 26.020936965942382812 26.003936767578125 25.989994049072265625 25.97815704345703125 25.968097686767578125 25.958936691284179688 25.950311660766601562 25.941616058349609375 25.933401107788085938 25.926187515258789062 25.920907974243164062 25.918226242065429688 25.919050216674804688 25.925245285034179688 25.939266204833984375 25.964700698852539062 26.003627777099609375 26.060350418090820312 26.134494781494140625 26.226177215576171875 26.328516006469726562 26.440279006958007812 26.553926467895507812 26.668460845947265625 26.776241302490234375 26.87583160400390625 26.95996856689453125 27.026416778564453125 27.069097518920898438 27.087009429931640625 27.083051681518554688 27.062744140625 27.032625198364257812 26.997709274291992188 26.964265823364257812 26.933423995971679688 26.905157089233398438 26.877063751220703125 26.84848785400390625 26.817022323608398438 26.782703399658203125 26.744600296020507812 26.7044677734375 26.661685943603515625 26.6181793212890625 26.573244094848632812 26.528966903686523438 26.484777450561523438 26.4428253173828125 26.402627944946289062 26.366140365600585938 26.332220077514648438 26.300548553466796875 26.268232345581054688 26.2343902587890625 26.196044921875 26.15303802490234375 26.104776382446289062 26.055082321166992188 26.005046844482421875 25.958782196044921875 25.917362213134765625 25.883375167846679688 25.855180740356445312 25.832502365112304688 25.813398361206054688 25.797283172607421875 25.782670974731445312 25.76985931396484375 25.75885772705078125 25.750486373901367188 25.744958877563476562 25.742895126342773438 25.744314193725585938 25.748785018920898438 25.755859375 25.764783859252929688 25.775247573852539062 25.786428451538085938 25.798276901245117188 25.810153961181640625 25.822137832641601562 25.833589553833007812 25.844480514526367188 25.853425979614257812 25.858736038208007812 25.858053207397460938 25.8491973876953125 25.830183029174804688 25.798387527465820312 25.752643585205078125 25.689830780029296875 25.609714508056640625 25.508241653442382812 25.386720657348632812 25.243602752685546875 25.088092803955078125 24.922115325927734375 24.756479263305664062 24.592546463012695312 24.43824005126953125 24.285371780395507812 24.131193161010742188 23.96393585205078125 23.780733108520507812 23.570482254028320312 23.3389434814453125 23.087291717529296875 22.830636978149414062 22.5707244873046875 22.322885513305664062 22.085138320922851562 21.861146926879882812 21.6383514404296875 21.416133880615234375 21.182062149047851562 20.936710357666015625 20.674459457397460938 20.407865524291992188 20.137289047241210938 19.876657485961914062 19.626079559326171875 19.39618682861328125 19.179464340209960938 18.978040695190429688 18.782964706420898438 18.5954742431640625 18.40726470947265625 18.219554901123046875 18.024845123291015625 17.824596405029296875 17.611286163330078125 17.386898040771484375 17.147363662719726562 16.90476226806640625 16.662807464599609375 16.436191558837890625 16.228670120239257812 16.052515029907226562 15.902707099914550781 15.777026176452636719 15.665278434753417969 15.563261985778808594 15.462021827697753906 15.3600311279296875 15.256274223327636719 15.155299186706542969 15.05759429931640625 14.967729568481445312 14.88567352294921875 14.813052177429199219 14.746672630310058594 14.686216354370117188 14.628681182861328125 14.57354736328125 14.518923759460449219 14.466043472290039062 14.414508819580078125 14.365818977355957031 14.319640159606933594 14.27716064453125 14.237273216247558594 14.199988365173339844 14.163908958435058594 14.128864288330078125 14.093625068664550781 14.058436393737792969 14.023083686828613281 13.988473892211914062 13.954537391662597656 13.922182083129882812 13.891370773315429688 13.863039970397949219 13.837246894836425781 13.81490325927734375 13.796113014221191406 13.781685829162597656 13.771422386169433594 13.76537322998046875 13.7630157470703125 13.76422119140625 13.7685546875 13.775725364685058594 13.785137176513671875 13.796162605285644531 13.808194160461425781 13.820525169372558594 13.8326416015625 13.844027519226074219 13.854570388793945312 13.863980293273925781 13.872187614440917969 13.878902435302734375 
30.459745407104492188 30.462123870849609375 30.4633026123046875 30.454130172729492188 30.436742782592773438 30.472959518432617188 30.469814300537109375 30.499536514282226562 30.514434814453125 30.492826461791992188 30.487133026123046875 30.466741561889648438 30.586757659912109375 30.892856597900390625 30.885248184204101562 30.609659194946289062 30.595367431640625 30.81233978271484375 30.811267852783203125 30.929193496704101562 31.129503250122070312 31.036083221435546875 30.730012893676757812 30.423639297485351562 30.429845809936523438 30.581724166870117188 30.717502593994140625 30.827619552612304688 30.826982498168945312 30.536037445068359375 30.941213607788085938 31.044750213623046875 31.030872344970703125 31.245393753051757812 31.342395782470703125 31.586009979248046875 31.96724700927734375 32.346286773681640625 32.705814361572265625 33.05572509765625 33.431781768798828125 33.6639251708984375 33.757495880126953125 33.7386016845703125 33.7433929443359375 33.646015167236328125 33.55792999267578125 33.587368011474609375 33.70111846923828125 33.9066162109375 34.15598297119140625 34.367733001708984375 35.0226287841796875 35.933101654052734375 35.90749359130859375 34.885089874267578125 33.816112518310546875 33.3378143310546875 32.9419403076171875 32.8089599609375 32.840488433837890625 32.88761138916015625 32.905254364013671875 32.749507904052734375 32.199314117431640625 31.746786117553710938 31.521581649780273438 31.47374725341796875 31.308406829833984375 30.950235366821289062 30.618764877319335938 30.392980575561523438 30.106039047241210938 29.811849594116210938 29.616207122802734375 29.475637435913085938 29.338945388793945312 29.207830429077148438 29.080995559692382812 28.963083267211914062 28.861957550048828125 28.83588409423828125 28.8084259033203125 28.659811019897460938 28.43762969970703125 28.186420440673828125 27.921163558959960938 27.657306671142578125 27.394170761108398438 27.13964080810546875 26.888011932373046875 26.686161041259765625 26.634899139404296875 26.6143035888671875 26.587718963623046875 26.556097030639648438 26.519334793090820312 26.479242324829101562 26.435611724853515625 26.390405654907226562 26.343389511108398438 26.296770095825195312 26.250461578369140625 26.20665740966796875 26.165369033813476562 26.128458023071289062 26.09534454345703125 26.0667266845703125 26.0417938232421875 26.02099609375 26.003698348999023438 25.990007400512695312 25.979127883911132812 25.970785140991210938 25.964254379272460938 25.959173202514648438 25.955080032348632812 25.952264785766601562 25.95117950439453125 25.952350616455078125 25.956396102905273438 25.963817596435546875 25.976488113403320312 25.99658966064453125 26.027791976928710938 26.071935653686523438 26.133373260498046875 26.211435317993164062 26.305927276611328125 26.409395217895507812 26.520076751708984375 26.629972457885742188 26.737524032592773438 26.835597991943359375 26.923463821411132812 26.995363235473632812 27.049875259399414062 27.082387924194335938 27.0923919677734375 27.082933425903320312 27.058916091918945312 27.026502609252929688 26.990148544311523438 26.955720901489257812 26.924032211303710938 26.894947052001953125 26.865940093994140625 26.836284637451171875 26.803442001342773438 26.767452239990234375 26.7274169921875 26.685281753540039062 26.640504837036132812 26.595203399658203125 26.548738479614257812 26.503276824951171875 26.458169937133789062 26.415538787841796875 26.374828338623046875 26.33795166015625 26.30370330810546875 26.271728515625 26.23907470703125 26.204828262329101562 26.165952682495117188 26.122282028198242188 26.07328033447265625 26.022937774658203125 25.972486495971679688 25.92620849609375 25.885324478149414062 25.852472305297851562 25.82598114013671875 25.805406570434570312 25.788753509521484375 25.775255203247070312 25.763353347778320312 25.753025054931640625 25.7440338134765625 25.73681640625 25.731296539306640625 25.7277984619140625 25.726289749145507812 25.726810455322265625 25.729320526123046875 25.733707427978515625 25.74004364013671875 25.748067855834960938 25.75782012939453125 25.768770217895507812 25.780981063842773438 25.793840408325195312 25.807353973388671875 25.819978713989257812 25.829883575439453125 25.834316253662109375 25.830972671508789062 25.81743621826171875 25.790981292724609375 25.750049591064453125 25.69144439697265625 25.614589691162109375 25.51531219482421875 25.394664764404296875 25.251142501831054688 25.094186782836914062 24.92598724365234375 24.7576904296875 24.59088134765625 24.433748245239257812 24.277990341186523438 24.120790481567382812 23.95014190673828125 23.763113021850585938 23.548334121704101562 23.311519622802734375 23.053522109985351562 22.789434432983398438 22.520631790161132812 22.262493133544921875 22.012857437133789062 21.776279449462890625 21.54071807861328125 21.306745529174804688 21.062450408935546875 20.809398651123046875 20.541616439819335938 20.271013259887695312 19.996835708618164062 19.732145309448242188 19.476018905639648438 19.238756179809570312 19.013242721557617188 18.802705764770507812 18.598924636840820312 18.404298782348632812 18.21114349365234375 18.021167755126953125 17.826669692993164062 17.629001617431640625 17.420492172241210938 17.202901840209960938 16.972043991088867188 16.73950958251953125 16.508823394775390625 16.294073104858398438 16.098888397216796875 15.934908866882324219 15.797062873840332031 15.682567596435546875 15.581196784973144531 15.488216400146484375 15.394627571105957031 15.298681259155273438 15.199877738952636719 15.103101730346679688 15.00942230224609375 14.923796653747558594 14.846615791320800781 14.77936553955078125 14.718600273132324219 14.663517951965332031 14.610849380493164062 14.559613227844238281 14.507848739624023438 14.4568023681640625 14.406305313110351562 14.357983589172363281 14.311701774597167969 14.268802642822265625 14.228343009948730469 14.190493583679199219 14.153997421264648438 14.118856430053710938 14.083962440490722656 14.049543380737304688 14.015157699584960938 13.981432914733886719 13.948039054870605469 13.915591239929199219 13.883920669555664062 13.854115486145019531 13.826559066772460938 13.802524566650390625 13.782434463500976562 13.767441749572753906 13.757405281066894531 13.752244949340820312 13.751212120056152344 13.753970146179199219 13.759883880615234375 13.768484115600585938 13.779149055480957031 13.791238784790039062 13.804174423217773438 13.817250251770019531 13.829977989196777344 13.841895103454589844 13.852993965148925781 13.863083839416503906 13.872196197509765625 13.88014984130859375 
30.463743209838867188 30.465185165405273438 30.463199615478515625 30.439245223999023438 30.44403839111328125 30.476787567138671875 30.476999282836914062 30.494272232055664062 30.50582122802734375 30.488536834716796875 30.479238510131835938 30.482631683349609375 30.498727798461914062 30.616285324096679688 30.67768096923828125 30.4087982177734375 30.384061813354492188 30.527463912963867188 30.601409912109375 30.558675765991210938 30.832183837890625 31.069837570190429688 30.997800827026367188 30.809261322021484375 30.673406600952148438 30.516679763793945312 30.494077682495117188 30.610172271728515625 30.625886917114257812 30.658681869506835938 31.174251556396484375 31.22342681884765625 31.09931182861328125 31.275838851928710938 31.44537353515625 31.83835601806640625 32.222652435302734375 32.59133148193359375 32.870815277099609375 33.14812469482421875 33.51772308349609375 33.714447021484375 33.73810577392578125 33.711589813232421875 33.6598968505859375 33.64849853515625 33.644832611083984375 33.656009674072265625 33.77681732177734375 34.020084381103515625 34.18071746826171875 34.389186859130859375 35.1831817626953125 36.132411956787109375 35.933536529541015625 34.682979583740234375 33.6212005615234375 33.13460540771484375 32.861660003662109375 32.78981781005859375 32.83229827880859375 32.872173309326171875 32.849933624267578125 32.505748748779296875 31.96764373779296875 31.617465972900390625 31.479951858520507812 31.4343719482421875 31.172641754150390625 30.801189422607421875 30.503217697143554688 30.2803497314453125 29.977121353149414062 29.712558746337890625 29.545297622680664062 29.402345657348632812 29.263902664184570312 29.1338043212890625 29.010892868041992188 28.897146224975585938 28.82282257080078125 28.8137359619140625 28.70125579833984375 28.481197357177734375 28.238351821899414062 27.994443893432617188 27.75018310546875 27.513879776000976562 27.281505584716796875 27.058221817016601562 26.838376998901367188 26.661603927612304688 26.612752914428710938 26.58956146240234375 26.560865402221679688 26.527828216552734375 26.490476608276367188 26.45075225830078125 26.408618927001953125 26.366094589233398438 26.32293701171875 26.280824661254882812 26.239271163940429688 26.199838638305664062 26.162111282348632812 26.127506256103515625 26.095537185668945312 26.067211151123046875 26.042089462280273438 26.020992279052734375 26.003635406494140625 25.990381240844726562 25.980592727661132812 25.974056243896484375 25.970211029052734375 25.968708038330078125 25.96924591064453125 25.97187042236328125 25.977010726928710938 25.984811782836914062 25.995885848999023438 26.010339736938476562 26.030059814453125 26.05686187744140625 26.094427108764648438 26.144262313842773438 26.210699081420898438 26.292694091796875 26.38973236083984375 26.49379730224609375 26.602596282958984375 26.707698822021484375 26.806982040405273438 26.893922805786132812 26.968599319458007812 27.026941299438476562 27.068460464477539062 27.090183258056640625 27.09215545654296875 27.07747650146484375 27.050287246704101562 27.016185760498046875 26.978923797607421875 26.943803787231445312 26.911310195922851562 26.88132476806640625 26.851327896118164062 26.82065582275390625 26.786779403686523438 26.749799728393554688 26.708806991577148438 26.66579437255859375 26.620210647583007812 26.574214935302734375 26.527164459228515625 26.481237411499023438 26.435758590698242188 26.392843246459960938 26.351909637451171875 26.314859390258789062 26.280443191528320312 26.248226165771484375 26.2151641845703125 26.180263519287109375 26.140375137329101562 26.095317840576171875 26.044630050659179688 25.992595672607421875 25.940662384033203125 25.893419265747070312 25.852304458618164062 25.820072174072265625 25.794931411743164062 25.776197433471679688 25.761724472045898438 25.750469207763671875 25.740734100341796875 25.732227325439453125 25.724561691284179688 25.717924118041992188 25.712055206298828125 25.707103729248046875 25.703014373779296875 25.700220108032226562 25.6989898681640625 25.699726104736328125 25.702800750732421875 25.708383560180664062 25.716564178466796875 25.726854324340820312 25.739261627197265625 25.753149032592773438 25.768520355224609375 25.783720016479492188 25.796892166137695312 25.805086135864257812 25.805988311767578125 25.796949386596679688 25.775232315063476562 25.73889923095703125 25.684604644775390625 25.611345291137695312 25.514774322509765625 25.395593643188476562 25.25232696533203125 25.094617843627929688 24.924943923950195312 24.75476837158203125 24.585916519165039062 24.426813125610351562 24.269016265869140625 24.109554290771484375 23.936143875122070312 23.745697021484375 23.526559829711914062 23.284427642822265625 23.01999664306640625 22.748498916625976562 22.471109390258789062 22.203424453735351562 21.943201065063476562 21.69580078125 21.449611663818359375 21.206205368041992188 20.95412445068359375 20.695713043212890625 20.424547195434570312 20.151617050170898438 19.874912261962890625 19.606372833251953125 19.343875885009765625 19.097356796264648438 18.86031341552734375 18.637510299682617188 18.42176055908203125 18.217084884643554688 18.016666412353515625 17.822896957397460938 17.627750396728515625 17.432437896728515625 17.229021072387695312 17.018964767456054688 16.797847747802734375 16.576578140258789062 16.358333587646484375 16.15637969970703125 15.974049568176269531 15.8221893310546875 15.695725440979003906 15.591497421264648438 15.499428749084472656 15.414471626281738281 15.327747344970703125 15.237401962280273438 15.143373489379882812 15.050801277160644531 14.961218833923339844 14.8798675537109375 14.807486534118652344 14.745408058166503906 14.689973831176757812 14.639959335327148438 14.591870307922363281 14.5443115234375 14.495276451110839844 14.446047782897949219 14.396686553955078125 14.348954200744628906 14.302914619445800781 14.260060310363769531 14.219579696655273438 14.181732177734375 14.145355224609375 14.110554695129394531 14.076288223266601562 14.042757034301757812 14.009344100952148438 13.9764556884765625 13.943563461303710938 13.911054611206054688 13.878662109375 13.847599029541015625 13.818526268005371094 13.793012619018554688 13.771747589111328125 13.756165504455566406 13.746183395385742188 13.741621017456054688 13.741550445556640625 13.745472908020019531 13.752592086791992188 13.762302398681640625 13.773956298828125 13.786904335021972656 13.800587654113769531 13.814296722412109375 13.827567100524902344 13.839960098266601562 13.851536750793457031 13.862166404724121094 13.871944427490234375 13.880761146545410156 
30.462545394897460938 30.467329025268554688 30.470844268798828125 30.464765548706054688 30.468152999877929688 30.46123504638671875 30.47588348388671875 30.49179840087890625 30.490720748901367188 30.490383148193359375 30.489376068115234375 30.48870849609375 30.488740921020507812 30.493747711181640625 30.497320175170898438 30.447605133056640625 30.4827423095703125 30.5072021484375 30.433040618896484375 30.310262680053710938 30.338043212890625 30.452936172485351562 30.547817230224609375 30.769334793090820312 31.129232406616210938 31.114328384399414062 30.890336990356445312 30.631723403930664062 30.406801223754882812 30.861049652099609375 31.271730422973632812 31.173089981079101562 31.18860626220703125 31.351457595825195312 31.610643386840820312 32.030864715576171875 32.42571258544921875 32.803981781005859375 33.104869842529296875 33.349334716796875 33.594058990478515625 33.6977691650390625 33.672756195068359375 33.640079498291015625 33.63745880126953125 33.741802215576171875 33.7411041259765625 33.730831146240234375 33.8322906494140625 34.02709197998046875 34.19751739501953125 34.465190887451171875 35.44232177734375 36.289424896240234375 35.63166046142578125 34.38946533203125 33.517475128173828125 33.012348175048828125 32.80316162109375 32.77201080322265625 32.81970977783203125 32.855968475341796875 32.72286224365234375 32.23761749267578125 31.79254150390625 31.518375396728515625 31.46341705322265625 31.347646713256835938 31.002346038818359375 30.6546630859375 30.381727218627929688 30.150653839111328125 29.851070404052734375 29.619510650634765625 29.464687347412109375 29.316839218139648438 29.175306320190429688 29.046152114868164062 28.930292129516601562 28.826061248779296875 28.770879745483398438 28.74088287353515625 28.570962905883789062 28.302213668823242188 28.028774261474609375 27.783113479614257812 27.557786941528320312 27.350383758544921875 27.151880264282226562 26.963899612426757812 26.780595779418945312 26.6328582763671875 26.586866378784179688 26.560985565185546875 26.530475616455078125 26.496646881103515625 26.459514617919921875 26.420972824096679688 26.381011962890625 26.341531753540039062 26.302234649658203125 26.264360427856445312 26.227146148681640625 26.1916656494140625 26.157207489013671875 26.124845504760742188 26.094182968139648438 26.066480636596679688 26.041599273681640625 26.020648956298828125 26.003643035888671875 25.991147994995117188 25.982707977294921875 25.978178024291992188 25.977191925048828125 25.979421615600585938 25.984754562377929688 25.993013381958007812 26.004621505737304688 26.019369125366210938 26.037891387939453125 26.059904098510742188 26.087299346923828125 26.121431350708007812 26.165927886962890625 26.22185516357421875 26.293443679809570312 26.37921905517578125 26.47834014892578125 26.5822906494140625 26.688251495361328125 26.787446975708007812 26.87718963623046875 26.9516754150390625 27.01183319091796875 27.055414199829101562 27.082918167114257812 27.093126296997070312 27.086660385131835938 27.066631317138671875 27.036317825317382812 27.000637054443359375 26.9625396728515625 26.926671981811523438 26.89321136474609375 26.862161636352539062 26.831142425537109375 26.799686431884765625 26.765405654907226562 26.72849273681640625 26.687959671020507812 26.6456451416015625 26.600864410400390625 26.555608749389648438 26.509128570556640625 26.463548660278320312 26.418243408203125 26.375370025634765625 26.334400177001953125 26.297281265258789062 26.262750625610351562 26.230272293090820312 26.196651458740234375 26.160760879516601562 26.119279861450195312 26.071992874145507812 26.018537521362304688 25.963628768920898438 25.9090118408203125 25.8597259521484375 25.817514419555664062 25.785306930541992188 25.761112213134765625 25.743913650512695312 25.731294631958007812 25.721845626831054688 25.713647842407226562 25.706203460693359375 25.69908905029296875 25.692409515380859375 25.685838699340820312 25.67949676513671875 25.673351287841796875 25.6681060791015625 25.664228439331054688 25.662469863891601562 25.66339111328125 25.667444229125976562 25.674703598022460938 25.684652328491210938 25.697202682495117188 25.711639404296875 25.727910995483398438 25.744327545166015625 25.759136199951171875 25.769426345825195312 25.773029327392578125 25.767309188842773438 25.749608993530273438 25.71764373779296875 25.667810440063476562 25.59859466552734375 25.505382537841796875 25.388425827026367188 25.246240615844726562 25.0886383056640625 24.918390274047851562 24.74726104736328125 24.57732391357421875 24.417196273803710938 24.258253097534179688 24.097269058227539062 23.921609878540039062 23.727939605712890625 23.504259109497070312 23.25632476806640625 22.984865188598632812 22.705509185791015625 22.419454574584960938 22.142744064331054688 21.873195648193359375 21.61687469482421875 21.362457275390625 21.112283706665039062 20.855226516723632812 20.594156265258789062 20.322050094604492188 20.04866790771484375 19.770551681518554688 19.498231887817382812 19.228179931640625 18.969923019409179688 18.717891693115234375 18.478946685791015625 18.2473602294921875 18.029376983642578125 17.819393157958984375 17.620677947998046875 17.424692153930664062 17.23233795166015625 17.035236358642578125 16.834344863891601562 16.624851226806640625 16.416736602783203125 16.212659835815429688 16.024806976318359375 15.856041908264160156 15.716236114501953125 15.600400924682617188 15.505230903625488281 15.421051979064941406 15.342778205871582031 15.261879920959472656 15.176538467407226562 15.087026596069335938 14.998605728149414062 14.913123130798339844 14.835956573486328125 14.768082618713378906 14.710686683654785156 14.659974098205566406 14.614393234252929688 14.5702972412109375 14.5259857177734375 14.479447364807128906 14.432002067565917969 14.383925437927246094 14.337108612060546875 14.29180145263671875 14.249622344970703125 14.209835052490234375 14.172718048095703125 14.13713836669921875 14.103207588195800781 14.069911003112792969 14.037392616271972656 14.004937171936035156 13.972802162170410156 13.940347671508789062 13.907808303833007812 13.874875068664550781 13.842851638793945312 13.812602043151855469 13.785923004150390625 13.763689041137695312 13.747552871704101562 13.737468719482421875 13.733202934265136719 13.733710289001464844 13.738384246826171875 13.746327400207519531 13.756842613220214844 13.769256591796875 13.782907485961914062 13.7972412109375 13.811540603637695312 13.825343132019042969 13.838216781616210938 13.850239753723144531 13.861308097839355469 13.871535301208496094 13.880827903747558594 
30.468358993530273438 30.478933334350585938 30.478954315185546875 30.506437301635742188 30.5272979736328125 30.511060714721679688 30.493869781494140625 30.495447158813476562 30.50127410888671875 30.503871917724609375 30.494604110717773438 30.486143112182617188 30.4858551025390625 30.48691558837890625 30.490392684936523438 30.5019378662109375 30.555437088012695312 30.567249298095703125 30.5198516845703125 30.459720611572265625 30.402986526489257812 30.330812454223632812 30.317737579345703125 30.44518280029296875 30.744855880737304688 31.036224365234375 31.275785446166992188 31.17266845703125 30.859836578369140625 31.109869003295898438 31.267488479614257812 31.160463333129882812 31.309398651123046875 31.443134307861328125 31.785547256469726562 32.199909210205078125 32.56017303466796875 32.910106658935546875 33.226596832275390625 33.514904022216796875 33.67430877685546875 33.703159332275390625 33.671085357666015625 33.616252899169921875 33.674274444580078125 33.8030853271484375 33.8250579833984375 33.81995391845703125 33.98146820068359375 34.099254608154296875 34.282428741455078125 34.59984588623046875 35.6539154052734375 36.18487548828125 35.167339324951171875 34.051784515380859375 33.425930023193359375 32.9422454833984375 32.76212310791015625 32.748714447021484375 32.80101776123046875 32.811809539794921875 32.50670623779296875 32.0097808837890625 31.649305343627929688 31.445318222045898438 31.431646347045898438 31.20394134521484375 30.83011627197265625 30.508588790893554688 30.270650863647460938 30.027551651000976562 29.739475250244140625 29.539606094360351562 29.375507354736328125 29.218660354614257812 29.069608688354492188 28.936971664428710938 28.832201004028320312 28.761598587036132812 28.735324859619140625 28.6909637451171875 28.491764068603515625 28.105905532836914062 27.77825164794921875 27.5330657958984375 27.334001541137695312 27.162200927734375 27.003215789794921875 26.855546951293945312 26.714227676391601562 26.60076904296875 26.55861663818359375 26.530216217041015625 26.498388290405273438 26.464475631713867188 26.428333282470703125 26.3917388916015625 26.354501724243164062 26.31824493408203125 26.282558441162109375 26.24837493896484375 26.214794158935546875 26.182586669921875 26.150888442993164062 26.120557785034179688 26.0912933349609375 26.06451416015625 26.040304183959960938 26.019960403442382812 26.00371551513671875 25.992292404174804688 25.98542022705078125 25.983049392700195312 25.985027313232421875 25.991069793701171875 26.001277923583984375 26.015249252319335938 26.033428192138671875 26.055246353149414062 26.0813751220703125 26.111143112182617188 26.14642333984375 26.18804931640625 26.239530563354492188 26.301424026489257812 26.3777923583984375 26.46671295166015625 26.567045211791992188 26.669889450073242188 26.7719879150390625 26.864332199096679688 26.943737030029296875 27.00518035888671875 27.050411224365234375 27.078977584838867188 27.092332839965820312 27.0909881591796875 27.076114654541015625 27.050806045532226562 27.017436981201171875 26.980228424072265625 26.941287994384765625 26.904592514038085938 26.870044708251953125 26.837862014770507812 26.80590057373046875 26.77397918701171875 26.739965438842773438 26.7041473388671875 26.6654052734375 26.62523651123046875 26.582727432250976562 26.539510726928710938 26.494640350341796875 26.45012664794921875 26.405467987060546875 26.362913131713867188 26.322053909301757812 26.284946441650390625 26.250349044799804688 26.2176055908203125 26.183328628540039062 26.146236419677734375 26.102783203125 26.052713394165039062 25.995769500732421875 25.937185287475585938 25.879053115844726562 25.82696533203125 25.783008575439453125 25.750331878662109375 25.726678848266601562 25.710643768310546875 25.6994476318359375 25.691255569458007812 25.683864593505859375 25.676656723022460938 25.669275283813476562 25.661912918090820312 25.654302597045898438 25.64667510986328125 25.639051437377929688 25.632287979125976562 25.626922607421875 25.623870849609375 25.623765945434570312 25.627172470092773438 25.634107589721679688 25.643955230712890625 25.656511306762695312 25.670942306518554688 25.687097549438476562 25.703332901000976562 25.718111038208007812 25.72878265380859375 25.733453750610351562 25.729717254638671875 25.715099334716796875 25.68701171875 25.641529083251953125 25.576578140258789062 25.487218856811523438 25.373197555541992188 25.23297882080078125 25.07647705078125 24.906744003295898438 24.735759735107421875 24.565843582153320312 24.405710220336914062 24.24654388427734375 24.084764480590820312 23.907360076904296875 23.710662841796875 23.48230743408203125 23.228178024291992188 22.94924163818359375 22.661748886108398438 22.3671417236328125 22.082126617431640625 21.804716110229492188 21.541538238525390625 21.281396865844726562 21.027128219604492188 20.76778411865234375 20.5064849853515625 20.235504150390625 19.9631805419921875 19.684522628784179688 19.408483505249023438 19.130025863647460938 18.858285903930664062 18.588869094848632812 18.331146240234375 18.081174850463867188 17.847858428955078125 17.62706756591796875 17.423059463500976562 17.226594924926757812 17.038095474243164062 16.84854888916015625 16.658205032348632812 16.4617156982421875 16.267961502075195312 16.078975677490234375 15.905702590942382812 15.750429153442382812 15.6219482421875 15.51544952392578125 15.427710533142089844 15.349671363830566406 15.276488304138183594 15.20015716552734375 15.1190338134765625 15.033606529235839844 14.949110984802246094 14.8675384521484375 14.79425811767578125 14.730352401733398438 14.676878929138183594 14.629995346069335938 14.58795166015625 14.547043800354003906 14.5053863525390625 14.461005210876464844 14.415252685546875 14.368579864501953125 14.322973251342773438 14.278837203979492188 14.237868309020996094 14.199364662170410156 14.16355133056640625 14.129277229309082031 14.096592903137207031 14.064465522766113281 14.032975196838378906 14.001378059387207031 13.969861984252929688 13.9377593994140625 13.905239105224609375 13.871990203857421875 13.839380264282226562 13.8083953857421875 13.780959129333496094 13.758063316345214844 13.741486549377441406 13.731215476989746094 13.726996421813964844 13.727732658386230469 13.732775688171386719 13.741176605224609375 13.752199172973632812 13.7651519775390625 13.779354095458984375 13.794244766235351562 13.80908966064453125 13.82341766357421875 13.836777687072753906 13.8492279052734375 13.860636711120605469 13.871105194091796875 13.8805084228515625 
30.5193634033203125 30.504571914672851562 30.494232177734375 30.539373397827148438 30.564184188842773438 30.573556900024414062 30.56319427490234375 30.54405975341796875 30.5292816162109375 30.526483535766601562 30.51363372802734375 30.508180618286132812 30.49906158447265625 30.4954071044921875 30.501016616821289062 30.52190399169921875 30.543043136596679688 30.54764556884765625 30.553380966186523438 30.551883697509765625 30.537750244140625 30.48479461669921875 30.457612991333007812 30.561510086059570312 30.569456100463867188 30.482303619384765625 30.7528076171875 30.996917724609375 31.171436309814453125 31.459661483764648438 31.3925933837890625 31.4122467041015625 31.46247100830078125 31.56695556640625 31.945560455322265625 32.366222381591796875 32.7033538818359375 33.09792327880859375 33.44162750244140625 33.654529571533203125 33.69008636474609375 33.675121307373046875 33.67431640625 33.6836700439453125 33.77095794677734375 33.892581939697265625 33.888484954833984375 33.903774261474609375 34.088893890380859375 34.15196990966796875 34.2946929931640625 34.719707489013671875 35.80072021484375 35.997936248779296875 34.76038360595703125 33.7880859375 33.251514434814453125 32.889171600341796875 32.741588592529296875 32.73268890380859375 32.78122711181640625 32.693561553955078125 32.242038726806640625 31.815540313720703125 31.5203399658203125 31.4015960693359375 31.35303497314453125 31.027914047241210938 30.670747756958007812 30.37603759765625 30.15293121337890625 29.895803451538085938 29.639331817626953125 29.453615188598632812 29.272352218627929688 29.10149383544921875 28.937162399291992188 28.783575057983398438 28.675678253173828125 28.693204879760742188 28.720197677612304688 28.679559707641601562 28.378580093383789062 27.782634735107421875 27.415338516235351562 27.20330047607421875 27.053750991821289062 26.932584762573242188 26.82364654541015625 26.724178314208984375 26.6319580078125 26.560480117797851562 26.524618148803710938 26.495845794677734375 26.465143203735351562 26.43280029296875 26.397218704223632812 26.36281585693359375 26.328777313232421875 26.295900344848632812 26.263631820678710938 26.232698440551757812 26.202190399169921875 26.172710418701171875 26.14337158203125 26.11492156982421875 26.087148666381835938 26.061557769775390625 26.038394927978515625 26.019054412841796875 26.003931045532226562 25.993862152099609375 25.988796234130859375 25.988800048828125 25.99398040771484375 26.00412750244140625 26.019578933715820312 26.039701461791992188 26.064931869506835938 26.094305038452148438 26.128511428833007812 26.166446685791015625 26.209934234619140625 26.25922393798828125 26.31764984130859375 26.385204315185546875 26.465709686279296875 26.556802749633789062 26.657083511352539062 26.757434844970703125 26.854244232177734375 26.93843841552734375 27.0064239501953125 27.054029464721679688 27.083772659301757812 27.096982955932617188 27.096010208129882812 27.083059310913085938 27.059810638427734375 27.029310226440429688 26.99300384521484375 26.954376220703125 26.9146728515625 26.877178192138671875 26.8415374755859375 26.808246612548828125 26.775465011596679688 26.743366241455078125 26.710140228271484375 26.676187515258789062 26.6402130126953125 26.603250503540039062 26.564083099365234375 26.52385711669921875 26.481374740600585938 26.438488006591796875 26.394863128662109375 26.352872848510742188 26.312288284301757812 26.275300979614257812 26.240720748901367188 26.207765579223632812 26.1728363037109375 26.134479522705078125 26.088903427124023438 26.035806655883789062 25.97503662109375 25.912397384643554688 25.850341796875 25.795064926147460938 25.749019622802734375 25.7155914306640625 25.692211151123046875 25.677038192749023438 25.666872024536132812 25.65941619873046875 25.652135848999023438 25.64437103271484375 25.63592529296875 25.62722015380859375 25.618158340454101562 25.60919952392578125 25.6004486083984375 25.592813491821289062 25.586795806884765625 25.583309173583984375 25.582965850830078125 25.586301803588867188 25.593235015869140625 25.603021621704101562 25.615316390991210938 25.629159927368164062 25.644273757934570312 25.659124374389648438 25.672466278076171875 25.682088851928710938 25.686466217041015625 25.68359375 25.6712493896484375 25.646593093872070312 25.605350494384765625 25.544872283935546875 25.459886550903320312 25.34958648681640625 25.212369918823242188 25.058145523071289062 24.890201568603515625 24.720617294311523438 24.551910400390625 24.392797470092773438 24.234243392944335938 24.072259902954101562 23.893428802490234375 23.6937103271484375 23.46035003662109375 23.199445724487304688 22.912357330322265625 22.616174697875976562 22.312755584716796875 22.019680023193359375 21.7352447509765625 21.466543197631835938 21.202348709106445312 20.945766448974609375 20.685886383056640625 20.425859451293945312 20.15717315673828125 19.886636734008789062 19.607698440551757812 19.327653884887695312 19.0399017333984375 18.753236770629882812 18.464616775512695312 18.186239242553710938 17.916179656982421875 17.666330337524414062 17.434223175048828125 17.225149154663085938 17.029016494750976562 16.84555816650390625 16.664968490600585938 16.486585617065429688 16.304391860961914062 16.126054763793945312 15.9529266357421875 15.794615745544433594 15.652777671813964844 15.535073280334472656 15.436944961547851562 15.355437278747558594 15.282268524169921875 15.213044166564941406 15.140427589416503906 15.063055992126464844 14.981523513793945312 14.9009246826171875 14.823256492614746094 14.753737449645996094 14.693464279174804688 14.643375396728515625 14.59967041015625 14.560505867004394531 14.522211074829101562 14.482819557189941406 14.440419197082519531 14.396386146545410156 14.351296424865722656 14.307180404663085938 14.264554977416992188 14.225150108337402344 14.188275337219238281 14.154066085815429688 14.121334075927734375 14.090037345886230469 14.059107780456542969 14.028567314147949219 13.997701644897460938 13.966688156127929688 13.934880256652832031 13.902452468872070312 13.869118690490722656 13.83628082275390625 13.804979324340820312 13.777189254760742188 13.7539520263671875 13.737100601196289062 13.726645469665527344 13.722345352172851562 13.723093986511230469 13.728249549865722656 13.736858367919921875 13.748181343078613281 13.761517524719238281 13.776166915893554688 13.791555404663085938 13.806925773620605469 13.821796417236328125 13.835665702819824219 13.848547935485839844 13.860240936279296875 13.870794296264648438 13.880014419555664062 
30.543186187744140625 30.564281463623046875 30.562627792358398438 30.57546234130859375 30.589841842651367188 30.598682403564453125 30.5930328369140625 30.583509445190429688 30.570781707763671875 30.55701446533203125 30.541570663452148438 30.530214309692382812 30.523668289184570312 30.518262863159179688 30.52246856689453125 30.5369110107421875 30.54041290283203125 30.538116455078125 30.536983489990234375 30.53731536865234375 30.541437149047851562 30.544536590576171875 30.55472564697265625 30.634830474853515625 30.633382797241210938 30.440263748168945312 30.502794265747070312 30.821950912475585938 31.123630523681640625 31.352420806884765625 31.448528289794921875 31.663228988647460938 31.5430908203125 31.692998886108398438 32.062702178955078125 32.45981597900390625 32.825122833251953125 33.208339691162109375 33.55144500732421875 33.68779754638671875 33.670135498046875 33.669116973876953125 33.6956634521484375 33.72846221923828125 33.76969146728515625 33.8948516845703125 33.878963470458984375 33.945934295654296875 34.00391387939453125 34.06266021728515625 34.328487396240234375 34.98423004150390625 35.930675506591796875 35.82559967041015625 34.531093597412109375 33.660297393798828125 33.091136932373046875 32.848171234130859375 32.73189544677734375 32.727039337158203125 32.74475860595703125 32.49808502197265625 32.0128936767578125 31.65863037109375 31.4555206298828125 31.407922744750976562 31.230373382568359375 30.859750747680664062 30.545240402221679688 30.266782760620117188 30.05062103271484375 29.774868011474609375 29.545867919921875 29.351375579833984375 29.155124664306640625 28.968500137329101562 28.786312103271484375 28.597270965576171875 28.345586776733398438 28.523336410522460938 28.702070236206054688 28.625818252563476562 27.868463516235351562 27.147197723388671875 26.908048629760742188 26.8004608154296875 26.730199813842773438 26.674060821533203125 26.623266220092773438 26.576398849487304688 26.532894134521484375 26.497531890869140625 26.471696853637695312 26.449586868286132812 26.42707061767578125 26.403095245361328125 26.369482040405273438 26.3358154296875 26.3051605224609375 26.275571823120117188 26.246368408203125 26.21816253662109375 26.19011688232421875 26.162797927856445312 26.13538360595703125 26.108598709106445312 26.082317352294921875 26.058073043823242188 26.036203384399414062 26.018133163452148438 26.004364013671875 25.995819091796875 25.992687225341796875 25.9951934814453125 26.003744125366210938 26.018230438232421875 26.039262771606445312 26.065929412841796875 26.098628997802734375 26.135921478271484375 26.178476333618164062 26.224689483642578125 26.276296615600585938 26.332935333251953125 26.397722244262695312 26.47008514404296875 26.55355072021484375 26.645357131958007812 26.743930816650390625 26.84014892578125 26.93016815185546875 27.00507354736328125 27.060977935791015625 27.094606399536132812 27.109136581420898438 27.107526779174804688 27.0929107666015625 27.069028854370117188 27.037992477416992188 27.0027618408203125 26.96389007568359375 26.924137115478515625 26.8839111328125 26.845823287963867188 26.809284210205078125 26.775079727172851562 26.741697311401367188 26.709676742553710938 26.67755889892578125 26.645843505859375 26.613065719604492188 26.579748153686523438 26.54436492919921875 26.507535934448242188 26.467798233032226562 26.42682647705078125 26.384473800659179688 26.343240737915039062 26.30309295654296875 26.266361236572265625 26.231929779052734375 26.19889068603515625 26.163457870483398438 26.124010086059570312 26.076534271240234375 26.0206756591796875 25.956390380859375 25.8899993896484375 25.824296951293945312 25.7660369873046875 25.718008041381835938 25.683807373046875 25.660549163818359375 25.64595794677734375 25.636404037475585938 25.62914276123046875 25.62129974365234375 25.612247467041015625 25.602020263671875 25.591379165649414062 25.580463409423828125 25.57006072998046875 25.56037139892578125 25.552276611328125 25.54613494873046875 25.542751312255859375 25.542615890502929688 25.546138763427734375 25.553119659423828125 25.562679290771484375 25.574335098266601562 25.587018966674804688 25.600320816040039062 25.612863540649414062 25.623731613159179688 25.631237030029296875 25.634258270263671875 25.631284713745117188 25.620380401611328125 25.59853363037109375 25.561143875122070312 25.505052566528320312 25.4246978759765625 25.318752288818359375 25.185529708862304688 25.0348052978515625 24.870004653930664062 24.703145980834960938 24.536861419677734375 24.379732131958007812 24.222513198852539062 24.060787200927734375 23.880765914916992188 23.67803955078125 23.439479827880859375 23.171468734741210938 22.875865936279296875 22.570730209350585938 22.258449554443359375 21.957593917846679688 21.666803359985351562 21.393526077270507812 21.1263580322265625 20.868486404418945312 20.6089019775390625 20.35060882568359375 20.084318161010742188 19.815395355224609375 19.535833358764648438 19.251401901245117188 18.954034805297851562 18.652276992797851562 18.34447479248046875 18.0456695556640625 17.755983352661132812 17.490299224853515625 17.247835159301757812 17.034833908081054688 16.840240478515625 16.662960052490234375 16.492296218872070312 16.326511383056640625 16.158885955810546875 15.995855331420898438 15.838161468505859375 15.694125175476074219 15.564808845520019531 15.456815719604492188 15.365889549255371094 15.289454460144042969 15.220062255859375 15.153887748718261719 15.084324836730957031 15.01032257080078125 14.932500839233398438 14.85572052001953125 14.781876564025878906 14.715938568115234375 14.658940315246582031 14.611723899841308594 14.570601463317871094 14.533728599548339844 14.497544288635253906 14.460096359252929688 14.419548988342285156 14.377276420593261719 14.33390045166015625 14.291444778442382812 14.250476837158203125 14.212705612182617188 14.177439689636230469 14.144744873046875 14.1134033203125 14.083303451538085938 14.053349494934082031 14.023534774780273438 13.993198394775390625 13.96254730224609375 13.930994987487792969 13.898752212524414062 13.865572929382324219 13.832864761352539062 13.801665306091308594 13.773936271667480469 13.750715255737304688 13.733827590942382812 13.723295211791992188 13.718908309936523438 13.719585418701171875 13.724721908569335938 13.733392715454101562 13.744882583618164062 13.75848388671875 13.77349090576171875 13.789310455322265625 13.80517578125 13.820582389831542969 13.834978103637695312 13.848297119140625 13.860233306884765625 13.870759010314941406 13.879578590393066406 
30.5404205322265625 30.535387039184570312 30.578149795532226562 30.60285186767578125 30.615100860595703125 30.637786865234375 30.631046295166015625 30.610622406005859375 30.597940444946289062 30.589811325073242188 30.590991973876953125 30.570280075073242188 30.5426025390625 30.538438796997070312 30.5449676513671875 30.554431915283203125 30.55269622802734375 30.55199432373046875 30.543462753295898438 30.530961990356445312 30.52947998046875 30.53597259521484375 30.544206619262695312 30.547056198120117188 30.556522369384765625 30.6314544677734375 30.797739028930664062 30.943529129028320312 31.057659149169921875 31.085418701171875 31.283578872680664062 31.522319793701171875 31.5671234130859375 31.835107803344726562 32.219512939453125 32.654216766357421875 33.071605682373046875 33.35454559326171875 33.537563323974609375 33.647220611572265625 33.64099884033203125 33.657505035400390625 33.750484466552734375 33.815418243408203125 33.6758270263671875 33.647876739501953125 33.693691253662109375 33.792713165283203125 33.85375213623046875 34.084445953369140625 34.55649566650390625 35.45789337158203125 36.08544921875 35.400543212890625 34.196834564208984375 33.444332122802734375 32.992977142333984375 32.82155609130859375 32.727687835693359375 32.72998046875 32.651805877685546875 32.25519561767578125 31.824737548828125 31.52655029296875 31.448083877563476562 31.423658370971679688 31.086103439331054688 30.713115692138671875 30.425958633422851562 30.169759750366210938 29.937177658081054688 29.658208847045898438 29.445192337036132812 29.233852386474609375 29.020349502563476562 28.814523696899414062 28.618261337280273438 28.44516754150390625 28.308515548706054688 28.532979965209960938 28.694347381591796875 28.4646759033203125 26.993703842163085938 26.594339370727539062 26.567461013793945312 26.551059722900390625 26.536266326904296875 26.521680831909179688 26.506441116333007812 26.490743637084960938 26.474306106567382812 26.457855224609375 26.441247940063476562 26.424793243408203125 26.40805816650390625 26.39145660400390625 26.352102279663085938 26.310777664184570312 26.283418655395507812 26.257001876831054688 26.230550765991210938 26.204637527465820312 26.1785736083984375 26.152971267700195312 26.127147674560546875 26.10186767578125 26.07708740234375 26.054311752319335938 26.033931732177734375 26.017345428466796875 26.005115509033203125 25.998235702514648438 25.997188568115234375 26.002397537231445312 26.014629364013671875 26.033924102783203125 26.061201095581054688 26.095203399658203125 26.136205673217773438 26.182184219360351562 26.23369598388671875 26.288537979125976562 26.348287582397460938 26.411954879760742188 26.48239898681640625 26.55847930908203125 26.643377304077148438 26.734010696411132812 26.828718185424804688 26.918643951416015625 26.99987030029296875 27.063898086547851562 27.106706619262695312 27.125970840454101562 27.12540435791015625 27.109437942504882812 27.08184051513671875 27.047723770141601562 27.009534835815429688 26.970104217529296875 26.929126739501953125 26.888647079467773438 26.848270416259765625 26.8099365234375 26.772836685180664062 26.738027572631835938 26.70432281494140625 26.672607421875 26.641767501831054688 26.61240386962890625 26.5828857421875 26.553256988525390625 26.521697998046875 26.48831939697265625 26.45142364501953125 26.412500381469726562 26.371587753295898438 26.331296920776367188 26.291774749755859375 26.255483627319335938 26.221380233764648438 26.188457489013671875 26.152782440185546875 26.112588882446289062 26.063686370849609375 26.005680084228515625 25.938611984252929688 25.869230270385742188 25.800619125366210938 25.739992141723632812 25.6904144287109375 25.655643463134765625 25.632486343383789062 25.618259429931640625 25.608921051025390625 25.601306915283203125 25.592226028442382812 25.58115386962890625 25.5684051513671875 25.55517578125 25.541896820068359375 25.529773712158203125 25.51910400390625 25.510671615600585938 25.504617691040039062 25.501537322998046875 25.50171661376953125 25.505367279052734375 25.51215362548828125 25.521091461181640625 25.531579971313476562 25.542476654052734375 25.553243637084960938 25.562711715698242188 25.57028961181640625 25.574857711791992188 25.57569122314453125 25.571821212768554688 25.561605453491210938 25.541952133178710938 25.508007049560546875 25.456205368041992188 25.380771636962890625 25.279935836791992188 25.15190887451171875 25.006168365478515625 24.846141815185546875 24.683572769165039062 24.521083831787109375 24.366962432861328125 24.211757659912109375 24.050638198852539062 23.869497299194335938 23.66357421875 23.419422149658203125 23.143770217895507812 22.839056015014648438 22.5244140625 22.202844619750976562 21.894014358520507812 21.596925735473632812 21.319301605224609375 21.049425125122070312 20.790407180786132812 20.53099822998046875 20.273950576782226562 20.009212493896484375 19.740896224975585938 19.459714889526367188 19.170125961303710938 18.862771987915039062 18.546075820922851562 18.21973419189453125 17.901556015014648438 17.593622207641601562 17.313711166381835938 17.06266021728515625 16.847517013549804688 16.656185150146484375 16.486570358276367188 16.32698822021484375 16.17447662353515625 16.02158355712890625 15.873570442199707031 15.730686187744140625 15.600085258483886719 15.482341766357421875 15.383118629455566406 15.298506736755371094 15.226373672485351562 15.160120964050292969 15.096535682678222656 15.029756546020507812 14.959058761596679688 14.885016441345214844 14.812183380126953125 14.742269515991210938 14.6799163818359375 14.626040458679199219 14.581401824951171875 14.5424957275390625 14.507558822631835938 14.473209381103515625 14.437582969665527344 14.398938179016113281 14.358585357666015625 14.317124366760253906 14.276490211486816406 14.2372283935546875 14.200969696044921875 14.167037010192871094 14.135467529296875 14.105070114135742188 14.075707435607910156 14.046315193176269531 14.016893386840820312 13.986842155456542969 13.956423759460449219 13.925112724304199219 13.893177986145019531 13.860410690307617188 13.828196525573730469 13.797517776489257812 13.770277023315429688 13.747465133666992188 13.730849266052246094 13.720450401306152344 13.716089248657226562 13.716746330261230469 13.721860885620117188 13.730558395385742188 13.742163658142089844 13.755975723266601562 13.771289825439453125 13.787504196166992188 13.803852081298828125 13.819810867309570312 13.834764480590820312 13.848545074462890625 13.860721588134765625 13.871152877807617188 13.879419326782226562 
30.669012069702148438 30.630010604858398438 30.582460403442382812 30.549654006958007812 30.58208465576171875 30.668745040893554688 30.668394088745117188 30.636859893798828125 30.615571975708007812 30.60594940185546875 30.608884811401367188 30.597669601440429688 30.585653305053710938 30.595331192016601562 30.582426071166992188 30.574651718139648438 30.563657760620117188 30.565328598022460938 30.564237594604492188 30.53668212890625 30.520326614379882812 30.5275726318359375 30.537137985229492188 30.541208267211914062 30.5616302490234375 30.654144287109375 30.834705352783203125 30.882701873779296875 30.943559646606445312 31.069799423217773438 31.3686370849609375 31.535526275634765625 31.658504486083984375 31.960756301879882812 32.3552093505859375 32.817417144775390625 33.232234954833984375 33.530490875244140625 33.6146087646484375 33.67987823486328125 33.71923065185546875 33.723827362060546875 33.804660797119140625 33.7721099853515625 33.62883758544921875 33.586208343505859375 33.6439056396484375 33.712894439697265625 33.84075927734375 34.19916534423828125 34.70166778564453125 35.634796142578125 36.200283050537109375 35.249683380126953125 34.125392913818359375 33.33487701416015625 32.944454193115234375 32.795745849609375 32.722503662109375 32.7100372314453125 32.4730987548828125 32.030132293701171875 31.664075851440429688 31.428249359130859375 31.445034027099609375 31.354175567626953125 30.920536041259765625 30.578390121459960938 30.309549331665039062 30.0671539306640625 29.8223876953125 29.555734634399414062 29.338359832763671875 29.109212875366210938 28.874187469482421875 28.641542434692382812 28.417423248291015625 28.246961593627929688 28.329191207885742188 28.634761810302734375 28.54811859130859375 27.915033340454101562 26.768308639526367188 26.561880111694335938 26.552572250366210938 26.542535781860351562 26.53148651123046875 26.5196533203125 26.50670623779296875 26.4929351806640625 26.478082656860351562 26.462678909301757812 26.446542739868164062 26.430248260498046875 26.413595199584960938 26.397169113159179688 26.341962814331054688 26.288991928100585938 26.264678955078125 26.241092681884765625 26.216951370239257812 26.192850112915039062 26.168279647827148438 26.143962860107421875 26.119390487670898438 26.095411300659179688 26.072050094604492188 26.050750732421875 26.031919479370117188 26.016887664794921875 26.006246566772460938 26.001058578491210938 26.00213623046875 26.010152816772460938 26.026292800903320312 26.05078125 26.084878921508789062 26.1269073486328125 26.176921844482421875 26.232175827026367188 26.293010711669921875 26.356502532958984375 26.424013137817382812 26.493925094604492188 26.5688323974609375 26.647085189819335938 26.731472015380859375 26.818716049194335938 26.907176971435546875 26.988567352294921875 27.059076309204101562 27.110914230346679688 27.14009857177734375 27.145284652709960938 27.130537033081054688 27.101495742797851562 27.06237030029296875 27.019365310668945312 26.975145339965820312 26.932371139526367188 26.889963150024414062 26.849298477172851562 26.80926513671875 26.771173477172851562 26.734012603759765625 26.699047088623046875 26.665370941162109375 26.634141921997070312 26.604541778564453125 26.577249526977539062 26.550527572631835938 26.5240325927734375 26.49573516845703125 26.465341567993164062 26.430973052978515625 26.393970489501953125 26.354513168334960938 26.315282821655273438 26.276567459106445312 26.24091339111328125 26.2073516845703125 26.174806594848632812 26.139268875122070312 26.098875045776367188 26.049345016479492188 25.99024200439453125 25.921682357788085938 25.850671768188476562 25.780487060546875 25.71862030029296875 25.668323516845703125 25.63341522216796875 25.610446929931640625 25.59639739990234375 25.586874008178710938 25.5783843994140625 25.567464828491210938 25.553766250610351562 25.537897109985351562 25.521551132202148438 25.505468368530273438 25.491312026977539062 25.479467391967773438 25.470592498779296875 25.464540481567382812 25.461639404296875 25.461915969848632812 25.46533966064453125 25.47144317626953125 25.479200363159179688 25.487920761108398438 25.49645233154296875 25.5041656494140625 25.510110855102539062 25.513975143432617188 25.515178680419921875 25.513324737548828125 25.50795745849609375 25.497697830200195312 25.479488372802734375 25.448335647583007812 25.400438308715820312 25.3299407958984375 25.234758377075195312 25.113008499145507812 24.973669052124023438 24.820011138916015625 24.663259506225585938 24.505865097045898438 24.355642318725585938 24.202978134155273438 24.042676925659179688 23.860410690307617188 23.651147842407226562 23.4011993408203125 23.1176910400390625 22.80364990234375 22.479305267333984375 22.148275375366210938 21.831327438354492188 21.5278167724609375 21.245656967163085938 20.97270965576171875 20.71190643310546875 20.451642990112304688 20.194362640380859375 19.929361343383789062 19.65984344482421875 19.37554931640625 19.080013275146484375 18.762884140014648438 18.432634353637695312 18.09014129638671875 17.755601882934570312 17.43280029296875 17.141984939575195312 16.885395050048828125 16.670629501342773438 16.484539031982421875 16.323904037475585938 16.176044464111328125 16.036685943603515625 15.897678375244140625 15.76329803466796875 15.633498191833496094 15.514524459838867188 15.406648635864257812 15.31482696533203125 15.235518455505371094 15.167008399963378906 15.103470802307128906 15.042260169982910156 14.978192329406738281 14.91082000732421875 14.840623855590820312 14.771802902221679688 14.705847740173339844 14.647024154663085938 14.596102714538574219 14.553789138793945312 14.516809463500976562 14.483547210693359375 14.450847625732421875 14.416994094848632812 14.380336761474609375 14.342059135437011719 14.302656173706054688 14.263885498046875 14.226185798645019531 14.191051483154296875 14.157853126525878906 14.126676559448242188 14.096444129943847656 14.067088127136230469 14.03763580322265625 14.008154869079589844 13.978096961975097656 13.947775840759277344 13.916710853576660156 13.885219573974609375 13.85311126708984375 13.821722030639648438 13.791955947875976562 13.765611648559570312 13.743603706359863281 13.727606773376464844 13.717629432678222656 13.713522911071777344 13.714328765869140625 13.719534873962402344 13.72832489013671875 13.7400665283203125 13.754077911376953125 13.769667625427246094 13.786243438720703125 13.803044319152832031 13.819554328918457031 13.835085868835449219 13.849350929260253906 13.861774444580078125 13.872097015380859375 13.879743576049804688 
30.64888763427734375 30.657634735107421875 30.669910430908203125 30.67962646484375 30.601713180541992188 30.561519622802734375 30.576381683349609375 30.614156723022460938 30.644750595092773438 30.62804412841796875 30.612804412841796875 30.59970855712890625 30.599224090576171875 30.62802886962890625 30.632055282592773438 30.61415863037109375 30.590265274047851562 30.576711654663085938 30.56797027587890625 30.551300048828125 30.535730361938476562 30.5236053466796875 30.51799774169921875 30.533487319946289062 30.5899200439453125 30.638347625732421875 30.759645462036132812 30.922054290771484375 31.027126312255859375 31.207475662231445312 31.484006881713867188 31.581966400146484375 31.72879791259765625 32.0499725341796875 32.431926727294921875 32.82259368896484375 33.298160552978515625 33.606784820556640625 33.653034210205078125 33.7154541015625 33.821537017822265625 33.7779693603515625 33.6799774169921875 33.5971527099609375 33.570621490478515625 33.583621978759765625 33.6403656005859375 33.715541839599609375 33.906558990478515625 34.431194305419921875 35.16678619384765625 35.917942047119140625 36.0301055908203125 34.962131500244140625 34.022594451904296875 33.310333251953125 32.916698455810546875 32.760265350341796875 32.703311920166015625 32.611392974853515625 32.2528076171875 31.842153549194335938 31.55222320556640625 31.410276412963867188 31.421148300170898438 31.187610626220703125 30.747804641723632812 30.453195571899414062 30.202939987182617188 29.97972869873046875 29.711378097534179688 29.463747024536132812 29.228488922119140625 28.97873687744140625 28.717327117919921875 28.44805908203125 28.166110992431640625 27.876941680908203125 27.521038055419921875 27.432001113891601562 27.22936248779296875 26.728036880493164062 26.58060455322265625 26.56665802001953125 26.55788421630859375 26.548313140869140625 26.53766632080078125 26.526153564453125 26.513444900512695312 26.499818801879882812 26.485017776489257812 26.46958160400390625 26.453329086303710938 26.436847686767578125 26.419940948486328125 26.403203964233398438 26.333271026611328125 26.269971847534179688 26.248495101928710938 26.227420806884765625 26.205224990844726562 26.182573318481445312 26.159151077270507812 26.135822296142578125 26.112272262573242188 26.089452743530273438 26.06745147705078125 26.047632217407226562 26.030389785766601562 26.016969680786132812 26.00797271728515625 26.004535675048828125 26.00785064697265625 26.018888473510742188 26.03931427001953125 26.069580078125 26.111331939697265625 26.162349700927734375 26.222362518310546875 26.287725448608398438 26.358434677124023438 26.43070220947265625 26.50559234619140625 26.58089447021484375 26.658929824829101562 26.73760223388671875 26.8192901611328125 26.900661468505859375 26.980207443237304688 27.050531387329101562 27.108118057250976562 27.14618682861328125 27.160976409912109375 27.152156829833984375 27.123968124389648438 27.082994461059570312 27.033689498901367188 26.983083724975585938 26.93392181396484375 26.888654708862304688 26.845516204833984375 26.805246353149414062 26.766099929809570312 26.728788375854492188 26.69211578369140625 26.657470703125 26.624172210693359375 26.59357452392578125 26.565092086791992188 26.53946685791015625 26.514909744262695312 26.490823745727539062 26.465057373046875 26.437044143676757812 26.404809951782226562 26.369569778442382812 26.33159637451171875 26.293581008911132812 26.255908966064453125 26.2211456298828125 26.188379287719726562 26.156513214111328125 26.121540069580078125 26.081560134887695312 26.03228759765625 25.973270416259765625 25.904668807983398438 25.833560943603515625 25.763301849365234375 25.7014617919921875 25.651365280151367188 25.616792678833007812 25.594110488891601562 25.580038070678710938 25.569927215576171875 25.56005096435546875 25.546749114990234375 25.529901504516601562 25.510416030883789062 25.490505218505859375 25.471221923828125 25.454715728759765625 25.441438674926757812 25.431898117065429688 25.425609588623046875 25.422603607177734375 25.422588348388671875 25.425287246704101562 25.4300994873046875 25.436014175415039062 25.44228363037109375 25.447820663452148438 25.451917648315429688 25.45388031005859375 25.45360565185546875 25.451007843017578125 25.445955276489257812 25.438463211059570312 25.4273834228515625 25.409801483154296875 25.380739212036132812 25.336334228515625 25.27081298828125 25.181921005249023438 25.067678451538085938 24.936349868774414062 24.790861129760742188 24.641633987426757812 24.490777969360351562 24.345428466796875 24.195863723754882812 24.036611557006835938 23.853237152099609375 23.64055633544921875 23.38472747802734375 23.09331512451171875 22.769884109497070312 22.435703277587890625 22.094944000244140625 21.769433975219726562 21.458810806274414062 21.171163558959960938 20.893890380859375 20.629741668701171875 20.36669158935546875 20.106931686401367188 19.839216232299804688 19.566228866577148438 19.277025222778320312 18.9746246337890625 18.647975921630859375 18.305772781372070312 17.9498443603515625 17.602369308471679688 17.2685089111328125 16.97052764892578125 16.711803436279296875 16.500196456909179688 16.321523666381835938 16.171319961547851562 16.035905838012695312 15.909620285034179688 15.783685684204101562 15.661569595336914062 15.543164253234863281 15.434078216552734375 15.334490776062011719 15.248900413513183594 15.174138069152832031 15.108865737915039062 15.047923088073730469 14.989160537719726562 14.927977561950683594 14.864140510559082031 14.798005104064941406 14.733380317687988281 14.671518325805664062 14.616277694702148438 14.568269729614257812 14.528166770935058594 14.492972373962402344 14.46126556396484375 14.430164337158203125 14.398151397705078125 14.363658905029296875 14.327676773071289062 14.290507316589355469 14.253635406494140625 14.217316627502441406 14.1828460693359375 14.149677276611328125 14.118055343627929688 14.087096214294433594 14.0569305419921875 14.026749610900878906 13.996758460998535156 13.966434478759765625 13.936121940612792969 13.90535736083984375 13.874482154846191406 13.84329986572265625 13.813068389892578125 13.784586906433105469 13.759535789489746094 13.738722801208496094 13.723696708679199219 13.714457511901855469 13.710872650146484375 13.712047576904296875 13.717514991760253906 13.7265167236328125 13.738462448120117188 13.75270843505859375 13.768581390380859375 13.78551483154296875 13.802771568298339844 13.819840431213378906 13.83597564697265625 13.850757598876953125 13.863451957702636719 13.87366485595703125 13.880665779113769531 
30.63794708251953125 30.630176544189453125 30.644586563110351562 30.688020706176757812 30.721452713012695312 30.71408843994140625 30.6512298583984375 30.590345382690429688 30.609310150146484375 30.627721786499023438 30.62433624267578125 30.611131668090820312 30.601160049438476562 30.620046615600585938 30.6416473388671875 30.640554428100585938 30.625524520874023438 30.612676620483398438 30.599275588989257812 30.585493087768554688 30.562837600708007812 30.542139053344726562 30.527441024780273438 30.56465911865234375 30.655202865600585938 30.719507217407226562 30.905096054077148438 31.062932968139648438 31.108180999755859375 31.37557220458984375 31.572118759155273438 31.630258560180664062 31.813398361206054688 32.14083099365234375 32.507755279541015625 32.876789093017578125 33.281269073486328125 33.53217315673828125 33.57439422607421875 33.70212554931640625 33.819835662841796875 33.73877716064453125 33.5853424072265625 33.534008026123046875 33.53802490234375 33.57875823974609375 33.651332855224609375 33.745624542236328125 33.992839813232421875 34.656795501708984375 35.729400634765625 36.113124847412109375 35.605091094970703125 34.44858551025390625 33.66864776611328125 33.228176116943359375 32.893184661865234375 32.73014068603515625 32.646221160888671875 32.438335418701171875 32.052143096923828125 31.69741058349609375 31.523464202880859375 31.4435882568359375 31.3421630859375 30.997514724731445312 30.609083175659179688 30.353668212890625 30.106067657470703125 29.887247085571289062 29.620531082153320312 29.38059234619140625 29.122196197509765625 28.852315902709960938 28.564939498901367188 28.259962081909179688 27.922315597534179688 27.534488677978515625 27.00466156005859375 26.629720687866210938 26.596776962280273438 26.584169387817382812 26.577676773071289062 26.570413589477539062 26.562145233154296875 26.553022384643554688 26.542760848999023438 26.531557083129882812 26.51908111572265625 26.505603790283203125 26.490861892700195312 26.475404739379882812 26.459054946899414062 26.442411422729492188 26.425275802612304688 26.40825653076171875 26.325899124145507812 26.253984451293945312 26.234981536865234375 26.216043472290039062 26.195466995239257812 26.173994064331054688 26.151493072509765625 26.128971099853515625 26.106290817260742188 26.08451080322265625 26.063772201538085938 26.045362472534179688 26.029668807983398438 26.017841339111328125 26.010501861572265625 26.008863449096679688 26.014513015747070312 26.028738021850585938 26.053709030151367188 26.090106964111328125 26.139966964721679688 26.200452804565429688 26.27086639404296875 26.346546173095703125 26.427028656005859375 26.507574081420898438 26.588899612426757812 26.6682891845703125 26.747823715209960938 26.8250885009765625 26.90207672119140625 26.97554779052734375 27.044219970703125 27.101802825927734375 27.145196914672851562 27.1688385009765625 27.169315338134765625 27.147279739379882812 27.106981277465820312 27.055683135986328125 26.997888565063476562 26.94118499755859375 26.888280868530273438 26.841390609741210938 26.798154830932617188 26.75875091552734375 26.72089385986328125 26.68476104736328125 26.64897918701171875 26.615001678466796875 26.582317352294921875 26.55240631103515625 26.52484130859375 26.500423431396484375 26.477367401123046875 26.45494842529296875 26.430978775024414062 26.404756546020507812 26.37427520751953125 26.34066009521484375 26.30422210693359375 26.267597198486328125 26.231204986572265625 26.197566986083984375 26.16582489013671875 26.134881973266601562 26.10080718994140625 26.061727523803710938 26.013433456420898438 25.955478668212890625 25.888034820556640625 25.818088531494140625 25.748966217041015625 25.688140869140625 25.638898849487304688 25.604913711547851562 25.582441329956054688 25.56806182861328125 25.556985855102539062 25.545377731323242188 25.529462814331054688 25.50937652587890625 25.4862823486328125 25.462869644165039062 25.440462112426757812 25.421644210815429688 25.406917572021484375 25.3966217041015625 25.389936447143554688 25.386598587036132812 25.385992050170898438 25.387598037719726562 25.390689849853515625 25.39430999755859375 25.3976593017578125 25.399747848510742188 25.399805068969726562 25.397390365600585938 25.392566680908203125 25.385705947875976562 25.376880645751953125 25.366542816162109375 25.35375213623046875 25.335859298706054688 25.308002471923828125 25.266452789306640625 25.2056427001953125 25.123289108276367188 25.017316818237304688 24.895107269287109375 24.759077072143554688 24.618623733520507812 24.4753570556640625 24.335588455200195312 24.189573287963867188 24.03167724609375 23.847539901733398438 23.631952285766601562 23.371065139770507812 23.072820663452148438 22.74115753173828125 22.398130416870117188 22.048261642456054688 21.714193344116210938 21.395732879638671875 21.101213455200195312 20.817682266235351562 20.547914505004882812 20.27956390380859375 20.014787673950195312 19.741956710815429688 19.463565826416015625 19.168201446533203125 18.85869598388671875 18.52353668212890625 18.171709060668945312 17.805742263793945312 17.449277877807617188 17.108495712280273438 16.80712127685546875 16.549379348754882812 16.343130111694335938 16.173254013061523438 16.034048080444335938 15.910922050476074219 15.796869277954101562 15.682588577270507812 15.570950508117675781 15.461961746215820312 15.360860824584960938 15.267904281616210938 15.187344551086425781 15.116379737854003906 15.053975105285644531 14.995509147644042969 14.939219474792480469 14.880982398986816406 14.820699691772460938 14.758591651916503906 14.698086738586425781 14.640198707580566406 14.588387489318847656 14.543111801147460938 14.505022048950195312 14.471423149108886719 14.441112518310546875 14.411504745483398438 14.381297111511230469 14.348997116088867188 14.315358161926269531 14.28043365478515625 14.245374679565429688 14.210201263427734375 14.175975799560546875 14.142266273498535156 14.10955047607421875 14.077210426330566406 14.045652389526367188 14.014300346374511719 13.983534812927246094 13.952831268310546875 13.922544479370117188 13.892186164855957031 13.862100601196289062 13.832052230834960938 13.803206443786621094 13.776250839233398438 13.752724647521972656 13.733334541320800781 13.719491958618164062 13.711176872253417969 13.708269119262695312 13.709947586059570312 13.715787887573242188 13.72509002685546875 13.737307548522949219 13.7518310546875 13.768014907836914062 13.785314559936523438 13.803022384643554688 13.820638656616210938 13.837359428405761719 13.852644920349121094 13.865599632263183594 13.875708580017089844 13.882086753845214844 
30.657726287841796875 30.65445709228515625 30.687000274658203125 30.709760665893554688 30.721923828125 30.733522415161132812 30.7503662109375 30.768598556518554688 30.751638412475585938 30.684949874877929688 30.582338333129882812 30.579189300537109375 30.5987548828125 30.636743545532226562 30.668628692626953125 30.673404693603515625 30.653039932250976562 30.643640518188476562 30.619554519653320312 30.602935791015625 30.589601516723632812 30.571100234985351562 30.566671371459960938 30.61944580078125 30.685914993286132812 30.77675628662109375 31.009679794311523438 31.120594024658203125 31.220331192016601562 31.542165756225585938 31.626333236694335938 31.715719223022460938 31.9608154296875 32.31909942626953125 32.726779937744140625 33.084850311279296875 33.360530853271484375 33.482151031494140625 33.543567657470703125 33.695026397705078125 33.730289459228515625 33.58426666259765625 33.491302490234375 33.485851287841796875 33.510684967041015625 33.61600494384765625 33.687572479248046875 33.796051025390625 34.038661956787109375 34.569042205810546875 35.472927093505859375 36.01953125 35.168666839599609375 34.042270660400390625 33.484344482421875 33.142894744873046875 32.858783721923828125 32.689701080322265625 32.52703857421875 32.24391937255859375 31.879682540893554688 31.618930816650390625 31.551206588745117188 31.473833084106445312 31.2465057373046875 30.8396759033203125 30.508142471313476562 30.274173736572265625 30.019792556762695312 29.792789459228515625 29.549200057983398438 29.297700881958007812 29.0186614990234375 28.731441497802734375 28.423429489135742188 28.093919754028320312 27.729135513305664062 27.328336715698242188 26.877885818481445312 26.610063552856445312 26.59085845947265625 26.585842132568359375 26.579923629760742188 26.573192596435546875 26.565412521362304688 26.556720733642578125 26.546833038330078125 26.5359344482421875 26.523691177368164062 26.5103607177734375 26.495685577392578125 26.48021697998046875 26.46378326416015625 26.446992874145507812 26.429647445678710938 26.4123687744140625 26.31931304931640625 26.240041732788085938 26.223217010498046875 26.206155776977539062 26.187032699584960938 26.166660308837890625 26.145059585571289062 26.123346328735351562 26.101537704467773438 26.08077239990234375 26.061250686645507812 26.044206619262695312 26.03003692626953125 26.01982879638671875 26.014238357543945312 26.014570236206054688 26.022813796997070312 26.040557861328125 26.070489883422851562 26.113508224487304688 26.172031402587890625 26.242511749267578125 26.323724746704101562 26.409872055053710938 26.499925613403320312 26.588100433349609375 26.674724578857421875 26.7566986083984375 26.835927963256835938 26.909847259521484375 26.980113983154296875 27.0437469482421875 27.099752426147460938 27.143115997314453125 27.171237945556640625 27.17990875244140625 27.166158676147460938 27.131589889526367188 27.080312728881835938 27.020044326782226562 26.955188751220703125 26.89365386962890625 26.838018417358398438 26.79022979736328125 26.747423171997070312 26.709262847900390625 26.672998428344726562 26.638317108154296875 26.603694915771484375 26.570606231689453125 26.538661956787109375 26.50942230224609375 26.482580184936523438 26.458988189697265625 26.436914443969726562 26.415605545043945312 26.392911911010742188 26.368099212646484375 26.339197158813476562 26.307247161865234375 26.272542953491210938 26.237598419189453125 26.202816009521484375 26.170604705810546875 26.140127182006835938 26.110332489013671875 26.077428817749023438 26.039615631103515625 25.992830276489257812 25.9366607666015625 25.8712615966796875 25.803392410278320312 25.736253738403320312 25.677080154418945312 25.629024505615234375 25.595600128173828125 25.573055267333984375 25.557962417602539062 25.545507431030273438 25.531896591186523438 25.513332366943359375 25.490203857421875 25.463857650756835938 25.43737030029296875 25.412258148193359375 25.391454696655273438 25.375467300415039062 25.364480972290039062 25.357358932495117188 25.353567123413085938 25.35218048095703125 25.352466583251953125 25.3535614013671875 25.35456085205078125 25.35459136962890625 25.352764129638671875 25.348215103149414062 25.340772628784179688 25.3306427001953125 25.318675994873046875 25.305118560791015625 25.290897369384765625 25.275262832641601562 25.255952835083007812 25.22833251953125 25.188955307006835938 25.132574081420898438 25.057004928588867188 24.960065841674804688 24.84809112548828125 24.722822189331054688 24.592412948608398438 24.457828521728515625 24.3244171142578125 24.18251800537109375 24.026510238647460938 23.842298507690429688 23.6248321533203125 23.360422134399414062 23.057268142700195312 22.719400405883789062 22.369222640991210938 22.011295318603515625 21.668661117553710938 21.341115951538085938 21.037433624267578125 20.744611740112304688 20.465864181518554688 20.188795089721679688 19.91595458984375 19.635488510131835938 19.349933624267578125 19.04749298095703125 18.731000900268554688 18.388599395751953125 18.029542922973632812 17.656801223754882812 17.295022964477539062 16.95107269287109375 16.649629592895507812 16.395498275756835938 16.196344375610351562 16.036230087280273438 15.908273696899414062 15.797100067138671875 15.694452285766601562 15.590606689453125 15.488006591796875 15.386905670166015625 15.2923583984375 15.20482635498046875 15.128466606140136719 15.060822486877441406 15.001104354858398438 14.945109367370605469 14.891377449035644531 14.836161613464355469 14.779442787170410156 14.721302986145019531 14.664805412292480469 14.610738754272460938 14.562183380126953125 14.519463539123535156 14.483219146728515625 14.451058387756347656 14.422016143798828125 14.393805503845214844 14.365352630615234375 14.335232734680175781 14.303930282592773438 14.271214485168457031 14.237872123718261719 14.203653335571289062 14.16936492919921875 14.134715080261230469 14.10047149658203125 14.0663299560546875 14.03304290771484375 14.00030517578125 13.968697547912597656 13.937664031982421875 13.907544136047363281 13.877790451049804688 13.848711967468261719 13.820013046264648438 13.792750358581542969 13.767499923706054688 13.745653152465820312 13.727812767028808594 13.715254783630371094 13.707938194274902344 13.705767631530761719 13.707997322082519531 13.714253425598144531 13.723906517028808594 13.736460685729980469 13.751331329345703125 13.767888069152832031 13.785607337951660156 13.803791999816894531 13.821953773498535156 13.839231491088867188 13.854974746704101562 13.868161201477050781 13.878160476684570312 13.883950233459472656 
30.667755126953125 30.68381500244140625 30.715951919555664062 30.730169296264648438 30.729654312133789062 30.7396392822265625 30.75182342529296875 30.758069992065429688 30.79061126708984375 30.825410842895507812 30.759679794311523438 30.594808578491210938 30.499393463134765625 30.595689773559570312 30.669195175170898438 30.690710067749023438 30.671810150146484375 30.648195266723632812 30.62958526611328125 30.617755889892578125 30.60919952392578125 30.596645355224609375 30.625608444213867188 30.65024566650390625 30.673839569091796875 30.856494903564453125 31.111181259155273438 31.121416091918945312 31.378206253051757812 31.6499176025390625 31.67504119873046875 31.8687744140625 32.1946258544921875 32.605052947998046875 33.104343414306640625 33.393238067626953125 33.528324127197265625 33.50411224365234375 33.56880950927734375 33.721858978271484375 33.71050262451171875 33.5368804931640625 33.390796661376953125 33.36077117919921875 33.4675445556640625 33.620136260986328125 33.664096832275390625 33.7778167724609375 34.0293426513671875 34.485050201416015625 35.3305816650390625 36.068141937255859375 35.17108917236328125 34.027812957763671875 33.529865264892578125 33.080841064453125 32.817626953125 32.6186676025390625 32.38350677490234375 32.07352447509765625 31.756656646728515625 31.623788833618164062 31.59030914306640625 31.461721420288085938 31.13771820068359375 30.723924636840820312 30.434766769409179688 30.206991195678710938 29.9471435546875 29.720865249633789062 29.482206344604492188 29.21209716796875 28.921924591064453125 28.62305450439453125 28.302984237670898438 27.963232040405273438 27.595827102661132812 27.213968276977539062 26.824188232421875 26.606487274169921875 26.590963363647460938 26.58649444580078125 26.581104278564453125 26.574859619140625 26.567531585693359375 26.559238433837890625 26.549695968627929688 26.539081573486328125 26.5270538330078125 26.513864517211914062 26.499256134033203125 26.483785629272460938 26.467283248901367188 26.450365066528320312 26.432832717895507812 26.415323257446289062 26.313419342041015625 26.228061676025390625 26.213039398193359375 26.1975860595703125 26.1798248291015625 26.160593032836914062 26.140012741088867188 26.119243621826171875 26.098398208618164062 26.078653335571289062 26.060276031494140625 26.044492721557617188 26.031755447387695312 26.023130416870117188 26.019351959228515625 26.021823883056640625 26.032909393310546875 26.054452896118164062 26.089618682861328125 26.139474868774414062 26.206773757934570312 26.287204742431640625 26.378950119018554688 26.47502899169921875 26.573759078979492188 26.6682891845703125 26.758556365966796875 26.84125518798828125 26.91822052001953125 26.986940383911132812 27.048847198486328125 27.10138702392578125 27.1438751220703125 27.172607421875 27.185495376586914062 27.179691314697265625 27.152685165405273438 27.106927871704101562 27.046289443969726562 26.978719711303710938 26.908407211303710938 26.843379974365234375 26.7860107421875 26.737974166870117188 26.695987701416015625 26.659275054931640625 26.6247100830078125 26.591554641723632812 26.558156967163085938 26.525991439819335938 26.494764328002929688 26.4660797119140625 26.439723968505859375 26.416601181030273438 26.395067214965820312 26.374423980712890625 26.352619171142578125 26.32895660400390625 26.3015594482421875 26.271381378173828125 26.238651275634765625 26.205694198608398438 26.172840118408203125 26.1423187255859375 26.113302230834960938 26.084789276123046875 26.053188323974609375 26.016809463500976562 25.971796035766601562 25.917776107788085938 25.854879379272460938 25.789541244506835938 25.724761962890625 25.667432785034179688 25.620502471923828125 25.587320327758789062 25.56421661376953125 25.54792022705078125 25.533725738525390625 25.518037796020507812 25.497137069702148438 25.471624374389648438 25.44292449951171875 25.41432952880859375 25.387439727783203125 25.365375518798828125 25.348613739013671875 25.337192535400390625 25.32973480224609375 25.325494766235351562 25.323301315307617188 25.322254180908203125 25.321344375610351562 25.31967926025390625 25.316267013549804688 25.310277938842773438 25.3007049560546875 25.287641525268554688 25.271434783935546875 25.25345611572265625 25.234128952026367188 25.214895248413085938 25.195215225219726562 25.173315048217773438 25.144845962524414062 25.106781005859375 25.05426025390625 24.985303878784179688 24.897609710693359375 24.79636383056640625 24.682516098022460938 24.562833786010742188 24.437534332275390625 24.310930252075195312 24.173585891723632812 24.020090103149414062 23.83684539794921875 23.619150161743164062 23.353672027587890625 23.048666000366210938 22.707851409912109375 22.353366851806640625 21.98934173583984375 21.638647079467773438 21.300825119018554688 20.985364913940429688 20.679704666137695312 20.388097763061523438 20.09854888916015625 19.8145904541015625 19.524312973022460938 19.230440139770507812 18.920770645141601562 18.598186492919921875 18.2505035400390625 17.887125015258789062 17.511186599731445312 17.147844314575195312 16.804300308227539062 16.5056915283203125 16.25711822509765625 16.065900802612304688 15.915510177612304688 15.798059463500976562 15.69759368896484375 15.604825019836425781 15.509751319885253906 15.414534568786621094 15.31974029541015625 15.230370521545410156 15.147149085998535156 15.074255943298339844 15.009520530700683594 14.952317237854003906 14.898753166198730469 14.847560882568359375 14.7952728271484375 14.741893768310546875 14.687390327453613281 14.634504318237304688 14.583842277526855469 14.538153648376464844 14.497655868530273438 14.462993621826171875 14.432057380676269531 14.404102325439453125 14.377117156982421875 14.350244522094726562 14.322116851806640625 14.29294586181640625 14.262228012084960938 14.230393409729003906 14.196919441223144531 14.162373542785644531 14.126608848571777344 14.090703964233398438 14.0546875 14.019671440124511719 13.985632896423339844 13.953356742858886719 13.9222259521484375 13.892529487609863281 13.863630294799804688 13.835762977600097656 13.808552742004394531 13.782944679260253906 13.759413719177246094 13.739217758178710938 13.722866058349609375 13.711507797241210938 13.705097198486328125 13.703572273254394531 13.706279754638671875 13.712909698486328125 13.722909927368164062 13.735838890075683594 13.751128196716308594 13.768137931823730469 13.786342620849609375 13.805034637451171875 13.823714256286621094 13.841469764709472656 13.857580184936523438 13.870924949645996094 13.880799293518066406 13.886080741882324219 
30.673191070556640625 30.696178436279296875 30.72550201416015625 30.72614288330078125 30.716245651245117188 30.728548049926757812 30.763154983520507812 30.760019302368164062 30.758356094360351562 30.773729324340820312 30.77942657470703125 30.745288848876953125 30.67900848388671875 30.61638641357421875 30.568578720092773438 30.609020233154296875 30.635616302490234375 30.668779373168945312 30.66241455078125 30.649852752685546875 30.62503814697265625 30.6220703125 30.638017654418945312 30.643682479858398438 30.698801040649414062 30.91896820068359375 31.108690261840820312 31.146867752075195312 31.505895614624023438 31.69269561767578125 31.753885269165039062 32.058074951171875 32.44097900390625 32.911388397216796875 33.34311676025390625 33.522266387939453125 33.57497406005859375 33.5845947265625 33.62744903564453125 33.647216796875 33.609561920166015625 33.471912384033203125 33.304042816162109375 33.24649810791015625 33.41184234619140625 33.561065673828125 33.628841400146484375 33.757564544677734375 34.057430267333984375 34.63077545166015625 35.5802764892578125 36.011077880859375 35.039676666259765625 33.901294708251953125 33.365936279296875 33.015346527099609375 32.772129058837890625 32.528850555419921875 32.249721527099609375 31.933362960815429688 31.697566986083984375 31.665159225463867188 31.610456466674804688 31.410509109497070312 31.019273757934570312 30.633291244506835938 30.3641510009765625 30.135179519653320312 29.870449066162109375 29.660531997680664062 29.409666061401367188 29.127038955688476562 28.830310821533203125 28.525064468383789062 28.200397491455078125 27.860540390014648438 27.502084732055664062 27.143329620361328125 26.793712615966796875 26.60345458984375 26.590051651000976562 26.586090087890625 26.58118438720703125 26.575389862060546875 26.5684814453125 26.560556411743164062 26.551340103149414062 26.540990829467773438 26.529165267944335938 26.516111373901367188 26.5015716552734375 26.486101150512695312 26.469539642333984375 26.45250701904296875 26.43480682373046875 26.417085647583007812 26.307744979858398438 26.217197418212890625 26.203626632690429688 26.18961334228515625 26.173276901245117188 26.155424118041992188 26.136190414428710938 26.11669158935546875 26.097057342529296875 26.078439712524414062 26.061185836791992188 26.046579360961914062 26.035200119018554688 26.028158187866210938 26.02634429931640625 26.031259536743164062 26.045612335205078125 26.07141876220703125 26.112270355224609375 26.1693267822265625 26.245622634887695312 26.336009979248046875 26.438007354736328125 26.543397903442382812 26.649749755859375 26.749134063720703125 26.841096878051757812 26.922351837158203125 26.994798660278320312 27.056243896484375 27.10802459716796875 27.14821624755859375 27.17644500732421875 27.19029998779296875 27.188169479370117188 27.168519973754882812 27.129289627075195312 27.0736541748046875 27.005159378051757812 26.931812286376953125 26.85748291015625 26.790143966674804688 26.73191070556640625 26.684169769287109375 26.643310546875 26.608167648315429688 26.575313568115234375 26.543643951416015625 26.511409759521484375 26.480073928833007812 26.449428558349609375 26.421117782592773438 26.39499664306640625 26.372043609619140625 26.350725173950195312 26.33046722412109375 26.30934906005859375 26.28678131103515625 26.261013031005859375 26.2328948974609375 26.202545166015625 26.17201995849609375 26.141523361206054688 26.113031387329101562 26.085699081420898438 26.058595657348632812 26.028367996215820312 25.993482589721679688 25.95032501220703125 25.898599624633789062 25.838382720947265625 25.775714874267578125 25.713329315185546875 25.657705307006835938 25.611515045166015625 25.577966690063476562 25.55358123779296875 25.535436630249023438 25.519086837768554688 25.501312255859375 25.478593826293945312 25.451677322387695312 25.421918869018554688 25.392599105834960938 25.36525726318359375 25.342981338500976562 25.32616424560546875 25.314731597900390625 25.307163238525390625 25.302581787109375 25.299671173095703125 25.297414779663085938 25.29463958740234375 25.290384292602539062 25.283468246459960938 25.273035049438476562 25.2578582763671875 25.238290786743164062 25.214845657348632812 25.189519882202148438 25.16294097900390625 25.137182235717773438 25.111932754516601562 25.086040496826171875 25.055484771728515625 25.0177764892578125 24.96849822998046875 24.90596771240234375 24.827749252319335938 24.737762451171875 24.636051177978515625 24.527845382690429688 24.412508010864257812 24.293256759643554688 24.1610565185546875 24.0109405517578125 23.830112457275390625 23.614442825317382812 23.351205825805664062 23.048427581787109375 22.70897674560546875 22.353900909423828125 21.986286163330078125 21.628038406372070312 21.278156280517578125 20.94725799560546875 20.623889923095703125 20.314235687255859375 20.00732421875 19.70849609375 19.40598297119140625 19.1027374267578125 18.786006927490234375 18.458629608154296875 18.107997894287109375 17.743442535400390625 17.367971420288085938 17.006771087646484375 16.66706085205078125 16.373918533325195312 16.132486343383789062 15.949649810791015625 15.808533668518066406 15.70050048828125 15.609256744384765625 15.5247650146484375 15.436902999877929688 15.347670555114746094 15.2579498291015625 15.172771453857421875 15.093136787414550781 15.023291587829589844 14.961297988891601562 14.906612396240234375 14.855550765991210938 14.806941032409667969 14.757501602172851562 14.707217216491699219 14.655969619750976562 14.606242179870605469 14.55850982666015625 14.515261650085449219 14.476642608642578125 14.443309783935546875 14.413399696350097656 14.386366844177246094 14.360439300537109375 14.3349456787109375 14.308558464050292969 14.281253814697265625 14.252270698547363281 14.221709251403808594 14.188805580139160156 14.153901100158691406 14.117011070251464844 14.079522132873535156 14.041783332824707031 14.005272865295410156 13.970253944396972656 13.937685012817382812 13.906864166259765625 13.877985000610351562 13.850291252136230469 13.823899269104003906 13.798336982727050781 13.774430274963378906 13.752577781677246094 13.733921051025390625 13.718896865844726562 13.708544731140136719 13.702832221984863281 13.701760292053222656 13.704779624938964844 13.711669921875 13.721978187561035156 13.735320091247558594 13.751128196716308594 13.768713951110839844 13.78751373291015625 13.806773185729980469 13.825953483581542969 13.844092369079589844 13.860446929931640625 13.873849868774414062 13.883568763732910156 13.888438224792480469 
30.698247909545898438 30.720872879028320312 30.7374267578125 30.734317779541015625 30.7318115234375 30.724040985107421875 30.748319625854492188 30.748842239379882812 30.75678253173828125 30.77664947509765625 30.783666610717773438 30.7707061767578125 30.747755050659179688 30.730592727661132812 30.694061279296875 30.671285629272460938 30.607110977172851562 30.610601425170898438 30.639509201049804688 30.671155929565429688 30.653394699096679688 30.66706085205078125 30.642072677612304688 30.648553848266601562 30.731519699096679688 30.9088592529296875 31.0359344482421875 31.236490249633789062 31.601072311401367188 31.744611740112304688 31.92224884033203125 32.24853515625 32.654880523681640625 33.13668060302734375 33.47122955322265625 33.552165985107421875 33.557056427001953125 33.62445831298828125 33.662143707275390625 33.62253570556640625 33.5537261962890625 33.41161346435546875 33.221813201904296875 33.2349853515625 33.4414215087890625 33.546237945556640625 33.65726470947265625 33.851959228515625 34.2676239013671875 35.01158905029296875 35.960865020751953125 35.925853729248046875 34.757965087890625 33.807071685791015625 33.238315582275390625 32.94644927978515625 32.710132598876953125 32.42897796630859375 32.12532806396484375 31.82718658447265625 31.689485549926757812 31.699611663818359375 31.604673385620117188 31.333261489868164062 30.907215118408203125 30.559001922607421875 30.3037109375 30.067941665649414062 29.790836334228515625 29.594659805297851562 29.337301254272460938 29.04742431640625 28.747287750244140625 28.439838409423828125 28.115709304809570312 27.7810516357421875 27.43488311767578125 27.096235275268554688 26.773611068725585938 26.600133895874023438 26.588125228881835938 26.584604263305664062 26.580125808715820312 26.574728012084960938 26.56818389892578125 26.560586929321289062 26.551654815673828125 26.541538238525390625 26.529893875122070312 26.51696014404296875 26.50247955322265625 26.487012863159179688 26.470401763916015625 26.453271865844726562 26.435426712036132812 26.417522430419921875 26.302215576171875 26.20737457275390625 26.1948699951171875 26.1821441650390625 26.167346954345703125 26.151178359985351562 26.133701324462890625 26.115879058837890625 26.0977630615234375 26.080400466918945312 26.064245223999023438 26.05071258544921875 26.040582656860351562 26.035100936889648438 26.035381317138671875 26.043031692504882812 26.061031341552734375 26.091466903686523438 26.138254165649414062 26.202548980712890625 26.287578582763671875 26.387332916259765625 26.498645782470703125 26.612079620361328125 26.724414825439453125 26.8267059326171875 26.918130874633789062 26.995676040649414062 27.061456680297851562 27.113857269287109375 27.154302597045898438 27.18164825439453125 27.195802688598632812 27.195528030395507812 27.179582595825195312 27.147596359252929688 27.097871780395507812 27.034160614013671875 26.959619522094726562 26.882162094116210938 26.805292129516601562 26.736782073974609375 26.67845916748046875 26.631441116333007812 26.591859817504882812 26.558244705200195312 26.526929855346679688 26.49652862548828125 26.465219497680664062 26.434473037719726562 26.404157638549804688 26.375970840454101562 26.349828720092773438 26.326799392700195312 26.30548095703125 26.285448074340820312 26.264949798583984375 26.243524551391601562 26.219575881958007812 26.193826675415039062 26.166238784790039062 26.1385345458984375 26.11075592041015625 26.0845489501953125 26.059030532836914062 26.033349990844726562 26.004421234130859375 25.970891952514648438 25.929418563842773438 25.879800796508789062 25.822052001953125 25.761791229248046875 25.701440811157226562 25.647035598754882812 25.600933074951171875 25.566244125366210938 25.539791107177734375 25.519176483154296875 25.500360488891601562 25.480663299560546875 25.456880569458007812 25.429813385009765625 25.400579452514648438 25.37220001220703125 25.345979690551757812 25.324733734130859375 25.308721542358398438 25.297784805297851562 25.290403366088867188 25.285663604736328125 25.2822265625 25.2790374755859375 25.274744033813476562 25.268218994140625 25.258001327514648438 25.243114471435546875 25.222026824951171875 25.195325851440429688 25.163732528686523438 25.129955291748046875 25.094865798950195312 25.061281204223632812 25.029144287109375 24.998006820678710938 24.964191436767578125 24.925817489624023438 24.878936767578125 24.822216033935546875 24.753068923950195312 24.674127578735351562 24.58446502685546875 24.487737655639648438 24.382398605346679688 24.270586013793945312 24.143838882446289062 23.997882843017578125 23.82097625732421875 23.609796524047851562 23.352451324462890625 23.0564117431640625 22.723140716552734375 22.371702194213867188 22.003492355346679688 21.6386260986328125 21.275224685668945312 20.925477981567382812 20.57978057861328125 20.24715423583984375 19.918359756469726562 19.601388931274414062 19.284814834594726562 18.971792221069335938 18.6488037109375 18.3184814453125 17.967638015747070312 17.605245590209960938 17.233907699584960938 16.87835693359375 16.545522689819335938 16.25994873046875 16.02657318115234375 15.851802825927734375 15.718718528747558594 15.618269920349121094 15.534123420715332031 15.455849647521972656 15.373379707336425781 15.288649559020996094 15.202816009521484375 15.120955467224121094 15.0443115234375 14.977190017700195312 14.917816162109375 14.865644454956054688 14.81710052490234375 14.771013259887695312 14.724202156066894531 14.676594734191894531 14.628030776977539062 14.58081817626953125 14.535365104675292969 14.493988037109375 14.456799507141113281 14.424480438232421875 14.395355224609375 14.369032859802246094 14.343926429748535156 14.319509506225585938 14.294482231140136719 14.268633842468261719 14.240991592407226562 14.211398124694824219 14.178891181945800781 14.143643379211425781 14.105811119079589844 14.067064285278320312 14.028039932250976562 13.990541458129882812 13.955079078674316406 13.92275238037109375 13.892748832702636719 13.865124702453613281 13.838978767395019531 13.814272880554199219 13.790418624877929688 13.768137931823730469 13.747782707214355469 13.730401992797851562 13.716398239135742188 13.706727981567382812 13.701395988464355469 13.700489997863769531 13.703585624694824219 13.710568428039550781 13.721103668212890625 13.734879493713378906 13.751291275024414062 13.76956939697265625 13.789063453674316406 13.808928489685058594 13.828555107116699219 13.846945762634277344 13.863379478454589844 13.876704216003417969 13.886226654052734375 13.890799522399902344 
30.729663848876953125 30.741079330444335938 30.7461700439453125 30.744054794311523438 30.738689422607421875 30.73448944091796875 30.736089706420898438 30.736539840698242188 30.753293991088867188 30.768770217895507812 30.8000640869140625 30.819660186767578125 30.775960922241210938 30.743089675903320312 30.749692916870117188 30.76190948486328125 30.736083984375 30.699857711791992188 30.644475936889648438 30.597005844116210938 30.658048629760742188 30.693256378173828125 30.6369171142578125 30.667398452758789062 30.831727981567382812 30.909702301025390625 31.078762054443359375 31.459253311157226562 31.72418212890625 31.846584320068359375 32.1314239501953125 32.470966339111328125 32.873546600341796875 33.335662841796875 33.630992889404296875 33.628772735595703125 33.596294403076171875 33.644428253173828125 33.674373626708984375 33.626506805419921875 33.509429931640625 33.3736724853515625 33.22824859619140625 33.3256988525390625 33.50787353515625 33.586700439453125 33.71074676513671875 33.989009857177734375 34.599956512451171875 35.63965606689453125 36.250762939453125 35.702396392822265625 34.584362030029296875 33.803783416748046875 33.20018768310546875 32.916660308837890625 32.63263702392578125 32.32068634033203125 32.008609771728515625 31.749685287475585938 31.696191787719726562 31.71387481689453125 31.56862640380859375 31.23560333251953125 30.806135177612304688 30.482103347778320312 30.2420806884765625 30.0023345947265625 29.744831085205078125 29.533962249755859375 29.263265609741210938 28.971632003784179688 28.670497894287109375 28.363676071166992188 28.0430450439453125 27.715864181518554688 27.3822479248046875 27.060522079467773438 26.757783889770507812 26.596044540405273438 26.585069656372070312 26.581933975219726562 26.577825546264648438 26.5727691650390625 26.5665435791015625 26.559228897094726562 26.55054473876953125 26.540630340576171875 26.529144287109375 26.516315460205078125 26.501888275146484375 26.486425399780273438 26.469768524169921875 26.45255279541015625 26.434581756591796875 26.416517257690429688 26.298448562622070312 26.201099395751953125 26.18927001953125 26.17766571044921875 26.164514541625976562 26.149980545043945312 26.132862091064453125 26.11695098876953125 26.100748062133789062 26.08487701416015625 26.069915771484375 26.057483673095703125 26.04864501953125 26.044855117797851562 26.047525405883789062 26.058362960815429688 26.080539703369140625 26.1160736083984375 26.1691131591796875 26.2406768798828125 26.3340911865234375 26.442487716674804688 26.562002182006835938 26.682046890258789062 26.79859161376953125 26.901762008666992188 26.990407943725585938 27.062021255493164062 27.11905670166015625 27.160726547241210938 27.188673019409179688 27.202695846557617188 27.202932357788085938 27.1891937255859375 27.16051483154296875 27.117528915405273438 27.0588226318359375 26.988569259643554688 26.90950775146484375 26.829328536987304688 26.751125335693359375 26.682369232177734375 26.624567031860351562 26.578580856323242188 26.540357589721679688 26.50817108154296875 26.478185653686523438 26.448789596557617188 26.418121337890625 26.387685775756835938 26.357427597045898438 26.329118728637695312 26.302745819091796875 26.279476165771484375 26.258058547973632812 26.23822784423828125 26.218418121337890625 26.19830322265625 26.176458358764648438 26.153444290161132812 26.129034042358398438 26.10454559326171875 26.079809188842773438 26.05609130859375 26.032451629638671875 26.008123397827148438 25.980321884155273438 25.947910308837890625 25.907842636108398438 25.860050201416015625 25.804464340209960938 25.74626922607421875 25.68753814697265625 25.63385009765625 25.587205886840820312 25.550662994384765625 25.5214385986328125 25.49781036376953125 25.476268768310546875 25.454816818237304688 25.430660247802734375 25.404567718505859375 25.377277374267578125 25.351312637329101562 25.327602386474609375 25.308462142944335938 25.293972015380859375 25.283933639526367188 25.27693939208984375 25.272153854370117188 25.268321990966796875 25.264417648315429688 25.2589111328125 25.250425338745117188 25.237157821655273438 25.217920303344726562 25.1908111572265625 25.156627655029296875 25.116313934326171875 25.073352813720703125 25.0288848876953125 24.986528396606445312 24.946500778198242188 24.909122467041015625 24.871042251586914062 24.831056594848632812 24.78566741943359375 24.733957290649414062 24.67316436767578125 24.604658126831054688 24.526514053344726562 24.44081878662109375 24.345102310180664062 24.240480422973632812 24.119207382202148438 23.977910995483398438 23.806150436401367188 23.601591110229492188 23.353374481201171875 23.068120956420898438 22.745357513427734375 22.401350021362304688 22.035211563110351562 21.664487838745117188 21.286136627197265625 20.914308547973632812 20.541933059692382812 20.181718826293945312 19.826793670654296875 19.488605499267578125 19.156244277954101562 18.83306884765625 18.504604339599609375 18.173139572143554688 17.8247833251953125 17.46787261962890625 17.104337692260742188 16.757984161376953125 16.435144424438476562 16.159345626831054688 15.935070991516113281 15.768212318420410156 15.642113685607910156 15.547638893127441406 15.468722343444824219 15.394898414611816406 15.316326141357421875 15.234951972961425781 15.152141571044921875 15.073014259338378906 14.999001502990722656 14.934453964233398438 14.877686500549316406 14.828092575073242188 14.782132148742675781 14.738561630249023438 14.69423675537109375 14.648998260498046875 14.602679252624511719 14.5574798583984375 14.513785362243652344 14.473810195922851562 14.437663078308105469 14.406063079833984375 14.377481460571289062 14.351644515991210938 14.327108383178710938 14.303461074829101562 14.279429435729980469 14.254654884338378906 14.228007316589355469 14.199131011962890625 14.166911125183105469 14.131402015686035156 14.092882156372070312 14.053271293640136719 14.013453483581542969 13.975506782531738281 13.940159797668457031 13.908606529235839844 13.879909515380859375 13.853945732116699219 13.829656600952148438 13.806815147399902344 13.784711837768554688 13.763965606689453125 13.7449188232421875 13.728562355041503906 13.715283393859863281 13.705996513366699219 13.700766563415527344 13.699782371520996094 13.702754020690917969 13.709700584411621094 13.720409393310546875 13.734648704528808594 13.751744270324707031 13.770811080932617188 13.791077613830566406 13.811555862426757812 13.831543922424316406 13.850011825561523438 13.866315841674804688 13.879389762878417969 13.888625144958496094 13.892963409423828125 
30.719167709350585938 30.717039108276367188 30.732606887817382812 30.75902557373046875 30.754247665405273438 30.7489471435546875 30.749755859375 30.750371932983398438 30.761913299560546875 30.768955230712890625 30.782995223999023438 30.817686080932617188 30.806118011474609375 30.78878021240234375 30.771350860595703125 30.753362655639648438 30.751117706298828125 30.772747039794921875 30.796123504638671875 30.74530792236328125 30.747579574584960938 30.65579986572265625 30.58890533447265625 30.682142257690429688 30.912916183471679688 31.0108795166015625 31.257066726684570312 31.673292160034179688 31.816158294677734375 32.035961151123046875 32.34575653076171875 32.70835113525390625 33.077587127685546875 33.492031097412109375 33.74533843994140625 33.739345550537109375 33.66968536376953125 33.62224578857421875 33.64269256591796875 33.574554443359375 33.46340179443359375 33.227405548095703125 33.202159881591796875 33.38657379150390625 33.501270294189453125 33.585666656494140625 33.74060821533203125 34.151279449462890625 34.937458038330078125 35.932514190673828125 36.272754669189453125 35.549381256103515625 34.418773651123046875 33.69217681884765625 33.17173004150390625 32.895244598388671875 32.55568695068359375 32.213459014892578125 31.901180267333984375 31.702117919921875 31.705125808715820312 31.714107513427734375 31.510583877563476562 31.12499237060546875 30.708078384399414062 30.402652740478515625 30.183031082153320312 29.936338424682617188 29.692934036254882812 29.480142593383789062 29.194871902465820312 28.90216827392578125 28.601774215698242188 28.297246932983398438 27.98143768310546875 27.662136077880859375 27.339853286743164062 27.031902313232421875 26.744226455688476562 26.59114837646484375 26.58095550537109375 26.578126907348632812 26.574312210083007812 26.569530487060546875 26.56356048583984375 26.5564727783203125 26.547985076904296875 26.538234710693359375 26.526874542236328125 26.514127731323242188 26.4997406005859375 26.484279632568359375 26.467584609985351562 26.450296401977539062 26.432218551635742188 26.414018630981445312 26.34925079345703125 26.291055679321289062 26.275979995727539062 26.2616729736328125 26.247112274169921875 26.22357940673828125 26.146982192993164062 26.119977951049804688 26.106016159057617188 26.091882705688476562 26.078290939331054688 26.067106246948242188 26.059728622436523438 26.057861328125 26.063268661499023438 26.077714920043945312 26.104463577270507812 26.145336151123046875 26.20456695556640625 26.282924652099609375 26.383726119995117188 26.499322891235351562 26.6252288818359375 26.749891281127929688 26.8685455322265625 26.970563888549804688 27.054533004760742188 27.118602752685546875 27.165624618530273438 27.195760726928710938 27.21096038818359375 27.212009429931640625 27.199224472045898438 27.173297882080078125 27.133440017700195312 27.081096649169921875 27.015064239501953125 26.939794540405273438 26.857599258422851562 26.77587127685546875 26.69728851318359375 26.628948211669921875 26.572050094604492188 26.527215957641601562 26.490268707275390625 26.459291458129882812 26.430332183837890625 26.401615142822265625 26.371263504028320312 26.340847015380859375 26.310394287109375 26.281768798828125 26.255041122436523438 26.231489181518554688 26.209997177124023438 26.190458297729492188 26.171472549438476562 26.152845382690429688 26.133302688598632812 26.113225936889648438 26.092172622680664062 26.0710296630859375 26.049390792846679688 26.028116226196289062 26.00618743896484375 25.982950210571289062 25.955926895141601562 25.9242401123046875 25.885145187377929688 25.838741302490234375 25.784883499145507812 25.728326797485351562 25.670785903930664062 25.617404937744140625 25.5698089599609375 25.531042098999023438 25.49874114990234375 25.471927642822265625 25.44766998291015625 25.42470550537109375 25.400691986083984375 25.376300811767578125 25.351808547973632812 25.32910919189453125 25.308664321899414062 25.292173385620117188 25.279508590698242188 25.270475387573242188 25.263864517211914062 25.258993148803710938 25.254770278930664062 25.25026702880859375 25.243791580200195312 25.23370361328125 25.21784210205078125 25.19478607177734375 25.16225433349609375 25.121212005615234375 25.072797775268554688 25.021200180053710938 24.967802047729492188 24.916961669921875 24.86913299560546875 24.82537078857421875 24.782621383666992188 24.740335464477539062 24.695425033569335938 24.647388458251953125 24.593309402465820312 24.533441543579101562 24.464954376220703125 24.38854217529296875 24.300897598266601562 24.202268600463867188 24.085681915283203125 23.948778152465820312 23.78246307373046875 23.585470199584960938 23.348035812377929688 23.075756072998046875 22.765935897827148438 22.431606292724609375 22.069293975830078125 21.693555831909179688 21.300024032592773438 20.904987335205078125 20.504247665405273438 20.114595413208007812 19.731855392456054688 19.371301651000976562 19.022680282592773438 18.68958282470703125 18.356563568115234375 18.025541305541992188 17.68192291259765625 17.333269119262695312 16.980611801147460938 16.646425247192382812 16.33617401123046875 16.07196044921875 15.857598304748535156 15.698431015014648438 15.578338623046875 15.488392829895019531 15.41306304931640625 15.342158317565917969 15.266216278076171875 15.187245368957519531 15.106751441955566406 15.029875755310058594 14.958170890808105469 14.896000862121582031 14.841727256774902344 14.794636726379394531 14.751191139221191406 14.710030555725097656 14.668011665344238281 14.624868392944335938 14.580450057983398438 14.536877632141113281 14.494540214538574219 14.455587387084960938 14.420144081115722656 14.388962745666503906 14.360643386840820312 14.335011482238769531 14.310744285583496094 14.287531852722167969 14.264122962951660156 14.240061759948730469 14.214100837707519531 14.185747146606445312 14.153774261474609375 14.11815643310546875 14.0792694091796875 14.039228439331054688 13.999116897583007812 13.9612274169921875 13.926459312438964844 13.896063804626464844 13.868962287902832031 13.844858169555664062 13.822526931762695312 13.801544189453125 13.7810821533203125 13.761677742004394531 13.743693351745605469 13.728094100952148438 13.715277671813964844 13.706151962280273438 13.700847625732421875 13.699658393859863281 13.702420234680175781 13.709285736083984375 13.720154762268066406 13.734869003295898438 13.752674102783203125 13.772540092468261719 13.793549537658691406 13.814556121826171875 13.834749221801757812 13.853074073791503906 13.86901092529296875 13.881623268127441406 13.890439033508300781 13.894539833068847656 
30.728078842163085938 30.733860015869140625 30.740161895751953125 30.763830184936523438 30.776666641235351562 30.76831817626953125 30.773159027099609375 30.775522232055664062 30.779901504516601562 30.776773452758789062 30.778472900390625 30.80144500732421875 30.814329147338867188 30.811506271362304688 30.789190292358398438 30.771574020385742188 30.771787643432617188 30.762670516967773438 30.7457427978515625 30.773027420043945312 30.812404632568359375 30.801544189453125 30.786462783813476562 30.894887924194335938 31.1011505126953125 31.15289306640625 31.451305389404296875 31.788402557373046875 31.969957351684570312 32.307861328125 32.61730194091796875 32.951202392578125 33.27875518798828125 33.594547271728515625 33.759990692138671875 33.795269012451171875 33.738742828369140625 33.66883087158203125 33.633266448974609375 33.45752716064453125 33.345386505126953125 33.17966461181640625 33.22545623779296875 33.383548736572265625 33.47963714599609375 33.584506988525390625 33.780426025390625 34.2748565673828125 35.064846038818359375 35.9338836669921875 36.095958709716796875 35.27094268798828125 34.17124176025390625 33.54914093017578125 33.141193389892578125 32.848056793212890625 32.455204010009765625 32.108612060546875 31.81203460693359375 31.6776123046875 31.712781906127929688 31.699703216552734375 31.439699172973632812 31.003009796142578125 30.607166290283203125 30.317827224731445312 30.127691268920898438 29.867338180541992188 29.623575210571289062 29.415706634521484375 29.128213882446289062 28.836971282958984375 28.538431167602539062 28.23714447021484375 27.926755905151367188 27.615251541137695312 27.303192138671875 27.00687408447265625 26.731317520141601562 26.585046768188476562 26.575496673583984375 26.572933197021484375 26.569366455078125 26.564809799194335938 26.55904388427734375 26.552133560180664062 26.543798446655273438 26.53417205810546875 26.522901535034179688 26.51021575927734375 26.495853424072265625 26.480386734008789062 26.463657379150390625 26.446308135986328125 26.428140640258789062 26.409826278686523438 26.39115142822265625 26.37279510498046875 26.35454559326171875 26.337064743041992188 26.32016754150390625 26.288959503173828125 26.162885665893554688 26.125230789184570312 26.113908767700195312 26.10186767578125 26.089990615844726562 26.080402374267578125 26.07488250732421875 26.07540130615234375 26.084108352661132812 26.102777481079101562 26.134647369384765625 26.181173324584960938 26.24652862548828125 26.331094741821289062 26.438055038452148438 26.559103012084960938 26.689260482788085938 26.816251754760742188 26.934696197509765625 27.033464431762695312 27.110940933227539062 27.166034698486328125 27.202005386352539062 27.220035552978515625 27.222406387329101562 27.210893630981445312 27.185937881469726562 27.148962020874023438 27.099269866943359375 27.038951873779296875 26.9669342041015625 26.88784027099609375 26.803556442260742188 26.72113037109375 26.642818450927734375 26.5753173828125 26.5195159912109375 26.475826263427734375 26.439990997314453125 26.409955978393554688 26.381683349609375 26.35329437255859375 26.322923660278320312 26.29222869873046875 26.261341094970703125 26.23224639892578125 26.205110549926757812 26.18133544921875 26.159925460815429688 26.140893936157226562 26.12299346923828125 26.106115341186523438 26.089128494262695312 26.072195053100585938 26.054643630981445312 26.036905288696289062 26.01831817626953125 25.999319076538085938 25.978801727294921875 25.956251144409179688 25.929525375366210938 25.89804840087890625 25.859401702880859375 25.813892364501953125 25.761293411254882812 25.705974578857421875 25.64926910400390625 25.595905303955078125 25.547138214111328125 25.506002426147460938 25.470563888549804688 25.440593719482421875 25.413743972778320312 25.389495849609375 25.365955352783203125 25.343662261962890625 25.322389602661132812 25.303327560424804688 25.286432266235351562 25.2727203369140625 25.261852264404296875 25.253675460815429688 25.247240066528320312 25.242071151733398438 25.237306594848632812 25.23217010498046875 25.224842071533203125 25.213451385498046875 25.195508956909179688 25.16938018798828125 25.1324462890625 25.085775375366210938 25.030641555786132812 24.9717864990234375 24.910757064819335938 24.852502822875976562 24.797647476196289062 24.747873306274414062 24.7003936767578125 24.655256271362304688 24.609720230102539062 24.563694000244140625 24.51412200927734375 24.46038818359375 24.39888763427734375 24.3292083740234375 24.247335433959960938 24.1528778076171875 24.039630889892578125 23.90628814697265625 23.745069503784179688 23.555791854858398438 23.329763412475585938 23.07144927978515625 22.775774002075195312 22.452312469482421875 22.0948333740234375 21.714681625366210938 21.306079864501953125 20.887506484985351562 20.457792282104492188 20.037982940673828125 19.626737594604492188 19.2433319091796875 18.8782806396484375 18.535518646240234375 18.198717117309570312 17.8695068359375 17.532693862915039062 17.1949920654296875 16.856336593627929688 16.537439346313476562 16.242620468139648438 15.992127418518066406 15.788881301879882812 15.637619972229003906 15.523018836975097656 15.436625480651855469 15.363705635070800781 15.294632911682128906 15.220460891723632812 15.143296241760253906 15.064718246459960938 14.989846229553222656 14.920299530029296875 14.860410690307617188 14.808556556701660156 14.763912200927734375 14.722922325134277344 14.684108734130859375 14.644314765930175781 14.603168487548828125 14.56052398681640625 14.518424034118652344 14.477261543273925781 14.439113616943359375 14.404124259948730469 14.373087882995605469 14.344725608825683594 14.318980216979980469 14.294644355773925781 14.271521568298339844 14.248399734497070312 14.224756240844726562 14.199265480041503906 14.171330451965332031 14.139652252197265625 14.104137420654296875 14.065244674682617188 14.025224685668945312 13.9853057861328125 13.947937965393066406 13.914139747619628906 13.885188102722167969 13.85987091064453125 13.83770751953125 13.81732940673828125 13.798112869262695312 13.779131889343261719 13.760858535766601562 13.743701934814453125 13.728628158569335938 13.716080665588378906 13.706982612609863281 13.701534271240234375 13.700127601623535156 13.702706336975097656 13.709534645080566406 13.720607757568359375 13.735827445983886719 13.754343032836914062 13.774966239929199219 13.796627998352050781 13.818014144897460938 13.838189125061035156 13.856090545654296875 13.871366500854492188 13.883252143859863281 13.891446113586425781 13.895220756530761719 
30.751270294189453125 30.765390396118164062 30.779314041137695312 30.788076400756835938 30.800298690795898438 30.805353164672851562 30.813259124755859375 30.816610336303710938 30.810304641723632812 30.808603286743164062 30.80553436279296875 30.804698944091796875 30.824953079223632812 30.822820663452148438 30.813180923461914062 30.79044342041015625 30.7918853759765625 30.766740798950195312 30.737459182739257812 30.7649993896484375 30.741321563720703125 30.78589630126953125 30.879545211791992188 31.069509506225585938 31.265867233276367188 31.35504150390625 31.687593460083007812 31.875080108642578125 32.15346527099609375 32.530712127685546875 32.85157012939453125 33.147937774658203125 33.47069549560546875 33.6698455810546875 33.79978179931640625 33.83834075927734375 33.74161529541015625 33.718090057373046875 33.604511260986328125 33.38274383544921875 33.236461639404296875 33.162433624267578125 33.245067596435546875 33.363922119140625 33.468128204345703125 33.59664154052734375 33.80889129638671875 34.29443359375 35.127117156982421875 35.993587493896484375 35.72161865234375 34.668704986572265625 33.84993743896484375 33.4572601318359375 33.14388275146484375 32.74212646484375 32.328273773193359375 32.006511688232421875 31.737257003784179688 31.659852981567382812 31.710460662841796875 31.664194107055664062 31.347240447998046875 30.8912353515625 30.525415420532226562 30.2679443359375 30.085512161254882812 29.803125381469726562 29.553310394287109375 29.349994659423828125 29.066453933715820312 28.77740478515625 28.481235504150390625 28.183536529541015625 27.878587722778320312 27.574331283569335938 27.271219253540039062 26.984638214111328125 26.71893310546875 26.578119277954101562 26.569032669067382812 26.566633224487304688 26.563220977783203125 26.558803558349609375 26.553165435791015625 26.546365737915039062 26.538127899169921875 26.52857208251953125 26.517358779907226562 26.504703521728515625 26.490352630615234375 26.474872589111328125 26.458110809326171875 26.440708160400390625 26.422472000122070312 26.404069900512695312 26.385290145874023438 26.366815567016601562 26.348428726196289062 26.330799102783203125 26.313739776611328125 26.283405303955078125 26.165679931640625 26.132656097412109375 26.12427520751953125 26.114681243896484375 26.104925155639648438 26.097383499145507812 26.0942230224609375 26.097673416137695312 26.11026763916015625 26.133710861206054688 26.171091079711914062 26.22333526611328125 26.294391632080078125 26.384107589721679688 26.495424270629882812 26.61957550048828125 26.751283645629882812 26.877899169921875 26.993640899658203125 27.087186813354492188 27.156818389892578125 27.20220947265625 27.226970672607421875 27.233240127563476562 27.223604202270507812 27.200733184814453125 27.1651153564453125 27.118738174438476562 27.060907363891601562 26.99419403076171875 26.917572021484375 26.835741043090820312 26.750196456909179688 26.667638778686523438 26.589944839477539062 26.523416519165039062 26.468667984008789062 26.42592620849609375 26.390895843505859375 26.361431121826171875 26.333440780639648438 26.304988861083984375 26.274242401123046875 26.242982864379882812 26.211462020874023438 26.1818084716796875 26.15430450439453125 26.1304779052734375 26.109422683715820312 26.091215133666992188 26.074712753295898438 26.05983734130859375 26.04555511474609375 26.031789779663085938 26.017644882202148438 26.003103256225585938 25.987249374389648438 25.9701080322265625 25.950490951538085938 25.928056716918945312 25.901002883911132812 25.869100570678710938 25.83025360107421875 25.785032272338867188 25.733140945434570312 25.678598403930664062 25.62239837646484375 25.56888580322265625 25.518976211547851562 25.475690841674804688 25.437467575073242188 25.40474700927734375 25.37569427490234375 25.350442886352539062 25.327503204345703125 25.307262420654296875 25.2890167236328125 25.273294448852539062 25.259563446044921875 25.248203277587890625 25.238674163818359375 25.230909347534179688 25.2242279052734375 25.218410491943359375 25.21282958984375 25.206912994384765625 25.198774337768554688 25.18639373779296875 25.16706085205078125 25.138986587524414062 25.099323272705078125 25.049167633056640625 24.989816665649414062 24.926303863525390625 24.86020660400390625 24.796792984008789062 24.736742019653320312 24.682176589965820312 24.630514144897460938 24.582277297973632812 24.534971237182617188 24.488857269287109375 24.440793991088867188 24.389654159545898438 24.331300735473632812 24.264650344848632812 24.185199737548828125 24.092252731323242188 23.98026275634765625 23.848905563354492188 23.691514968872070312 23.508878707885742188 23.293214797973632812 23.047885894775390625 22.765537261962890625 22.452466964721679688 22.09981536865234375 21.715875625610351562 21.293512344360351562 20.853221893310546875 20.3966522216796875 19.9488067626953125 19.510992050170898438 19.106218338012695312 18.725820541381835938 18.374233245849609375 18.034486770629882812 17.708131790161132812 17.379611968994140625 17.054840087890625 16.732524871826171875 16.431287765502929688 16.154079437255859375 15.918948173522949219 15.727744102478027344 15.584558486938476562 15.475071907043457031 15.391514778137207031 15.320151329040527344 15.252145767211914062 15.179182052612304688 15.103474617004394531 15.026597023010253906 14.953599929809570312 14.886103630065917969 14.828358650207519531 14.77874755859375 14.736357688903808594 14.697635650634765625 14.661015510559082031 14.623338699340820312 14.584138870239257812 14.543251991271972656 14.502610206604003906 14.462579727172851562 14.425136566162109375 14.390416145324707031 14.359261512756347656 14.330535888671875 14.304322242736816406 14.279553413391113281 14.256171226501464844 14.2330169677734375 14.209544181823730469 14.184359550476074219 14.156808853149414062 14.125531196594238281 14.090390205383300781 14.051888465881347656 14.012348175048828125 13.97308349609375 13.93662261962890625 13.904062271118164062 13.876660346984863281 13.853101730346679688 13.832745552062988281 13.814103126525878906 13.796382904052734375 13.778583526611328125 13.761144638061523438 13.744541168212890625 13.729772567749023438 13.717345237731933594 13.70822906494140625 13.702683448791503906 13.701170921325683594 13.703705787658691406 13.710628509521484375 13.721994400024414062 13.737733840942382812 13.756898880004882812 13.778151512145996094 13.800278663635253906 13.821802139282226562 13.8416748046875 13.858847618103027344 13.873150825500488281 13.884027481079101562 13.891371726989746094 13.894667625427246094 
30.7867431640625 30.796159744262695312 30.80744171142578125 30.811132431030273438 30.819849014282226562 30.846132278442382812 30.863315582275390625 30.855342864990234375 30.843135833740234375 30.853000640869140625 30.843866348266601562 30.813909530639648438 30.818248748779296875 30.828466415405273438 30.83306121826171875 30.814981460571289062 30.793828964233398438 30.759302139282226562 30.759796142578125 30.753881454467773438 30.768951416015625 30.851045608520507812 30.921207427978515625 31.040754318237304688 31.212192535400390625 31.4934234619140625 31.820648193359375 31.99275970458984375 32.37812042236328125 32.716945648193359375 32.98908233642578125 33.238353729248046875 33.48476409912109375 33.672088623046875 33.840564727783203125 33.876102447509765625 33.703273773193359375 33.605194091796875 33.460231781005859375 33.293987274169921875 33.138713836669921875 33.144817352294921875 33.271617889404296875 33.385227203369140625 33.515838623046875 33.648822784423828125 33.900806427001953125 34.519832611083984375 35.550983428955078125 36.196567535400390625 35.4309844970703125 34.18808746337890625 33.5897979736328125 33.364391326904296875 33.084629058837890625 32.616909027099609375 32.210155487060546875 31.9087677001953125 31.673391342163085938 31.65106964111328125 31.70966339111328125 31.610815048217773438 31.232418060302734375 30.792013168334960938 30.470258712768554688 30.2398681640625 30.04213714599609375 29.74737548828125 29.504613876342773438 29.291713714599609375 29.009233474731445312 28.721212387084960938 28.427371978759765625 28.133472442626953125 27.834001541137695312 27.536649703979492188 27.241662979125976562 26.963634490966796875 26.706384658813476562 26.570184707641601562 26.561422348022460938 26.559093475341796875 26.555749893188476562 26.55139923095703125 26.545818328857421875 26.539066314697265625 26.5308685302734375 26.521345138549804688 26.510150909423828125 26.497503280639648438 26.48314666748046875 26.467649459838867188 26.45085906982421875 26.433414459228515625 26.41512298583984375 26.396657943725585938 26.37779998779296875 26.3592376708984375 26.34075164794921875 26.323015213012695312 26.305835723876953125 26.276781082153320312 26.170133590698242188 26.142648696899414062 26.137594223022460938 26.130924224853515625 26.123874664306640625 26.11904144287109375 26.118986129760742188 26.12615203857421875 26.143466949462890625 26.172452926635742188 26.21590423583984375 26.274021148681640625 26.350332260131835938 26.444005966186523438 26.557592391967773438 26.682111740112304688 26.812231063842773438 26.935365676879882812 27.045587539672851562 27.131772994995117188 27.19219207763671875 27.227266311645507812 27.240835189819335938 27.235891342163085938 27.215236663818359375 27.182294845581054688 27.137533187866210938 27.083333969116210938 27.018930435180664062 26.94721221923828125 26.867124557495117188 26.783372879028320312 26.697109222412109375 26.614709854125976562 26.537715911865234375 26.472072601318359375 26.418148040771484375 26.37603759765625 26.341413497924804688 26.312086105346679688 26.28392791748046875 26.254991531372070312 26.22348785400390625 26.191370010375976562 26.159021377563476562 26.128757476806640625 26.1009979248046875 26.077398300170898438 26.057102203369140625 26.040164947509765625 26.025499343872070312 26.012971878051757812 26.00159454345703125 25.99102783203125 25.980154037475585938 25.96852874755859375 25.954984664916992188 25.939165115356445312 25.919794082641601562 25.896760940551757812 25.868612289428710938 25.835512161254882812 25.795711517333984375 25.750089645385742188 25.69830322265625 25.644083023071289062 25.588104248046875 25.53438568115234375 25.48352813720703125 25.43852996826171875 25.398115158081054688 25.363246917724609375 25.332506179809570312 25.3065338134765625 25.28415679931640625 25.265621185302734375 25.249803543090820312 25.236673355102539062 25.2252655029296875 25.215425491333007812 25.206445693969726562 25.19838714599609375 25.190824508666992188 25.183826446533203125 25.176988601684570312 25.16999053955078125 25.1609649658203125 25.147863388061523438 25.127897262573242188 25.099237442016601562 25.05895233154296875 25.008077621459960938 24.947795867919921875 24.883066177368164062 24.815332412719726562 24.74980926513671875 24.68708038330078125 24.629467010498046875 24.574514389038085938 24.523057937622070312 24.472726821899414062 24.424074172973632812 24.37392425537109375 24.32108306884765625 24.261180877685546875 24.193006515502929688 24.111845016479492188 24.017086029052734375 23.9036865234375 23.772174835205078125 23.616701126098632812 23.4388580322265625 23.231534957885742188 22.997081756591796875 22.726078033447265625 22.421915054321289062 22.073375701904296875 21.68603515625 21.251522064208984375 20.7920684814453125 20.311767578125 19.839075088500976562 19.377576828002929688 18.953582763671875 18.559267044067382812 18.199779510498046875 17.857877731323242188 17.53531646728515625 17.216512680053710938 16.906705856323242188 16.603231430053710938 16.322275161743164062 16.065174102783203125 15.847410202026367188 15.6695709228515625 15.535036087036132812 15.430692672729492188 15.349653244018554688 15.279392242431640625 15.212072372436523438 15.140112876892089844 15.065830230712890625 14.990718841552734375 14.919689178466796875 14.854294776916503906 14.798646926879882812 14.751132965087890625 14.710804939270019531 14.674160957336425781 14.639607429504394531 14.604027748107910156 14.566880226135253906 14.527932167053222656 14.48894500732421875 14.450198173522949219 14.41350555419921875 14.378950119018554688 14.347428321838378906 14.317987442016601562 14.290904998779296875 14.265288352966308594 14.241276741027832031 14.217792510986328125 14.194295883178710938 14.169335365295410156 14.142214775085449219 14.111528396606445312 14.077107429504394531 14.039447784423828125 14.000876426696777344 13.962732315063476562 13.927545547485351562 13.896437644958496094 13.870610237121582031 13.848681449890136719 13.829889297485351562 13.812663078308105469 13.796084403991699219 13.779111862182617188 13.762183189392089844 13.745860099792480469 13.731209754943847656 13.718817710876464844 13.709720611572265625 13.70423126220703125 13.702837944030761719 13.705574989318847656 13.712807655334472656 13.724608421325683594 13.740892410278320312 13.760622978210449219 13.782327651977539062 13.80466461181640625 13.826008796691894531 13.845229148864746094 13.861301422119140625 13.874261856079101562 13.883784294128417969 13.889977455139160156 13.8925628662109375 
30.808519363403320312 30.825178146362304688 30.82509613037109375 30.821058273315429688 30.832250595092773438 30.854124069213867188 30.866769790649414062 30.873722076416015625 30.87723541259765625 30.883251190185546875 30.867341995239257812 30.837045669555664062 30.824842453002929688 30.833209991455078125 30.836462020874023438 30.82991790771484375 30.80132293701171875 30.774677276611328125 30.78768157958984375 30.768718719482421875 30.821767807006835938 30.8744659423828125 30.95513916015625 31.0597991943359375 31.275743484497070312 31.702814102172851562 31.915372848510742188 32.090179443359375 32.484149932861328125 32.855258941650390625 33.078857421875 33.281536102294921875 33.54341888427734375 33.7550048828125 33.8415069580078125 33.766841888427734375 33.60022735595703125 33.49431610107421875 33.31884002685546875 33.213100433349609375 33.126255035400390625 33.21913909912109375 33.32678985595703125 33.39153289794921875 33.572265625 33.7763214111328125 34.1824951171875 35.0417633056640625 36.13359832763671875 36.306438446044921875 35.28801727294921875 34.080295562744140625 33.558727264404296875 33.380062103271484375 32.959949493408203125 32.4546661376953125 32.10845947265625 31.820722579956054688 31.6226043701171875 31.645322799682617188 31.707622528076171875 31.539575576782226562 31.114450454711914062 30.70604705810546875 30.42011260986328125 30.204652786254882812 30.001237869262695312 29.70014190673828125 29.484292984008789062 29.24701690673828125 28.9569549560546875 28.668497085571289062 28.376956939697265625 28.087003707885742188 27.792936325073242188 27.502054214477539062 27.214374542236328125 26.943819046020507812 26.693811416625976562 26.561494827270507812 26.552944183349609375 26.550617218017578125 26.547275543212890625 26.542921066284179688 26.5373382568359375 26.530584335327148438 26.522380828857421875 26.512849807739257812 26.501644134521484375 26.488983154296875 26.474609375 26.4590911865234375 26.442274093627929688 26.424800872802734375 26.406473159790039062 26.387966156005859375 26.369062423706054688 26.350444793701171875 26.331895828247070312 26.314090728759765625 26.296834945678710938 26.269426345825195312 26.176233291625976562 26.154962539672851562 26.153459548950195312 26.150075912475585938 26.146234512329101562 26.14470672607421875 26.148424148559570312 26.159999847412109375 26.1827239990234375 26.217836380004882812 26.267702102661132812 26.331636428833007812 26.412572860717773438 26.508871078491210938 26.622577667236328125 26.744747161865234375 26.870252609252929688 26.98699188232421875 27.089174270629882812 27.16625213623046875 27.21657562255859375 27.241247177124023438 27.244195938110351562 27.229104995727539062 27.198884963989257812 27.157529830932617188 27.105405807495117188 27.045129776000976562 26.975797653198242188 26.900447845458984375 26.817941665649414062 26.732923507690429688 26.646272659301757812 26.564092636108398438 26.487661361694335938 26.422634124755859375 26.369180679321289062 26.327306747436523438 26.29267120361328125 26.26306915283203125 26.234350204467773438 26.204586029052734375 26.172046661376953125 26.138879776000976562 26.105617523193359375 26.07477569580078125 26.046939849853515625 26.02387237548828125 26.004724502563476562 25.989461898803710938 25.976980209350585938 25.967020034790039062 25.958583831787109375 25.951051712036132812 25.943115234375 25.933950424194335938 25.922159194946289062 25.907060623168945312 25.887304306030273438 25.863033294677734375 25.8331298828125 25.798191070556640625 25.756786346435546875 25.710140228271484375 25.657886505126953125 25.603546142578125 25.547525405883789062 25.493589401245117188 25.442087173461914062 25.395965576171875 25.354131698608398438 25.3178863525390625 25.28607940673828125 25.259691238403320312 25.2377471923828125 25.220365524291992188 25.206104278564453125 25.194515228271484375 25.184299468994140625 25.174913406372070312 25.165525436401367188 25.15636444091796875 25.147230148315429688 25.138486862182617188 25.129934310913085938 25.12152862548828125 25.111492156982421875 25.097890853881835938 25.0779876708984375 25.050027847290039062 25.01114654541015625 24.96224212646484375 24.904245376586914062 24.841701507568359375 24.775770187377929688 24.711259841918945312 24.64852142333984375 24.589817047119140625 24.532751083374023438 24.478292465209960938 24.424085617065429688 24.370874404907226562 24.31551361083984375 24.25714874267578125 24.191476821899414062 24.117656707763671875 24.031034469604492188 23.9314422607421875 23.814157485961914062 23.68038177490234375 23.52474212646484375 23.349422454833984375 23.147699356079101562 22.921083450317382812 22.65842437744140625 22.360767364501953125 22.01495361328125 21.624362945556640625 21.179590225219726562 20.704259872436523438 20.20440673828125 19.711259841918945312 19.230224609375 18.790277481079101562 18.384408950805664062 18.01860809326171875 17.675683975219726562 17.357839584350585938 17.049745559692382812 16.756103515625 16.472852706909179688 16.213567733764648438 15.977849006652832031 15.778432846069335938 15.614556312561035156 15.488864898681640625 15.389578819274902344 15.310819625854492188 15.241390228271484375 15.174581527709960938 15.103615760803222656 15.030866622924804688 14.957683563232421875 14.888765335083007812 14.825517654418945312 14.771862983703613281 14.726208686828613281 14.687628746032714844 14.652747154235839844 14.620006561279296875 14.586403846740722656 14.551340103149414062 14.514474868774414062 14.477331161499023438 14.440042495727539062 14.404183387756347656 14.369740486145019531 14.33766937255859375 14.307238578796386719 14.278965950012207031 14.252171516418457031 14.227242469787597656 14.203207969665527344 14.179549217224121094 14.154768943786621094 14.128148078918457031 14.098244667053222656 14.064846992492675781 14.028418540954589844 13.991222381591796875 13.954563140869140625 13.920900344848632812 13.891327857971191406 13.866972923278808594 13.846426010131835938 13.828845024108886719 13.812632560729980469 13.796793937683105469 13.780283927917480469 13.763569831848144531 13.747310638427734375 13.732655525207519531 13.720281600952148438 13.711310386657714844 13.706085205078125 13.705074310302734375 13.708282470703125 13.716039657592773438 13.728392601013183594 13.745202064514160156 13.765357017517089844 13.7872772216796875 13.809535026550292969 13.830388069152832031 13.848645210266113281 13.863332748413085938 13.874693870544433594 13.882628440856933594 13.887463569641113281 13.889163970947265625 
30.822711944580078125 30.847118377685546875 30.861093521118164062 30.850612640380859375 30.870035171508789062 30.877872467041015625 30.863344192504882812 30.878656387329101562 30.88525390625 30.879228591918945312 30.874292373657226562 30.8542633056640625 30.83465576171875 30.83992767333984375 30.84302520751953125 30.85107421875 30.824876785278320312 30.799543380737304688 30.814931869506835938 30.800985336303710938 30.830722808837890625 30.90555572509765625 31.054300308227539062 31.15807342529296875 31.506097793579101562 31.908952713012695312 31.997488021850585938 32.193515777587890625 32.562107086181640625 32.875396728515625 33.119731903076171875 33.392414093017578125 33.689212799072265625 33.88455963134765625 33.836338043212890625 33.689239501953125 33.501926422119140625 33.375736236572265625 33.268230438232421875 33.151943206787109375 33.1059112548828125 33.244388580322265625 33.32447052001953125 33.42205810546875 33.608982086181640625 33.88124847412109375 34.503330230712890625 35.616424560546875 36.4276275634765625 36.21019744873046875 35.32975006103515625 34.226520538330078125 33.587352752685546875 33.34989166259765625 32.789913177490234375 32.310230255126953125 32.021358489990234375 31.746530532836914062 31.579668045043945312 31.63683319091796875 31.681348800659179688 31.440755844116210938 30.995466232299804688 30.627315521240234375 30.365505218505859375 30.171110153198242188 29.957202911376953125 29.640331268310546875 29.440523147583007812 29.194890975952148438 28.903383255004882812 28.615787506103515625 28.327226638793945312 28.041719436645507812 27.7532501220703125 27.468706130981445312 27.187908172607421875 26.924207687377929688 26.680728912353515625 26.55185699462890625 26.543426513671875 26.541032791137695312 26.537628173828125 26.533214569091796875 26.527576446533203125 26.520769119262695312 26.512517929077148438 26.5029449462890625 26.49169921875 26.479005813598632812 26.464605331420898438 26.449064254760742188 26.432226181030273438 26.41473388671875 26.396389007568359375 26.377864837646484375 26.358938217163085938 26.340299606323242188 26.321725845336914062 26.303888320922851562 26.286594390869140625 26.262258529663085938 26.190673828125 26.175275802612304688 26.17545318603515625 26.174093246459960938 26.172639846801757812 26.174512863159179688 26.182903289794921875 26.199602127075195312 26.228466033935546875 26.270368576049804688 26.327112197875976562 26.396976470947265625 26.4821319580078125 26.580005645751953125 26.692022323608398438 26.809490203857421875 26.927703857421875 27.035421371459960938 27.127218246459960938 27.193452835083007812 27.232652664184570312 27.246549606323242188 27.239063262939453125 27.214443206787109375 27.175624847412109375 27.127038955688476562 27.068881988525390625 27.003850936889648438 26.930833816528320312 26.85288238525390625 26.768695831298828125 26.682821273803710938 26.595912933349609375 26.513875961303710938 26.437774658203125 26.373052597045898438 26.319723129272460938 26.277738571166992188 26.242750167846679688 26.212568283081054688 26.183023452758789062 26.152231216430664062 26.118526458740234375 26.084259033203125 26.050113677978515625 26.018812179565429688 25.991113662719726562 25.968868255615234375 25.951211929321289062 25.9379425048828125 25.9279022216796875 25.9206390380859375 25.915103912353515625 25.910402297973632812 25.905065536499023438 25.89794158935546875 25.887439727783203125 25.8726043701171875 25.852025985717773438 25.826107025146484375 25.79404449462890625 25.756855010986328125 25.71340179443359375 25.665266036987304688 25.612073898315429688 25.557214736938476562 25.500888824462890625 25.446681976318359375 25.394758224487304688 25.348001480102539062 25.305402755737304688 25.268449783325195312 25.23613739013671875 25.20961761474609375 25.188014984130859375 25.171331405639648438 25.157884597778320312 25.146921157836914062 25.136884689331054688 25.126972198486328125 25.116252899169921875 25.105175018310546875 25.093744277954101562 25.08264923095703125 25.071880340576171875 25.061702728271484375 25.050470352172851562 25.036451339721679688 25.017042160034179688 24.990633010864257812 24.95452117919921875 24.909410476684570312 24.855899810791015625 24.797901153564453125 24.73618316650390625 24.674924850463867188 24.614156723022460938 24.555906295776367188 24.49777984619140625 24.440748214721679688 24.382389068603515625 24.323568344116210938 24.261196136474609375 24.195016860961914062 24.120983123779296875 24.038951873779296875 23.944498062133789062 23.838123321533203125 23.715295791625976562 23.577754974365234375 23.4203643798828125 23.245744705200195312 23.047372817993164062 22.826030731201171875 22.569095611572265625 22.275690078735351562 21.9310150146484375 21.536645889282226562 21.082305908203125 20.59285736083984375 20.0759735107421875 19.565275192260742188 19.067712783813476562 18.614564895629882812 18.199565887451171875 17.829515457153320312 17.48738861083984375 17.17584228515625 16.879915237426757812 16.603755950927734375 16.341924667358398438 16.10530853271484375 15.891765594482421875 15.711216926574707031 15.561530113220214844 15.444652557373046875 15.350232124328613281 15.273494720458984375 15.204677581787109375 15.13829803466796875 15.068423271179199219 14.997438430786132812 14.926465034484863281 14.859894752502441406 14.798916816711425781 14.747188568115234375 14.703154563903808594 14.665986061096191406 14.6324920654296875 14.601247787475585938 14.569420814514160156 14.536396980285644531 14.501684188842773438 14.466518402099609375 14.430823326110839844 14.395886421203613281 14.361553192138671875 14.328831672668457031 14.2972412109375 14.26757049560546875 14.239386558532714844 14.213354110717773438 14.18862152099609375 14.164719581604003906 14.140111923217773438 14.114064216613769531 14.085108757019042969 14.052994728088378906 14.018115997314453125 13.9826202392578125 13.947734832763671875 13.915788650512695312 13.887805938720703125 13.864823341369628906 13.845439910888671875 13.828785896301269531 13.813275337219238281 13.797892570495605469 13.781615257263183594 13.764965057373046875 13.748696327209472656 13.734043121337890625 13.721773147583007812 13.713091850280761719 13.708353042602539062 13.70796966552734375 13.711874961853027344 13.720317840576171875 13.733281135559082031 13.750547409057617188 13.770951271057128906 13.792838096618652344 13.81473541259765625 13.8348236083984375 13.851884841918945312 13.865014076232910156 13.874644279479980469 13.880904197692871094 13.884318351745605469 13.885088920593261719 
30.852769851684570312 30.871683120727539062 30.88393402099609375 30.873689651489257812 30.892484664916992188 30.90384674072265625 30.8861236572265625 30.888921737670898438 30.889436721801757812 30.888538360595703125 30.884532928466796875 30.865354537963867188 30.846887588500976562 30.857452392578125 30.859231948852539062 30.867322921752929688 30.837953567504882812 30.811929702758789062 30.834186553955078125 30.813814163208007812 30.810272216796875 30.953855514526367188 31.131229400634765625 31.322160720825195312 31.77161407470703125 32.01131439208984375 32.079601287841796875 32.320972442626953125 32.668548583984375 32.938694000244140625 33.182159423828125 33.45306396484375 33.70882415771484375 33.876522064208984375 33.8227386474609375 33.6210784912109375 33.424335479736328125 33.26830291748046875 33.17020416259765625 33.052520751953125 33.05023193359375 33.20306396484375 33.339130401611328125 33.45801544189453125 33.625640869140625 33.97817230224609375 34.7853546142578125 35.86031341552734375 36.479755401611328125 36.03173828125 35.033588409423828125 34.090221405029296875 33.524951934814453125 33.10717010498046875 32.5661468505859375 32.18988800048828125 31.931575775146484375 31.675981521606445312 31.543691635131835938 31.63791656494140625 31.638792037963867188 31.3157958984375 30.872293472290039062 30.551034927368164062 30.30722808837890625 30.130441665649414062 29.899873733520507812 29.580251693725585938 29.392711639404296875 29.14313507080078125 28.84922027587890625 28.563341140747070312 28.278652191162109375 27.99810028076171875 27.715343475341796875 27.436922073364257812 27.162538528442382812 26.905078887939453125 26.66745758056640625 26.5416259765625 26.533239364624023438 26.530725479125976562 26.527202606201171875 26.522680282592773438 26.516939163208007812 26.510040283203125 26.501703262329101562 26.49205780029296875 26.480752944946289062 26.468013763427734375 26.453577041625976562 26.438013076782226562 26.421161651611328125 26.40366363525390625 26.385318756103515625 26.36679840087890625 26.347879409790039062 26.329248428344726562 26.310678482055664062 26.292848587036132812 26.27555084228515625 26.258237838745117188 26.234193801879882812 26.220487594604492188 26.210874557495117188 26.202640533447265625 26.196071624755859375 26.200077056884765625 26.22040557861328125 26.242898941040039062 26.278295516967773438 26.3273162841796875 26.391130447387695312 26.466876983642578125 26.555873870849609375 26.654529571533203125 26.763593673706054688 26.87476348876953125 26.983903884887695312 27.080883026123046875 27.160795211791992188 27.215129852294921875 27.242649078369140625 27.245679855346679688 27.228061676025390625 27.194528579711914062 27.147985458374023438 27.093198776245117188 27.030132293701171875 26.961442947387695312 26.885744094848632812 26.805978775024414062 26.720628738403320312 26.634105682373046875 26.546907424926757812 26.464803695678710938 26.388719558715820312 26.323961257934570312 26.270433425903320312 26.228069305419921875 26.192514419555664062 26.161609649658203125 26.131174087524414062 26.099374771118164062 26.064607620239257812 26.029401779174804688 25.9945831298828125 25.963054656982421875 25.935726165771484375 25.914520263671875 25.898523330688476562 25.887346267700195312 25.879743576049804688 25.8750457763671875 25.87213134765625 25.869859695434570312 25.866643905639648438 25.861087799072265625 25.851457595825195312 25.836595535278320312 25.815044403076171875 25.787446975708007812 25.753238677978515625 25.713796615600585938 25.668218612670898438 25.618396759033203125 25.563968658447265625 25.508279800415039062 25.4514007568359375 25.396829605102539062 25.34461212158203125 25.2975921630859375 25.254766464233398438 25.2176666259765625 25.18532562255859375 25.158937454223632812 25.137636184692382812 25.121309280395507812 25.10809326171875 25.097032546997070312 25.086366653442382812 25.075130462646484375 25.062330245971679688 25.048671722412109375 25.034353256225585938 25.020418167114257812 25.0070343017578125 24.994798660278320312 24.982206344604492188 24.9677276611328125 24.948909759521484375 24.924295425415039062 24.891353607177734375 24.850584030151367188 24.802249908447265625 24.749584197998046875 24.692972183227539062 24.635906219482421875 24.578096389770507812 24.52126312255859375 24.462985992431640625 24.404165267944335938 24.3422698974609375 24.27822113037109375 24.208995819091796875 24.134973526000976562 24.0524139404296875 23.961933135986328125 23.859380722045898438 23.7459564208984375 23.617238998413085938 23.475406646728515625 23.31543731689453125 23.140295028686523438 22.943531036376953125 22.72533416748046875 22.4718017578125 22.1804962158203125 21.83519744873046875 21.436029434204101562 20.97198486328125 20.469144821166992188 19.936693191528320312 19.410472869873046875 18.8988800048828125 18.435289382934570312 18.014064788818359375 17.642534255981445312 17.303707122802734375 17.000417709350585938 16.717922210693359375 16.459690093994140625 16.2190399169921875 16.004367828369140625 15.811978340148925781 15.649199485778808594 15.512691497802734375 15.403807640075683594 15.313616752624511719 15.238467216491699219 15.170019149780273438 15.104021072387695312 15.035349845886230469 14.96634674072265625 14.897825241088867188 14.833791732788085938 14.775139808654785156 14.725197792053222656 14.682460784912109375 14.646256446838378906 14.613654136657714844 14.583432197570800781 14.552987098693847656 14.521740913391113281 14.489026069641113281 14.455769538879394531 14.421657562255859375 14.387662887573242188 14.353467941284179688 14.320116996765136719 14.287384033203125 14.256325721740722656 14.226750373840332031 14.199602127075195312 14.174163818359375 14.1500091552734375 14.125577926635742188 14.100136756896972656 14.072201728820800781 14.041485786437988281 14.008304595947265625 13.97464752197265625 13.941637039184570312 13.911440849304199219 13.884983062744140625 13.863211631774902344 13.844768524169921875 13.828794479370117188 13.813756942749023438 13.798662185668945312 13.782542228698730469 13.765969276428222656 13.749773979187011719 13.735263824462890625 13.723278045654296875 13.715082168579101562 13.711026191711425781 13.711442947387695312 13.716167449951171875 13.725348472595214844 13.738878250122070312 13.756449699401855469 13.776876449584960938 13.798476219177246094 13.819772720336914062 13.838924407958984375 13.8547210693359375 13.866337776184082031 13.87436676025390625 13.879125595092773438 13.8813018798828125 13.881293296813964844 
30.8954010009765625 30.89434814453125 30.898637771606445312 30.89238739013671875 30.8995361328125 30.909435272216796875 30.912471771240234375 30.906484603881835938 30.909942626953125 30.920406341552734375 30.904348373413085938 30.880411148071289062 30.873661041259765625 30.883066177368164062 30.884761810302734375 30.884296417236328125 30.850393295288085938 30.837169647216796875 30.864812850952148438 30.804738998413085938 30.848714828491210938 31.048824310302734375 31.198942184448242188 31.546434402465820312 31.986051559448242188 32.111293792724609375 32.2686767578125 32.55785369873046875 32.840946197509765625 33.059482574462890625 33.27037811279296875 33.512386322021484375 33.70066070556640625 33.7504119873046875 33.64501190185546875 33.5030059814453125 33.347919464111328125 33.23363494873046875 33.110992431640625 33.02359771728515625 33.042877197265625 33.189785003662109375 33.34964752197265625 33.4724884033203125 33.643268585205078125 34.028209686279296875 34.868072509765625 35.785175323486328125 36.330692291259765625 35.9997100830078125 34.824932098388671875 33.77782440185546875 33.271015167236328125 32.855899810791015625 32.39817047119140625 32.098972320556640625 31.846815109252929688 31.610198974609375 31.537511825561523438 31.657802581787109375 31.572267532348632812 31.176595687866210938 30.763494491577148438 30.476781845092773438 30.254018783569335938 30.08979034423828125 29.836887359619140625 29.52877044677734375 29.353387832641601562 29.088413238525390625 28.79152679443359375 28.508968353271484375 28.229434967041015625 27.954538345336914062 27.677766799926757812 27.405460357666015625 27.137279510498046875 26.8857421875 26.653608322143554688 26.530584335327148438 26.522174835205078125 26.519483566284179688 26.515789031982421875 26.511110305786132812 26.505222320556640625 26.49819183349609375 26.48973846435546875 26.479993820190429688 26.468606948852539062 26.455808639526367188 26.441331863403320312 26.425746917724609375 26.408887863159179688 26.391397476196289062 26.373071670532226562 26.354578018188476562 26.335693359375 26.317096710205078125 26.298570632934570312 26.2807769775390625 26.263517379760742188 26.247426986694335938 26.232349395751953125 26.218862533569335938 26.206880569458007812 26.1968994140625 26.18892669677734375 26.20859527587890625 26.26068878173828125 26.290292739868164062 26.332653045654296875 26.389196395874023438 26.460391998291015625 26.542148590087890625 26.634843826293945312 26.73380279541015625 26.839021682739257812 26.94269561767578125 27.0413665771484375 27.126190185546875 27.192897796630859375 27.234272003173828125 27.249357223510742188 27.2410888671875 27.213190078735351562 27.170850753784179688 27.1169281005859375 27.05646514892578125 26.989139556884765625 26.917461395263671875 26.839693069458007812 26.758565902709960938 26.672267913818359375 26.5850677490234375 26.497354507446289062 26.414842605590820312 26.338375091552734375 26.27320098876953125 26.219163894653320312 26.176204681396484375 26.139965057373046875 26.108320236206054688 26.077083587646484375 26.044469833374023438 26.008924484252929688 25.973112106323242188 25.937976837158203125 25.906551361083984375 25.879878997802734375 25.859907150268554688 25.845672607421875 25.836574554443359375 25.831279754638671875 25.828891754150390625 25.828210830688476562 25.827892303466796875 25.826297760009765625 25.821865081787109375 25.812778472900390625 25.797765731811523438 25.775342941284179688 25.746316909790039062 25.71028900146484375 25.668889999389648438 25.621362686157226562 25.569841384887695312 25.513988494873046875 25.457197189331054688 25.399492263793945312 25.344388961791992188 25.29190826416015625 25.244867324829101562 25.202211380004882812 25.16541290283203125 25.133447647094726562 25.107442855834960938 25.086469650268554688 25.070291519165039062 25.056901931762695312 25.045200347900390625 25.03325653076171875 25.020013809204101562 25.004430770874023438 24.987524032592773438 24.969692230224609375 24.952371597290039062 24.935934066772460938 24.921323776245117188 24.907135009765625 24.89200592041015625 24.873567581176757812 24.8504638671875 24.820283889770507812 24.7833404541015625 24.739620208740234375 24.69178009033203125 24.639892578125 24.586870193481445312 24.53216552734375 24.477203369140625 24.419546127319335938 24.359975814819335938 24.2958831787109375 24.228179931640625 24.15389251708984375 24.073881149291992188 23.984651565551757812 23.887393951416015625 23.778179168701171875 23.658761978149414062 23.5248260498046875 23.37894439697265625 23.216192245483398438 23.039867401123046875 22.843578338623046875 22.626995086669921875 22.375030517578125 22.083868026733398438 21.735956192016601562 21.330163955688476562 20.854852676391601562 20.337518692016601562 19.788990020751953125 19.247507095336914062 18.723072052001953125 18.251237869262695312 17.82686614990234375 17.457309722900390625 17.125211715698242188 16.833013534545898438 16.565820693969726562 16.326093673706054688 16.1061248779296875 15.912135124206542969 15.739207267761230469 15.592444419860839844 15.467558860778808594 15.365487098693847656 15.278669357299804688 15.204580307006835938 15.136244773864746094 15.070631980895996094 15.003368377685546875 14.93666839599609375 14.870952606201171875 14.809731483459472656 14.753526687622070312 14.705251693725585938 14.6634674072265625 14.627727508544921875 14.595432281494140625 14.565652847290039062 14.536074638366699219 14.506213188171386719 14.475220680236816406 14.443706512451171875 14.411104202270507812 14.378053665161132812 14.344066619873046875 14.310202598571777344 14.276470184326171875 14.244174003601074219 14.213351249694824219 14.185198783874511719 14.159128189086914062 14.134771347045898438 14.110550880432128906 14.085744857788085938 14.058869361877441406 14.029605865478515625 13.99817657470703125 13.966408729553222656 13.935294151306152344 13.9068145751953125 13.881788253784179688 13.861074447631835938 13.84339141845703125 13.827925682067871094 13.81324005126953125 13.798405647277832031 13.782522201538085938 13.766214370727539062 13.750349998474121094 13.73627471923828125 13.724865913391113281 13.717419624328613281 13.714260101318359375 13.715617179870605469 13.72122955322265625 13.731122970581054688 13.745099067687988281 13.76275634765625 13.782929420471191406 13.803961753845214844 13.824425697326660156 13.842518806457519531 13.857082366943359375 13.867374420166015625 13.8740997314453125 13.877715110778808594 13.879022598266601562 13.878557205200195312 
30.914373397827148438 30.908336639404296875 30.915735244750976562 30.919750213623046875 30.922296524047851562 30.919382095336914062 30.914974212646484375 30.907863616943359375 30.910552978515625 30.94091796875 30.944486618041992188 30.935888290405273438 30.907957077026367188 30.899900436401367188 30.893915176391601562 30.900873184204101562 30.8834228515625 30.897855758666992188 30.8898468017578125 30.854379653930664062 30.996021270751953125 31.165821075439453125 31.379070281982421875 31.881397247314453125 32.14478302001953125 32.2959747314453125 32.605693817138671875 32.8538360595703125 33.088535308837890625 33.276668548583984375 33.445217132568359375 33.59357452392578125 33.6905670166015625 33.692447662353515625 33.568084716796875 33.471118927001953125 33.3007965087890625 33.177753448486328125 33.056499481201171875 32.9989776611328125 33.018619537353515625 33.175662994384765625 33.35411834716796875 33.5061798095703125 33.730640411376953125 34.21898651123046875 35.08698272705078125 35.93283843994140625 36.18670654296875 35.617244720458984375 34.415248870849609375 33.4570465087890625 33.023914337158203125 32.65532684326171875 32.2615509033203125 32.0153045654296875 31.768045425415039062 31.560886383056640625 31.567728042602539062 31.667043685913085938 31.47646331787109375 31.043004989624023438 30.668905258178710938 30.403104782104492188 30.212007522583007812 30.043287277221679688 29.7714996337890625 29.509199142456054688 29.312597274780273438 29.018060684204101562 28.72928619384765625 28.453886032104492188 28.180894851684570312 27.912103652954101562 27.641355514526367188 27.374971389770507812 27.112661361694335938 26.866647720336914062 26.63958740234375 26.5191192626953125 26.510631561279296875 26.507720947265625 26.503820419311523438 26.4989471435546875 26.492877960205078125 26.485685348510742188 26.477090835571289062 26.467226028442382812 26.455745697021484375 26.44287872314453125 26.4283599853515625 26.412755966186523438 26.395900726318359375 26.378431320190429688 26.360139846801757812 26.341693878173828125 26.32286834716796875 26.304338455200195312 26.285879135131835938 26.268157958984375 26.250967025756835938 26.234941482543945312 26.219921112060546875 26.20648193359375 26.194536209106445312 26.184572219848632812 26.176601409912109375 26.215005874633789062 26.302616119384765625 26.339586257934570312 26.388980865478515625 26.453107833862304688 26.531707763671875 26.619441986083984375 26.715723037719726562 26.814777374267578125 26.915838241577148438 27.011621475219726562 27.09937286376953125 27.171596527099609375 27.224674224853515625 27.252742767333984375 27.2551422119140625 27.235431671142578125 27.197223663330078125 27.146173477172851562 27.085094451904296875 27.01929473876953125 26.948125839233398438 26.873865127563476562 26.794368743896484375 26.712072372436523438 26.624814987182617188 26.536714553833007812 26.448108673095703125 26.36473846435546875 26.287425994873046875 26.2214508056640625 26.16663360595703125 26.122951507568359375 26.08603668212890625 26.05379486083984375 26.02203369140625 25.989000320434570312 25.953168869018554688 25.917276382446289062 25.88233184814453125 25.85143280029296875 25.825702667236328125 25.807071685791015625 25.794527053833007812 25.78728485107421875 25.783926010131835938 25.783355712890625 25.7843017578125 25.78530120849609375 25.784719467163085938 25.780939102172851562 25.772142410278320312 25.757022857666015625 25.734100341796875 25.704248428344726562 25.667110443115234375 25.62442779541015625 25.57547760009765625 25.522508621215820312 25.465227127075195312 25.40716552734375 25.34839630126953125 25.292566299438476562 25.239755630493164062 25.19281005859375 25.150579452514648438 25.114393234252929688 25.083108901977539062 25.057703018188476562 25.037128448486328125 25.0210113525390625 25.00722503662109375 24.994554519653320312 24.980920791625976562 24.965208053588867188 24.94635009765625 24.925710678100585938 24.903903961181640625 24.882806777954101562 24.862997055053710938 24.845788955688476562 24.82979583740234375 24.813714981079101562 24.79512786865234375 24.772676467895507812 24.743940353393554688 24.70909881591796875 24.66799163818359375 24.622976303100585938 24.573980331420898438 24.523595809936523438 24.471166610717773438 24.417940139770507812 24.361478805541992188 24.302478790283203125 24.23830413818359375 24.169824600219726562 24.094064712524414062 24.01200103759765625 23.920192718505859375 23.81999969482421875 23.707513809204101562 23.584728240966796875 23.447475433349609375 23.29871368408203125 23.133724212646484375 22.956171035766601562 22.759786605834960938 22.543798446655273438 22.2919769287109375 21.999217987060546875 21.64667510986328125 21.232067108154296875 20.743206024169921875 20.209344863891601562 19.643224716186523438 19.085880279541015625 18.54921722412109375 18.07122039794921875 17.647052764892578125 17.283407211303710938 16.961931228637695312 16.683862686157226562 16.433553695678710938 16.2120361328125 16.010896682739257812 15.834733963012695312 15.677922248840332031 15.543965339660644531 15.428034782409667969 15.330899238586425781 15.246221542358398438 15.172521591186523438 15.104034423828125 15.038836479187011719 14.973185539245605469 14.90908050537109375 14.846465110778808594 14.788267135620117188 14.734557151794433594 14.687767982482910156 14.646528244018554688 14.610685348510742188 14.578022956848144531 14.5479888916015625 14.518609046936035156 14.489550590515136719 14.45980072021484375 14.429682731628417969 14.39836883544921875 14.366204261779785156 14.332515716552734375 14.298368453979492188 14.26395416259765625 14.230772018432617188 14.199040412902832031 14.170165061950683594 14.143660545349121094 14.119214057922363281 14.095252037048339844 14.071073532104492188 14.045202255249023438 14.017305374145507812 13.987515449523925781 13.957498550415039062 13.9281158447265625 13.901171684265136719 13.877377510070800781 13.857519149780273438 13.840413093566894531 13.825338363647460938 13.810973167419433594 13.796484947204589844 13.781064987182617188 13.765354156494140625 13.750215530395507812 13.736981391906738281 13.726518630981445312 13.720104217529296875 13.718013763427734375 13.720376014709472656 13.726842880249023438 13.737317085266113281 13.751522064208984375 13.768980026245117188 13.788590431213378906 13.808788299560546875 13.828245162963867188 13.845269203186035156 13.858786582946777344 13.868144035339355469 13.874094009399414062 13.877155303955078125 13.878172874450683594 13.877748489379882812 
30.925611495971679688 30.924081802368164062 30.929967880249023438 30.943141937255859375 30.940011978149414062 30.924421310424804688 30.90625 30.902143478393554688 30.918565750122070312 30.988962173461914062 31.033697128295898438 31.01812744140625 30.939165115356445312 30.930706024169921875 30.930803298950195312 30.92360687255859375 30.929548263549804688 30.936460494995117188 30.87433624267578125 31.008108139038085938 31.196359634399414062 31.316898345947265625 31.651777267456054688 32.13306427001953125 32.27721405029296875 32.5972442626953125 32.930171966552734375 33.056793212890625 33.26316070556640625 33.471111297607421875 33.561588287353515625 33.58374786376953125 33.62082672119140625 33.609081268310546875 33.562503814697265625 33.49322509765625 33.291584014892578125 33.07239532470703125 32.974395751953125 32.978771209716796875 33.0295867919921875 33.164661407470703125 33.343959808349609375 33.5533905029296875 33.851673126220703125 34.507160186767578125 35.443695068359375 36.068660736083984375 35.94976806640625 35.006923675537109375 33.877849578857421875 33.179111480712890625 32.854389190673828125 32.47193145751953125 32.154094696044921875 31.935468673706054688 31.693653106689453125 31.538980484008789062 31.605808258056640625 31.6429443359375 31.3532562255859375 30.903333663940429688 30.579168319702148438 30.34236907958984375 30.170902252197265625 29.984737396240234375 29.69545745849609375 29.413543701171875 29.201005935668945312 28.933521270751953125 28.662487030029296875 28.3975372314453125 28.132144927978515625 27.869783401489257812 27.605104446411132812 27.344560623168945312 27.087949752807617188 26.84725189208984375 26.625043869018554688 26.506992340087890625 26.498373031616210938 26.495204925537109375 26.491052627563476562 26.485948562622070312 26.479665756225585938 26.472284317016601562 26.46352386474609375 26.453521728515625 26.44193267822265625 26.428991317749023438 26.4144287109375 26.39881134033203125 26.381969451904296875 26.364534378051757812 26.346300125122070312 26.327924728393554688 26.309183120727539062 26.290746688842773438 26.272388458251953125 26.25476837158203125 26.237680435180664062 26.221752166748046875 26.20682525634765625 26.193468093872070312 26.181589126586914062 26.1716766357421875 26.163736343383789062 26.221979141235351562 26.347040176391601562 26.391536712646484375 26.448041915893554688 26.519809722900390625 26.605840682983398438 26.699548721313476562 26.799381256103515625 26.89846038818359375 26.9952545166015625 27.083005905151367188 27.159646987915039062 27.21903228759765625 27.258190155029296875 27.272613525390625 27.261945724487304688 27.230421066284179688 27.1815643310546875 27.121549606323242188 27.0531768798828125 26.982042312622070312 26.90712738037109375 26.830404281616210938 26.749246597290039062 26.665727615356445312 26.577260971069335938 26.487829208374023438 26.397762298583984375 26.312925338745117188 26.23418426513671875 26.166934967041015625 26.11103057861328125 26.066499710083007812 26.02895355224609375 25.9963226318359375 25.964410781860351562 25.931467056274414062 25.895969390869140625 25.860643386840820312 25.826509475708007812 25.796632766723632812 25.77216339111328125 25.754964828491210938 25.743982315063476562 25.738279342651367188 25.736377716064453125 25.737035751342773438 25.738927841186523438 25.740550994873046875 25.740352630615234375 25.736774444580078125 25.728075027465820312 25.713010787963867188 25.690128326416015625 25.660249710083007812 25.622941970825195312 25.57987213134765625 25.530229568481445312 25.476240158081054688 25.417661666870117188 25.358245849609375 25.298221588134765625 25.241464614868164062 25.18820953369140625 25.141384124755859375 25.099720001220703125 25.064340591430664062 25.033948898315429688 25.009304046630859375 24.989210128784179688 24.973134994506835938 24.958826065063476562 24.944972991943359375 24.929338455200195312 24.910768508911132812 24.888172149658203125 24.863313674926757812 24.837039947509765625 24.811719894409179688 24.788164138793945312 24.768075942993164062 24.749975204467773438 24.73248291015625 24.71295166015625 24.68988800048828125 24.660688400268554688 24.625469207763671875 24.58409881591796875 24.539007186889648438 24.490175247192382812 24.4402618408203125 24.388668060302734375 24.336656570434570312 24.281831741333007812 24.224864959716796875 24.163188934326171875 24.097600936889648438 24.02506256103515625 23.94617462158203125 23.8572540283203125 23.75925445556640625 23.648021697998046875 23.525339126586914062 23.387289047241210938 23.237257003784179688 23.07093048095703125 22.892436981201171875 22.6957855224609375 22.47979736328125 22.227071762084960938 21.931200027465820312 21.571958541870117188 21.145940780639648438 20.64044189453125 20.086940765380859375 19.5005340576171875 18.925662994384765625 18.37660980224609375 17.894227981567382812 17.473794937133789062 17.1204833984375 16.81415557861328125 16.553852081298828125 16.322414398193359375 16.118906021118164062 15.934565544128417969 15.773015022277832031 15.628516197204589844 15.503703117370605469 15.393686294555664062 15.299345970153808594 15.215409278869628906 15.141343116760253906 15.072415351867675781 15.007679939270019531 14.943896293640136719 14.882735252380371094 14.823581695556640625 14.768672943115234375 14.717549324035644531 14.672080039978027344 14.630968093872070312 14.59442138671875 14.560669898986816406 14.529619216918945312 14.499690055847167969 14.470778465270996094 14.441713333129882812 14.412571907043457031 14.382288932800292969 14.350937843322753906 14.317677497863769531 14.283538818359375 14.248844146728515625 14.215224266052246094 14.183028221130371094 14.153795242309570312 14.1271209716796875 14.102747917175292969 14.079117774963378906 14.055560111999511719 14.030626296997070312 14.003969192504882812 13.975653648376464844 13.947190284729003906 13.919327735900878906 13.893702507019042969 13.870926856994628906 13.85173797607421875 13.835074424743652344 13.820339202880859375 13.806351661682128906 13.792407989501953125 13.777794837951660156 13.763141632080078125 13.749246597290039062 13.737363815307617188 13.728304862976074219 13.723250389099121094 13.722420692443847656 13.725839614868164062 13.733091354370117188 13.7439727783203125 13.758143424987792969 13.775082588195800781 13.793796539306640625 13.812877655029296875 13.831167221069335938 13.847146987915039062 13.859880447387695312 13.86879730224609375 13.8746185302734375 13.877851486206054688 13.879290580749511719 13.879518508911132812 
30.930761337280273438 30.930646896362304688 30.944080352783203125 30.954145431518554688 30.957872390747070312 30.944055557250976562 30.920902252197265625 30.910531997680664062 30.967884063720703125 31.098949432373046875 30.9945831298828125 30.75800323486328125 30.793071746826171875 30.898317337036132812 30.968671798706054688 31.009386062622070312 30.973642349243164062 30.901973724365234375 30.929706573486328125 31.130859375 31.297533035278320312 31.570995330810546875 32.026508331298828125 32.300495147705078125 32.4471588134765625 32.8287353515625 33.0476837158203125 33.103450775146484375 33.31601715087890625 33.494533538818359375 33.545398712158203125 33.53936767578125 33.56510162353515625 33.55637359619140625 33.5589447021484375 33.527252197265625 33.334133148193359375 33.059665679931640625 32.930446624755859375 32.94069671630859375 33.04962158203125 33.17243194580078125 33.389392852783203125 33.647975921630859375 34.02640533447265625 34.790119171142578125 35.715084075927734375 35.98523712158203125 35.72817230224609375 34.822200775146484375 33.617923736572265625 33.01113128662109375 32.673702239990234375 32.293560028076171875 32.060779571533203125 31.852756500244140625 31.62783050537109375 31.537652969360351562 31.625524520874023438 31.589670181274414062 31.213964462280273438 30.783765792846679688 30.498327255249023438 30.286027908325195312 30.127775192260742188 29.914266586303710938 29.61051177978515625 29.318414688110351562 29.092309951782226562 28.8530120849609375 28.59836578369140625 28.343296051025390625 28.085123062133789062 27.828889846801757812 27.569995880126953125 27.31499481201171875 27.063772201538085938 26.828075408935546875 26.610422134399414062 26.494611740112304688 26.485826492309570312 26.48236846923828125 26.477941513061523438 26.472583770751953125 26.466066360473632812 26.458477020263671875 26.449533462524414062 26.43938446044921875 26.42768096923828125 26.414661407470703125 26.400060653686523438 26.384435653686523438 26.367618560791015625 26.350233078002929688 26.33206939697265625 26.313785552978515625 26.295152664184570312 26.276834487915039062 26.258602142333984375 26.241109848022460938 26.224155426025390625 26.208353042602539062 26.193546295166015625 26.1802978515625 26.168516159057617188 26.158681869506835938 26.150796890258789062 26.229417800903320312 26.392791748046875 26.444688796997070312 26.50795745849609375 26.586843490600585938 26.679681777954101562 26.778757095336914062 26.881628036499023438 26.980434417724609375 27.072925567626953125 27.15285491943359375 27.218774795532226562 27.265798568725585938 27.29154205322265625 27.29276275634765625 27.26938629150390625 27.226331710815429688 27.167079925537109375 27.098339080810546875 27.022937774658203125 26.946763992309570312 26.868398666381835938 26.78945159912109375 26.70676422119140625 26.621980667114257812 26.532047271728515625 26.440822601318359375 26.348688125610351562 26.261732101440429688 26.180919647216796875 26.111865997314453125 26.054500579833984375 26.008928298950195312 25.970729827880859375 25.937847137451171875 25.906072616577148438 25.873640060424804688 25.8390045166015625 25.804788589477539062 25.771976470947265625 25.743513107299804688 25.720516204833984375 25.704732894897460938 25.695079803466796875 25.690523147583007812 25.689548492431640625 25.690822601318359375 25.692995071411132812 25.694604873657226562 25.6942291259765625 25.690460205078125 25.681690216064453125 25.666818618774414062 25.644437789916992188 25.615230560302734375 25.578596115112304688 25.535991668701171875 25.486429214477539062 25.431995391845703125 25.372503280639648438 25.311944961547851562 25.250764846801757812 25.193105697631835938 25.13941192626953125 25.092718124389648438 25.051631927490234375 25.017070770263671875 24.987562179565429688 24.963642120361328125 24.943950653076171875 24.927801132202148438 24.912824630737304688 24.897617340087890625 24.879793167114257812 24.858167648315429688 24.83162689208984375 24.802341461181640625 24.771389007568359375 24.74163818359375 24.714124679565429688 24.690927505493164062 24.670408248901367188 24.650999069213867188 24.629713058471679688 24.604829788208007812 24.573429107666015625 24.535654067993164062 24.491521835327148438 24.443828582763671875 24.392778396606445312 24.341388702392578125 24.289264678955078125 24.237840652465820312 24.184818267822265625 24.130910873413085938 24.073709487915039062 24.013935089111328125 23.948429107666015625 23.876987457275390625 23.795438766479492188 23.703824996948242188 23.597499847412109375 23.477666854858398438 23.3407440185546875 23.190603256225585938 23.02352142333984375 22.84420013427734375 22.647066116333007812 22.430622100830078125 22.1763153076171875 21.876476287841796875 21.509502410888671875 21.070911407470703125 20.547542572021484375 19.973329544067382812 19.365955352783203125 18.7735595703125 18.213047027587890625 17.7283172607421875 17.314592361450195312 16.974924087524414062 16.686838150024414062 16.446453094482421875 16.234584808349609375 16.047979354858398438 15.877851486206054688 15.727435111999511719 15.591386795043945312 15.47212982177734375 15.365108489990234375 15.271570205688476562 15.187099456787109375 15.111989974975585938 15.042341232299804688 14.978033065795898438 14.916187286376953125 14.858078956604003906 14.80248260498046875 14.750905990600585938 14.702302932739257812 14.657945632934570312 14.61661529541015625 14.578912734985351562 14.543540000915527344 14.510906219482421875 14.479846000671386719 14.450530052185058594 14.421654701232910156 14.393100738525390625 14.363585472106933594 14.332953453063964844 14.300207138061523438 14.266325950622558594 14.231715202331542969 14.198071479797363281 14.165820121765136719 14.136574745178222656 14.109989166259765625 14.085845947265625 14.062619209289550781 14.039671897888183594 14.015583992004394531 13.990014076232910156 13.962967872619628906 13.935827255249023438 13.90924072265625 13.884706497192382812 13.862751960754394531 13.844088554382324219 13.827787399291992188 13.813387870788574219 13.799860954284667969 13.786648750305175781 13.77313232421875 13.759901046752929688 13.747649192810058594 13.737501144409179688 13.730170249938964844 13.726702690124511719 13.727248191833496094 13.731729507446289062 13.739689826965332031 13.750832557678222656 13.764771461486816406 13.780966758728027344 13.798569679260253906 13.816381454467773438 13.833452224731445312 13.84848785400390625 13.860723495483398438 13.86966705322265625 13.875941276550292969 13.87996673583984375 13.88242340087890625 13.883793830871582031 
30.966531753540039062 30.952081680297851562 30.953264236450195312 30.962793350219726562 30.96590423583984375 30.95702362060546875 30.940660476684570312 30.981931686401367188 31.102725982666015625 31.044176101684570312 30.679578781127929688 30.598217010498046875 30.85332489013671875 31.05669403076171875 31.06401824951171875 31.066802978515625 30.965974807739257812 30.946718215942382812 31.048839569091796875 31.190584182739257812 31.483371734619140625 31.9260406494140625 32.320728302001953125 32.438571929931640625 32.582775115966796875 32.8160400390625 32.9536895751953125 33.054706573486328125 33.296298980712890625 33.4640045166015625 33.50533294677734375 33.53247833251953125 33.549381256103515625 33.536861419677734375 33.47896575927734375 33.441326141357421875 33.241504669189453125 33.021999359130859375 32.943023681640625 32.978717803955078125 33.0870361328125 33.228878021240234375 33.503753662109375 33.8557586669921875 34.411983489990234375 35.198577880859375 35.76517486572265625 35.701732635498046875 35.233654022216796875 34.37805938720703125 33.371746063232421875 32.87741851806640625 32.492931365966796875 32.17110443115234375 31.974016189575195312 31.764390945434570312 31.5676727294921875 31.541168212890625 31.6292266845703125 31.504781723022460938 31.062931060791015625 30.676019668579101562 30.419643402099609375 30.239671707153320312 30.076063156127929688 29.826032638549804688 29.516483306884765625 29.2509613037109375 29.022489547729492188 28.78618621826171875 28.539348602294921875 28.291189193725585938 28.039112091064453125 27.78852081298828125 27.535144805908203125 27.285491943359375 27.03948211669921875 26.808629989624023438 26.5953826904296875 26.481721878051757812 26.472734451293945312 26.468959808349609375 26.464229583740234375 26.458593368530273438 26.451818466186523438 26.444004058837890625 26.434865951538085938 26.424558639526367188 26.4127349853515625 26.39963531494140625 26.385000228881835938 26.36937713623046875 26.352596282958984375 26.335275650024414062 26.31720733642578125 26.299036026000976562 26.280534744262695312 26.262361526489257812 26.24428558349609375 26.226953506469726562 26.2101593017578125 26.194515228271484375 26.179861068725585938 26.166749954223632812 26.155094146728515625 26.14536285400390625 26.137561798095703125 26.237752914428710938 26.441516876220703125 26.500789642333984375 26.57033538818359375 26.65550994873046875 26.754079818725585938 26.857391357421875 26.962259292602539062 27.060022354125976562 27.147829055786132812 27.219921112060546875 27.275396347045898438 27.310518264770507812 27.323408126831054688 27.31198883056640625 27.276437759399414062 27.222347259521484375 27.1531829833984375 27.076192855834960938 26.994268417358398438 26.913562774658203125 26.832242965698242188 26.751468658447265625 26.667493820190429688 26.581460952758789062 26.4897918701171875 26.396236419677734375 26.301296234130859375 26.211397171020507812 26.127676010131835938 26.056093215942382812 25.99669647216796875 25.949701309204101562 25.91064453125 25.877471923828125 25.845960617065429688 25.81430816650390625 25.780912399291992188 25.748224258422851562 25.717126846313476562 25.690374374389648438 25.6689910888671875 25.654561996459960938 25.645998001098632812 25.642206192016601562 25.641668319702148438 25.6430206298828125 25.644906997680664062 25.645975112915039062 25.644962310791015625 25.640668869018554688 25.631671905517578125 25.6170501708984375 25.59546661376953125 25.567419052124023438 25.5320892333984375 25.490652084350585938 25.44190216064453125 25.3877105712890625 25.327928543090820312 25.266757965087890625 25.204851150512695312 25.146602630615234375 25.0926513671875 25.04613494873046875 25.005558013916015625 24.97165679931640625 24.942800521850585938 24.91933441162109375 24.899749755859375 24.883228302001953125 24.867290496826171875 24.850461959838867188 24.830209732055664062 24.805337905883789062 24.774700164794921875 24.740858078002929688 24.705081939697265625 24.670717239379882812 24.638990402221679688 24.612333297729492188 24.588901519775390625 24.566936492919921875 24.543043136596679688 24.5152740478515625 24.480344772338867188 24.4384765625 24.389896392822265625 24.33794403076171875 24.283107757568359375 24.22893524169921875 24.175304412841796875 24.123937606811523438 24.072679519653320312 24.0223541259765625 23.970790863037109375 23.918643951416015625 23.8625946044921875 23.801336288452148438 23.72998809814453125 23.647329330444335938 23.548021316528320312 23.432430267333984375 23.297389984130859375 23.147350311279296875 22.979345321655273438 22.798788070678710938 22.600648880004882812 22.383235931396484375 22.12691497802734375 21.822832107543945312 21.448080062866210938 20.9971771240234375 20.456556320190429688 19.862613677978515625 19.235639572143554688 18.627429962158203125 18.057561874389648438 17.57289886474609375 17.1685028076171875 16.844921112060546875 16.57707977294921875 16.357789993286132812 16.165563583374023438 15.994679450988769531 15.836565971374511719 15.694499015808105469 15.563882827758789062 15.4474029541015625 15.34111785888671875 15.246806144714355469 15.160764694213867188 15.084016799926757812 15.013336181640625 14.949315071105957031 14.889329910278320312 14.83422088623046875 14.78212738037109375 14.733805656433105469 14.687601089477539062 14.644175529479980469 14.602377891540527344 14.563215255737304688 14.525880813598632812 14.491295814514160156 14.458729743957519531 14.428644180297851562 14.399624824523925781 14.371385574340820312 14.342450141906738281 14.312468528747558594 14.280292510986328125 14.246851921081542969 14.212583541870117188 14.179212570190429688 14.14720916748046875 14.118219375610351562 14.0919342041015625 14.068165779113769531 14.045428276062011719 14.023113250732421875 13.999838829040527344 13.975267410278320312 13.949357986450195312 13.923386573791503906 13.897918701171875 13.874338150024414062 13.853108406066894531 13.834925651550292969 13.818993568420410156 13.80499267578125 13.792046546936035156 13.779741287231445312 13.767551422119140625 13.756006240844726562 13.745676994323730469 13.737527847290039062 13.732152938842773438 13.730439186096191406 13.732459068298339844 13.738039970397949219 13.746691703796386719 13.758036613464355469 13.771655082702636719 13.786993980407714844 13.803385734558105469 13.819871902465820312 13.835734367370605469 13.849947929382324219 13.861937522888183594 13.871278762817382812 13.878450393676757812 13.883725166320800781 13.887625694274902344 13.890469551086425781 
31.011987686157226562 30.978204727172851562 30.968587875366210938 30.984222412109375 30.985097885131835938 30.968725204467773438 30.944271087646484375 31.017400741577148438 31.203237533569335938 31.09159088134765625 30.662599563598632812 30.836942672729492188 31.122821807861328125 31.151453018188476562 31.078104019165039062 30.9915618896484375 30.96614837646484375 31.04145050048828125 31.155916213989257812 31.389781951904296875 31.879619598388671875 32.32347869873046875 32.51392364501953125 32.5404510498046875 32.646228790283203125 32.8535308837890625 33.0013275146484375 33.086635589599609375 33.27291107177734375 33.48650360107421875 33.564990997314453125 33.577747344970703125 33.56268310546875 33.516086578369140625 33.378032684326171875 33.242618560791015625 33.041660308837890625 32.9259185791015625 32.931674957275390625 33.0108795166015625 33.1366424560546875 33.287853240966796875 33.560909271240234375 34.039783477783203125 34.670574188232421875 35.4161834716796875 35.747097015380859375 35.41185760498046875 34.7038116455078125 33.810665130615234375 33.153720855712890625 32.75708770751953125 32.3479156494140625 32.088958740234375 31.889812469482421875 31.679487228393554688 31.521368026733398438 31.5490875244140625 31.616888046264648438 31.385873794555664062 30.919422149658203125 30.581188201904296875 30.353261947631835938 30.200784683227539062 30.002733230590820312 29.726228713989257812 29.434148788452148438 29.201658248901367188 28.969806671142578125 28.731014251708984375 28.486469268798828125 28.242483139038085938 27.995244979858398438 27.749650955200195312 27.501384735107421875 27.256765365600585938 27.015695571899414062 26.789440155029296875 26.580377578735351562 26.468744277954101562 26.45953369140625 26.455427169799804688 26.450382232666015625 26.444454193115234375 26.437414169311523438 26.4293670654296875 26.4200286865234375 26.4095611572265625 26.397615432739257812 26.3844451904296875 26.369779586791992188 26.354169845581054688 26.337438583374023438 26.32019805908203125 26.302240371704101562 26.284200668334960938 26.2658538818359375 26.247844696044921875 26.229948043823242188 26.212797164916992188 26.196191787719726562 26.180728912353515625 26.166250228881835938 26.153301239013671875 26.14179229736328125 26.132188796997070312 26.12448883056640625 26.246959686279296875 26.492284774780273438 26.558645248413085938 26.633558273315429688 26.72357940673828125 26.826080322265625 26.93178558349609375 27.036998748779296875 27.132555007934570312 27.215175628662109375 27.279582977294921875 27.325288772583007812 27.349538803100585938 27.350833892822265625 27.328084945678710938 27.281675338745117188 27.217800140380859375 27.139934539794921875 27.055828094482421875 26.968448638916015625 26.88417816162109375 26.800741195678710938 26.71878814697265625 26.633943557739257812 26.546800613403320312 26.45320892333984375 26.356845855712890625 26.258390426635742188 26.164728164672851562 26.077243804931640625 26.002349853515625 25.940273284912109375 25.891368865966796875 25.851108551025390625 25.817453384399414062 25.786144256591796875 25.755334854125976562 25.72333526611328125 25.6923675537109375 25.663171768188476562 25.638238906860351562 25.618452072143554688 25.605213165283203125 25.597431182861328125 25.5940093994140625 25.593458175659179688 25.594430923461914062 25.5955963134765625 25.59574127197265625 25.593774795532226562 25.588724136352539062 25.57935333251953125 25.564945220947265625 25.544237136840820312 25.517547607421875 25.483860015869140625 25.444061279296875 25.39675140380859375 25.343564987182617188 25.284358978271484375 25.223438262939453125 25.161600112915039062 25.103372573852539062 25.049533843994140625 25.003269195556640625 24.963026046752929688 24.929430007934570312 24.90074920654296875 24.87722015380859375 24.857229232788085938 24.839879989624023438 24.82259368896484375 24.803861618041992188 24.7810211181640625 24.752887725830078125 24.71826934814453125 24.68004608154296875 24.639617919921875 24.600721359252929688 24.564697265625 24.534284591674804688 24.507442474365234375 24.482282638549804688 24.455057144165039062 24.423666000366210938 24.38449859619140625 24.337909698486328125 24.28430938720703125 24.227573394775390625 24.168455123901367188 24.111024856567382812 24.055421829223632812 24.003694534301757812 23.9538726806640625 23.906957626342773438 23.861049652099609375 23.816789627075195312 23.770677566528320312 23.7201690673828125 23.659580230712890625 23.586277008056640625 23.494108200073242188 23.38253021240234375 23.24881744384765625 23.098127365112304688 22.928318023681640625 22.745653152465820312 22.545728683471679688 22.326831817626953125 22.068399429321289062 21.760602951049804688 21.379413604736328125 20.918506622314453125 20.363986968994140625 19.754358291625976562 19.112186431884765625 18.492389678955078125 17.916894912719726562 17.435047149658203125 17.04168701171875 16.734888076782226562 16.487127304077148438 16.288015365600585938 16.113870620727539062 15.956674575805664062 15.808214187622070312 15.672060966491699219 15.544508934020996094 15.428773880004882812 15.321640968322753906 15.225490570068359375 15.137187957763671875 15.058384895324707031 14.986391067504882812 14.922399520874023438 14.863955497741699219 14.811478614807128906 14.762506484985351562 14.717082977294921875 14.67298126220703125 14.630277633666992188 14.587885856628417969 14.547201156616210938 14.507859230041503906 14.471279144287109375 14.4371185302734375 14.406131744384765625 14.37680816650390625 14.348724365234375 14.320234298706054688 14.290826797485351562 14.25922393798828125 14.226296424865722656 14.19249725341796875 14.159562110900878906 14.127979278564453125 14.099409103393554688 14.073571205139160156 14.050291061401367188 14.028119087219238281 14.006463050842285156 13.983979225158691406 13.960331916809082031 13.935445785522460938 13.910515785217285156 13.886050224304199219 13.863337516784667969 13.842798233032226562 13.825123786926269531 13.809638023376464844 13.796142578125 13.783891677856445312 13.772608757019042969 13.761839866638183594 13.75205230712890625 13.743697166442871094 13.737585067749023438 13.734190940856933594 13.734244346618652344 13.7377471923828125 13.744434356689453125 13.753789901733398438 13.765353202819824219 13.778682708740234375 13.793217658996582031 13.808475494384765625 13.823740959167480469 13.838534355163574219 13.852103233337402344 13.864060401916503906 13.874048233032226562 13.882368087768554688 13.889120101928710938 13.89463043212890625 13.899031639099121094 
31.196376800537109375 31.079410552978515625 31.00676727294921875 30.994142532348632812 31.004566192626953125 30.984857559204101562 30.949903488159179688 30.972326278686523438 31.16027069091796875 31.207098007202148438 30.904241561889648438 31.085512161254882812 31.21155548095703125 31.1307373046875 31.045083999633789062 31.001821517944335938 31.065179824829101562 31.170919418334960938 31.391263961791992188 31.796586990356445312 32.281345367431640625 32.588779449462890625 32.641529083251953125 32.63518524169921875 32.680713653564453125 32.881221771240234375 33.04891204833984375 33.17354583740234375 33.3808441162109375 33.50726318359375 33.64444732666015625 33.673389434814453125 33.575305938720703125 33.459850311279296875 33.239742279052734375 33.00638580322265625 32.8019866943359375 32.78115081787109375 32.857025146484375 32.981807708740234375 33.1393890380859375 33.306713104248046875 33.506748199462890625 33.958866119384765625 34.716259002685546875 35.48675537109375 35.61980438232421875 35.17144012451171875 34.371246337890625 33.532276153564453125 33.0131072998046875 32.6001129150390625 32.206554412841796875 31.997852325439453125 31.79932403564453125 31.597492218017578125 31.49274444580078125 31.57192230224609375 31.575353622436523438 31.229993820190429688 30.788267135620117188 30.498836517333984375 30.30587005615234375 30.146375656127929688 29.9054412841796875 29.6194915771484375 29.40096282958984375 29.18017578125 28.92426300048828125 28.679712295532226562 28.4358062744140625 28.194971084594726562 27.952020645141601562 27.71112060546875 27.467767715454101562 27.228046417236328125 26.991802215576171875 26.770046234130859375 26.565082550048828125 26.455423355102539062 26.4459686279296875 26.4415130615234375 26.436138153076171875 26.429906845092773438 26.4225921630859375 26.414304733276367188 26.404760360717773438 26.394130706787109375 26.382068634033203125 26.368829727172851562 26.354145050048828125 26.338560104370117188 26.321893692016601562 26.304754257202148438 26.28692626953125 26.26904296875 26.250871658325195312 26.23305511474609375 26.215362548828125 26.198421478271484375 26.182027816772460938 26.166772842407226562 26.152496337890625 26.139738082885742188 26.128400802612304688 26.118946075439453125 26.111370086669921875 26.257513046264648438 26.546850204467773438 26.620103836059570312 26.699291229248046875 26.7923126220703125 26.896366119384765625 27.001977920532226562 27.105230331420898438 27.196866989135742188 27.273405075073242188 27.330051422119140625 27.366582870483398438 27.381023406982421875 27.372117996215820312 27.339559555053710938 27.283864974975585938 27.211750030517578125 27.1267242431640625 27.036958694458007812 26.945516586303710938 26.858928680419921875 26.774477005004882812 26.692201614379882812 26.607059478759765625 26.519014358520507812 26.423299789428710938 26.323551177978515625 26.220706939697265625 26.122251510620117188 26.029905319213867188 25.95067596435546875 25.8850250244140625 25.833505630493164062 25.791494369506835938 25.756969451904296875 25.725622177124023438 25.695552825927734375 25.664957046508789062 25.635774612426757812 25.608541488647460938 25.58544158935546875 25.56716156005859375 25.554891586303710938 25.547559738159179688 25.544111251831054688 25.543117523193359375 25.543306350708007812 25.543397903442382812 25.542341232299804688 25.539194107055664062 25.533208847045898438 25.5233154296875 25.508989334106445312 25.489057540893554688 25.463710784912109375 25.431793212890625 25.393964767456054688 25.348705291748046875 25.297430038452148438 25.239963531494140625 25.180528640747070312 25.119945526123046875 25.062686920166015625 25.009531021118164062 24.963636398315429688 24.923460006713867188 24.889623641967773438 24.86038970947265625 24.836011886596679688 24.814840316772460938 24.795989990234375 24.776796340942382812 24.75576019287109375 24.730108261108398438 24.698703765869140625 24.660284042358398438 24.617952346801757812 24.573125839233398438 24.529815673828125 24.489368438720703125 24.454759597778320312 24.423801422119140625 24.39463043212890625 24.363279342651367188 24.32765960693359375 24.283948898315429688 24.232679367065429688 24.17433929443359375 24.113208770751953125 24.050168991088867188 23.98967742919921875 23.932037353515625 23.879625320434570312 23.830686569213867188 23.78646087646484375 23.745361328125 23.70807647705078125 23.67090606689453125 23.630090713500976562 23.57906341552734375 23.513782501220703125 23.427225112915039062 23.317968368530273438 23.183759689331054688 23.030611038208007812 22.85727691650390625 22.671026229858398438 22.46816253662109375 22.247165679931640625 21.9867706298828125 21.676424026489257812 21.29125213623046875 20.824275970458984375 20.261365890502929688 19.642499923706054688 18.991960525512695312 18.366870880126953125 17.790935516357421875 17.315196990966796875 16.9342803955078125 16.644060134887695312 16.4150390625 16.234073638916015625 16.075695037841796875 15.92995452880859375 15.789065361022949219 15.656992912292480469 15.530911445617675781 15.414645195007324219 15.305692672729492188 15.207034111022949219 15.116001129150390625 15.034799575805664062 14.961165428161621094 14.896816253662109375 14.839422225952148438 14.789022445678710938 14.742604255676269531 14.699581146240234375 14.657201766967773438 14.615025520324707031 14.572010993957519531 14.5298919677734375 14.488701820373535156 14.450290679931640625 14.414663314819335938 14.38283538818359375 14.353206634521484375 14.325237274169921875 14.2971343994140625 14.268247604370117188 14.237186431884765625 14.204764366149902344 14.171460151672363281 14.139007568359375 14.107920646667480469 14.079859733581542969 14.054568290710449219 14.031879425048828125 14.010364532470703125 13.989439010620117188 13.967779159545898438 13.945042610168457031 13.921138763427734375 13.897203445434570312 13.873703956604003906 13.85186767578125 13.832088470458984375 13.815052986145019531 13.800184249877929688 13.787370681762695312 13.775975227355957031 13.765814781188964844 13.756497383117675781 13.74843597412109375 13.741983413696289062 13.737816810607910156 13.736324310302734375 13.738095283508300781 13.743071556091308594 13.7509002685546875 13.7610321044921875 13.772930145263671875 13.786116600036621094 13.80002593994140625 13.814348220825195312 13.828602790832519531 13.8425445556640625 13.855672836303710938 13.867788314819335938 13.878579139709472656 13.888165473937988281 13.896453857421875 13.903573036193847656 13.909447669982910156 
31.433719635009765625 31.321977615356445312 31.225589752197265625 31.109273910522460938 31.097320556640625 31.079126358032226562 31.025665283203125 30.970159530639648438 31.054683685302734375 31.165090560913085938 31.104419708251953125 31.174844741821289062 31.182172775268554688 31.14288330078125 31.100284576416015625 31.118923187255859375 31.247884750366210938 31.455957412719726562 31.79559326171875 32.191585540771484375 32.586822509765625 32.733409881591796875 32.74798583984375 32.68007659912109375 32.700878143310546875 32.898651123046875 33.0577545166015625 33.205165863037109375 33.4529571533203125 33.61817169189453125 33.71611785888671875 33.7334442138671875 33.5795745849609375 33.399967193603515625 33.154819488525390625 32.89626312255859375 32.745830535888671875 32.779605865478515625 32.866973876953125 32.961986541748046875 33.112483978271484375 33.34881591796875 33.562854766845703125 33.9371185302734375 34.762638092041015625 35.842952728271484375 35.82727813720703125 34.97597503662109375 34.065654754638671875 33.35132598876953125 32.86493682861328125 32.407161712646484375 32.07784271240234375 31.902444839477539062 31.707866668701171875 31.517763137817382812 31.478231430053710938 31.593690872192382812 31.493116378784179688 31.057170867919921875 30.671865463256835938 30.423955917358398438 30.258901596069335938 30.06407928466796875 29.798723220825195312 29.517822265625 29.354694366455078125 29.134023666381835938 28.87287139892578125 28.627706527709960938 28.385965347290039062 28.148649215698242188 27.90996551513671875 27.673614501953125 27.435003280639648438 27.199991226196289062 26.968389511108398438 26.750963211059570312 26.549938201904296875 26.442169189453125 26.432466506958007812 26.427661895751953125 26.421955108642578125 26.415424346923828125 26.407835006713867188 26.399311065673828125 26.389566421508789062 26.378780364990234375 26.366611480712890625 26.353315353393554688 26.338621139526367188 26.3230743408203125 26.306489944458007812 26.289464950561523438 26.271785736083984375 26.254072189331054688 26.2360992431640625 26.218492507934570312 26.201025009155273438 26.1843109130859375 26.168149948120117188 26.1531219482421875 26.139068603515625 26.126516342163085938 26.115369796752929688 26.106081008911132812 26.098644256591796875 26.269275665283203125 26.604005813598632812 26.683704376220703125 26.765726089477539062 26.859453201293945312 26.962182998657226562 27.0647430419921875 27.163347244262695312 27.249126434326171875 27.318670272827148438 27.367664337158203125 27.395969390869140625 27.40213775634765625 27.384990692138671875 27.344739913940429688 27.281951904296875 27.203739166259765625 27.113645553588867188 27.020168304443359375 26.9264678955078125 26.839132308959960938 26.754991531372070312 26.673404693603515625 26.588651657104492188 26.500009536743164062 26.402070999145507812 26.2984619140625 26.190458297729492188 26.086271286010742188 25.988031387329101562 25.90348052978515625 25.833360671997070312 25.778469085693359375 25.73406982421875 25.698163986206054688 25.666379928588867188 25.636766433715820312 25.607370376586914062 25.579824447631835938 25.554418563842773438 25.532989501953125 25.515985488891601562 25.504377365112304688 25.497125625610351562 25.493265151977539062 25.491460800170898438 25.490564346313476562 25.489366531372070312 25.486982345581054688 25.482572555541992188 25.475572586059570312 25.465032577514648438 25.450586318969726562 25.431146621704101562 25.406866073608398438 25.376573562622070312 25.340814590454101562 25.298074722290039062 25.24961090087890625 25.195173263549804688 25.138660430908203125 25.080751419067382812 25.025602340698242188 24.973834991455078125 24.928453445434570312 24.888010025024414062 24.853265762329101562 24.822597503662109375 24.7964324951171875 24.773183822631835938 24.752080917358398438 24.730386734008789062 24.706678390502929688 24.678091049194335938 24.64357757568359375 24.60176849365234375 24.5558624267578125 24.507165908813476562 24.459794998168945312 24.414968490600585938 24.375806808471679688 24.340063095092773438 24.306131362915039062 24.270009994506835938 24.229879379272460938 24.181879043579101562 24.126750946044921875 24.0648956298828125 24.0007171630859375 23.935026168823242188 23.872379302978515625 23.813091278076171875 23.759786605834960938 23.71096038818359375 23.6681365966796875 23.63004302978515625 23.597494125366210938 23.566606521606445312 23.532564163208007812 23.487951278686523438 23.42751312255859375 23.343362808227539062 23.233388900756835938 23.0958099365234375 22.937641143798828125 22.758531570434570312 22.566892623901367188 22.359769821166992188 22.136079788208007812 21.874147415161132812 21.563043594360351562 21.177412033081054688 20.70987701416015625 20.146167755126953125 19.526849746704101562 18.877058029174804688 18.25481414794921875 17.684755325317382812 17.21851348876953125 16.850553512573242188 16.575159072875976562 16.361680984497070312 16.19509124755859375 16.048845291137695312 15.911711692810058594 15.776300430297851562 15.646904945373535156 15.521390914916992188 15.404072761535644531 15.293007850646972656 15.191681861877441406 15.097799301147460938 15.014042854309082031 14.938497543334960938 14.873334884643554688 14.816312789916992188 14.767194747924804688 14.722506523132324219 14.681161880493164062 14.639988899230957031 14.5981292724609375 14.554566383361816406 14.511300086975097656 14.468669891357421875 14.428857803344726562 14.392138481140136719 14.359724044799804688 14.329937934875488281 14.302144050598144531 14.274420738220214844 14.245995521545410156 14.215392112731933594 14.183389663696289062 14.150490760803222656 14.118449211120605469 14.087813377380371094 14.060260772705078125 14.035552978515625 14.013522148132324219 13.992742538452148438 13.9726104736328125 13.951818466186523438 13.929997444152832031 13.907054901123046875 13.884088516235351562 13.861558914184570312 13.840649604797363281 13.821749687194824219 13.805542945861816406 13.791505813598632812 13.779576301574707031 13.769179344177246094 13.760176658630371094 13.752218246459960938 13.745677947998046875 13.740856170654296875 13.73834991455078125 13.738494873046875 13.741799354553222656 13.748158454895019531 13.75713348388671875 13.76813507080078125 13.780538558959960938 13.793829917907714844 13.807424545288085938 13.821157455444335938 13.834745407104492188 13.848146438598632812 13.861077308654785156 13.873495101928710938 13.885122299194335938 13.895905494689941406 13.905571937561035156 13.914066314697265625 13.921115875244140625 
31.405902862548828125 31.457406997680664062 31.515230178833007812 31.3358306884765625 31.32341766357421875 31.287290573120117188 31.162496566772460938 31.029155731201171875 31.010972976684570312 31.089933395385742188 31.106641769409179688 31.1463470458984375 31.203393936157226562 31.256618499755859375 31.22245025634765625 31.318767547607421875 31.543291091918945312 31.808874130249023438 32.133182525634765625 32.544040679931640625 32.796710968017578125 32.85164642333984375 32.75540924072265625 32.63289642333984375 32.699859619140625 32.919281005859375 33.126094818115234375 33.2958221435546875 33.5077667236328125 33.715167999267578125 33.83487701416015625 33.832424163818359375 33.656139373779296875 33.404449462890625 33.130115509033203125 32.866062164306640625 32.815807342529296875 32.871257781982421875 32.952728271484375 33.01985931396484375 33.121891021728515625 33.344463348388671875 33.57196044921875 34.0440216064453125 35.117069244384765625 36.14745330810546875 35.972564697265625 34.93022918701171875 33.9654998779296875 33.184814453125 32.678157806396484375 32.221363067626953125 31.970586776733398438 31.801759719848632812 31.615396499633789062 31.459932327270507812 31.489999771118164062 31.58270263671875 31.344335556030273438 30.8833160400390625 30.568014144897460938 30.358526229858398438 30.189817428588867188 29.958036422729492188 29.677764892578125 29.427030563354492188 29.276525497436523438 29.053863525390625 28.809396743774414062 28.571107864379882812 28.334329605102539062 28.101659774780273438 27.86768341064453125 27.636045455932617188 27.402208328247070312 27.171895980834960938 26.944902420043945312 26.7317657470703125 26.534643173217773438 26.428741455078125 26.41878509521484375 26.41362762451171875 26.407587051391601562 26.400754928588867188 26.392894744873046875 26.384136199951171875 26.37419891357421875 26.3632659912109375 26.3509979248046875 26.33765411376953125 26.322969436645507812 26.307476043701171875 26.290988922119140625 26.274099349975585938 26.256589889526367188 26.239070892333984375 26.221317291259765625 26.203943252563476562 26.186725616455078125 26.170263290405273438 26.154359817504882812 26.139581680297851562 26.125772476196289062 26.113447189331054688 26.102514266967773438 26.093408584594726562 26.086130142211914062 26.282405853271484375 26.664478302001953125 26.750070571899414062 26.833333969116210938 26.92531585693359375 27.023740768432617188 27.120149612426757812 27.211275100708007812 27.289152145385742188 27.350725173950195312 27.392152786254882812 27.413183212280273438 27.412639617919921875 27.389232635498046875 27.343418121337890625 27.275730133056640625 27.193544387817382812 27.100458145141601562 27.005184173583984375 26.910993576049804688 26.82444000244140625 26.741899490356445312 26.6619873046875 26.578287124633789062 26.489343643188476562 26.389080047607421875 26.281152725219726562 26.167234420776367188 26.056385040283203125 25.95121002197265625 25.86031341552734375 25.784761428833007812 25.725645065307617188 25.678096771240234375 25.64017486572265625 25.607421875 25.57785797119140625 25.549345016479492188 25.523187637329101562 25.49938201904296875 25.479398727416992188 25.463399887084960938 25.45212554931640625 25.444580078125 25.43994140625 25.436986923217773438 25.4347381591796875 25.432085037231445312 25.428293228149414062 25.422580718994140625 25.414516448974609375 25.4032135009765625 25.38842010498046875 25.369129180908203125 25.345567703247070312 25.316661834716796875 25.282989501953125 25.243173599243164062 25.198392868041992188 25.148267745971679688 25.096143722534179688 25.0423736572265625 24.990533828735351562 24.940916061401367188 24.89624786376953125 24.855260848999023438 24.81899261474609375 24.786054611206054688 24.75720977783203125 24.7310333251953125 24.706964492797851562 24.682220458984375 24.655500411987304688 24.623884201049804688 24.586439132690429688 24.54166412353515625 24.492719650268554688 24.440656661987304688 24.38953399658203125 24.340299606323242188 24.296131134033203125 24.254816055297851562 24.215250015258789062 24.173620223999023438 24.12862396240234375 24.0765838623046875 24.018474578857421875 23.954420089721679688 23.888662338256835938 23.821714401245117188 23.7579345703125 23.697460174560546875 23.643085479736328125 23.593561172485351562 23.550737380981445312 23.513629913330078125 23.483266830444335938 23.45557403564453125 23.424886703491210938 23.382978439331054688 23.3236083984375 23.238061904907226562 23.1237640380859375 22.97939300537109375 22.813158035278320312 22.6255950927734375 22.426418304443359375 22.21346282958984375 21.986345291137695312 21.723276138305664062 21.4133148193359375 21.031009674072265625 20.568843841552734375 20.012517929077148438 19.402200698852539062 18.762975692749023438 18.152347564697265625 17.594964981079101562 17.141864776611328125 16.787418365478515625 16.5250091552734375 16.323740005493164062 16.167667388916015625 16.029979705810546875 15.898848533630371094 15.7672271728515625 15.639605522155761719 15.514276504516601562 15.395862579345703125 15.282772064208984375 15.178870201110839844 15.082173347473144531 14.995787620544433594 14.918087959289550781 14.851649284362792969 14.794317245483398438 14.74566650390625 14.701865196228027344 14.661465644836425781 14.6209564208984375 14.579181671142578125 14.535130500793457031 14.490990638732910156 14.447318077087402344 14.406537055969238281 14.369114875793457031 14.336392402648925781 14.306633949279785156 14.279109001159667969 14.251789093017578125 14.223796844482421875 14.193582534790039062 14.161907196044921875 14.129317283630371094 14.097603797912597656 14.067364692687988281 14.040315628051757812 14.016238212585449219 13.994942665100097656 13.974993705749511719 13.955758094787597656 13.935914993286132812 13.915063858032226562 13.893120765686035156 13.87116241455078125 13.849661827087402344 13.829783439636230469 13.811931610107421875 13.79677581787109375 13.783815383911132812 13.772984504699707031 13.763733863830566406 13.755918502807617188 13.749209403991699219 13.743961334228515625 13.740475654602050781 13.73931884765625 13.7408294677734375 13.745477676391601562 13.753136634826660156 13.763284683227539062 13.775273323059082031 13.788392066955566406 13.802069664001464844 13.8156890869140625 13.829202651977539062 13.842484474182128906 13.855657577514648438 13.868618965148925781 13.881451606750488281 13.893895149230957031 13.905743598937988281 13.916556358337402344 13.926117897033691406 13.933973312377929688 
31.254461288452148438 31.280675888061523438 31.359067916870117188 31.365457534790039062 31.441370010375976562 31.458065032958984375 31.297637939453125 31.159090042114257812 31.08426666259765625 31.13541412353515625 31.16146087646484375 31.165037155151367188 31.211805343627929688 31.284116744995117188 31.36107635498046875 31.600177764892578125 31.834444046020507812 32.10309600830078125 32.50409698486328125 32.81804656982421875 32.898609161376953125 32.864742279052734375 32.68431854248046875 32.64116668701171875 32.722911834716796875 32.9569244384765625 33.233798980712890625 33.39615631103515625 33.575962066650390625 33.711696624755859375 33.81212615966796875 33.852359771728515625 33.7035980224609375 33.41107940673828125 33.108539581298828125 32.861331939697265625 32.827911376953125 32.85986328125 32.963977813720703125 33.020206451416015625 33.0877227783203125 33.263431549072265625 33.5390472412109375 34.182247161865234375 35.378009796142578125 36.28087615966796875 35.983715057373046875 34.971954345703125 33.78485107421875 33.009033203125 32.47802734375 32.087665557861328125 31.881666183471679688 31.706399917602539062 31.528614044189453125 31.434207916259765625 31.518604278564453125 31.525789260864257812 31.155309677124023438 30.735326766967773438 30.475931167602539062 30.29596710205078125 30.102817535400390625 29.844972610473632812 29.565027236938476562 29.385023117065429688 29.207643508911132812 28.975648880004882812 28.742496490478515625 28.512653350830078125 28.282281875610351562 28.055023193359375 27.826074600219726562 27.599231719970703125 27.370134353637695312 27.14443206787109375 26.92192840576171875 26.71295928955078125 26.519628524780273438 26.415538787841796875 26.40533447265625 26.399835586547851562 26.3934783935546875 26.386356353759765625 26.378236770629882812 26.369260787963867188 26.359142303466796875 26.34807586669921875 26.335725784301757812 26.322353363037109375 26.307689666748046875 26.292268753051757812 26.275897979736328125 26.259157180786132812 26.241834640502929688 26.224529266357421875 26.207010269165039062 26.18988800048828125 26.172933578491210938 26.156740188598632812 26.141109466552734375 26.126596450805664062 26.113046646118164062 26.100961685180664062 26.090251922607421875 26.0813446044921875 26.0742340087890625 26.233930587768554688 26.556827545166015625 26.626825332641601562 26.69100189208984375 26.760396957397460938 26.892169952392578125 27.151720046997070312 27.247936248779296875 27.316671371459960938 27.36997222900390625 27.404420852661132812 27.419481277465820312 27.413980484008789062 27.386363983154296875 27.337066650390625 27.266504287719726562 27.182214736938476562 27.08786773681640625 26.992315292358398438 26.898944854736328125 26.814226150512695312 26.734113693237304688 26.656467437744140625 26.574216842651367188 26.485172271728515625 26.38262176513671875 26.270259857177734375 26.150178909301757812 26.032312393188476562 25.9197540283203125 25.82199859619140625 25.740447998046875 25.6765289306640625 25.625238418579101562 25.5847320556640625 25.550474166870117188 25.52048492431640625 25.49243927001953125 25.467306137084960938 25.444768905639648438 25.425914764404296875 25.410602569580078125 25.399349212646484375 25.391202926635742188 25.385511398315429688 25.381177902221679688 25.377424240112304688 25.373241424560546875 25.368040084838867188 25.361051559448242188 25.351930618286132812 25.339803695678710938 25.32450103759765625 25.305082321166992188 25.28192901611328125 25.254148483276367188 25.222452163696289062 25.185701370239257812 25.145050048828125 25.099971771240234375 25.053110122680664062 25.004383087158203125 24.95662689208984375 24.909692764282226562 24.865953445434570312 24.824369430541992188 24.78633880615234375 24.750774383544921875 24.718870162963867188 24.689422607421875 24.662134170532226562 24.634195327758789062 24.604459762573242188 24.569971084594726562 24.529928207397460938 24.482683181762695312 24.43125152587890625 24.376333236694335938 24.321805953979492188 24.268247604370117188 24.218822479248046875 24.171421051025390625 24.125606536865234375 24.077909469604492188 24.027727127075195312 23.971696853637695312 23.91106414794921875 23.845567703247070312 23.779100418090820312 23.711727142333984375 23.647428512573242188 23.586038589477539062 23.53044891357421875 23.479631423950195312 23.43575286865234375 23.398075103759765625 23.36785888671875 23.340837478637695312 23.310672760009765625 23.26837921142578125 23.206949234008789062 23.11687469482421875 22.995319366455078125 22.84140777587890625 22.6646728515625 22.466505050659179688 22.25804901123046875 22.037923812866210938 21.806671142578125 21.54264068603515625 21.2351837158203125 20.8590850830078125 20.406904220581054688 19.864414215087890625 19.270599365234375 18.649732589721679688 18.057651519775390625 17.518274307250976562 17.08106231689453125 16.740358352661132812 16.489229202270507812 16.2972869873046875 16.148488998413085938 16.016422271728515625 15.889252662658691406 15.76021575927734375 15.633851051330566406 15.508661270141601562 15.389393806457519531 15.27462005615234375 15.168470382690429688 15.069218635559082031 14.980333328247070312 14.900438308715820312 14.832462310791015625 14.7743377685546875 14.725521087646484375 14.681915283203125 14.641823768615722656 14.601485252380371094 14.559535026550292969 14.514955520629882812 14.470073699951171875 14.425591468811035156 14.384102821350097656 14.346209526062011719 14.313340187072753906 14.283697128295898438 14.256472587585449219 14.229552268981933594 14.201968193054199219 14.172108650207519531 14.140727043151855469 14.108424186706542969 14.077030181884765625 14.047196388244628906 14.020677566528320312 13.997283935546875 13.976798057556152344 13.957759857177734375 13.939495086669921875 13.920664787292480469 13.900829315185546875 13.879919052124023438 13.859000205993652344 13.838572502136230469 13.819796562194824219 13.803095817565917969 13.789125442504882812 13.777382850646972656 13.767763137817382812 13.75971221923828125 13.753054618835449219 13.747461318969726562 13.743285179138183594 13.7408599853515625 13.740771293640136719 13.743391036987304688 13.749200820922851562 13.758056640625 13.769358634948730469 13.782399177551269531 13.796366691589355469 13.810636520385742188 13.824545860290527344 13.838131904602050781 13.851389884948730469 13.864576339721679688 13.877724647521972656 13.891019821166992188 13.904200553894042969 13.916933059692382812 13.928628921508789062 13.938934326171875 13.947237968444824219 
31.17130279541015625 31.161411285400390625 31.185512542724609375 31.214063644409179688 31.380353927612304688 31.483724594116210938 31.38135528564453125 31.182725906372070312 31.089056015014648438 31.16474151611328125 31.18768310546875 31.185451507568359375 31.212156295776367188 31.274465560913085938 31.526659011840820312 31.83478546142578125 32.075481414794921875 32.3883514404296875 32.82376861572265625 32.933223724365234375 32.95684814453125 32.75217437744140625 32.638889312744140625 32.68631744384765625 32.81053924560546875 33.036197662353515625 33.280239105224609375 33.3885345458984375 33.527080535888671875 33.638759613037109375 33.752254486083984375 33.758270263671875 33.60698699951171875 33.267032623291015625 32.935642242431640625 32.753757476806640625 32.709957122802734375 32.751438140869140625 32.89813232421875 33.01079559326171875 33.163204193115234375 33.321552276611328125 33.561916351318359375 34.36351776123046875 35.65953826904296875 36.25945281982421875 35.789211273193359375 34.727581024169921875 33.533355712890625 32.80063629150390625 32.280155181884765625 31.976215362548828125 31.791080474853515625 31.611028671264648438 31.46118927001953125 31.43955230712890625 31.52484130859375 31.391284942626953125 30.951143264770507812 30.610616683959960938 30.390363693237304688 30.221874237060546875 29.993310928344726562 29.717390060424804688 29.459613800048828125 29.315288543701171875 29.120784759521484375 28.8991241455078125 28.675050735473632812 28.453119277954101562 28.229448318481445312 28.007955551147460938 27.784282684326171875 27.56237030029296875 27.338077545166015625 27.117002487182617188 26.898988723754882812 26.69417572021484375 26.50461578369140625 26.402332305908203125 26.3918914794921875 26.3860626220703125 26.379396438598632812 26.37200164794921875 26.363637924194335938 26.354455947875976562 26.344175338745117188 26.332994461059570312 26.320575714111328125 26.307191848754882812 26.292573928833007812 26.277242660522460938 26.26100921630859375 26.244441986083984375 26.227327346801757812 26.210254669189453125 26.192995071411132812 26.176143646240234375 26.159475326538085938 26.143571853637695312 26.128232955932617188 26.114002227783203125 26.10073089599609375 26.08890533447265625 26.078435897827148438 26.06974029541015625 26.062808990478515625 26.071943283081054688 26.0994873046875 26.105833053588867188 26.11350250244140625 26.123548507690429688 26.349763870239257812 27.125951766967773438 27.27385711669921875 27.332651138305664062 27.377729415893554688 27.406023025512695312 27.416530609130859375 27.4078369140625 27.377948760986328125 27.327032089233398438 27.255304336547851562 27.1703948974609375 27.076074600219726562 26.981298446655273438 26.889593124389648438 26.807317733764648438 26.730054855346679688 26.654943466186523438 26.574300765991210938 26.485250473022460938 26.3804779052734375 26.26372528076171875 26.137483596801757812 26.012533187866210938 25.892431259155273438 25.787532806396484375 25.699558258056640625 25.630308151245117188 25.574670791625976562 25.5309600830078125 25.494579315185546875 25.463605880737304688 25.435527801513671875 25.410984039306640625 25.38932037353515625 25.371248245239257812 25.356298446655273438 25.344766616821289062 25.335742950439453125 25.328767776489257812 25.32286834716796875 25.3174896240234375 25.311723709106445312 25.305110931396484375 25.296865463256835938 25.286695480346679688 25.273714065551757812 25.257787704467773438 25.238046646118164062 25.21506500244140625 25.188192367553710938 25.158338546752929688 25.124652862548828125 25.088323593139648438 25.048658370971679688 25.007534027099609375 24.964374542236328125 24.921199798583984375 24.877361297607421875 24.834836959838867188 24.792840957641601562 24.753149032592773438 24.71501922607421875 24.680105209350585938 24.64745330810546875 24.617053985595703125 24.586080551147460938 24.55355072021484375 24.516490936279296875 24.474229812622070312 24.424962997436523438 24.37148284912109375 24.31407928466796875 24.256359100341796875 24.198461532592773438 24.143489837646484375 24.089471817016601562 24.0367584228515625 23.98230743408203125 23.9263458251953125 23.865911483764648438 23.802562713623046875 23.735599517822265625 23.668500900268554688 23.600816726684570312 23.53607177734375 23.473737716674804688 23.416738510131835938 23.3642120361328125 23.31859588623046875 23.279325485229492188 23.247877120971679688 23.219755172729492188 23.188062667846679688 23.143077850341796875 23.0771636962890625 22.980035781860351562 22.848737716674804688 22.682840347290039062 22.49333953857421875 22.282487869262695312 22.0629730224609375 21.834241867065429688 21.597955703735351562 21.332807540893554688 21.028722763061523438 20.660970687866210938 20.222408294677734375 19.698938369750976562 19.127740859985351562 18.531671524047851562 17.963962554931640625 17.447191238403320312 17.028459548950195312 16.702121734619140625 16.46136474609375 16.27692413330078125 16.133274078369140625 16.00493621826171875 15.880502700805664062 15.753458023071289062 15.62827301025390625 15.503489494323730469 15.383814811706542969 15.267852783203125 15.159894943237304688 15.058444976806640625 14.967289924621582031 14.885275840759277344 14.815651893615722656 14.756434440612792969 14.707017898559570312 14.663098335266113281 14.622809410095214844 14.582201004028320312 14.539761543273925781 14.49446868896484375 14.448764801025390625 14.403455734252929688 14.361280441284179688 14.322930335998535156 14.289905548095703125 14.260354042053222656 14.233402252197265625 14.206859588623046875 14.179681777954101562 14.15020751953125 14.119179725646972656 14.087241172790527344 14.056263923645019531 14.026944160461425781 14.001070976257324219 13.978473663330078125 13.958903312683105469 13.940880775451660156 13.923685073852539062 13.905958175659179688 13.887224197387695312 13.867424964904785156 13.847621917724609375 13.828345298767089844 13.810751914978027344 13.795293807983398438 13.782599449157714844 13.772156715393066406 13.763803482055664062 13.756971359252929688 13.751428604125976562 13.746846199035644531 13.743582725524902344 13.742039680480957031 13.742834091186523438 13.746399879455566406 13.753248214721679688 13.763238906860351562 13.775690078735351562 13.789827346801757812 13.804742813110351562 13.819753646850585938 13.834134101867675781 13.847998619079589844 13.861426353454589844 13.874784469604492188 13.888208389282226562 13.901964187622070312 13.915783882141113281 13.929224967956542969 13.941564559936523438 13.952322959899902344 13.960749626159667969 
31.181116104125976562 31.151334762573242188 31.162023544311523438 31.175680160522460938 31.247640609741210938 31.2831878662109375 31.339525222778320312 31.2458953857421875 31.213840484619140625 31.180454254150390625 31.160417556762695312 31.232194900512695312 31.24492645263671875 31.38092803955078125 31.71590423583984375 32.001323699951171875 32.3164215087890625 32.792987823486328125 32.984851837158203125 33.02825164794921875 33.013278961181640625 32.776271820068359375 32.776424407958984375 32.821033477783203125 32.909626007080078125 33.132892608642578125 33.353603363037109375 33.450000762939453125 33.5583648681640625 33.67879486083984375 33.763591766357421875 33.651073455810546875 33.48455047607421875 33.142490386962890625 32.796161651611328125 32.670871734619140625 32.664188385009765625 32.7582244873046875 32.903369903564453125 33.048450469970703125 33.27608489990234375 33.5052337646484375 33.7888641357421875 34.692962646484375 35.90331268310546875 36.11397552490234375 35.4490203857421875 34.377262115478515625 33.2703704833984375 32.592159271240234375 32.130084991455078125 31.88521575927734375 31.697340011596679688 31.521867752075195312 31.41776275634765625 31.46305084228515625 31.490503311157226562 31.19228363037109375 30.775922775268554688 30.498811721801757812 30.313207626342773438 30.13120269775390625 29.870027542114257812 29.584278106689453125 29.3622894287109375 29.237026214599609375 29.036176681518554688 28.82550048828125 28.609943389892578125 28.395158767700195312 28.177801132202148438 27.961923599243164062 27.743455886840820312 27.526409149169921875 27.3068389892578125 27.090299606323242188 26.876672744750976562 26.67591094970703125 26.490022659301757812 26.389501571655273438 26.37884521484375 26.372711181640625 26.365762710571289062 26.35811614990234375 26.3495330810546875 26.34017181396484375 26.329751968383789062 26.318477630615234375 26.306016921997070312 26.29264068603515625 26.278087615966796875 26.262868881225585938 26.24678802490234375 26.230413436889648438 26.213521957397460938 26.196699142456054688 26.179714202880859375 26.16314697265625 26.146778106689453125 26.131175994873046875 26.116140365600585938 26.102207183837890625 26.089221954345703125 26.077663421630859375 26.067441940307617188 26.058963775634765625 26.052221298217773438 26.047529220581054688 26.04498291015625 26.044775009155273438 26.047000885009765625 26.051340103149414062 26.292890548706054688 27.14163970947265625 27.288732528686523438 27.3376922607421875 27.375314712524414062 27.398748397827148438 27.406402587890625 27.396366119384765625 27.366079330444335938 27.315202713012695312 27.243709564208984375 27.159267425537109375 27.06578826904296875 26.972322463989257812 26.882556915283203125 26.802770614624023438 26.728246688842773438 26.655492782592773438 26.576311111450195312 26.487237930297851562 26.38043212890625 26.259685516357421875 26.127811431884765625 25.996318817138671875 25.869129180908203125 25.757360458374023438 25.662981033325195312 25.58818817138671875 25.527807235717773438 25.480381011962890625 25.441295623779296875 25.408758163452148438 25.380079269409179688 25.355607986450195312 25.33434295654296875 25.316644668579101562 25.301713943481445312 25.289640426635742188 25.279550552368164062 25.271165847778320312 25.263639450073242188 25.256622314453125 25.24930572509765625 25.241344451904296875 25.2319183349609375 25.220758438110351562 25.206943511962890625 25.190364837646484375 25.17020416259765625 25.147235870361328125 25.121061325073242188 25.09281158447265625 25.061929702758789062 25.029659271240234375 24.995161056518554688 24.9595794677734375 24.921875 24.883275985717773438 24.842678070068359375 24.80165863037109375 24.75966644287109375 24.7188262939453125 24.678716659545898438 24.64139556884765625 24.606159210205078125 24.573244094848632812 24.539829254150390625 24.505067825317382812 24.465982437133789062 24.4220123291015625 24.371202468872070312 24.316087722778320312 24.256528854370117188 24.195831298828125 24.133676528930664062 24.073087692260742188 24.01222991943359375 23.95226287841796875 23.890581130981445312 23.828266143798828125 23.762760162353515625 23.695989608764648438 23.626840591430664062 23.558441162109375 23.489864349365234375 23.424236297607421875 23.360677719116210938 23.302099227905273438 23.247716903686523438 23.20014190673828125 23.158885955810546875 23.1255645751953125 23.095417022705078125 23.061046600341796875 23.01202392578125 22.940179824829101562 22.834463119506835938 22.691900253295898438 22.5124969482421875 22.308786392211914062 22.083868026733398438 21.85205078125 21.61360931396484375 21.371456146240234375 21.10477447509765625 20.80425262451171875 20.445831298828125 20.022809982299804688 19.5212860107421875 18.97624969482421875 18.408754348754882812 17.868860244750976562 17.377422332763671875 16.978689193725585938 16.667057037353515625 16.436117172241210938 16.258100509643554688 16.118394851684570312 15.992798805236816406 15.87059783935546875 15.745491981506347656 15.621787071228027344 15.497945785522460938 15.378518104553222656 15.262044906616210938 15.152897834777832031 15.049791336059570312 14.956786155700683594 14.8729400634765625 14.801781654357910156 14.741411209106445312 14.691191673278808594 14.646658897399902344 14.605822563171386719 14.564579010009765625 14.52132415771484375 14.475028038024902344 14.428256034851074219 14.381901741027832031 14.338845252990722656 14.299860000610351562 14.266520500183105469 14.2369232177734375 14.210141181945800781 14.18392181396484375 14.157154083251953125 14.128134727478027344 14.09758758544921875 14.066182136535644531 14.035802841186523438 14.007178306579589844 13.982106208801269531 13.9604339599609375 13.9418792724609375 13.924953460693359375 13.908896446228027344 13.892342567443847656 13.874777793884277344 13.856160163879394531 13.837536811828613281 13.819464683532714844 13.803090095520019531 13.788889884948730469 13.777462959289550781 13.768282890319824219 13.761138916015625 13.7554473876953125 13.750920295715332031 13.747234344482421875 13.744756698608398438 13.743964195251464844 13.745516777038574219 13.749913215637207031 13.7577056884765625 13.768756866455078125 13.782313346862792969 13.797528266906738281 13.813409805297851562 13.829209327697753906 13.844142913818359375 13.858378410339355469 13.872066497802734375 13.885654449462890625 13.89936065673828125 13.913514137268066406 13.92783355712890625 13.941782951354980469 13.954518318176269531 13.965460777282714844 13.973736763000488281 
31.242563247680664062 31.193050384521484375 31.175243377685546875 31.187225341796875 31.218524932861328125 31.22379302978515625 31.27252960205078125 31.3073577880859375 31.307794570922851562 31.21634674072265625 31.211917877197265625 31.25579071044921875 31.3056640625 31.530984878540039062 31.903095245361328125 32.214176177978515625 32.733989715576171875 33.0237884521484375 33.01047515869140625 33.078983306884765625 33.069225311279296875 32.9818267822265625 32.98336029052734375 32.963405609130859375 33.01081085205078125 33.22415924072265625 33.439220428466796875 33.544925689697265625 33.637996673583984375 33.7093505859375 33.701984405517578125 33.487491607666015625 33.303314208984375 33.001983642578125 32.72039031982421875 32.6873016357421875 32.692996978759765625 32.76190185546875 32.926422119140625 33.12313079833984375 33.38193511962890625 33.6085357666015625 33.90865325927734375 34.66534423828125 35.810909271240234375 36.045989990234375 35.14028167724609375 33.97083282470703125 33.035675048828125 32.409271240234375 32.02687835693359375 31.798860549926757812 31.610218048095703125 31.44931793212890625 31.409231185913085938 31.484683990478515625 31.382032394409179688 30.979381561279296875 30.636020660400390625 30.404630661010742188 30.238168716430664062 30.020402908325195312 29.7431640625 29.469266891479492188 29.316831588745117188 29.157819747924804688 28.957784652709960938 28.754556655883789062 28.546298980712890625 28.338052749633789062 28.126667022705078125 27.916234970092773438 27.702899932861328125 27.490690231323242188 27.275831222534179688 27.06381988525390625 26.854572296142578125 26.657855987548828125 26.475614547729492188 26.376848220825195312 26.365999221801757812 26.359584808349609375 26.35237884521484375 26.344507217407226562 26.335733413696289062 26.3262176513671875 26.315685272216796875 26.304342269897460938 26.291864395141601562 26.27852630615234375 26.26406097412109375 26.2489776611328125 26.233076095581054688 26.216915130615234375 26.2002716064453125 26.183719635009765625 26.167026519775390625 26.15076446533203125 26.134716033935546875 26.119432449340820312 26.104719161987304688 26.091093063354492188 26.078411102294921875 26.06713104248046875 26.057170867919921875 26.048919677734375 26.0423736572265625 26.037836074829101562 26.035400390625 26.035253524780273438 26.037485122680664062 26.041780471801757812 26.2890625 27.15398406982421875 27.292615890502929688 27.332309722900390625 27.363637924194335938 27.383808135986328125 27.3904876708984375 27.38104248046875 27.352191925048828125 27.302875518798828125 27.232757568359375 27.14952850341796875 27.0572967529296875 26.965230941772460938 26.87722015380859375 26.799524307250976562 26.727209091186523438 26.656297683715820312 26.578189849853515625 26.48896026611328125 26.38036346435546875 26.256206512451171875 26.119512557983398438 25.982343673706054688 25.848848342895507812 25.730726242065429688 25.6301116943359375 25.549610137939453125 25.484066009521484375 25.432329177856445312 25.389848709106445312 25.355045318603515625 25.3250885009765625 25.300069808959960938 25.278644561767578125 25.260854721069335938 25.24556732177734375 25.232694625854492188 25.22136688232421875 25.211490631103515625 25.202314376831054688 25.193681716918945312 25.18486785888671875 25.175626754760742188 25.165090560913085938 25.15300750732421875 25.138408660888671875 25.121198654174804688 25.10059356689453125 25.077556610107421875 25.051910400390625 25.024988174438476562 24.996501922607421875 24.967752456665039062 24.9377899169921875 24.90714263916015625 24.874387741088867188 24.84008026123046875 24.802745819091796875 24.763599395751953125 24.722295761108398438 24.681184768676757812 24.640127182006835938 24.601470947265625 24.564714431762695312 24.530275344848632812 24.495344161987304688 24.459169387817382812 24.4187774658203125 24.37368011474609375 24.321781158447265625 24.265350341796875 24.203844070434570312 24.1402587890625 24.0738372802734375 24.007518768310546875 23.939580917358398438 23.871953964233398438 23.8024139404296875 23.732883453369140625 23.661144256591796875 23.58956146240234375 23.516691207885742188 23.445505142211914062 23.37469482421875 23.307184219360351562 23.241800308227539062 23.18141937255859375 23.125194549560546875 23.075794219970703125 23.032674789428710938 22.997470855712890625 22.965084075927734375 22.927623748779296875 22.873949050903320312 22.795379638671875 22.680088043212890625 22.525127410888671875 22.330949783325195312 22.111705780029296875 21.871358871459960938 21.62592315673828125 21.37651824951171875 21.127445220947265625 20.858469009399414062 20.56121063232421875 20.212400436401367188 19.80591583251953125 19.328092575073242188 18.811504364013671875 18.275136947631835938 17.765504837036132812 17.301486968994140625 16.924163818359375 16.627981185913085938 16.407079696655273438 16.23542022705078125 16.09952545166015625 15.976679801940917969 15.857007026672363281 15.734406471252441406 15.612935066223144531 15.490911483764648438 15.372623443603515625 15.256500244140625 15.146925926208496094 15.0428314208984375 14.948519706726074219 14.863264083862304688 14.790843963623046875 14.729453086853027344 14.678424835205078125 14.633151054382324219 14.591534614562988281 14.549334526062011719 14.504868507385253906 14.457125663757324219 14.408818244934082031 14.3609466552734375 14.316561698913574219 14.276537895202636719 14.242551803588867188 14.212652206420898438 14.185873985290527344 14.159903526306152344 14.133578300476074219 14.105145454406738281 14.075300216674804688 14.044705390930175781 14.015222549438476562 13.987583160400390625 13.963557243347167969 13.942996978759765625 13.925599098205566406 13.909882545471191406 13.895058631896972656 13.879775047302246094 13.863491058349609375 13.846170425415039062 13.828840255737304688 13.812061309814453125 13.796957015991210938 13.784010887145996094 13.773792266845703125 13.765776634216308594 13.759724617004394531 13.755044937133789062 13.751421928405761719 13.748541831970214844 13.746791839599609375 13.746702194213867188 13.748978614807128906 13.75417327880859375 13.76287841796875 13.774950027465820312 13.789568901062011719 13.8058319091796875 13.822653770446777344 13.839230537414550781 13.854724884033203125 13.869342803955078125 13.883290290832519531 13.897086143493652344 13.911009788513183594 13.925448417663574219 13.940099716186523438 13.954345703125 13.967242240905761719 13.978118896484375 13.985995292663574219 
31.249193191528320312 31.236299514770507812 31.228704452514648438 31.201192855834960938 31.231046676635742188 31.280048370361328125 31.314775466918945312 31.329980850219726562 31.335569381713867188 31.267404556274414062 31.257722854614257812 31.298715591430664062 31.494703292846679688 31.837192535400390625 32.239757537841796875 32.68347930908203125 33.039386749267578125 33.044132232666015625 33.013671875 33.0719146728515625 33.118061065673828125 33.121639251708984375 33.074726104736328125 33.0418853759765625 33.129917144775390625 33.32808685302734375 33.4969940185546875 33.58050537109375 33.66330718994140625 33.687458038330078125 33.590496063232421875 33.304729461669921875 33.0328369140625 32.754848480224609375 32.651058197021484375 32.719753265380859375 32.779285430908203125 32.86321258544921875 33.0216217041015625 33.247356414794921875 33.46173095703125 33.640995025634765625 33.950717926025390625 34.702945709228515625 35.886768341064453125 36.082775115966796875 34.968944549560546875 33.65103912353515625 32.812164306640625 32.25403594970703125 31.935529708862304688 31.71651458740234375 31.530147552490234375 31.390748977661132812 31.42244720458984375 31.471973419189453125 31.203151702880859375 30.795148849487304688 30.515560150146484375 30.329799652099609375 30.155294418334960938 29.898548126220703125 29.615886688232421875 29.381130218505859375 29.257305145263671875 29.080671310424804688 28.884754180908203125 28.687505722045898438 28.4855499267578125 28.283214569091796875 28.077360153198242188 27.87206268310546875 27.663633346557617188 27.456094741821289062 27.245809555053710938 27.038213729858398438 26.833251953125 26.640499114990234375 26.4618072509765625 26.364721298217773438 26.353708267211914062 26.34705352783203125 26.339628219604492188 26.331567764282226562 26.322633743286132812 26.312997817993164062 26.302385330200195312 26.291006088256835938 26.278543472290039062 26.26526641845703125 26.250917434692382812 26.235988616943359375 26.220289230346679688 26.204359054565429688 26.187982559204101562 26.17171478271484375 26.155330657958984375 26.139383316040039062 26.123662948608398438 26.108705520629882812 26.09432220458984375 26.081014633178710938 26.068635940551757812 26.057641983032226562 26.047943115234375 26.03992462158203125 26.03357696533203125 26.029195785522460938 26.0268707275390625 26.026782989501953125 26.029022216796875 26.03327178955078125 26.283823013305664062 27.15651702880859375 27.286558151245117188 27.318241119384765625 27.34487152099609375 27.363536834716796875 27.371088027954101562 27.363971710205078125 27.338108062744140625 27.29154205322265625 27.223604202270507812 27.142002105712890625 27.051080703735351562 26.960163116455078125 26.873363494873046875 26.797000885009765625 26.726032257080078125 26.656179428100585938 26.578580856323242188 26.489023208618164062 26.378993988037109375 26.252290725708007812 26.111995697021484375 25.970468521118164062 25.831912994384765625 25.708375930786132812 25.602031707763671875 25.515905380249023438 25.444936752319335938 25.388397216796875 25.341859817504882812 25.3040771484375 25.272111892700195312 25.245861053466796875 25.223649978637695312 25.2052459716796875 25.189210891723632812 25.17529296875 25.162616729736328125 25.151235580444335938 25.140466690063476562 25.130321502685546875 25.12012481689453125 25.109716415405273438 25.098178863525390625 25.085277557373046875 25.069995880126953125 25.052242279052734375 25.031255722045898438 25.008138656616210938 24.982885360717773438 24.956979751586914062 24.930337905883789062 24.904300689697265625 24.87786865234375 24.851125717163085938 24.822406768798828125 24.791784286499023438 24.757547378540039062 24.720624923706054688 24.6808013916015625 24.640527725219726562 24.599840164184570312 24.561222076416015625 24.524309158325195312 24.489593505859375 24.454288482666015625 24.417684555053710938 24.3768157958984375 24.331226348876953125 24.278699874877929688 24.221250534057617188 24.157987594604492188 24.091634750366210938 24.021039962768554688 23.949069976806640625 23.874073028564453125 23.798650741577148438 23.720869064331054688 23.643396377563476562 23.564256668090820312 23.486310958862304688 23.4079132080078125 23.332126617431640625 23.257425308227539062 23.186771392822265625 23.118804931640625 23.056362152099609375 22.998399734497070312 22.947505950927734375 22.902956008911132812 22.86626434326171875 22.831933975219726562 22.7915496826171875 22.73326873779296875 22.64789581298828125 22.522832870483398438 22.355154037475585938 22.1457672119140625 21.910451889038085938 21.6540374755859375 21.39426422119140625 21.13309478759765625 20.87627410888671875 20.604190826416015625 20.309480667114257812 19.969715118408203125 19.579431533813476562 19.12522125244140625 18.637208938598632812 18.132265090942382812 17.653278350830078125 17.217100143432617188 16.861572265625 16.581190109252929688 16.370668411254882812 16.205751419067382812 16.074125289916992188 15.954617500305175781 15.838193893432617188 15.7189483642578125 15.600632667541503906 15.481400489807128906 15.365221977233886719 15.250392913818359375 15.141264915466308594 15.036988258361816406 14.942070960998535156 14.855999946594238281 14.782778739929199219 14.720694541931152344 14.669040679931640625 14.623077392578125 14.580600738525390625 14.537236213684082031 14.491235733032226562 14.441618919372558594 14.391290664672851562 14.341391563415527344 14.295185089111328125 14.253670692443847656 14.218661308288574219 14.188165664672851562 14.161197662353515625 14.135385513305664062 14.109523773193359375 14.081820487976074219 14.052908897399902344 14.023419380187988281 13.995144844055175781 13.968787193298339844 13.946048736572265625 13.926776885986328125 13.910649299621582031 13.896221160888671875 13.882692337036132812 13.868743896484375 13.853819847106933594 13.837888717651367188 13.821927070617675781 13.806491851806640625 13.792653083801269531 13.780884742736816406 13.771730422973632812 13.764692306518554688 13.759520530700683594 13.755657196044921875 13.752782821655273438 13.750612258911132812 13.749547004699707031 13.750154495239257812 13.753161430358886719 13.759158134460449219 13.768752098083496094 13.781796455383300781 13.7974090576171875 13.814629554748535156 13.832303047180175781 13.849576950073242188 13.865558624267578125 13.880491256713867188 13.894622802734375 13.908533096313476562 13.922552108764648438 13.937107086181640625 13.9518890380859375 13.966204643249511719 13.979025840759277344 13.989611625671386719 13.996889114379882812 
31.278455734252929688 31.2417144775390625 31.237997055053710938 31.228975296020507812 31.2630767822265625 31.308563232421875 31.356660842895507812 31.37241363525390625 31.364227294921875 31.299045562744140625 31.278673171997070312 31.454778671264648438 31.783151626586914062 32.150848388671875 32.68448638916015625 33.11493682861328125 33.089069366455078125 33.02587127685546875 33.0337371826171875 33.125423431396484375 33.209468841552734375 33.196971893310546875 33.150356292724609375 33.14063262939453125 33.244976043701171875 33.41728973388671875 33.52610015869140625 33.5505828857421875 33.552516937255859375 33.5559234619140625 33.48192596435546875 33.233791351318359375 32.894775390625 32.6522369384765625 32.701290130615234375 32.81847381591796875 32.912754058837890625 33.09091949462890625 33.166683197021484375 33.358295440673828125 33.5334625244140625 33.68997955322265625 34.079341888427734375 35.103763580322265625 36.056415557861328125 35.827457427978515625 34.648365020751953125 33.376789093017578125 32.5915069580078125 32.125091552734375 31.850605010986328125 31.63516998291015625 31.451509475708007812 31.370634078979492188 31.442975997924804688 31.374898910522460938 30.989961624145507812 30.65039825439453125 30.428117752075195312 30.27538299560546875 30.05066680908203125 29.763998031616210938 29.494138717651367188 29.3252716064453125 29.183679580688476562 29.003438949584960938 28.814205169677734375 28.622745513916015625 28.426509857177734375 28.229631423950195312 28.028995513916015625 27.82862091064453125 27.624958038330078125 27.422002792358398438 27.216241836547851562 27.013032913208007812 26.812353134155273438 26.623607635498046875 26.4486236572265625 26.353322982788085938 26.342084884643554688 26.335142135620117188 26.327472686767578125 26.3192138671875 26.310129165649414062 26.30039215087890625 26.289722442626953125 26.278341293334960938 26.265920639038085938 26.252740859985351562 26.23853302001953125 26.22379302978515625 26.20832061767578125 26.192647933959960938 26.176557540893554688 26.160594940185546875 26.14453887939453125 26.128927230834960938 26.113552093505859375 26.098934173583984375 26.08489227294921875 26.071912765502929688 26.059850692749023438 26.0491485595703125 26.039722442626953125 26.031938552856445312 26.025793075561523438 26.021570205688476562 26.019357681274414062 26.019330978393554688 26.021574020385742188 26.025775909423828125 26.277536392211914062 27.1511077880859375 27.272817611694335938 27.297824859619140625 27.321208953857421875 27.339818954467773438 27.349660873413085938 27.346164703369140625 27.324419021606445312 27.281494140625 27.216358184814453125 27.136728286743164062 27.047183990478515625 26.957210540771484375 26.871141433715820312 26.795404434204101562 26.724958419799804688 26.655412673950195312 26.5778045654296875 26.487825393676757812 26.376836776733398438 26.248590469360351562 26.106061935424804688 25.96163177490234375 25.819356918334960938 25.6913604736328125 25.579732894897460938 25.487924575805664062 25.41107940673828125 25.349020004272460938 25.297533035278320312 25.255834579467773438 25.22092437744140625 25.192575454711914062 25.168783187866210938 25.149105072021484375 25.131803512573242188 25.116498947143554688 25.102275848388671875 25.089307785034179688 25.076953887939453125 25.065347671508789062 25.053844451904296875 25.04235076904296875 25.029903411865234375 25.016279220581054688 25.000417709350585938 24.982236862182617188 24.960979461669921875 24.937845230102539062 24.912937164306640625 24.887838363647460938 24.862604141235351562 24.838605880737304688 24.8148345947265625 24.791107177734375 24.765642166137695312 24.73821258544921875 24.707002639770507812 24.672725677490234375 24.63523101806640625 24.596920013427734375 24.55791473388671875 24.5206756591796875 24.48490142822265625 24.451070785522460938 24.416444778442382812 24.380304336547851562 24.339717864990234375 24.294223785400390625 24.241504669189453125 24.183336257934570312 24.118503570556640625 24.049482345581054688 23.9747467041015625 23.897106170654296875 23.814935684204101562 23.731456756591796875 23.6449432373046875 23.558752059936523438 23.471075057983398438 23.385320663452148438 23.299726486206054688 23.217664718627929688 23.137487411499023438 23.062408447265625 22.99094390869140625 22.925912857055664062 22.865964889526367188 22.813528060913085938 22.767599105834960938 22.729482650756835938 22.69322967529296875 22.64987945556640625 22.586874008178710938 22.494489669799804688 22.359338760375976562 22.17852783203125 21.953405380249023438 21.701425552368164062 21.42827606201171875 21.153472900390625 20.87981414794921875 20.614538192749023438 20.338682174682617188 20.045961380004882812 19.714813232421875 19.340488433837890625 18.909856796264648438 18.450572967529296875 17.977338790893554688 17.52938079833984375 17.121484756469726562 16.788202285766601562 16.524082183837890625 16.324419021606445312 16.166772842407226562 16.039997100830078125 15.924498558044433594 15.812083244323730469 15.697045326232910156 15.582793235778808594 15.467319488525390625 15.354235649108886719 15.241707801818847656 15.134003639221191406 15.030484199523925781 14.935811042785644531 14.849673271179199219 14.776247978210449219 14.713911056518554688 14.661913871765136719 14.615408897399902344 14.572085380554199219 14.527457237243652344 14.479727745056152344 14.427964210510253906 14.375293731689453125 14.323011398315429688 14.274630546569824219 14.231293678283691406 14.194980621337890625 14.163661956787109375 14.136351585388183594 14.110619544982910156 14.085244178771972656 14.058383941650390625 14.030606269836425781 14.002474784851074219 13.975682258605957031 13.950870513916015625 13.929638862609863281 13.911828041076660156 13.897093772888183594 13.884049415588378906 13.871895790100097656 13.859363555908203125 13.84588623046875 13.831435203552246094 13.816914558410644531 13.802855491638183594 13.790254592895507812 13.779569625854492188 13.771307945251464844 13.765028953552246094 13.760510444641113281 13.757253646850585938 13.754972457885742188 13.753427505493164062 13.753030776977539062 13.754361152648925781 13.758141517639160156 13.764978408813476562 13.775469779968261719 13.789458274841308594 13.806002616882324219 13.824103355407714844 13.842539787292480469 13.860417366027832031 13.876806259155273438 13.891974449157714844 13.906197547912597656 13.92010498046875 13.934062004089355469 13.948534011840820312 13.963197708129882812 13.977320671081542969 13.989803314208984375 13.999854087829589844 14.006339073181152344 
31.3759002685546875 31.334169387817382812 31.275339126586914062 31.257787704467773438 31.288776397705078125 31.326547622680664062 31.368478775024414062 31.400579452514648438 31.405256271362304688 31.399000167846679688 31.418697357177734375 31.633876800537109375 32.018138885498046875 32.49172210693359375 33.048267364501953125 33.168712615966796875 33.06842041015625 33.05843353271484375 33.118427276611328125 33.209224700927734375 33.31182861328125 33.2972564697265625 33.2359466552734375 33.2539215087890625 33.3400421142578125 33.464206695556640625 33.547466278076171875 33.57755279541015625 33.51551055908203125 33.43723297119140625 33.31702423095703125 33.12067413330078125 32.819671630859375 32.6724700927734375 32.741817474365234375 32.908794403076171875 33.047115325927734375 33.1555633544921875 33.25252532958984375 33.4517059326171875 33.60636138916015625 33.762752532958984375 34.30023193359375 35.48065948486328125 36.059658050537109375 35.365558624267578125 34.1354217529296875 33.081707000732421875 32.3978729248046875 32.012149810791015625 31.764751434326171875 31.5563812255859375 31.391567230224609375 31.389844894409179688 31.427759170532226562 31.196249008178710938 30.808969497680664062 30.53681182861328125 30.359186172485351562 30.18547821044921875 29.922643661499023438 29.637430191040039062 29.407154083251953125 29.280277252197265625 29.1123199462890625 28.932683944702148438 28.747997283935546875 28.561519622802734375 28.370351791381835938 28.178407669067382812 27.982593536376953125 27.786846160888671875 27.5877227783203125 27.389171600341796875 27.187784194946289062 26.98883819580078125 26.792337417602539062 26.607524871826171875 26.436281204223632812 26.342891693115234375 26.3314056396484375 26.324148178100585938 26.316221237182617188 26.307769775390625 26.298549652099609375 26.288732528686523438 26.278039932250976562 26.266683578491210938 26.254343032836914062 26.241289138793945312 26.22725677490234375 26.212726593017578125 26.19750213623046875 26.18210601806640625 26.16632080078125 26.150676727294921875 26.134958267211914062 26.119691848754882812 26.10466766357421875 26.090398788452148438 26.076702117919921875 26.064052581787109375 26.05230712890625 26.041896820068359375 26.03273773193359375 26.025188446044921875 26.019243240356445312 26.01517486572265625 26.013072967529296875 26.013103485107421875 26.015348434448242188 26.019498825073242188 26.271026611328125 27.1409454345703125 27.255258560180664062 27.275060653686523438 27.296407699584960938 27.315855026245117188 27.328643798828125 27.32924652099609375 27.311998367309570312 27.273052215576171875 27.2110443115234375 27.133642196655273438 27.045612335205078125 26.956548690795898438 26.87093353271484375 26.795320510864257812 26.724761962890625 26.65494537353515625 26.576974868774414062 26.486627578735351562 26.37529754638671875 26.246652603149414062 26.10338592529296875 25.957620620727539062 25.813070297241210938 25.681657791137695312 25.565252304077148438 25.467754364013671875 25.384611129760742188 25.316312789916992188 25.25896453857421875 25.212371826171875 25.17352294921875 25.142133712768554688 25.1158905029296875 25.09420013427734375 25.075048446655273438 25.057958602905273438 25.0419464111328125 25.027286529541015625 25.01332855224609375 25.000303268432617188 24.987562179565429688 24.975063323974609375 24.961801528930664062 24.94756317138671875 24.931253433227539062 24.912790298461914062 24.891420364379882812 24.868389129638671875 24.843866348266601562 24.819484710693359375 24.795385360717773438 24.77294921875 24.751195907592773438 24.729814529418945312 24.707017898559570312 24.682420730590820312 24.654214859008789062 24.622943878173828125 24.588468551635742188 24.553022384643554688 24.516735076904296875 24.481899261474609375 24.44823455810546875 24.416131973266601562 24.382930755615234375 24.34789276123046875 24.3081512451171875 24.26322174072265625 24.210714340209960938 24.152154922485351562 24.086023330688476562 24.0145416259765625 23.935819625854492188 23.85260772705078125 23.763294219970703125 23.67168426513671875 23.57623291015625 23.48096466064453125 23.384202957153320312 23.289922714233398438 23.1962738037109375 23.107013702392578125 23.02040863037109375 22.940004348754882812 22.864213943481445312 22.795871734619140625 22.733285903930664062 22.678731918334960938 22.630891799926757812 22.590867996215820312 22.552232742309570312 22.505514144897460938 22.437429428100585938 22.337759017944335938 22.192325592041015625 21.998271942138671875 21.757379531860351562 21.488737106323242188 21.198871612548828125 20.909036636352539062 20.622844696044921875 20.349010467529296875 20.0691986083984375 19.7781982421875 19.455295562744140625 19.096454620361328125 18.688816070556640625 18.257616043090820312 17.815431594848632812 17.397899627685546875 17.017774581909179688 16.70638275146484375 16.458330154418945312 16.269481658935546875 16.11919403076171875 15.997468948364257812 15.886271476745605469 15.778230667114257812 15.667852401733398438 15.55820465087890625 15.447141647338867188 15.337908744812011719 15.228562355041503906 15.12323760986328125 15.021471977233886719 14.9279937744140625 14.842656135559082031 14.769722938537597656 14.707660675048828125 14.655671119689941406 14.60884857177734375 14.564817428588867188 14.519014358520507812 14.469623565673828125 14.415781021118164062 14.360821723937988281 14.306193351745605469 14.25565338134765625 14.210477828979492188 14.172816276550292969 14.140615463256835938 14.112900733947753906 14.087207794189453125 14.062302589416503906 14.036314964294433594 14.009737968444824219 13.983058929443359375 13.957854270935058594 13.93470001220703125 13.915075302124023438 13.898801803588867188 13.885525703430175781 13.873909950256347656 13.863167762756347656 13.852081298828125 13.840077400207519531 13.827116966247558594 13.814022064208984375 13.801286697387695312 13.789821624755859375 13.780056953430175781 13.77246856689453125 13.766697883605957031 13.762581825256347656 13.759701728820800781 13.757846832275390625 13.756832122802734375 13.757078170776367188 13.759145736694335938 13.763733863830566406 13.77143096923828125 13.782809257507324219 13.797689437866210938 13.815084457397460938 13.833964347839355469 13.853058815002441406 13.871445655822753906 13.888156890869140625 13.903478622436523438 13.917704582214355469 13.931488990783691406 13.945222854614257812 13.959392547607421875 13.973672866821289062 13.987310409545898438 13.999178886413574219 14.008462905883789062 14.01399993896484375 
31.379528045654296875 31.415521621704101562 31.413909912109375 31.366191864013671875 31.319553375244140625 31.319454193115234375 31.390682220458984375 31.41086578369140625 31.389867782592773438 31.417791366577148438 31.489423751831054688 31.708425521850585938 32.275844573974609375 32.903217315673828125 33.15583038330078125 33.1256103515625 33.06166839599609375 33.104953765869140625 33.227458953857421875 33.279483795166015625 33.3543701171875 33.31043243408203125 33.271759033203125 33.3053131103515625 33.3997802734375 33.521800994873046875 33.649784088134765625 33.717121124267578125 33.603839874267578125 33.371181488037109375 33.1671142578125 32.959079742431640625 32.758930206298828125 32.725032806396484375 32.79145050048828125 32.931217193603515625 33.075992584228515625 33.130786895751953125 33.23929595947265625 33.4534912109375 33.63214874267578125 33.8192291259765625 34.54322052001953125 35.776897430419921875 36.04634857177734375 35.04843902587890625 33.699977874755859375 32.810260772705078125 32.2279052734375 31.912221908569335938 31.683412551879882812 31.484523773193359375 31.35645294189453125 31.409837722778320312 31.334514617919921875 30.9878692626953125 30.668493270874023438 30.454982757568359375 30.29166412353515625 30.060159683227539062 29.7852783203125 29.512369155883789062 29.34613800048828125 29.215549468994140625 29.0414886474609375 28.865224838256835938 28.684558868408203125 28.502481460571289062 28.315908432006835938 28.128536224365234375 27.937284469604492188 27.74597930908203125 27.551265716552734375 27.357025146484375 27.159944534301757812 26.9652099609375 26.7728424072265625 26.5919036865234375 26.424196243286132812 26.33251953125 26.32093048095703125 26.313501358032226562 26.305446624755859375 26.296903610229492188 26.287630081176757812 26.277801513671875 26.267141342163085938 26.255857467651367188 26.243635177612304688 26.230741500854492188 26.216915130615234375 26.202625274658203125 26.187677383422851562 26.172580718994140625 26.157121658325195312 26.141819000244140625 26.126455307006835938 26.111547470092773438 26.096891403198242188 26.082979202270507812 26.069635391235351562 26.057323455810546875 26.045904159545898438 26.03578948974609375 26.0269012451171875 26.019588470458984375 26.0138397216796875 26.00992584228515625 26.007932662963867188 26.008014678955078125 26.01025390625 26.014345169067382812 26.264776229858398438 27.128683090209960938 27.236967086791992188 27.253025054931640625 27.273250579833984375 27.293912887573242188 27.309659957885742188 27.314184188842773438 27.301248550415039062 27.266244888305664062 27.207529067993164062 27.132627487182617188 27.046398162841796875 26.958417892456054688 26.87322235107421875 26.797437667846679688 26.726301193237304688 26.655788421630859375 26.577245712280273438 26.486726760864257812 26.3758392333984375 26.248104095458984375 26.1057586669921875 25.96035003662109375 25.815031051635742188 25.681224822998046875 25.5604400634765625 25.457042694091796875 25.366910934448242188 25.291368484497070312 25.22693634033203125 25.174180984497070312 25.130121231079101562 25.094509124755859375 25.06472015380859375 25.040088653564453125 25.018321990966796875 24.9989013671875 24.980731964111328125 24.964160919189453125 24.94849395751953125 24.934019088745117188 24.92005157470703125 24.906585693359375 24.892578125 24.877824783325195312 24.861204147338867188 24.842632293701171875 24.821352005004882812 24.798618316650390625 24.774631500244140625 24.75102996826171875 24.727996826171875 24.70690155029296875 24.686830520629882812 24.667436599731445312 24.6470184326171875 24.625139236450195312 24.600088119506835938 24.572265625 24.541501998901367188 24.509744644165039062 24.477067947387695312 24.445486068725585938 24.414674758911132812 24.384914398193359375 24.35366058349609375 24.320171356201171875 24.281679153442382812 24.23770904541015625 24.185810089111328125 24.127223968505859375 24.060108184814453125 23.986391067504882812 23.903804779052734375 23.81501007080078125 23.718416213989257812 23.618450164794921875 23.513765335083007812 23.409093856811523438 23.302904129028320312 23.1997528076171875 23.097658157348632812 23.000728607177734375 22.907093048095703125 22.82061004638671875 22.739543914794921875 22.666799545288085938 22.60036468505859375 22.542448043823242188 22.49144744873046875 22.44834136962890625 22.406240463256835938 22.355194091796875 22.281194686889648438 22.173555374145507812 22.017303466796875 21.809648513793945312 21.552764892578125 21.267374038696289062 20.9608001708984375 20.65601348876953125 20.357421875 20.075176239013671875 19.791553497314453125 19.502376556396484375 19.187753677368164062 18.844335556030273438 18.459512710571289062 18.056133270263671875 17.644680023193359375 17.257236480712890625 16.904561996459960938 16.614793777465820312 16.38260650634765625 16.204442977905273438 16.0614471435546875 15.944779396057128906 15.837958335876464844 15.734437942504882812 15.62896728515625 15.524297714233398438 15.418175697326660156 15.313505172729492188 15.208264350891113281 15.106398582458496094 15.007554054260253906 14.916414260864257812 14.832930564880371094 14.761343955993652344 14.700189590454101562 14.648641586303710938 14.601809501647949219 14.55730438232421875 14.510562896728515625 14.459790229797363281 14.404198646545410156 14.3473052978515625 14.290682792663574219 14.23828887939453125 14.191512107849121094 14.152649879455566406 14.119639396667480469 14.091540336608886719 14.065871238708496094 14.041407585144042969 14.016263961791992188 13.990874290466308594 13.96564483642578125 13.942041397094726562 13.920568466186523438 13.902590751647949219 13.887907981872558594 13.876148223876953125 13.866024017333984375 13.856743812561035156 13.847144126892089844 13.836632728576660156 13.825156211853027344 13.813444137573242188 13.801947593688964844 13.79148101806640625 13.782434463500976562 13.775273323059082031 13.769731521606445312 13.765748023986816406 13.763010978698730469 13.76141357421875 13.760845184326171875 13.761717796325683594 13.764554977416992188 13.770000457763671875 13.778599739074707031 13.790871620178222656 13.806606292724609375 13.824780464172363281 13.844348907470703125 13.864003181457519531 13.882809638977050781 13.899769783020019531 13.9151763916015625 13.92931365966796875 13.942853927612304688 13.956178665161132812 13.969786643981933594 13.98336029052734375 13.996164321899414062 14.007091522216796875 14.015338897705078125 14.019769668579101562 
31.418397903442382812 31.4213409423828125 31.446901321411132812 31.45970916748046875 31.438089370727539062 31.384195327758789062 31.40355682373046875 31.387592315673828125 31.386350631713867188 31.439008712768554688 31.567348480224609375 31.966791152954101562 32.80089569091796875 33.19647216796875 33.139835357666015625 33.138126373291015625 33.130344390869140625 33.10555267333984375 33.2140045166015625 33.30825042724609375 33.35224151611328125 33.302028656005859375 33.309215545654296875 33.3462677001953125 33.4503173828125 33.52677154541015625 33.611042022705078125 33.713840484619140625 33.544605255126953125 33.23168182373046875 33.01543426513671875 32.85813140869140625 32.759632110595703125 32.785350799560546875 32.86579132080078125 32.9048004150390625 33.002925872802734375 33.118747711181640625 33.2397003173828125 33.4196624755859375 33.587848663330078125 33.8771820068359375 34.70025634765625 35.823558807373046875 35.8646392822265625 34.662776947021484375 33.3691253662109375 32.55483245849609375 32.082965850830078125 31.815448760986328125 31.603000640869140625 31.416933059692382812 31.354135513305664062 31.388788223266601562 31.170337677001953125 30.81073760986328125 30.560724258422851562 30.392683029174804688 30.199861526489257812 29.925317764282226562 29.647699356079101562 29.430568695068359375 29.308416366577148438 29.146602630615234375 28.9741058349609375 28.801250457763671875 28.624422073364257812 28.446384429931640625 28.264019012451171875 28.08087921142578125 27.893901824951171875 27.706806182861328125 27.516305923461914062 27.326206207275390625 27.133281707763671875 26.942621231079101562 26.754255294799804688 26.57706451416015625 26.412792205810546875 26.322835922241210938 26.311185836791992188 26.303630828857421875 26.295484542846679688 26.286890029907226562 26.277605056762695312 26.267803192138671875 26.25720977783203125 26.24603271484375 26.233959197998046875 26.221254348754882812 26.2076568603515625 26.193628311157226562 26.178976058959960938 26.164194107055664062 26.149076461791992188 26.134124755859375 26.1191253662109375 26.104585647583007812 26.090297698974609375 26.076747894287109375 26.06375885009765625 26.051784515380859375 26.040685653686523438 26.030864715576171875 26.022241592407226562 26.015157699584960938 26.00960540771484375 26.00583648681640625 26.003940582275390625 26.00406646728515625 26.006292343139648438 26.01031494140625 26.2594451904296875 27.1174774169921875 27.221706390380859375 27.235546112060546875 27.255277633666992188 27.27696990966796875 27.29494476318359375 27.302438735961914062 27.29290771484375 27.261281967163085938 27.205724716186523438 27.133514404296875 27.049436569213867188 26.962879180908203125 26.8782806396484375 26.802242279052734375 26.730281829833984375 26.658834457397460938 26.579679489135742188 26.489330291748046875 26.379772186279296875 26.254331588745117188 26.114614486694335938 25.971288681030273438 25.826734542846679688 25.69158935546875 25.566852569580078125 25.457395553588867188 25.359636306762695312 25.275882720947265625 25.203172683715820312 25.142992019653320312 25.09244537353515625 25.051403045654296875 25.01694488525390625 24.988401412963867188 24.963228225708007812 24.940893173217773438 24.92017364501953125 24.901454925537109375 24.883951187133789062 24.86798095703125 24.85279083251953125 24.8383941650390625 24.823709487915039062 24.808546066284179688 24.791765213012695312 24.773281097412109375 24.752325057983398438 24.730136871337890625 24.70691680908203125 24.684268951416015625 24.662395477294921875 24.64263153076171875 24.624149322509765625 24.60662841796875 24.588512420654296875 24.569375991821289062 24.54766845703125 24.523664474487304688 24.497119903564453125 24.46962738037109375 24.441141128540039062 24.413316726684570312 24.385751724243164062 24.358602523803710938 24.329500198364257812 24.2977294921875 24.26068878173828125 24.217937469482421875 24.166994094848632812 24.108760833740234375 24.041048049926757812 23.965421676635742188 23.879198074340820312 23.784914016723632812 23.681035995483398438 23.57266998291015625 23.458740234375 23.344751358032226562 23.229379653930664062 23.117733001708984375 23.007596969604492188 22.903285980224609375 22.80266571044921875 22.709756851196289062 22.622591018676757812 22.5442047119140625 22.472362518310546875 22.4093780517578125 22.353435516357421875 22.305582046508789062 22.258489608764648438 22.201829910278320312 22.120866775512695312 22.004518508911132812 21.837034225463867188 21.615711212158203125 21.343076705932617188 21.041406631469726562 20.71877288818359375 20.399774551391601562 20.089559555053710938 19.799625396728515625 19.512798309326171875 19.225835800170898438 18.919603347778320312 18.5913543701171875 18.228693008422851562 17.8521728515625 17.470279693603515625 17.111698150634765625 16.785282135009765625 16.516132354736328125 16.29898834228515625 16.130884170532226562 15.994688034057617188 15.882694244384765625 15.779933929443359375 15.680688858032226562 15.579973220825195312 15.480278968811035156 15.379304885864257812 15.279658317565917969 15.179287910461425781 15.081888198852539062 14.987135887145996094 14.899525642395019531 14.819022178649902344 14.74970245361328125 14.690137863159179688 14.639507293701171875 14.593035697937011719 14.548396110534667969 14.501114845275878906 14.449483871459960938 14.392792701721191406 14.334675788879394531 14.276775360107421875 14.223176956176757812 14.175334930419921875 14.135644912719726562 14.102060317993164062 14.073686599731445312 14.048052787780761719 14.0239715576171875 13.999563217163085938 13.975220680236816406 13.951288223266601562 13.92913818359375 13.909223556518554688 13.892809867858886719 13.879682540893554688 13.869432449340820312 13.860810279846191406 13.853005409240722656 13.844882011413574219 13.835821151733398438 13.82574462890625 13.815293312072753906 13.804869651794433594 13.795191764831542969 13.78661346435546875 13.77959442138671875 13.773987770080566406 13.769856452941894531 13.767023086547851562 13.765509605407714844 13.765291213989257812 13.766771316528320312 13.770396232604980469 13.7767333984375 13.786259651184082031 13.799411773681640625 13.815945625305175781 13.834807395935058594 13.854958534240722656 13.875066757202148438 13.894200325012207031 13.911339759826660156 13.926766395568847656 13.940737724304199219 13.953912734985351562 13.966646194458007812 13.979427337646484375 13.991962432861328125 14.003576278686523438 14.013234138488769531 14.020197868347167969 14.023405075073242188 
31.49073028564453125 31.447530746459960938 31.41519927978515625 31.434223175048828125 31.515476226806640625 31.486715316772460938 31.411279678344726562 31.381290435791015625 31.399822235107421875 31.49173736572265625 31.758737564086914062 32.438541412353515625 33.085895538330078125 33.236446380615234375 33.1321868896484375 33.15512847900390625 33.19509124755859375 33.144542694091796875 33.21282958984375 33.283634185791015625 33.29291534423828125 33.28924560546875 33.329860687255859375 33.409114837646484375 33.466533660888671875 33.43906402587890625 33.474338531494140625 33.538486480712890625 33.334308624267578125 32.999889373779296875 32.8574676513671875 32.759761810302734375 32.752384185791015625 32.76302337646484375 32.845073699951171875 32.907989501953125 33.043117523193359375 33.18349456787109375 33.32334136962890625 33.461910247802734375 33.620426177978515625 34.0075531005859375 34.941745758056640625 35.887012481689453125 35.586822509765625 34.235149383544921875 33.05403900146484375 32.344448089599609375 31.975093841552734375 31.72573089599609375 31.526617050170898438 31.370912551879882812 31.356096267700195312 31.281995773315429688 30.9645538330078125 30.668096542358398438 30.471126556396484375 30.310205459594726562 30.0717010498046875 29.7888641357421875 29.517824172973632812 29.375429153442382812 29.2493438720703125 29.079366683959960938 28.908872604370117188 28.739313125610351562 28.566190719604492188 28.391998291015625 28.213636398315429688 28.034534454345703125 27.851665496826171875 27.668645858764648438 27.482250213623046875 27.29620361328125 27.107358932495117188 26.920705795288085938 26.736284255981445312 26.5627899169921875 26.401929855346679688 26.313703536987304688 26.302022933959960938 26.294376373291015625 26.286174774169921875 26.27756500244140625 26.268301010131835938 26.2585601806640625 26.248065948486328125 26.237028121948242188 26.22513580322265625 26.212646484375 26.199308395385742188 26.185567855834960938 26.171234130859375 26.156789779663085938 26.14202880859375 26.127443313598632812 26.112827301025390625 26.098663330078125 26.084756851196289062 26.071577072143554688 26.05895233154296875 26.0473175048828125 26.036540985107421875 26.027013778686523438 26.018659591674804688 26.011800765991210938 26.006433486938476562 26.002805709838867188 26.000997543334960938 26.001155853271484375 26.003355026245117188 26.007295608520507812 26.255462646484375 27.109792709350585938 27.212362289428710938 27.225498199462890625 27.24507904052734375 27.267116546630859375 27.285963058471679688 27.294836044311523438 27.287258148193359375 27.258087158203125 27.205411911010742188 27.136112213134765625 27.054693222045898438 26.970119476318359375 26.886526107788085938 26.810354232788085938 26.737485885620117188 26.66500091552734375 26.5853271484375 26.495618820190429688 26.388433456420898438 26.266841888427734375 26.131624221801757812 25.99224090576171875 25.850069046020507812 25.714641571044921875 25.586301803588867188 25.470455169677734375 25.36419677734375 25.271005630493164062 25.188547134399414062 25.119417190551757812 25.060857772827148438 25.012956619262695312 24.972497940063476562 24.938894271850585938 24.909357070922851562 24.88339996337890625 24.859609603881835938 24.838405609130859375 24.81885528564453125 24.801271438598632812 24.784795761108398438 24.76944732666015625 24.754114151000976562 24.738622665405273438 24.721822738647460938 24.7036285400390625 24.683269500732421875 24.661931991577148438 24.63980865478515625 24.61843109130859375 24.598001480102539062 24.579792022705078125 24.563077926635742188 24.547597885131835938 24.531978607177734375 24.515836715698242188 24.497821807861328125 24.478078842163085938 24.456266403198242188 24.433536529541015625 24.409696578979492188 24.385967254638671875 24.36183929443359375 24.337360382080078125 24.310394287109375 24.280336380004882812 24.24480438232421875 24.203460693359375 24.15380096435546875 24.096338272094726562 24.02845001220703125 23.951263427734375 23.861606597900390625 23.76183319091796875 23.650529861450195312 23.533596038818359375 23.410341262817382812 23.287166595458984375 23.163061141967773438 23.043653488159179688 22.926326751708984375 22.815347671508789062 22.708103179931640625 22.608545303344726562 22.514316558837890625 22.428676605224609375 22.34930419921875 22.278873443603515625 22.215497970581054688 22.16053009033203125 22.106275558471679688 22.042156219482421875 21.952684402465820312 21.826486587524414062 21.647027969360351562 21.411745071411132812 21.123468399047851562 20.805957794189453125 20.467966079711914062 20.135637283325195312 19.814807891845703125 19.518209457397460938 19.229145050048828125 18.94518280029296875 18.64786529541015625 18.334930419921875 17.994169235229492188 17.643888473510742188 17.290676116943359375 16.959947586059570312 16.658740997314453125 16.409235000610351562 16.206270217895507812 16.047472000122070312 15.9174041748046875 15.80950164794921875 15.710269927978515625 15.614844322204589844 15.518546104431152344 15.423682212829589844 15.327960968017578125 15.233777046203613281 15.1390838623046875 15.047278404235839844 14.95795440673828125 14.875244140625 14.799017906188964844 14.733026504516601562 14.67584228515625 14.626684188842773438 14.581017494201660156 14.536670684814453125 14.489388465881347656 14.437616348266601562 14.380726814270019531 14.322373390197753906 14.264208793640136719 14.210331916809082031 14.162197113037109375 14.122237205505371094 14.088448524475097656 14.059991836547851562 14.034443855285644531 14.010679244995117188 13.986853599548339844 13.963347434997558594 13.9404754638671875 13.919548988342285156 13.90099334716796875 13.886010169982910156 13.874370574951171875 13.865624427795410156 13.858522415161132812 13.85221099853515625 13.845556259155273438 13.837892532348632812 13.829115867614746094 13.819769859313964844 13.810213088989257812 13.801080703735351562 13.792681694030761719 13.785490036010742188 13.779499053955078125 13.77492523193359375 13.771744728088378906 13.770143508911132812 13.770190238952636719 13.77227020263671875 13.776721954345703125 13.784008979797363281 13.794505119323730469 13.808537483215332031 13.825822830200195312 13.845289230346679688 13.865918159484863281 13.88637542724609375 13.905742645263671875 13.9229888916015625 13.938370704650878906 13.952092170715332031 13.964768409729003906 13.976697921752929688 13.988348007202148438 13.999459266662597656 14.009469985961914062 14.017485618591308594 14.022885322570800781 14.024748802185058594 
31.512460708618164062 31.477697372436523438 31.434011459350585938 31.434162139892578125 31.531560897827148438 31.526645660400390625 31.427061080932617188 31.417634963989257812 31.43395233154296875 31.580289840698242188 32.056793212890625 32.756694793701171875 33.143100738525390625 33.143093109130859375 33.1198883056640625 33.13028717041015625 33.155284881591796875 33.149555206298828125 33.22423553466796875 33.274532318115234375 33.301849365234375 33.336116790771484375 33.36652374267578125 33.417156219482421875 33.428096771240234375 33.371364593505859375 33.420810699462890625 33.403839111328125 33.1319122314453125 32.847797393798828125 32.731555938720703125 32.6707916259765625 32.676845550537109375 32.703746795654296875 32.85901641845703125 32.9283294677734375 33.076091766357421875 33.222930908203125 33.3901824951171875 33.526157379150390625 33.725811004638671875 34.3042449951171875 35.320068359375 35.866191864013671875 35.157787322998046875 33.833465576171875 32.767147064208984375 32.200885772705078125 31.894256591796875 31.654016494750976562 31.454418182373046875 31.33148956298828125 31.302049636840820312 31.111043930053710938 30.782579421997070312 30.557453155517578125 30.403621673583984375 30.205810546875 29.940402984619140625 29.654705047607421875 29.429018020629882812 29.32860565185546875 29.177703857421875 29.012983322143554688 28.846462249755859375 28.680332183837890625 28.510725021362304688 28.340147018432617188 28.165557861328125 27.990276336669921875 27.811311721801757812 27.63217926025390625 27.44971466064453125 27.267566680908203125 27.082654953002929688 26.899871826171875 26.719264984130859375 26.549358367919921875 26.391811370849609375 26.305278778076171875 26.293596267700195312 26.285888671875 26.277662277221679688 26.269063949584960938 26.259855270385742188 26.250202178955078125 26.239837646484375 26.228961944580078125 26.217273712158203125 26.20502471923828125 26.19196319580078125 26.178524017333984375 26.164524078369140625 26.15042877197265625 26.136037826538085938 26.121828079223632812 26.10759735107421875 26.093816757202148438 26.080293655395507812 26.067483901977539062 26.0552215576171875 26.043924331665039062 26.033468246459960938 26.024229049682617188 26.016130447387695312 26.009489059448242188 26.004299163818359375 26.000797271728515625 25.999063491821289062 25.999240875244140625 26.001398086547851562 26.005237579345703125 26.253023147583007812 27.106611251831054688 27.209690093994140625 27.2232818603515625 27.242734909057617188 27.264171600341796875 27.28231048583984375 27.290782928466796875 27.283544540405273438 27.255784988403320312 27.205629348754882812 27.139415740966796875 27.061161041259765625 26.979177474975585938 26.897098541259765625 26.821056365966796875 26.747350692749023438 26.67386627197265625 26.593824386596679688 26.50518035888671875 26.401214599609375 26.284698486328125 26.15545654296875 26.02149200439453125 25.883014678955078125 25.748220443725585938 25.616687774658203125 25.4943695068359375 25.379133224487304688 25.275743484497070312 25.182580947875976562 25.103471755981445312 25.035837173461914062 24.980066299438476562 24.932649612426757812 24.893156051635742188 24.858564376831054688 24.828474044799804688 24.8012542724609375 24.777322769165039062 24.755563735961914062 24.736253738403320312 24.718387603759765625 24.701995849609375 24.685937881469726562 24.670080184936523438 24.653280258178710938 24.635461807250976562 24.615863800048828125 24.595600128173828125 24.574840545654296875 24.555013656616210938 24.53630828857421875 24.519910812377929688 24.505201339721679688 24.491977691650390625 24.47907257080078125 24.466146469116210938 24.4520721435546875 24.4368438720703125 24.420009613037109375 24.402252197265625 24.383199691772460938 24.363603591918945312 24.342838287353515625 24.320859909057617188 24.295827865600585938 24.267299652099609375 24.233180999755859375 24.193284988403320312 24.145107269287109375 24.088716506958007812 24.0210113525390625 23.942602157592773438 23.8497772216796875 23.744672775268554688 23.626035690307617188 23.5006561279296875 23.368330001831054688 23.2364501953125 23.104413986206054688 22.978313446044921875 22.854969024658203125 22.73833465576171875 22.625116348266601562 22.518947601318359375 22.416933059692382812 22.322628021240234375 22.233785629272460938 22.153675079345703125 22.08046722412109375 22.016086578369140625 21.952541351318359375 21.879156112670898438 21.77972412109375 21.6427001953125 21.450809478759765625 21.201692581176757812 20.898405075073242188 20.566080093383789062 20.21405792236328125 19.869886398315429688 19.540004730224609375 19.238225936889648438 18.948244094848632812 18.668279647827148438 18.38045501708984375 18.082849502563476562 17.763401031494140625 17.438268661499023438 17.1122894287109375 16.80780029296875 16.530149459838867188 16.298793792724609375 16.1086883544921875 15.958086967468261719 15.833186149597167969 15.72855377197265625 15.632128715515136719 15.539914131164550781 15.447546005249023438 15.357219696044921875 15.266688346862792969 15.178182601928710938 15.089700698852539062 15.004285812377929688 14.921364784240722656 14.844576835632324219 14.773601531982421875 14.711732864379882812 14.657522201538085938 14.610258102416992188 14.565756797790527344 14.522085189819335938 14.475296974182128906 14.424060821533203125 14.367830276489257812 14.3101959228515625 14.252747535705566406 14.199496269226074219 14.151850700378417969 14.112204551696777344 14.078616142272949219 14.05031585693359375 14.024959564208984375 14.001492500305175781 13.9781341552734375 13.955280303955078125 13.933238029479980469 13.913296699523925781 13.895875930786132812 13.88214874267578125 13.871881484985351562 13.864557266235351562 13.858917236328125 13.854039192199707031 13.848779678344726562 13.842397689819335938 13.834759712219238281 13.826328277587890625 13.817422866821289062 13.808588981628417969 13.800106048583984375 13.792478561401367188 13.785843849182128906 13.780598640441894531 13.776883125305175781 13.775071144104003906 13.775325775146484375 13.778002738952636719 13.783316612243652344 13.791590690612792969 13.803078651428222656 13.817971229553222656 13.835938453674316406 13.855904579162597656 13.876885414123535156 13.897562026977539062 13.917047500610351562 13.934306144714355469 13.949555397033691406 13.962926864624023438 13.974973678588867188 13.98592376708984375 13.996197700500488281 14.005585670471191406 14.013688087463378906 14.019794464111328125 14.023450851440429688 14.02393341064453125 
31.593463897705078125 31.536502838134765625 31.522874832153320312 31.51027679443359375 31.548320770263671875 31.5264129638671875 31.480329513549804688 31.503530502319335938 31.552248001098632812 31.848804473876953125 32.51459503173828125 32.998867034912109375 33.14780426025390625 33.124156951904296875 33.145450592041015625 33.1244049072265625 33.136707305908203125 33.192501068115234375 33.22280120849609375 33.237018585205078125 33.29032135009765625 33.358432769775390625 33.44176483154296875 33.4420318603515625 33.40008544921875 33.343292236328125 33.349853515625 33.291988372802734375 32.999340057373046875 32.7808380126953125 32.63645172119140625 32.595447540283203125 32.63109588623046875 32.711483001708984375 32.89385223388671875 33.01505279541015625 33.109577178955078125 33.25652313232421875 33.421390533447265625 33.597377777099609375 33.888736724853515625 34.674724578857421875 35.70049285888671875 35.87531280517578125 34.748584747314453125 33.38190460205078125 32.522861480712890625 32.09735870361328125 31.821178436279296875 31.589685440063476562 31.390737533569335938 31.280214309692382812 31.190698623657226562 30.920637130737304688 30.650325775146484375 30.4917755126953125 30.317770004272460938 30.06815338134765625 29.797777175903320312 29.530773162841796875 29.382463455200195312 29.267972946166992188 29.108997344970703125 28.94863128662109375 28.7859649658203125 28.62323760986328125 28.457017898559570312 28.289915084838867188 28.11895751953125 27.94736480712890625 27.772176742553710938 27.596820831298828125 27.418184280395507812 27.23984527587890625 27.058786392211914062 26.879804611206054688 26.70294952392578125 26.536571502685546875 26.382297515869140625 26.297451019287109375 26.285787582397460938 26.278041839599609375 26.269819259643554688 26.261262893676757812 26.252130508422851562 26.242593765258789062 26.23238372802734375 26.221698760986328125 26.210241317749023438 26.198253631591796875 26.185491561889648438 26.172376632690429688 26.158727645874023438 26.145000457763671875 26.130992889404296875 26.117174148559570312 26.10334014892578125 26.089952468872070312 26.07682037353515625 26.064388275146484375 26.052490234375 26.041532516479492188 26.03139495849609375 26.022439956665039062 26.014593124389648438 26.0081634521484375 26.003139495849609375 25.999752044677734375 25.998079299926757812 25.998256683349609375 26.0003509521484375 26.004068374633789062 26.148118972778320312 26.666784286499023438 26.73900604248046875 26.750392913818359375 26.764879226684570312 26.78009033203125 27.06406402587890625 27.285406112670898438 27.27985382080078125 27.252618789672851562 27.204759597778320312 27.141923904418945312 27.067447662353515625 26.988763809204101562 26.908815383911132812 26.833278656005859375 26.758907318115234375 26.684511184692382812 26.604234695434570312 26.51696014404296875 26.416812896728515625 26.306245803833007812 26.184041976928710938 26.05657958984375 25.922788619995117188 25.789363861083984375 25.655040740966796875 25.526330947875976562 25.4019317626953125 25.287960052490234375 25.183561325073242188 25.093875885009765625 25.01653289794921875 24.952268600463867188 24.89730072021484375 24.851398468017578125 24.811330795288085938 24.776800155639648438 24.745929718017578125 24.719106674194335938 24.694986343383789062 24.673778533935546875 24.654298782348632812 24.63658905029296875 24.61951446533203125 24.603021621704101562 24.586004257202148438 24.568441390991210938 24.549589157104492188 24.530487060546875 24.51125335693359375 24.493185043334960938 24.476444244384765625 24.462095260620117188 24.449628829956054688 24.438884735107421875 24.428907394409179688 24.419397354125976562 24.409440994262695312 24.398885726928710938 24.387155532836914062 24.374441146850585938 24.3601837158203125 24.344646453857421875 24.327077865600585938 24.307374954223632812 24.284023284912109375 24.256795883178710938 24.223924636840820312 24.185419082641601562 24.13878631591796875 24.083621978759765625 24.016313552856445312 23.936906814575195312 23.841121673583984375 23.730846405029296875 23.6050262451171875 23.471399307250976562 23.330326080322265625 23.190250396728515625 23.051046371459960938 22.919210433959960938 22.790859222412109375 22.669412612915039062 22.550716400146484375 22.437877655029296875 22.327335357666015625 22.223003387451171875 22.122821807861328125 22.0308685302734375 21.945468902587890625 21.8693389892578125 21.7942657470703125 21.709661483764648438 21.598653793334960938 21.449693679809570312 21.244844436645507812 20.982025146484375 20.664457321166992188 20.318511962890625 19.954013824462890625 19.599742889404296875 19.26267242431640625 18.957513809204101562 18.668287277221679688 18.393695831298828125 18.116374969482421875 17.834596633911132812 17.536401748657226562 17.23586273193359375 16.936176300048828125 16.656747817993164062 16.401330947875976562 16.186803817749023438 16.008279800415039062 15.864706993103027344 15.743913650512695312 15.641661643981933594 15.547321319580078125 15.457803726196289062 15.369043350219726562 15.283133506774902344 15.197858810424804688 15.1152801513671875 15.033436775207519531 14.954975128173828125 14.879097938537597656 14.808880805969238281 14.743762969970703125 14.686507225036621094 14.635629653930664062 14.590519905090332031 14.547414779663085938 14.504677772521972656 14.458737373352050781 14.40853118896484375 14.353594779968261719 14.297389984130859375 14.241405487060546875 14.189490318298339844 14.14296722412109375 14.104142189025878906 14.071149826049804688 14.043287277221679688 14.018307685852050781 13.995235443115234375 13.972371101379394531 13.950131416320800781 13.928837776184082031 13.909769058227539062 13.893362045288085938 13.880770683288574219 13.871759414672851562 13.865756034851074219 13.861471176147460938 13.85791778564453125 13.853924751281738281 13.848680496215820312 13.842019081115722656 13.834322929382324219 13.825875282287597656 13.81714630126953125 13.808383941650390625 13.800127029418945312 13.792673110961914062 13.786612510681152344 13.782255172729492188 13.780175209045410156 13.780641555786132812 13.783962249755859375 13.790202140808105469 13.799523353576660156 13.812035560607910156 13.827769279479980469 13.846345901489257812 13.866696357727050781 13.887880325317382812 13.908614158630371094 13.928051948547363281 13.94516754150390625 13.960135459899902344 13.973008155822753906 13.9842681884765625 13.994057655334472656 14.002753257751464844 14.01020050048828125 14.0161895751953125 14.020226478576660156 14.022050857543945312 14.021166801452636719 
31.749723434448242188 31.699045181274414062 31.664760589599609375 31.626964569091796875 31.606176376342773438 31.599874496459960938 31.622234344482421875 31.627164840698242188 31.724391937255859375 32.31533050537109375 33.054492950439453125 33.1714324951171875 33.117740631103515625 33.116397857666015625 33.112628936767578125 33.09728240966796875 33.14649200439453125 33.196994781494140625 33.197360992431640625 33.2473297119140625 33.3292388916015625 33.39563751220703125 33.4745025634765625 33.459362030029296875 33.396709442138671875 33.314708709716796875 33.226451873779296875 33.06707000732421875 32.874172210693359375 32.740478515625 32.603466033935546875 32.57895660400390625 32.6402130126953125 32.71485137939453125 32.889354705810546875 33.038944244384765625 33.169330596923828125 33.352527618408203125 33.483989715576171875 33.655071258544921875 34.1152801513671875 35.07970428466796875 35.93296051025390625 35.618438720703125 34.27178955078125 33.01897430419921875 32.344013214111328125 32.0106353759765625 31.748432159423828125 31.528299331665039062 31.346141815185546875 31.227575302124023438 31.038835525512695312 30.764148712158203125 30.572515487670898438 30.435403823852539062 30.2072601318359375 29.92478179931640625 29.654636383056640625 29.438325881958007812 29.339502334594726562 29.199575424194335938 29.043476104736328125 28.88726043701171875 28.728227615356445312 28.56877899169921875 28.405826568603515625 28.242052078247070312 28.074558258056640625 27.906475067138671875 27.734889984130859375 27.563138961791992188 27.38817596435546875 27.213497161865234375 27.036149978637695312 26.860836029052734375 26.687608718872070312 26.52465057373046875 26.373544692993164062 26.290340423583984375 26.278715133666992188 26.270954132080078125 26.26275634765625 26.254261016845703125 26.245229721069335938 26.235828399658203125 26.22579193115234375 26.2153167724609375 26.204105377197265625 26.192394256591796875 26.179944992065429688 26.16716766357421875 26.153881072998046875 26.14052581787109375 26.126911163330078125 26.11348724365234375 26.100055694580078125 26.087060928344726562 26.074319839477539062 26.062261581420898438 26.050724029541015625 26.040103912353515625 26.030277252197265625 26.021596908569335938 26.0139923095703125 26.007757186889648438 26.002885818481445312 25.999597549438476562 25.997966766357421875 25.998125076293945312 26.000133514404296875 26.003704071044921875 26.010349273681640625 26.022939682006835938 26.030561447143554688 26.037570953369140625 26.044795989990234375 26.051715850830078125 26.702867507934570312 27.275299072265625 27.274251937866210938 27.246883392333984375 27.201189041137695312 27.142015457153320312 27.071872711181640625 26.99713897705078125 26.919933319091796875 26.845338821411132812 26.770580291748046875 26.695428848266601562 26.615024566650390625 26.529222488403320312 26.433055877685546875 26.328678131103515625 26.21382904052734375 26.093242645263671875 25.964565277099609375 25.832967758178710938 25.696338653564453125 25.56171417236328125 25.42861175537109375 25.304473876953125 25.189199447631835938 25.089212417602539062 25.002359390258789062 24.929735183715820312 24.867313385009765625 24.815082550048828125 24.769617080688476562 24.730730056762695312 24.696283340454101562 24.666599273681640625 24.640073776245117188 24.616815567016601562 24.595434188842773438 24.57601165771484375 24.557447433471679688 24.539842605590820312 24.522167205810546875 24.504514694213867188 24.486185073852539062 24.468135833740234375 24.450408935546875 24.434152603149414062 24.419473648071289062 24.40729522705078125 24.39719390869140625 24.389041900634765625 24.382068634033203125 24.375995635986328125 24.370115280151367188 24.364114761352539062 24.357297897338867188 24.349386215209960938 24.339632034301757812 24.327840805053710938 24.313129425048828125 24.295362472534179688 24.273357391357421875 24.24713134765625 24.215242385864257812 24.177923202514648438 24.132701873779296875 24.078710556030273438 24.011831283569335938 23.93155670166015625 23.833049774169921875 23.717945098876953125 23.585401535034179688 23.444089889526367188 23.294958114624023438 23.147472381591796875 23.00200653076171875 22.865390777587890625 22.7329559326171875 22.6074371337890625 22.483734130859375 22.364286422729492188 22.244792938232421875 22.129564285278320312 22.016786575317382812 21.91147613525390625 21.812158584594726562 21.722486495971679688 21.634099960327148438 21.536693572998046875 21.412847518920898438 21.25119781494140625 21.0332794189453125 20.757383346557617188 20.42682647705078125 20.069032669067382812 19.694189071655273438 19.332088470458984375 18.990125656127929688 18.683719635009765625 18.397150039672851562 18.129430770874023438 17.863636016845703125 17.59808349609375 17.320886611938476562 17.044116973876953125 16.769458770751953125 16.5135650634765625 16.278705596923828125 16.079366683959960938 15.91086578369140625 15.772931098937988281 15.65502166748046875 15.554166793823242188 15.461172103881835938 15.373885154724121094 15.288493156433105469 15.206926345825195312 15.1269378662109375 15.050362586975097656 14.975218772888183594 14.903742790222167969 14.834913253784179688 14.771249771118164062 14.711963653564453125 14.659287452697753906 14.611715316772460938 14.568754196166992188 14.527070999145507812 14.485344886779785156 14.440399169921875 14.391448020935058594 14.338105201721191406 14.283679962158203125 14.229543685913085938 14.179356575012207031 14.134342193603515625 14.096695899963378906 14.064629554748535156 14.037493705749511719 14.013144493103027344 13.990671157836914062 13.968454360961914062 13.946936607360839844 13.926448822021484375 13.90826416015625 13.892826080322265625 13.88127899169921875 13.873389244079589844 13.868534088134765625 13.865407943725585938 13.862969398498535156 13.860029220581054688 13.855714797973632812 13.849835395812988281 13.842699050903320312 13.834547996520996094 13.8257904052734375 13.81664276123046875 13.807680130004882812 13.799359321594238281 13.792463302612304688 13.787470817565917969 13.785159111022949219 13.785888671875 13.789920806884765625 13.797147750854492188 13.807559013366699219 13.821103096008300781 13.837635993957519531 13.856726646423339844 13.877320289611816406 13.898537635803222656 13.91913604736328125 13.938323974609375 13.955096244812011719 13.969588279724121094 13.981783866882324219 13.992098808288574219 14.000600814819335938 14.007623672485351562 14.013078689575195312 14.016942024230957031 14.018944740295410156 14.019010543823242188 14.016879081726074219 
31.827577590942382812 31.832990646362304688 31.824220657348632812 31.780231475830078125 31.782527923583984375 31.783447265625 31.76445770263671875 31.7499542236328125 32.041080474853515625 32.763607025146484375 33.17740631103515625 33.152751922607421875 33.1242828369140625 33.11101531982421875 33.09746551513671875 33.09232330322265625 33.111499786376953125 33.141437530517578125 33.212474822998046875 33.320201873779296875 33.3860321044921875 33.4374847412109375 33.528125762939453125 33.590595245361328125 33.50215911865234375 33.310443878173828125 33.119762420654296875 32.91927337646484375 32.760662078857421875 32.66204071044921875 32.575336456298828125 32.592254638671875 32.622791290283203125 32.708766937255859375 32.894130706787109375 33.015384674072265625 33.20980072021484375 33.40573883056640625 33.550548553466796875 33.7587738037109375 34.355724334716796875 35.42333221435546875 35.9500732421875 35.20407867431640625 33.835117340087890625 32.75438690185546875 32.233409881591796875 31.93841552734375 31.684925079345703125 31.481533050537109375 31.316949844360351562 31.161174774169921875 30.904802322387695312 30.669031143188476562 30.511106491088867188 30.341156005859375 30.085428237915039062 29.789297103881835938 29.522396087646484375 29.382173538208007812 29.274936676025390625 29.12961578369140625 28.979198455810546875 28.827411651611328125 28.67209625244140625 28.515979766845703125 28.356290817260742188 28.1957855224609375 28.031658172607421875 27.866979598999023438 27.698883056640625 27.530633926391601562 27.359243392944335938 27.188135147094726562 27.0144195556640625 26.842702865600585938 26.67303466796875 26.513437271118164062 26.365449905395507812 26.28386688232421875 26.272294998168945312 26.264535903930664062 26.256378173828125 26.24796295166015625 26.23905181884765625 26.229806900024414062 26.219964981079101562 26.209714889526367188 26.19876861572265625 26.187353134155273438 26.175233840942382812 26.162807464599609375 26.149898529052734375 26.136934280395507812 26.123723983764648438 26.110704421997070312 26.097681045532226562 26.085086822509765625 26.072744369506835938 26.061063766479492188 26.04988861083984375 26.039600372314453125 26.030080795288085938 26.021671295166015625 26.014299392700195312 26.008249282836914062 26.003513336181640625 26.000307083129882812 25.998697280883789062 25.998811721801757812 26.000705718994140625 26.004098892211914062 26.008802413940429688 26.014375686645507812 26.020673751831054688 26.027219772338867188 26.033891677856445312 26.040208816528320312 26.69477081298828125 27.268587112426757812 27.264476776123046875 27.236499786376953125 27.193002700805664062 27.137910842895507812 27.07277679443359375 27.002759933471679688 26.92902374267578125 26.85593414306640625 26.7811737060546875 26.70548248291015625 26.625028610229492188 26.540658950805664062 26.448335647583007812 26.349964141845703125 26.242300033569335938 26.12850189208984375 26.004993438720703125 25.875486373901367188 25.737060546875 25.597223281860351562 25.456268310546875 25.322858810424804688 25.197612762451171875 25.08814239501953125 24.992506027221679688 24.912145614624023438 24.842817306518554688 24.78472137451171875 24.734266281127929688 24.691366195678710938 24.653598785400390625 24.621185302734375 24.592229843139648438 24.566709518432617188 24.542999267578125 24.5212554931640625 24.500476837158203125 24.481006622314453125 24.461946487426757812 24.44361114501953125 24.425365447998046875 24.408092498779296875 24.391725540161132812 24.377239227294921875 24.364656448364257812 24.35472869873046875 24.347097396850585938 24.341619491577148438 24.33769989013671875 24.335033416748046875 24.333093643188476562 24.331399917602539062 24.329151153564453125 24.325634002685546875 24.319934844970703125 24.311437606811523438 24.299146652221679688 24.282911300659179688 24.261869430541992188 24.23628997802734375 24.205038070678710938 24.168588638305664062 24.124481201171875 24.071437835693359375 24.004858016967773438 23.9237213134765625 23.82266998291015625 23.703113555908203125 23.564411163330078125 23.41611480712890625 23.259735107421875 23.105699539184570312 22.954858779907226562 22.814296722412109375 22.6785125732421875 22.549468994140625 22.421049118041992188 22.294948577880859375 22.166074752807617188 22.039150238037109375 21.912639617919921875 21.79256439208984375 21.67767333984375 21.572652816772460938 21.469057083129882812 21.357120513916015625 21.2190093994140625 21.04380035400390625 20.81266021728515625 20.524393081665039062 20.182329177856445312 19.81473541259765625 19.432018280029296875 19.06473541259765625 18.720592498779296875 18.4154815673828125 18.133897781372070312 17.874990463256835938 17.62221527099609375 17.373779296875 17.117849349975585938 16.864528656005859375 16.614107131958007812 16.3805999755859375 16.164892196655273438 15.979211807250976562 15.819149971008300781 15.685354232788085938 15.5689697265625 15.468423843383789062 15.376026153564453125 15.290616989135742188 15.208535194396972656 15.131435394287109375 15.056911468505859375 14.986446380615234375 14.917935371398925781 14.853180885314941406 14.790999412536621094 14.733423233032226562 14.679495811462402344 14.630991935729980469 14.586417198181152344 14.545397758483886719 14.505008697509765625 14.464228630065917969 14.420252799987792969 14.372560501098632812 14.320837974548339844 14.268251419067382812 14.216066360473632812 14.167761802673339844 14.124464988708496094 14.08826446533203125 14.057435035705566406 14.031365394592285156 14.007998466491699219 13.986467361450195312 13.965226173400878906 13.944710731506347656 13.925261497497558594 13.908114433288574219 13.893720626831054688 13.883187294006347656 13.87628936767578125 13.87237548828125 13.870151519775390625 13.868546485900878906 13.8663787841796875 13.862749099731445312 13.857438087463378906 13.850693702697753906 13.842715263366699219 13.833848953247070312 13.824278831481933594 13.814621925354003906 13.805484771728515625 13.797832489013671875 13.792307853698730469 13.78987884521484375 13.790995597839355469 13.795854568481445312 13.804165840148925781 13.815731048583984375 13.830322265625 13.847612380981445312 13.867115020751953125 13.887790679931640625 13.908838272094726562 13.929063796997070312 13.947736740112304688 13.963891029357910156 13.977640151977539062 13.988917350769042969 13.998093605041503906 14.005183219909667969 14.01049041748046875 14.014000892639160156 14.015850067138671875 14.015974998474121094 14.014468193054199219 14.011280059814453125 
31.911561965942382812 31.917377471923828125 31.963903427124023438 31.997171401977539062 32.051631927490234375 32.045597076416015625 31.97182464599609375 31.96363067626953125 32.50099945068359375 33.116687774658203125 33.157108306884765625 33.097156524658203125 33.090717315673828125 33.10147857666015625 33.05104827880859375 33.031375885009765625 33.100177764892578125 33.181659698486328125 33.284992218017578125 33.3642425537109375 33.4195556640625 33.4784698486328125 33.57511138916015625 33.632633209228515625 33.49312591552734375 33.2489013671875 32.99417877197265625 32.81023406982421875 32.708454132080078125 32.603603363037109375 32.567230224609375 32.5923919677734375 32.6409149169921875 32.779331207275390625 32.98996734619140625 33.110137939453125 33.25177001953125 33.42162322998046875 33.661243438720703125 33.9925079345703125 34.705028533935546875 35.605072021484375 35.654132843017578125 34.60971832275390625 33.372371673583984375 32.5095367431640625 32.155475616455078125 31.873172760009765625 31.63330841064453125 31.443395614624023438 31.274328231811523438 31.060235977172851562 30.785793304443359375 30.588682174682617188 30.426095962524414062 30.212732315063476562 29.93235015869140625 29.626726150512695312 29.409585952758789062 29.317447662353515625 29.1985931396484375 29.061670303344726562 28.917253494262695312 28.769939422607421875 28.618358612060546875 28.465574264526367188 28.309095382690429688 28.15175628662109375 27.990856170654296875 27.829427719116210938 27.66466522216796875 27.499769210815429688 27.331806182861328125 27.164133071899414062 26.993915557861328125 26.8256683349609375 26.659442901611328125 26.5030975341796875 26.35813140869140625 26.278123855590820312 26.266613006591796875 26.2588653564453125 26.250764846801757812 26.24243927001953125 26.233661651611328125 26.224582672119140625 26.214946746826171875 26.204936981201171875 26.194265365600585938 26.183155059814453125 26.171373367309570312 26.159307479858398438 26.14678192138671875 26.13420867919921875 26.121408462524414062 26.108795166015625 26.096185684204101562 26.08399200439453125 26.072042465209960938 26.060735702514648438 26.049915313720703125 26.039953231811523438 26.030731201171875 26.022579193115234375 26.015424728393554688 26.00954437255859375 26.004926681518554688 26.001779556274414062 26.0001678466796875 26.000211715698242188 26.001964569091796875 26.00514984130859375 26.009576797485351562 26.014814376831054688 26.02071380615234375 26.026813507080078125 26.032979965209960938 26.038753509521484375 26.689344406127929688 27.2568206787109375 27.24890899658203125 27.220081329345703125 27.178895950317382812 27.128278732299804688 27.0687408447265625 27.004114151000976562 26.934541702270507812 26.86356353759765625 26.789272308349609375 26.713327407836914062 26.632879257202148438 26.549726486206054688 26.460721969604492188 26.367601394653320312 26.266275405883789062 26.1585235595703125 26.039720535278320312 25.91229248046875 25.772626876831054688 25.628612518310546875 25.481210708618164062 25.34012603759765625 25.206584930419921875 25.089216232299804688 24.986263275146484375 24.899461746215820312 24.824382781982421875 24.761415481567382812 24.706823348999023438 24.660589218139648438 24.620014190673828125 24.585172653198242188 24.55385589599609375 24.525892257690429688 24.499387741088867188 24.474636077880859375 24.450784683227539062 24.428544998168945312 24.407207489013671875 24.387416839599609375 24.36864471435546875 24.35170745849609375 24.336395263671875 24.323488235473632812 24.312906265258789062 24.305196762084960938 24.300027847290039062 24.297206878662109375 24.296247482299804688 24.2967987060546875 24.298456192016601562 24.300569534301757812 24.302259445190429688 24.302448272705078125 24.300090789794921875 24.294229507446289062 24.283773422241210938 24.268583297729492188 24.248065948486328125 24.222726821899414062 24.191705703735351562 24.155687332153320312 24.112237930297851562 24.059732437133789062 23.993160247802734375 23.911081314086914062 23.807687759399414062 23.6842041015625 23.54016876220703125 23.385896682739257812 23.223377227783203125 23.063869476318359375 22.908639907836914062 22.764926910400390625 22.6264190673828125 22.4942779541015625 22.361394882202148438 22.228704452514648438 22.090326309204101562 21.951385498046875 21.810604095458984375 21.67501068115234375 21.5435333251953125 21.421926498413085938 21.301729202270507812 21.173938751220703125 21.020524978637695312 20.831262588500976562 20.587158203125 20.287662506103515625 19.936048507690429688 19.561170578002929688 19.173501968383789062 18.8040618896484375 18.46074676513671875 18.159669876098632812 17.885509490966796875 17.637365341186523438 17.39904022216796875 17.168476104736328125 16.933877944946289062 16.703441619873046875 16.476182937622070312 16.263637542724609375 16.065404891967773438 15.891622543334960938 15.738228797912597656 15.606934547424316406 15.490627288818359375 15.389278411865234375 15.296748161315917969 15.212925910949707031 15.134171485900878906 15.061701774597167969 14.992780685424804688 14.928359031677246094 14.866082191467285156 14.807310104370117188 14.750802993774414062 14.698253631591796875 14.648641586303710938 14.603441238403320312 14.561209678649902344 14.521688461303710938 14.4822845458984375 14.442226409912109375 14.399005889892578125 14.352328300476074219 14.301949501037597656 14.250929832458496094 14.200463294982910156 14.153896331787109375 14.112294197082519531 14.077655792236328125 14.048304557800292969 14.023631095886230469 14.001642227172851562 13.981478691101074219 13.961646080017089844 13.942536354064941406 13.92447662353515625 13.908626556396484375 13.895420074462890625 13.885899543762207031 13.879846572875976562 13.876611709594726562 13.8749542236328125 13.873823165893554688 13.8720855712890625 13.86884307861328125 13.863872528076171875 13.857357978820800781 13.849460601806640625 13.840465545654296875 13.830526351928710938 13.820290565490722656 13.810499191284179688 13.802279472351074219 13.796423912048339844 13.794069290161132812 13.795741081237792969 13.801555633544921875 13.81104278564453125 13.823802947998046875 13.839437484741210938 13.857418060302734375 13.877210617065429688 13.897797584533691406 13.91845703125 13.938052177429199219 13.95592498779296875 13.971154212951660156 13.983859062194824219 13.993962287902832031 14.0018157958984375 14.007421493530273438 14.011077880859375 14.012838363647460938 14.012958526611328125 14.011533737182617188 14.008782386779785156 14.004816055297851562 
32.01358795166015625 32.0507659912109375 32.100627899169921875 32.165210723876953125 32.241939544677734375 32.233089447021484375 32.172435760498046875 32.311046600341796875 32.835933685302734375 33.12299346923828125 33.096988677978515625 33.034454345703125 33.020038604736328125 33.10512542724609375 33.094757080078125 33.118988037109375 33.187732696533203125 33.23125457763671875 33.3268280029296875 33.416515350341796875 33.42425537109375 33.46741485595703125 33.553470611572265625 33.5527191162109375 33.386219024658203125 33.164363861083984375 32.96059417724609375 32.7620391845703125 32.600902557373046875 32.514270782470703125 32.56998443603515625 32.599018096923828125 32.72515106201171875 32.9194793701171875 33.109432220458984375 33.193248748779296875 33.269359588623046875 33.42217254638671875 33.73212432861328125 34.2454071044921875 35.0390472412109375 35.689022064208984375 35.417724609375 34.16326904296875 32.962375640869140625 32.349956512451171875 32.101451873779296875 31.824472427368164062 31.598842620849609375 31.403707504272460938 31.212554931640625 30.953397750854492188 30.690380096435546875 30.513139724731445312 30.329593658447265625 30.079767227172851562 29.776952743530273438 29.483547210693359375 29.335058212280273438 29.244539260864257812 29.1271209716796875 28.997022628784179688 28.857656478881835938 28.714441299438476562 28.5664520263671875 28.416929244995117188 28.263593673706054688 28.109334945678710938 27.951566696166992188 27.793283462524414062 27.63175201416015625 27.470109939575195312 27.305482864379882812 27.141160964965820312 26.974365234375 26.809514999389648438 26.646665573120117188 26.493511199951171875 26.351514816284179688 26.273061752319335938 26.261615753173828125 26.2538909912109375 26.245851516723632812 26.237630844116210938 26.228994369506835938 26.220094680786132812 26.210676193237304688 26.200916290283203125 26.190532684326171875 26.179738998413085938 26.168308258056640625 26.156610488891601562 26.144479751586914062 26.132310867309570312 26.11992645263671875 26.10772705078125 26.0955352783203125 26.083745956420898438 26.072193145751953125 26.061258316040039062 26.050794601440429688 26.041154861450195312 26.032222747802734375 26.024318695068359375 26.017368316650390625 26.011640548706054688 26.007120132446289062 26.004011154174804688 26.002368927001953125 26.002313613891601562 26.003887176513671875 26.006824493408203125 26.010931015014648438 26.015789031982421875 26.021240234375 26.026844024658203125 26.032451629638671875 26.037624359130859375 26.680627822875976562 27.238206863403320312 27.226032257080078125 27.196247100830078125 27.157560348510742188 27.111833572387695312 27.058490753173828125 26.999959945678710938 26.935312271118164062 26.867181777954101562 26.794008255004882812 26.718263626098632812 26.637998580932617188 26.555879592895507812 26.469572067260742188 26.380723953247070312 26.284587860107421875 26.181827545166015625 26.066984176635742188 25.941440582275390625 25.801034927368164062 25.653947830200195312 25.501680374145507812 25.354753494262695312 25.214885711669921875 25.091503143310546875 24.983001708984375 24.891326904296875 24.811910629272460938 24.745264053344726562 24.687540054321289062 24.638746261596679688 24.595911026000976562 24.55893707275390625 24.525300979614257812 24.494659423828125 24.46484375 24.436344146728515625 24.408514022827148438 24.382543563842773438 24.357980728149414062 24.335908889770507812 24.315929412841796875 24.298822402954101562 24.2841949462890625 24.272626876831054688 24.263895034790039062 24.258335113525390625 24.255586624145507812 24.255352020263671875 24.257205963134765625 24.260686874389648438 24.265453338623046875 24.27069091796875 24.27547454833984375 24.278469085693359375 24.278551101684570312 24.274526596069335938 24.265241622924804688 24.250589370727539062 24.230176925659179688 24.2047119140625 24.173528671264648438 24.137506484985351562 24.094207763671875 24.041761398315429688 23.974836349487304688 23.89167022705078125 23.786104202270507812 23.659238815307617188 23.510747909545898438 23.351566314697265625 23.184064865112304688 23.020175933837890625 22.861486434936523438 22.715303421020507812 22.574529647827148438 22.439540863037109375 22.302267074584960938 22.162912368774414062 22.014820098876953125 21.863508224487304688 21.707914352416992188 21.55605316162109375 21.40699005126953125 21.267547607421875 21.12931060791015625 20.984325408935546875 20.8145751953125 20.61083221435546875 20.354177474975585938 20.04485321044921875 19.6859893798828125 19.306720733642578125 18.917388916015625 18.549142837524414062 18.209901809692382812 17.915742874145507812 17.651525497436523438 17.416156768798828125 17.193769454956054688 16.98192596435546875 16.768880844116210938 16.560964584350585938 16.3560333251953125 16.163257598876953125 15.981039047241210938 15.817569732666015625 15.669203758239746094 15.538876533508300781 15.42128753662109375 15.318104743957519531 15.224818229675292969 15.142420768737792969 15.067143440246582031 14.999573707580566406 14.936452865600585938 14.877996444702148438 14.82143402099609375 14.767704963684082031 14.715634346008300781 14.666761398315429688 14.620143890380859375 14.577145576477050781 14.536426544189453125 14.497838020324707031 14.459020614624023438 14.419376373291015625 14.376614570617675781 14.330599784851074219 14.281149864196777344 14.231281280517578125 14.182160377502441406 14.137064933776855469 14.097043037414550781 14.064034461975097656 14.036388397216796875 14.013460159301757812 13.993291854858398438 13.9749908447265625 13.95708465576171875 13.939877510070800781 13.923647880554199219 13.909436225891113281 13.897627830505371094 13.889148712158203125 13.883792877197265625 13.880954742431640625 13.879495620727539062 13.878439903259277344 13.876744270324707031 13.8735809326171875 13.868712425231933594 13.862279891967773438 13.854397773742675781 13.845295906066894531 13.83509063720703125 13.824456214904785156 13.814236640930175781 13.805707931518554688 13.799779891967773438 13.7977294921875 13.800147056579589844 13.807056427001953125 13.817806243896484375 13.831793785095214844 13.848447799682617188 13.867041587829589844 13.886994361877441406 13.90731048583984375 13.9273529052734375 13.946045875549316406 13.962803840637207031 13.976765632629394531 13.988086700439453125 13.99672698974609375 14.0030517578125 14.007107734680175781 14.009209632873535156 14.009474754333496094 14.008225440979003906 14.005654335021972656 14.002051353454589844 13.997622489929199219 
32.130672454833984375 32.192111968994140625 32.228546142578125 32.294406890869140625 32.354976654052734375 32.33547210693359375 32.391681671142578125 32.754497528076171875 33.0472564697265625 33.076229095458984375 33.04217529296875 32.97216033935546875 33.106731414794921875 33.195140838623046875 33.179965972900390625 33.228916168212890625 33.264728546142578125 33.297428131103515625 33.395526885986328125 33.458774566650390625 33.416034698486328125 33.435184478759765625 33.4904022216796875 33.42342376708984375 33.27820587158203125 33.113681793212890625 32.935062408447265625 32.698211669921875 32.49903106689453125 32.481510162353515625 32.587841033935546875 32.6368255615234375 32.77108001708984375 32.940532684326171875 33.12717437744140625 33.2133636474609375 33.339626312255859375 33.52490234375 33.85982513427734375 34.41201019287109375 35.177978515625 35.79442596435546875 35.212619781494140625 33.67700958251953125 32.610912322998046875 32.26169586181640625 32.059116363525390625 31.786863327026367188 31.568655014038085938 31.357141494750976562 31.1328582763671875 30.848318099975585938 30.600706100463867188 30.427522659301757812 30.217693328857421875 29.940088272094726562 29.63761138916015625 29.415357589721679688 29.29170989990234375 29.184041976928710938 29.065519332885742188 28.937946319580078125 28.801916122436523438 28.662042617797851562 28.517255783081054688 28.370756149291992188 28.220386505126953125 28.069057464599609375 27.91426849365234375 27.758989334106445312 27.600545883178710938 27.44202423095703125 27.280603408813476562 27.119508743286132812 26.956014633178710938 26.7944488525390625 26.63486480712890625 26.484804153442382812 26.345684051513671875 26.268735885620117188 26.257358551025390625 26.249658584594726562 26.241687774658203125 26.23357391357421875 26.225084304809570312 26.216365814208984375 26.207170486450195312 26.197664260864257812 26.187572479248046875 26.177099227905273438 26.166021347045898438 26.154699325561523438 26.142963409423828125 26.131200790405273438 26.119230270385742188 26.107446670532226562 26.095668792724609375 26.084283828735351562 26.073122024536132812 26.062555313110351562 26.05243682861328125 26.0431060791015625 26.034452438354492188 26.026781082153320312 26.020021438598632812 26.014425277709960938 26.009981155395507812 26.006883621215820312 26.005182266235351562 26.004995346069335938 26.006357192993164062 26.00901031494140625 26.012754440307617188 26.01718902587890625 26.02214813232421875 26.0272064208984375 26.032207489013671875 26.036733627319335938 26.636583328247070312 27.163381576538085938 27.148279190063476562 27.11890411376953125 27.084054946899414062 27.050237655639648438 27.037645339965820312 26.99039459228515625 26.931200027465820312 26.866632461547851562 26.7953948974609375 26.720598220825195312 26.641048431396484375 26.560110092163085938 26.47612762451171875 26.390722274780273438 26.298662185668945312 26.199794769287109375 26.088033676147460938 25.9640045166015625 25.8231353759765625 25.673833847045898438 25.518018722534179688 25.366825103759765625 25.222356796264648438 25.094636917114257812 24.98217010498046875 24.887033462524414062 24.804529190063476562 24.7352294921875 24.675174713134765625 24.624368667602539062 24.579599380493164062 24.540622711181640625 24.504632949829101562 24.471149444580078125 24.437763214111328125 24.405179977416992188 24.372982025146484375 24.342870712280273438 24.31465911865234375 24.289905548095703125 24.268352508544921875 24.250751495361328125 24.236524581909179688 24.226057052612304688 24.218980789184570312 24.215412139892578125 24.21492767333984375 24.217075347900390625 24.221416473388671875 24.22733306884765625 24.234476089477539062 24.241884231567382812 24.2486419677734375 24.253299713134765625 24.254728317260742188 24.2516326904296875 24.24286651611328125 24.2283477783203125 24.2078094482421875 24.18207550048828125 24.15059661865234375 24.114366531372070312 24.07093048095703125 24.018245697021484375 23.950740814208984375 23.866441726684570312 23.758928298950195312 23.6292266845703125 23.477121353149414062 23.314027786254882812 23.142608642578125 22.975315093994140625 22.81396484375 22.665863037109375 22.523160934448242188 22.385477066040039062 22.243831634521484375 22.0977325439453125 21.939779281616210938 21.775884628295898438 21.6051788330078125 21.436649322509765625 21.269468307495117188 21.111536026000976562 20.954557418823242188 20.791828155517578125 20.605546951293945312 20.387704849243164062 20.119678497314453125 19.802577972412109375 19.439264297485351562 19.058797836303710938 18.671161651611328125 18.307233810424804688 17.974761962890625 17.689561843872070312 17.436733245849609375 17.214956283569335938 17.0087432861328125 16.815294265747070312 16.622949600219726562 16.436311721801757812 16.252195358276367188 16.077589035034179688 15.909794807434082031 15.755238533020019531 15.610718727111816406 15.480431556701660156 15.360867500305175781 15.255401611328125 15.161134719848632812 15.080136299133300781 15.008413314819335938 14.945809364318847656 14.888416290283203125 14.835597038269042969 14.784071922302246094 14.73438262939453125 14.685527801513671875 14.63906097412109375 14.59421539306640625 14.552408218383789062 14.512453079223632812 14.474293708801269531 14.435720443725585938 14.396253585815429688 14.353737831115722656 14.308142662048339844 14.259339332580566406 14.210337638854980469 14.162305831909179688 14.118499755859375 14.079977035522460938 14.048640251159667969 14.022847175598144531 14.001895904541015625 13.983843803405761719 13.967738151550292969 13.952105522155761719 13.937130928039550781 13.9230194091796875 13.910656929016113281 13.900356292724609375 13.892899513244628906 13.888090133666992188 13.885395050048828125 13.883812904357910156 13.882498741149902344 13.880530357360839844 13.877182960510253906 13.872224807739257812 13.865757942199707031 13.857850074768066406 13.848677635192871094 13.838319778442382812 13.827465057373046875 13.817045211791992188 13.808437347412109375 13.802651405334472656 13.801074028015136719 13.804333686828613281 13.812367439270019531 13.824353218078613281 13.839496612548828125 13.8570709228515625 13.876160621643066406 13.896142959594726562 13.916045188903808594 13.935303688049316406 13.952907562255859375 13.968335151672363281 13.980793952941894531 13.990494728088378906 13.99747467041015625 14.002147674560546875 14.004637718200683594 14.005305290222167969 14.004330635070800781 14.00205230712890625 13.998707771301269531 13.994596481323242188 13.989972114562988281 
32.221591949462890625 32.330596923828125 32.38782501220703125 32.39385986328125 32.426662445068359375 32.47632598876953125 32.6536712646484375 32.97064208984375 33.063983917236328125 33.050991058349609375 32.984432220458984375 33.00186920166015625 33.174518585205078125 33.224872589111328125 33.23078155517578125 33.278430938720703125 33.310855865478515625 33.37236785888671875 33.480072021484375 33.460491180419921875 33.406681060791015625 33.42459869384765625 33.40869903564453125 33.300811767578125 33.183498382568359375 32.99062347412109375 32.792438507080078125 32.56970977783203125 32.428066253662109375 32.498104095458984375 32.61186981201171875 32.64923858642578125 32.770534515380859375 32.9575347900390625 33.140338897705078125 33.243072509765625 33.442241668701171875 33.65274810791015625 33.99965667724609375 34.504917144775390625 35.31927490234375 35.686492919921875 34.556476593017578125 33.1157684326171875 32.3838958740234375 32.216522216796875 32.024234771728515625 31.757131576538085938 31.538120269775390625 31.307613372802734375 31.047739028930664062 30.759641647338867188 30.523773193359375 30.338979721069335938 30.0945892333984375 29.80190277099609375 29.5347900390625 29.379291534423828125 29.25304412841796875 29.1331787109375 29.010728836059570312 28.883474349975585938 28.749521255493164062 28.612277984619140625 28.47026824951171875 28.326526641845703125 28.178943634033203125 28.030399322509765625 27.878475189208984375 27.726095199584960938 27.570644378662109375 27.41515350341796875 27.25685882568359375 27.098913192749023438 26.938648223876953125 26.780298233032226562 26.6239166259765625 26.476892471313476562 26.340600967407226562 26.265130996704101562 26.253816604614257812 26.246143341064453125 26.238241195678710938 26.23023223876953125 26.221893310546875 26.213361740112304688 26.2043914794921875 26.1951446533203125 26.1853485107421875 26.175201416015625 26.164484024047851562 26.15354156494140625 26.142208099365234375 26.130853652954101562 26.1193084716796875 26.107940673828125 26.096582412719726562 26.085599899291992188 26.0748291015625 26.064626693725585938 26.054849624633789062 26.0458221435546875 26.03743743896484375 26.029985427856445312 26.023395538330078125 26.017913818359375 26.013523101806640625 26.010406494140625 26.00861358642578125 26.008256912231445312 26.009363174438476562 26.011684417724609375 26.015016555786132812 26.018972396850585938 26.023380279541015625 26.027833938598632812 26.032163619995117188 26.035974502563476562 26.191446304321289062 26.3394927978515625 26.335906982421875 26.327121734619140625 26.315793991088867188 26.374814987182617188 26.888065338134765625 26.975248336791992188 26.9219512939453125 26.861776351928710938 26.793605804443359375 26.720935821533203125 26.643146514892578125 26.564046859741210938 26.482484817504882812 26.400053024291992188 26.311223983764648438 26.21527862548828125 26.105737686157226562 25.98270416259765625 25.841356277465820312 25.690298080444335938 25.531766891479492188 25.37737274169921875 25.229516983032226562 25.098674774169921875 24.983411788940429688 24.885850906372070312 24.8011474609375 24.729862213134765625 24.667901992797851562 24.615234375 24.568477630615234375 24.52732086181640625 24.488756179809570312 24.4522552490234375 24.415231704711914062 24.378627777099609375 24.342206954956054688 24.308130264282226562 24.27642822265625 24.249086380004882812 24.225954055786132812 24.207773208618164062 24.193796157836914062 24.1842498779296875 24.1786346435546875 24.176870346069335938 24.178432464599609375 24.182659149169921875 24.18902587890625 24.196697235107421875 24.205240249633789062 24.21358489990234375 24.220895767211914062 24.225793838500976562 24.227252960205078125 24.224069595336914062 24.215175628662109375 24.20052337646484375 24.179851531982421875 24.153997421264648438 24.122409820556640625 24.086080551147460938 24.042509078979492188 23.989522933959960938 23.92139434814453125 23.836023330688476562 23.726808547973632812 23.594751358032226562 23.439722061157226562 23.273509979248046875 23.0989990234375 22.929040908813476562 22.765628814697265625 22.6159820556640625 22.471530914306640625 22.331146240234375 22.18495941162109375 22.031803131103515625 21.863544464111328125 21.686532974243164062 21.500101089477539062 21.314264297485351562 21.128301620483398438 20.951257705688476562 20.775033950805664062 20.594358444213867188 20.391824722290039062 20.16082763671875 19.883230209350585938 19.561038970947265625 19.196674346923828125 18.818662643432617188 18.436342239379882812 18.079830169677734375 17.756443023681640625 17.481534957885742188 17.24057769775390625 17.032138824462890625 16.841259002685546875 16.664915084838867188 16.4916534423828125 16.324533462524414062 16.159427642822265625 16.001346588134765625 15.846599578857421875 15.700008392333984375 15.558805465698242188 15.428384780883789062 15.306903839111328125 15.199353218078613281 15.104341506958007812 15.024923324584960938 14.956838607788085938 14.899135589599609375 14.847228050231933594 14.799582481384277344 14.752384185791015625 14.705821990966796875 14.659144401550292969 14.614030838012695312 14.569971084594726562 14.528545379638671875 14.488756179809570312 14.450640678405761719 14.412074089050292969 14.372660636901855469 14.330322265625 14.28510284423828125 14.236909866333007812 14.188747406005859375 14.141798973083496094 14.099305152893066406 14.062340736389160156 14.03277587890625 14.008967399597167969 13.990157127380371094 13.97440338134765625 13.960680007934570312 13.947516441345214844 13.934947967529296875 13.92310333251953125 13.912686347961425781 13.9039154052734375 13.897413253784179688 13.892994880676269531 13.890221595764160156 13.888257026672363281 13.886415481567382812 13.883924484252929688 13.880189895629882812 13.874993324279785156 13.868407249450683594 13.860446929931640625 13.851246833801269531 13.840848922729492188 13.829941749572753906 13.819513320922851562 13.811017036437988281 13.805530548095703125 13.804512977600097656 13.808620452880859375 13.81769561767578125 13.830780982971191406 13.846915245056152344 13.865233421325683594 13.884664535522460938 13.904543876647949219 13.923913955688476562 13.942278861999511719 13.958672523498535156 13.972628593444824219 13.983426094055175781 13.991344451904296875 13.996524810791015625 13.999462127685546875 14.000385284423828125 13.999719619750976562 13.997708320617675781 13.994663238525390625 13.990825653076171875 13.986468315124511719 13.981845855712890625 
32.26642608642578125 32.379917144775390625 32.527736663818359375 32.503681182861328125 32.528583526611328125 32.644588470458984375 32.841968536376953125 33.001773834228515625 33.03302001953125 33.010929107666015625 32.983219146728515625 33.059326171875 33.158359527587890625 33.233028411865234375 33.29776763916015625 33.37096405029296875 33.3354949951171875 33.36498260498046875 33.446384429931640625 33.424442291259765625 33.40305328369140625 33.425655364990234375 33.3903350830078125 33.26390838623046875 33.0914154052734375 32.83870697021484375 32.610805511474609375 32.453029632568359375 32.416538238525390625 32.56002044677734375 32.71860504150390625 32.751636505126953125 32.8332366943359375 33.020641326904296875 33.155548095703125 33.2862396240234375 33.519252777099609375 33.73358917236328125 34.12331390380859375 34.759552001953125 35.558502197265625 35.36632537841796875 33.82157135009765625 32.662403106689453125 32.27202606201171875 32.17197418212890625 31.963396072387695312 31.723392486572265625 31.494083404541015625 31.24732208251953125 30.956521987915039062 30.669788360595703125 30.449159622192382812 30.251071929931640625 29.975511550903320312 29.680433273315429688 29.466218948364257812 29.320047378540039062 29.202600479125976562 29.083354949951171875 28.959903717041015625 28.833074569702148438 28.700716018676757812 28.565607070922851562 28.425985336303710938 28.284715652465820312 28.139698028564453125 27.993768692016601562 27.844556808471679688 27.694940567016601562 27.5423583984375 27.38977813720703125 27.234491348266601562 27.07958984375 26.922445297241210938 26.7672119140625 26.6139373779296875 26.469858169555664062 26.336315155029296875 26.26227569580078125 26.251020431518554688 26.243364334106445312 26.235525131225585938 26.22762298583984375 26.21942901611328125 26.211078643798828125 26.202333450317382812 26.193340301513671875 26.183841705322265625 26.17401885986328125 26.163660049438476562 26.153093338012695312 26.142162322998046875 26.131216049194335938 26.120090484619140625 26.10913848876953125 26.098194122314453125 26.08760833740234375 26.077222824096679688 26.06737518310546875 26.057928085327148438 26.0491943359375 26.0410614013671875 26.0338134765625 26.027374267578125 26.021982192993164062 26.017614364624023438 26.014451980590820312 26.012533187866210938 26.01197052001953125 26.01277923583984375 26.0147247314453125 26.017595291137695312 26.021020889282226562 26.0248260498046875 26.028619766235351562 26.032220840454101562 26.0352630615234375 26.037532806396484375 26.038702011108398438 26.03850555419921875 26.036687850952148438 26.03289031982421875 26.120290756225585938 26.8122711181640625 26.955135345458984375 26.907896041870117188 26.8528900146484375 26.78907012939453125 26.720014572143554688 26.645421981811523438 26.569240570068359375 26.490591049194335938 26.410982131958007812 26.324766159057617188 26.230901718139648438 26.122713088989257812 26.000032424926757812 25.85791778564453125 25.705175399780273438 25.544292449951171875 25.387264251708984375 25.23673248291015625 25.103519439697265625 24.986211776733398438 24.886888504028320312 24.800512313842773438 24.727563858032226562 24.663761138916015625 24.609035491943359375 24.559911727905273438 24.516157150268554688 24.474687576293945312 24.435075759887695312 24.394655227661132812 24.35459136962890625 24.314729690551757812 24.277544021606445312 24.243173599243164062 24.2138824462890625 24.189573287963867188 24.170984268188476562 24.157255172729492188 24.148494720458984375 24.144124984741210938 24.143907546997070312 24.147197723388671875 24.153072357177734375 24.160833358764648438 24.16939544677734375 24.1781463623046875 24.185960769653320312 24.192173004150390625 24.195699691772460938 24.195743560791015625 24.19140625 24.181791305541992188 24.16689300537109375 24.146318435668945312 24.120767593383789062 24.089565277099609375 24.053558349609375 24.01013946533203125 23.9570465087890625 23.888462066650390625 23.802213668823242188 23.691598892211914062 23.557622909545898438 23.400234222412109375 23.231523513793945312 23.05454254150390625 22.88245391845703125 22.717382431030273438 22.566417694091796875 22.42028045654296875 22.277105331420898438 22.126150131225585938 21.965595245361328125 21.786596298217773438 21.5959930419921875 21.39337158203125 21.18984222412109375 20.9848480224609375 20.788644790649414062 20.593414306640625 20.395427703857421875 20.177804946899414062 19.935436248779296875 19.650835037231445312 19.32683563232421875 18.965227127075195312 18.593486785888671875 18.219989776611328125 17.87355804443359375 17.560804367065429688 17.29644775390625 17.066545486450195312 16.869791030883789062 16.691965103149414062 16.530107498168945312 16.373138427734375 16.222837448120117188 16.074254989624023438 15.930677413940429688 15.787541389465332031 15.648266792297363281 15.510448455810546875 15.380478858947753906 15.257947921752929688 15.149200439453125 15.054141998291015625 14.976636886596679688 14.912167549133300781 14.859049797058105469 14.812078475952148438 14.7689056396484375 14.725222587585449219 14.680943489074707031 14.635589599609375 14.591032981872558594 14.547044754028320312 14.505441665649414062 14.465411186218261719 14.427093505859375 14.388418197631835938 14.34905242919921875 14.306976318359375 14.262278556823730469 14.214885711669921875 14.167779922485351562 14.122132301330566406 14.081141471862792969 14.045892715454101562 14.018199920654296875 13.996439933776855469 13.979788780212402344 13.966324806213378906 13.954958915710449219 13.944223403930664062 13.93401336669921875 13.92436981201171875 13.915811538696289062 13.908465385437011719 13.902785301208496094 13.898599624633789062 13.895578384399414062 13.893056869506835938 13.890519142150878906 13.88735198974609375 13.883108139038085938 13.877582550048828125 13.870827674865722656 13.862809181213378906 13.853628158569335938 13.843288421630859375 13.832470893859863281 13.822190284729003906 13.813939094543457031 13.808831214904785156 13.808362960815429688 13.813196182250976562 13.823101997375488281 13.837024688720703125 13.853873252868652344 13.872679710388183594 13.892256736755371094 13.911904335021972656 13.930674552917480469 13.948114395141601562 13.963287353515625 13.975762367248535156 13.984868049621582031 13.990975379943847656 13.994337081909179688 13.99554443359375 13.994953155517578125 13.993062973022460938 13.99017333984375 13.986551284790039062 13.982411384582519531 13.977974891662597656 13.973467826843261719 
32.317295074462890625 32.354892730712890625 32.475067138671875 32.544902801513671875 32.642139434814453125 32.8289794921875 32.980083465576171875 33.00563812255859375 33.005886077880859375 32.952281951904296875 33.01442718505859375 33.1373138427734375 33.22393035888671875 33.294189453125 33.348602294921875 33.40534210205078125 33.404888153076171875 33.424770355224609375 33.42745208740234375 33.383556365966796875 33.385280609130859375 33.433807373046875 33.422634124755859375 33.289608001708984375 33.028041839599609375 32.713939666748046875 32.448589324951171875 32.36977386474609375 32.446872711181640625 32.67684173583984375 32.812015533447265625 32.77007293701171875 32.882877349853515625 33.0836944580078125 33.202198028564453125 33.359500885009765625 33.602222442626953125 33.9120025634765625 34.5010223388671875 35.2582855224609375 35.622631072998046875 34.77590179443359375 33.22986602783203125 32.395030975341796875 32.21103668212890625 32.090694427490234375 31.876575469970703125 31.68354034423828125 31.43975067138671875 31.171419143676757812 30.85785675048828125 30.59128570556640625 30.3800811767578125 30.145833969116210938 29.86025238037109375 29.61110687255859375 29.4017791748046875 29.26214599609375 29.150812149047851562 29.033842086791992188 28.911306381225585938 28.7854766845703125 28.65460968017578125 28.521343231201171875 28.383825302124023438 28.244800567626953125 28.1021728515625 27.958719253540039062 27.812103271484375 27.66515350341796875 27.515350341796875 27.365606307983398438 27.213254928588867188 27.061326980590820312 26.9072418212890625 26.755064010620117188 26.604839324951171875 26.463655471801757812 26.332815170288085938 26.260181427001953125 26.24897003173828125 26.24132537841796875 26.233539581298828125 26.225732803344726562 26.217679977416992188 26.209506988525390625 26.200979232788085938 26.192239761352539062 26.183034896850585938 26.173534393310546875 26.163534164428710938 26.153348922729492188 26.142820358276367188 26.132284164428710938 26.121578216552734375 26.111042022705078125 26.1005096435546875 26.090320587158203125 26.080316543579101562 26.070821762084960938 26.061697006225585938 26.053243637084960938 26.04534912109375 26.038286209106445312 26.031976699829101562 26.026651382446289062 26.02227783203125 26.01903533935546875 26.016950607299804688 26.016138076782226562 26.016599655151367188 26.018114089965820312 26.0204620361328125 26.023298263549804688 26.02642822265625 26.029491424560546875 26.032293319702148438 26.034490585327148438 26.035854339599609375 26.036088943481445312 26.03490447998046875 26.032083511352539062 26.027240753173828125 26.1112518310546875 26.786376953125 26.929807662963867188 26.888675689697265625 26.839750289916992188 26.781925201416015625 26.718463897705078125 26.6490936279296875 26.57747650146484375 26.502733230590820312 26.42618560791015625 26.342226028442382812 26.249727249145507812 26.14200592041015625 26.018863677978515625 25.875379562377929688 25.720598220825195312 25.557220458984375 25.397596359252929688 25.244565963745117188 25.10926055908203125 24.990228652954101562 24.8894195556640625 24.801530838012695312 24.726869583129882812 24.660884857177734375 24.603475570678710938 24.551187515258789062 24.50408172607421875 24.459177017211914062 24.41634368896484375 24.372999191284179688 24.330480575561523438 24.288564682006835938 24.249780654907226562 24.2142181396484375 24.184164047241210938 24.15949249267578125 24.140932083129882812 24.12758636474609375 24.119537353515625 24.116191864013671875 24.117227554321289062 24.12184906005859375 24.128816604614257812 24.137176513671875 24.145538330078125 24.15301513671875 24.158489227294921875 24.161590576171875 24.161802291870117188 24.158716201782226562 24.152006149291992188 24.141080856323242188 24.1259613037109375 24.105960845947265625 24.081460952758789062 24.051492691040039062 24.016574859619140625 23.973920822143554688 23.921175003051757812 23.852502822875976562 23.765699386596679688 23.654016494750976562 23.518499374389648438 23.359178543090820312 23.188386917114257812 23.009321212768554688 22.83541107177734375 22.668870925903320312 22.51663970947265625 22.368715286254882812 22.222494125366210938 22.066347122192382812 21.897809982299804688 21.707326889038085938 21.502325057983398438 21.282733917236328125 21.060895919799804688 20.836507797241210938 20.621166229248046875 20.407428741455078125 20.193193435668945312 19.96221923828125 19.710939407348632812 19.422655105590820312 19.100902557373046875 18.74658966064453125 18.38552093505859375 18.024707794189453125 17.691053390502929688 17.390085220336914062 17.135759353637695312 16.915018081665039062 16.727081298828125 16.55877685546875 16.407657623291015625 16.263248443603515625 16.126392364501953125 15.991426467895507812 15.860195159912109375 15.727397918701171875 15.595244407653808594 15.46157073974609375 15.333456993103027344 15.211581230163574219 15.103246688842773438 15.009350776672363281 14.934309005737304688 14.8734283447265625 14.82442474365234375 14.781633377075195312 14.742054939270019531 14.701017379760742188 14.658247947692871094 14.613528251647949219 14.568952560424804688 14.524563789367675781 14.482419967651367188 14.441901206970214844 14.403255462646484375 14.364464759826660156 14.325264930725097656 14.283694267272949219 14.239886283874511719 14.193755149841308594 14.148196220397949219 14.104336738586425781 14.065270423889160156 14.032046318054199219 14.006394386291503906 13.986723899841308594 13.972169876098632812 13.9608612060546875 13.951666831970214844 13.943145751953125 13.9350738525390625 13.927402496337890625 13.920481681823730469 13.914350509643554688 13.909307479858398438 13.905196189880371094 13.901785850524902344 13.898591041564941406 13.895257949829101562 13.89133453369140625 13.886517524719238281 13.880617141723632812 13.873673439025878906 13.865609169006347656 13.856501579284667969 13.846315383911132812 13.835717201232910156 13.825715065002441406 13.817798614501953125 13.813085556030273438 13.813067436218261719 13.818400382995605469 13.828805923461914062 13.843171119689941406 13.860342025756835938 13.879292488098144531 13.898772239685058594 13.918057441711425781 13.936191558837890625 13.952733993530273438 13.966748237609863281 13.977813720703125 13.985294342041015625 13.989640235900878906 13.991230964660644531 13.99076080322265625 13.988722801208496094 13.985697746276855469 13.982039451599121094 13.9779510498046875 13.973611831665039062 13.969175338745117188 13.96482086181640625 
32.368778228759765625 32.391330718994140625 32.4281463623046875 32.520435333251953125 32.70751953125 32.88916778564453125 32.96962738037109375 32.987995147705078125 32.96209716796875 32.94660186767578125 33.05231475830078125 33.239902496337890625 33.337589263916015625 33.35578155517578125 33.394542694091796875 33.41315460205078125 33.45803070068359375 33.49643707275390625 33.445705413818359375 33.385894775390625 33.454143524169921875 33.491817474365234375 33.414119720458984375 33.2494659423828125 32.96822357177734375 32.620586395263671875 32.3298187255859375 32.308406829833984375 32.513332366943359375 32.816436767578125 32.91323089599609375 32.81406402587890625 32.94989776611328125 33.118625640869140625 33.292110443115234375 33.515918731689453125 33.7320098876953125 34.06198883056640625 34.791629791259765625 35.5794219970703125 35.296550750732421875 34.0621795654296875 32.7896881103515625 32.260593414306640625 32.143039703369140625 31.981227874755859375 31.800676345825195312 31.64041900634765625 31.381006240844726562 31.0792236328125 30.758142471313476562 30.519519805908203125 30.309055328369140625 30.0482940673828125 29.772504806518554688 29.556104660034179688 29.335895538330078125 29.211673736572265625 29.102203369140625 28.986970901489257812 28.86553955078125 28.7408294677734375 28.611339569091796875 28.47969818115234375 28.344053268432617188 28.20706939697265625 28.06665802001953125 27.925531387329101562 27.781383514404296875 27.636981964111328125 27.489850997924804688 27.342838287353515625 27.193326950073242188 27.044279098510742188 26.893163681030273438 26.743953704833984375 26.5966949462890625 26.458332061767578125 26.330121994018554688 26.258852005004882812 26.247669219970703125 26.240020751953125 26.232278823852539062 26.22455596923828125 26.2166290283203125 26.208621978759765625 26.2003021240234375 26.191808700561523438 26.182886123657226562 26.173704147338867188 26.164056777954101562 26.15424346923828125 26.144113540649414062 26.133981704711914062 26.123691558837890625 26.113565444946289062 26.103441238403320312 26.093639373779296875 26.08400726318359375 26.07485198974609375 26.066036224365234375 26.057849884033203125 26.05017852783203125 26.043279647827148438 26.037076950073242188 26.031789779663085938 26.02738189697265625 26.024026870727539062 26.021738052368164062 26.020631790161132812 26.020696640014648438 26.021728515625 26.02349853515625 26.025686264038085938 26.028079986572265625 26.030351638793945312 26.03228759765625 26.033575057983398438 26.033967971801757812 26.033201217651367188 26.030965805053710938 26.027078628540039062 26.021129608154296875 26.101436614990234375 26.757427215576171875 26.900209426879882812 26.865037918090820312 26.82299041748046875 26.772800445556640625 26.717010498046875 26.655038833618164062 26.589830398559570312 26.520204544067382812 26.4471588134765625 26.365276336669921875 26.273538589477539062 26.165437698364257812 26.040958404541015625 25.895320892333984375 25.737882614135742188 25.571527481079101562 25.408967971801757812 25.253231048583984375 25.11574554443359375 24.994968414306640625 24.892642974853515625 24.803102493286132812 24.726406097412109375 24.657636642456054688 24.596668243408203125 24.540208816528320312 24.488855361938476562 24.439922332763671875 24.39382171630859375 24.348234176635742188 24.304595947265625 24.262434005737304688 24.224012374877929688 24.1891632080078125 24.159902572631835938 24.135955810546875 24.118032455444335938 24.10532379150390625 24.097948074340820312 24.095407485961914062 24.097364425659179688 24.102861404418945312 24.110307693481445312 24.118402481079101562 24.125406265258789062 24.13006591796875 24.131353378295898438 24.129306793212890625 24.12425994873046875 24.116357803344726562 24.106122970581054688 24.093389511108398438 24.0782012939453125 24.05941009521484375 24.036869049072265625 24.009174346923828125 23.976299285888671875 23.935211181640625 23.8834381103515625 23.815179824829101562 23.728221893310546875 23.61582183837890625 23.479076385498046875 23.31810760498046875 23.145477294921875 22.964513778686523438 22.788888931274414062 22.620904922485351562 22.46732330322265625 22.317415237426757812 22.167835235595703125 22.006052017211914062 21.8289642333984375 21.626300811767578125 21.406194686889648438 21.169019699096679688 20.928506851196289062 20.684728622436523438 20.450750350952148438 20.219598770141601562 19.990816116333007812 19.748859405517578125 19.491678237915039062 19.203454971313476562 18.888246536254882812 18.545820236206054688 18.199687957763671875 17.855093002319335938 17.536409378051757812 17.24771881103515625 17.002096176147460938 16.787721633911132812 16.604806900024414062 16.441564559936523438 16.296600341796875 16.160291671752929688 16.0329437255859375 15.908280372619628906 15.787031173706054688 15.663297653198242188 15.538298606872558594 15.409955024719238281 15.285617828369140625 15.166642189025878906 15.060791015625 14.969556808471679688 14.897613525390625 14.840200424194335938 14.794651985168457031 14.755069732666015625 14.71805572509765625 14.678751945495605469 14.636801719665527344 14.592214584350585938 14.547283172607421875 14.502264976501464844 14.459441184997558594 14.418354988098144531 14.379377365112304688 14.3405609130859375 14.301736831665039062 14.261018753051757812 14.218594551086425781 14.174334526062011719 14.130974769592285156 14.089535713195800781 14.052918434143066406 14.022081375122070312 13.998630523681640625 13.98102569580078125 13.968401908874511719 13.958968162536621094 13.95159912109375 13.944905281066894531 13.938570022583007812 13.932483673095703125 13.926847457885742188 13.921625137329101562 13.916991233825683594 13.912793159484863281 13.908905029296875 13.904993057250976562 13.90085601806640625 13.896177291870117188 13.890787124633789062 13.884515762329101562 13.877396583557128906 13.86931610107421875 13.860335350036621094 13.850388526916503906 13.840111732482910156 13.830481529235839844 13.82294464111328125 13.818583488464355469 13.818850517272949219 13.824372291564941406 13.834857940673828125 13.8491973876953125 13.866230010986328125 13.884932518005371094 13.904048919677734375 13.92284393310546875 13.940338134765625 13.956063270568847656 13.969063758850097656 13.978886604309082031 13.984910011291503906 13.9876556396484375 13.9876251220703125 13.9856109619140625 13.982240676879882812 13.978178024291992188 13.973827362060546875 13.969326972961425781 13.964818000793457031 13.960379600524902344 13.956148147583007812 
32.46225738525390625 32.471141815185546875 32.49367523193359375 32.5479583740234375 32.653369903564453125 32.7808837890625 32.9203643798828125 32.95416259765625 32.931987762451171875 33.008075714111328125 33.10031890869140625 33.28229522705078125 33.39937591552734375 33.41678619384765625 33.426372528076171875 33.429660797119140625 33.48336029052734375 33.50096893310546875 33.440746307373046875 33.405361175537109375 33.44644927978515625 33.51080322265625 33.36834716796875 33.09821319580078125 32.838085174560546875 32.54944610595703125 32.291301727294921875 32.338714599609375 32.6344757080078125 32.8711090087890625 32.905292510986328125 32.854236602783203125 33.005767822265625 33.13901519775390625 33.327884674072265625 33.608734130859375 33.81214141845703125 34.139614105224609375 34.936244964599609375 35.61631011962890625 34.861354827880859375 33.459415435791015625 32.4855194091796875 32.180644989013671875 32.043155670166015625 31.86508941650390625 31.74561309814453125 31.595890045166015625 31.314456939697265625 30.978582382202148438 30.671112060546875 30.460172653198242188 30.230710983276367188 29.953741073608398438 29.721807479858398438 29.47957611083984375 29.2813873291015625 29.168405532836914062 29.0582733154296875 28.9432525634765625 28.82242584228515625 28.698604583740234375 28.570302963256835938 28.44010162353515625 28.306156158447265625 28.171060562133789062 28.032735824584960938 27.893827438354492188 27.752054214477539062 27.610120773315429688 27.465587615966796875 27.321241378784179688 27.17450714111328125 27.028284072875976562 26.8800811767578125 26.733793258666992188 26.589452743530273438 26.453866958618164062 26.328252792358398438 26.258317947387695312 26.247144699096679688 26.239473342895507812 26.231754302978515625 26.22409820556640625 26.216283798217773438 26.208431243896484375 26.200307846069335938 26.192047119140625 26.183401107788085938 26.174528121948242188 26.16522979736328125 26.155786514282226562 26.14604949951171875 26.136322021484375 26.126443862915039062 26.116724014282226562 26.10700225830078125 26.097585678100585938 26.08831787109375 26.079494476318359375 26.070978164672851562 26.063043594360351562 26.055576324462890625 26.048824310302734375 26.042703628540039062 26.037425994873046875 26.032947540283203125 26.029439926147460938 26.0269012451171875 26.02545166015625 26.02506256103515625 26.025548934936523438 26.02667236328125 26.02813720703125 26.029720306396484375 26.031122207641601562 26.032108306884765625 26.032403945922851562 26.031740188598632812 26.029890060424804688 26.026517868041992188 26.021482467651367188 26.014345169067382812 26.090764999389648438 26.726383209228515625 26.867551803588867188 26.838184356689453125 26.803743362426757812 26.76268768310546875 26.71645355224609375 26.663854598999023438 26.606714248657226562 26.54328155517578125 26.474102020263671875 26.394079208374023438 26.302492141723632812 26.19317626953125 26.066492080688476562 25.917913436889648438 25.757167816162109375 25.587310791015625 25.421415328979492188 25.262678146362304688 25.122821807861328125 25.000162124633789062 24.896160125732421875 24.804706573486328125 24.72553253173828125 24.653263092041015625 24.587779998779296875 24.526063919067382812 24.469493865966796875 24.41588592529296875 24.366418838500976562 24.319208145141601562 24.275735855102539062 24.235078811645507812 24.198938369750976562 24.166688919067382812 24.139760971069335938 24.117633819580078125 24.100984573364257812 24.089191436767578125 24.082500457763671875 24.080585479736328125 24.083177566528320312 24.089159011840820312 24.096546173095703125 24.103620529174804688 24.10826873779296875 24.10878753662109375 24.104307174682617188 24.095380783081054688 24.083429336547851562 24.069305419921875 24.05460357666015625 24.039709091186523438 24.024663925170898438 24.007717132568359375 23.988027572631835938 23.963602066040039062 23.933694839477539062 23.894956588745117188 23.844768524169921875 23.777402877807617188 23.690643310546875 23.57778167724609375 23.439977645874023438 23.277462005615234375 23.10301971435546875 22.92012786865234375 22.74269866943359375 22.573125839233398438 22.417993545532226562 22.265813827514648438 22.112482070922851562 21.944528579711914062 21.75820159912109375 21.542509078979492188 21.306406021118164062 21.05084228515625 20.791103363037109375 20.527782440185546875 20.2755584716796875 20.02802276611328125 19.786350250244140625 19.535745620727539062 19.275602340698242188 18.991067886352539062 18.68651580810546875 18.360338211059570312 18.033166885375976562 17.708124160766601562 17.406465530395507812 17.130489349365234375 16.892309188842773438 16.681646347045898438 16.500162124633789062 16.337774276733398438 16.19464111328125 16.062234878540039062 15.94069671630859375 15.823258399963378906 15.709835052490234375 15.594074249267578125 15.476407051086425781 15.354696273803710938 15.236145973205566406 15.122378349304199219 15.021104812622070312 14.934047698974609375 14.865817070007324219 14.811726570129394531 14.768947601318359375 14.731593132019042969 14.696125030517578125 14.657689094543457031 14.615956306457519531 14.57110595703125 14.525589942932128906 14.479830741882324219 14.436289787292480469 14.3946380615234375 14.355385780334472656 14.316679954528808594 14.278469085693359375 14.238976478576660156 14.198444366455078125 14.156682968139648438 14.116186141967773438 14.077810287475585938 14.044178009033203125 14.016109466552734375 13.995025634765625 13.979475021362304688 13.968622207641601562 13.960789680480957031 13.95488739013671875 13.949616432189941406 13.944602012634277344 13.939688682556152344 13.934963226318359375 13.930328369140625 13.925866127014160156 13.921436309814453125 13.916997909545898438 13.912347793579101562 13.907420158386230469 13.902009963989257812 13.896069526672363281 13.889446258544921875 13.882168769836425781 13.874108314514160156 13.865307807922363281 13.855684280395507812 13.845833778381347656 13.836667060852050781 13.829552650451660156 13.825507164001464844 13.825898170471191406 13.831315994262695312 13.841477394104003906 13.8553314208984375 13.871770858764648438 13.889824867248535156 13.908291816711425781 13.926436424255371094 13.943249702453613281 13.958205223083496094 13.970304489135742188 13.979048728942871094 13.983798980712890625 13.985136985778808594 13.983675956726074219 13.980297088623046875 13.975748062133789062 13.970765113830566406 13.965794563293457031 13.960920333862304688 13.956242561340332031 13.9517822265625 13.947621345520019531 
32.576267242431640625 32.60620880126953125 32.63639068603515625 32.645679473876953125 32.69562530517578125 32.833972930908203125 32.926036834716796875 32.9152679443359375 32.92403411865234375 32.999744415283203125 33.1574554443359375 33.3335418701171875 33.42633819580078125 33.471729278564453125 33.47116851806640625 33.478885650634765625 33.513515472412109375 33.491031646728515625 33.42026519775390625 33.344936370849609375 33.326869964599609375 33.4084320068359375 33.273406982421875 32.956760406494140625 32.665737152099609375 32.45163726806640625 32.311191558837890625 32.442295074462890625 32.728786468505859375 32.795940399169921875 32.7685546875 32.8883514404296875 33.042362213134765625 33.151988983154296875 33.357021331787109375 33.642192840576171875 33.88697052001953125 34.357166290283203125 35.274265289306640625 35.4931793212890625 34.24901580810546875 32.94510650634765625 32.2802276611328125 32.0994873046875 31.92162322998046875 31.7595367431640625 31.70249176025390625 31.54787445068359375 31.234735488891601562 30.877805709838867188 30.605724334716796875 30.402891159057617188 30.138031005859375 29.880390167236328125 29.6620330810546875 29.402193069458007812 29.239759445190429688 29.130834579467773438 29.018634796142578125 28.9029083251953125 28.7821807861328125 28.6589508056640625 28.53162384033203125 28.402690887451171875 28.270290374755859375 28.136949539184570312 28.000589370727539062 27.863790512084960938 27.7242889404296875 27.5847320556640625 27.442708969116210938 27.3009490966796875 27.156915664672851562 27.013441085815429688 26.868078231811523438 26.724636077880859375 26.583148956298828125 26.45027923583984375 26.327205657958984375 26.258562088012695312 26.24737548828125 26.239660263061523438 26.231945037841796875 26.224334716796875 26.21661376953125 26.208894729614257812 26.20095062255859375 26.192907333374023438 26.184522628784179688 26.1759490966796875 26.16698455810546875 26.157903671264648438 26.14855194091796875 26.139217376708984375 26.129743576049804688 26.120424270629882812 26.111095428466796875 26.10205078125 26.093137741088867188 26.084634780883789062 26.076404571533203125 26.068704605102539062 26.061420440673828125 26.054790496826171875 26.048725128173828125 26.043428421020507812 26.038846969604492188 26.035146713256835938 26.032316207885742188 26.030473709106445312 26.029577255249023438 26.029458999633789062 26.029872894287109375 26.030550003051757812 26.03125 26.031709671020507812 26.031675338745117188 26.03090667724609375 26.029111862182617188 26.026105880737304688 26.021524429321289062 26.015270233154296875 26.006879806518554688 26.079473495483398438 26.695417404174804688 26.83477020263671875 26.811071395874023438 26.784570693969726562 26.753381729125976562 26.717615127563476562 26.675312042236328125 26.626941680908203125 26.570013046264648438 26.504573822021484375 26.425951004028320312 26.333873748779296875 26.222621917724609375 26.093099594116210938 25.94110870361328125 25.776762008666992188 25.603240966796875 25.433946609497070312 25.272207260131835938 25.129995346069335938 25.0054473876953125 24.899705886840820312 24.8061676025390625 24.72420501708984375 24.647939682006835938 24.577276229858398438 24.509555816650390625 24.447107315063476562 24.388362884521484375 24.33542633056640625 24.286962509155273438 24.24445343017578125 24.206415176391601562 24.1737823486328125 24.145338058471679688 24.121740341186523438 24.102142333984375 24.087184906005859375 24.076501846313476562 24.070512771606445312 24.069124221801757812 24.072185516357421875 24.078426361083984375 24.0854644775390625 24.091136932373046875 24.092950820922851562 24.088735580444335938 24.077802658081054688 24.061265945434570312 24.041742324829101562 24.020845413208007812 24.001352310180664062 23.984241485595703125 23.969545364379882812 23.954847335815429688 23.93851470947265625 23.91791534423828125 23.891489028930664062 23.855541229248046875 23.807279586791992188 23.741062164306640625 23.654659271240234375 23.541406631469726562 23.40252685546875 23.238370895385742188 23.061971664428710938 22.876956939697265625 22.697511672973632812 22.526121139526367188 22.369205474853515625 22.214490890502929688 22.057096481323242188 21.882587432861328125 21.686548233032226562 21.457256317138671875 21.204578399658203125 20.93013763427734375 20.650911331176757812 20.368108749389648438 20.098142623901367188 19.8352203369140625 19.582094192504882812 19.32471466064453125 19.063829421997070312 18.785547256469726562 18.494405746459960938 18.187299728393554688 17.8816375732421875 17.578229904174804688 17.294887542724609375 17.03194427490234375 16.8004913330078125 16.591958999633789062 16.409698486328125 16.245502471923828125 16.101350784301757812 15.969958305358886719 15.851566314697265625 15.739040374755859375 15.631739616394042969 15.522996902465820312 15.412640571594238281 15.298368453979492188 15.186945915222167969 15.079941749572753906 14.984661102294921875 14.902759552001953125 14.838566780090332031 14.78755950927734375 14.7469329833984375 14.710977554321289062 14.676221847534179688 14.637966156005859375 14.595980644226074219 14.55057525634765625 14.504326820373535156 14.457776069641113281 14.413525581359863281 14.371349334716796875 14.331896781921386719 14.293423652648925781 14.256007194519042969 14.217988967895507812 14.179668426513671875 14.140782356262207031 14.103541374206542969 14.068600654602050781 14.038262367248535156 14.013171195983886719 13.994541168212890625 13.981024742126464844 13.971820831298828125 13.965386390686035156 13.960692405700683594 13.956532478332519531 13.952510833740234375 13.948431968688964844 13.944308280944824219 13.940000534057617188 13.935520172119140625 13.930741310119628906 13.925708770751953125 13.920319557189941406 13.914624214172363281 13.908514022827148438 13.902047157287597656 13.895085334777832031 13.887669563293457031 13.879650115966796875 13.871075630187988281 13.861847877502441406 13.85251617431640625 13.843903541564941406 13.837270736694335938 13.833543777465820312 13.833979606628417969 13.839115142822265625 13.84869384765625 13.861748695373535156 13.877270698547363281 13.894372940063476562 13.911940574645996094 13.929253578186035156 13.945277214050292969 13.959427833557128906 13.970661163330078125 13.978425979614257812 13.982069969177246094 13.982207298278808594 13.979543685913085938 13.975029945373535156 13.969506263732910156 13.963767051696777344 13.958292961120605469 13.953114509582519531 13.948294639587402344 13.943796157836914062 13.939669609069824219 
32.672306060791015625 32.719257354736328125 32.773700714111328125 32.770832061767578125 32.77632904052734375 32.8925628662109375 32.9157867431640625 32.929561614990234375 32.965778350830078125 33.006038665771484375 33.2230987548828125 33.39080810546875 33.4493865966796875 33.489635467529296875 33.5000152587890625 33.524444580078125 33.488979339599609375 33.425792694091796875 33.38445281982421875 33.32767486572265625 33.24712371826171875 33.2598724365234375 33.177753448486328125 32.897907257080078125 32.599536895751953125 32.3901519775390625 32.3641510009765625 32.581226348876953125 32.69254302978515625 32.65787506103515625 32.798236846923828125 32.96132659912109375 33.04660797119140625 33.160999298095703125 33.3993072509765625 33.669933319091796875 34.08231353759765625 34.764659881591796875 35.463214874267578125 35.035648345947265625 33.61639404296875 32.550281524658203125 32.160037994384765625 31.999713897705078125 31.795955657958984375 31.682353973388671875 31.670375823974609375 31.48958587646484375 31.133296966552734375 30.786319732666015625 30.54918670654296875 30.323369979858398438 30.052806854248046875 29.8310699462890625 29.57593536376953125 29.34261322021484375 29.20801544189453125 29.096221923828125 28.981763839721679688 28.865030288696289062 28.744131088256835938 28.62128448486328125 28.494775772094726562 28.366985321044921875 28.23602294921875 28.104341506958007812 27.969861984252929688 27.8350982666015625 27.697803497314453125 27.5605621337890625 27.42099761962890625 27.281774520874023438 27.140390396118164062 26.999622344970703125 26.857057571411132812 26.716426849365234375 26.577756881713867188 26.447574615478515625 26.327014923095703125 26.259639739990234375 26.248407363891601562 26.240621566772460938 26.232881546020507812 26.225294113159179688 26.217641830444335938 26.210035324096679688 26.202249526977539062 26.194406509399414062 26.186267852783203125 26.177976608276367188 26.169340133666992188 26.160608291625976562 26.15163421630859375 26.142686843872070312 26.13361358642578125 26.124683380126953125 26.11574554443359375 26.107065200805664062 26.098497390747070312 26.090301513671875 26.082340240478515625 26.074859619140625 26.06774139404296875 26.061208724975585938 26.055170059204101562 26.0498199462890625 26.045093536376953125 26.041158676147460938 26.037982940673828125 26.0356903076171875 26.034221649169921875 26.033428192138671875 26.033054351806640625 26.032861709594726562 26.032596588134765625 26.032024383544921875 26.030878067016601562 26.02895355224609375 26.025934219360351562 26.021680831909179688 26.01580047607421875 26.00823974609375 25.998508453369140625 26.06752777099609375 26.666181564331054688 26.804281234741210938 26.786260604858398438 26.767801284790039062 26.746644973754882812 26.721502304077148438 26.689550399780273438 26.649837493896484375 26.599050521850585938 26.536764144897460938 26.45880126953125 26.36547088623046875 26.251600265502929688 26.118753433227539062 25.9631195068359375 25.795177459716796875 25.618162155151367188 25.445726394653320312 25.281255722045898438 25.13690185546875 25.010587692260742188 24.903116226196289062 24.807386398315429688 24.722402572631835938 24.641767501831054688 24.565441131591796875 24.49117279052734375 24.422338485717773438 24.358058929443359375 24.301465988159179688 24.2518310546875 24.21063232421875 24.175741195678710938 24.1472320556640625 24.123216629028320312 24.103471755981445312 24.086793899536132812 24.073770523071289062 24.0643310546875 24.059087753295898438 24.058214187622070312 24.061700820922851562 24.068143844604492188 24.0747833251953125 24.079023361206054688 24.078006744384765625 24.069097518920898438 24.051805496215820312 24.027797698974609375 24.000871658325195312 23.973402023315429688 23.949323654174804688 23.930212020874023438 23.91607666015625 23.903837203979492188 23.891065597534179688 23.874483108520507812 23.851713180541992188 23.81870269775390625 23.772470474243164062 23.707447052001953125 23.621366500854492188 23.50759124755859375 23.367401123046875 23.201274871826171875 23.022535324096679688 22.834987640380859375 22.65312957763671875 22.479562759399414062 22.32054901123046875 22.162996292114257812 22.001220703125 21.81976318359375 21.613527297973632812 21.3700408935546875 21.100154876708984375 20.806255340576171875 20.507139205932617188 20.204738616943359375 19.917295455932617188 19.63967132568359375 19.376132965087890625 19.113323211669921875 18.853246688842773438 18.582944869995117188 18.3069915771484375 18.020727157592773438 17.738176345825195312 17.457775115966796875 17.193731307983398438 16.944341659545898438 16.719623565673828125 16.512773513793945312 16.328893661499023438 16.161699295043945312 16.01508331298828125 15.883063316345214844 15.766167640686035156 15.657016754150390625 15.554635047912597656 15.452169418334960938 15.349008560180664062 15.242641448974609375 15.139182090759277344 15.039929389953613281 14.951519012451171875 14.875344276428222656 14.815298080444335938 14.767093658447265625 14.728066444396972656 14.692828178405761719 14.658122062683105469 14.619495391845703125 14.576885223388671875 14.530694007873535156 14.483610153198242188 14.436244964599609375 14.391314506530761719 14.348681449890136719 14.309122085571289062 14.270999908447265625 14.234511375427246094 14.19812774658203125 14.162194252014160156 14.126372337341308594 14.092572212219238281 14.06124114990234375 14.034338951110839844 14.012331962585449219 13.996213912963867188 13.984738349914550781 13.977137565612792969 13.972004890441894531 13.968367576599121094 13.965121269226074219 13.961854934692382812 13.958363533020019531 13.954606056213378906 13.95041656494140625 13.945765495300292969 13.940548896789550781 13.934881210327148438 13.928747177124023438 13.922300338745117188 13.9155120849609375 13.908526420593261719 13.9012298583984375 13.893681526184082031 13.885725021362304688 13.877420425415039062 13.86865997314453125 13.859946250915527344 13.851996421813964844 13.84593963623046875 13.842595100402832031 13.843077659606933594 13.847863197326660156 13.856724739074707031 13.868798255920410156 13.883180618286132812 13.899085044860839844 13.91550445556640625 13.931751251220703125 13.94678497314453125 13.959980964660644531 13.97027587890625 13.977080345153808594 13.979737281799316406 13.9788818359375 13.975272178649902344 13.969898223876953125 13.963658332824707031 13.957378387451171875 13.951555252075195312 13.946176528930664062 13.941267013549804688 13.936746597290039062 13.93262481689453125 
