ncols        302
nrows        148
xllcorner    650417.000000000000
yllcorner    274952.000000000000
cellsize     5.000000000000
NODATA_value -9999
0.0 0 0 0 0 0 0 0 0 0 0 0 0 0 0 0 0 0 0 0 0 0 0 0 0 0 0 0 0 0 0 0 0 0 0 0 0 0 0 0 0 0 0 0 0 0 0 0 0 0 0 0 0 0 0 0 0 0 0 0 0 0 0.092175148427486419678 1.4377999305725097656 2.9378511905670166016 3.4381368160247802734 3.5622737407684326172 3.626537322998046875 3.8873581886291503906 3.7007279396057128906 3.1897490024566650391 2.9734101295471191406 2.7900846004486083984 2.3472208976745605469 1.7927863597869873047 0.79512798786163330078 0.053984690457582473755 0 0 0 0.0012258149217814207077 0.0083668259903788566589 0.015594993717968463898 0.024232270196080207825 0.037103172391653060913 0.054470103234052658081 0.075288936495780944824 0.094643391668796539307 0.10764948278665542603 0.11795321851968765259 0.13066060841083526611 0.14528827369213104248 0.16384927928447723389 0.17615295946598052979 0.18123628199100494385 0.1863670647144317627 0.18973770737648010254 0.18759052455425262451 0.18852274119853973389 0.16930469870567321777 0.096676565706729888916 0.10453394055366516113 0.12040625512599945068 0.13488046824932098389 0.14936342835426330566 0.16251724958419799805 0.1756328195333480835 0.1874472498893737793 0.21197347342967987061 0.28373220562934875488 0.29989656805992126465 0.30867603421211242676 0.31674551963806152344 0.3214810788631439209 0.25813424587249755859 0.25469496846199035645 0.2586835026741027832 0.26186576485633850098 0.26482945680618286133 0.26735097169876098633 0.26972991228103637695 0.27170822024345397949 0.27351516485214233398 0.27497771382331848145 0.27640500664710998535 0.27767792344093322754 0.27896445989608764648 0.28012397885322570801 0.28126892447471618652 0.27441310882568359375 0.27181234955787658691 0.27201974391937255859 0.27202776074409484863 0.27181452512741088867 0.27130085229873657227 0.2704944610595703125 0.26922962069511413574 0.2676493227481842041 0.26557308435440063477 0.26329368352890014648 0.26037386059761047363 0.25685030221939086914 0.25331416726112365723 0.251068115234375 0.24992306530475616455 0.24993933737277984619 0.25102338194847106934 0.25296074151992797852 0.2559496760368347168 0.25947129726409912109 0.26376628875732421875 0.26782202720642089844 0.27203294634819030762 0.27566072344779968262 0.27909323573112487793 0.28184267878532409668 0.28448662161827087402 0.28678798675537109375 0.28926905989646911621 0.29170143604278564453 0.29453220963478088379 0.2972348630428314209 0.30009505152702331543 0.30253237485885620117 0.3047606050968170166 0.30629342794418334961 0.30735027790069580078 0.30782669782638549805 0.30788153409957885742 0.30758404731750488281 0.30696368217468261719 0.30615833401679992676 0.30504706501960754395 0.30379134416580200195 0.30219066143035888672 0.30048552155494689941 0.29842460155487060547 0.29635515809059143066 0.29404795169830322266 0.29191192984580993652 0.28972023725509643555 0.28786665201187133789 0.28610286116600036621 0.2846037745475769043 0.28304931521415710449 0.28156328201293945312 0.2798443138599395752 0.27806743979454040527 0.27612718939781188965 0.2745107114315032959 0.27318546175956726074 0.27246201038360595703 0.27217334508895874023 0.27223464846611022949 0.27252432703971862793 0.27286291122436523438 0.2731361091136932373 0.27314043045043945312 0.2727374732494354248 0.27204856276512145996 0.27110123634338378906 0.27009347081184387207 0.26908659934997558594 0.26835361123085021973 0.26785516738891601562 0.26756045222282409668 0.2673206627368927002 0.26708754897117614746 0.26675194501876831055 0.266292572021484375 0.26563429832458496094 0.26485049724578857422 0.26384997367858886719 0.26274526119232177734 0.2614193260669708252 0.26005390286445617676 0.25858232378959655762 0.25724098086357116699 0.25597620010375976562 0.25499701499938964844 0.25424429774284362793 0.25373095273971557617 0.25330066680908203125 0.25289103388786315918 0.25234520435333251953 0.25162383913993835449 0.2506421208381652832 0.24956083297729492188 0.2483593374490737915 0.24722538888454437256 0.24613150954246520996 0.24519896507263183594 0.24425011873245239258 0.24324494600296020508 0.24195627868175506592 0.24037253856658935547 0.23824226856231689453 0.23577740788459777832 0.23291292786598205566 0.23004439473152160645 0.22710154950618743896 0.22447134554386138916 0.2220045924186706543 0.21977154910564422607 0.2174104154109954834 0.21492518484592437744 0.2119337916374206543 0.20852015912532806396 0.20445033907890319824 0.20017248392105102539 0.19554780423641204834 0.1910562664270401001 0.18653857707977294922 0.1823552250862121582 0.1781199723482131958 0.17397168278694152832 0.16947889328002929688 0.16477316617965698242 0.15939293801784515381 0.15351302921772003174 0.1465793997049331665 0.13884109258651733398 0.12963846325874328613 0.11933291703462600708 0.10740568488836288452 0.095007181167602539062 0.081830613315105438232 0.068957701325416564941 0.05617686733603477478 0.044482372701168060303 0.033273376524448394775 0.022898882627487182617 0.012666855007410049438 0.019544187933206558228 0.037794720381498336792 0 0 0 0 0 0 0 0 0 0 0 0 0 0 0 0 0 0 0 0 0 0 0 0 0 0 0 
0 0 0 0 0 0 0 0 0 0 0 0 0 0 0 0 0 0 0 0 0 0 0 0 0 0 0 0 0 0 0 0 0 0 0 0 0 0 0 0 0 0 0 0 0 0 0 0 0 0 0 0 0 0 0 0 0 0 0 0 0 0 0 0.91925603151321411133 2.4182116985321044922 3.0853185653686523438 3.487735748291015625 3.547351837158203125 3.5273473262786865234 3.2309470176696777344 2.9470422267913818359 2.6775023937225341797 2.3393769264221191406 1.856820225715637207 1.2028313875198364258 0.31429791450500488281 0 0 0.008193167857825756073 0.029547100886702537537 0.0041097146458923816681 0.011291613802313804626 0.018881576135754585266 0.028226627036929130554 0.041870009154081344604 0.059525843709707260132 0.079806260764598846436 0.098222881555557250977 0.10838875174522399902 0.11728940904140472412 0.13000574707984924316 0.14579421281814575195 0.16487167775630950928 0.17451784014701843262 0.17795418202877044678 0.18413858115673065186 0.18609859049320220947 0.18540118634700775146 0.18446102738380432129 0.14738559722900390625 0.088269270956516265869 0.10398896783590316772 0.11982429027557373047 0.13427992165088653564 0.14874604344367980957 0.16188456118106842041 0.17499111592769622803 0.18680503964424133301 0.21155978739261627197 0.28405931591987609863 0.30000424385070800781 0.30862152576446533203 0.31667557358741760254 0.30616074800491333008 0.25385311245918273926 0.25452721118927001953 0.25853404402732849121 0.26168739795684814453 0.26459616422653198242 0.26706424355506896973 0.2693875432014465332 0.27131378650665283203 0.27306526899337768555 0.2744655311107635498 0.27581927180290222168 0.27702596783638000488 0.27824702858924865723 0.2793490290641784668 0.28043499588966369629 0.27356621623039245605 0.27082744240760803223 0.27089828252792358398 0.27079495787620544434 0.27051082253456115723 0.26995208859443664551 0.26912784576416015625 0.26787430047988891602 0.26632827520370483398 0.26431730389595031738 0.26226857304573059082 0.25942352414131164551 0.25568622350692749023 0.25238063931465148926 0.25030210614204406738 0.24927487969398498535 0.24938668310642242432 0.25057175755500793457 0.25261211395263671875 0.25572431087493896484 0.25936815142631530762 0.26372480392456054688 0.26787033677101135254 0.2722263634204864502 0.27598774433135986328 0.27953109145164489746 0.28234407305717468262 0.28501707315444946289 0.28731656074523925781 0.28977644443511962891 0.2921803593635559082 0.29497945308685302734 0.29765629768371582031 0.3004900813102722168 0.30290368199348449707 0.3051122128963470459 0.30663773417472839355 0.30770075321197509766 0.30819550156593322754 0.30828198790550231934 0.30802249908447265625 0.30745145678520202637 0.30669671297073364258 0.30563962459564208984 0.3044274747371673584 0.30285894870758056641 0.30116128921508789062 0.2990805506706237793 0.29697021842002868652 0.29460403323173522949 0.2924079596996307373 0.29015246033668518066 0.28824123740196228027 0.28642675280570983887 0.28489837050437927246 0.28333172202110290527 0.28184944391250610352 0.28014865517616271973 0.27839779853820800781 0.27639982104301452637 0.27463299036026000977 0.27313318848609924316 0.27225887775421142578 0.27192822098731994629 0.2719872593879699707 0.27226841449737548828 0.27259248495101928711 0.27284207940101623535 0.27282220125198364258 0.27239239215850830078 0.27165740728378295898 0.27060276269912719727 0.26951882243156433105 0.26845788955688476562 0.26768401265144348145 0.26713803410530090332 0.26679381728172302246 0.26652881503105163574 0.26630407571792602539 0.26601698994636535645 0.26564055681228637695 0.26509457826614379883 0.26442024111747741699 0.26351749897003173828 0.26246923208236694336 0.26114386320114135742 0.25972250103950500488 0.25815004110336303711 0.25669321417808532715 0.25530707836151123047 0.25423231720924377441 0.25341483950614929199 0.25287413597106933594 0.25244066119194030762 0.25204288959503173828 0.25151681900024414062 0.2508138120174407959 0.24984641373157501221 0.24877274036407470703 0.24757166206836700439 0.24643005430698394775 0.24531881511211395264 0.24436065554618835449 0.24337650835514068604 0.24233102798461914062 0.24099491536617279053 0.23936212062835693359 0.23717819154262542725 0.23466156423091888428 0.23174796998500823975 0.22884039580821990967 0.22586894035339355469 0.22322617471218109131 0.22076627612113952637 0.21856389939785003662 0.21626576781272888184 0.21387627720832824707 0.21102699637413024902 0.20779380202293395996 0.20394621789455413818 0.19989311695098876953 0.19548849761486053467 0.19118009507656097412 0.18680138885974884033 0.18270380795001983643 0.17853908240795135498 0.17448045313358306885 0.17014402151107788086 0.16569142043590545654 0.16070383787155151367 0.15529146790504455566 0.14884610474109649658 0.14150492846965789795 0.13254454731941223145 0.12225870043039321899 0.1100516095757484436 0.097124055027961730957 0.083373717963695526123 0.069960840046405792236 0.056703325361013412476 0.04468474164605140686 0.033283490687608718872 0.022794615477323532104 0.012474238872528076172 0.019368041306734085083 0.023608483374118804932 0 0 0 0 0 0 0 0 0 0 0 0 0 0 0 0 0 0 0 0 0 0 0 0 0 0 0 
0 0 0 0 0 0 0 0 0 0 0 0 0 0 0 0 0 0 0 0 0 0 0 0 0 0 0 0 0 0 0 0 0 0 0 0 0 0 0 0 0 0 0 0 0 0 0 0 0 0 0 0 0 0 0 0 0 0 0 0 0 0 0 0.32086727023124694824 1.4731634855270385742 2.2127604484558105469 2.7346117496490478516 3.1202411651611328125 2.8933510780334472656 2.5095427036285400391 2.4274320602416992188 2.1535882949829101562 1.7102551460266113281 1.3570326566696166992 0.62344348430633544922 0.14395518600940704346 0 0.0034130790736526250839 0.040976196527481079102 0.013881538063287734985 0.0085939615964889526367 0.014966162852942943573 0.022546987980604171753 0.031970907002687454224 0.046096131205558776855 0.064109250903129577637 0.084183834493160247803 0.1004805639386177063 0.10875452309846878052 0.11731733381748199463 0.12963284552097320557 0.14723896980285644531 0.16557244956493377686 0.17212536931037902832 0.17523851990699768066 0.18200470507144927979 0.18222157657146453857 0.18363514542579650879 0.17999452352523803711 0.11243181675672531128 0.0880090370774269104 0.10367907583713531494 0.11947857588529586792 0.13391776382923126221 0.14837303757667541504 0.1614933311939239502 0.17458252608776092529 0.18638625741004943848 0.21136902272701263428 0.28474557399749755859 0.30016723275184631348 0.30860471725463867188 0.31668049097061157227 0.29512858390808105469 0.24941992759704589844 0.25437843799591064453 0.25839588046073913574 0.26151376962661743164 0.26437065005302429199 0.26678672432899475098 0.26905363798141479492 0.27092456817626953125 0.27261397242546081543 0.27395477890968322754 0.27524065971374511719 0.27638274431228637695 0.27754080295562744141 0.27858591079711914062 0.27961280941963195801 0.27303287386894226074 0.27016934752464294434 0.26998171210289001465 0.26965829730033874512 0.26923069357872009277 0.26858279109001159668 0.26773026585578918457 0.26650831103324890137 0.26503533124923706055 0.26305288076400756836 0.26079723238945007324 0.25739505887031555176 0.25381588935852050781 0.25076338648796081543 0.24891030788421630859 0.24809810519218444824 0.24839140474796295166 0.2497577369213104248 0.25195106863975524902 0.25521421432495117188 0.25896504521369934082 0.26339092850685119629 0.26764035224914550781 0.27212855219841003418 0.27601101994514465332 0.27966728806495666504 0.28256070613861083984 0.28529179096221923828 0.28761640191078186035 0.29006913304328918457 0.29243627190589904785 0.29517033696174621582 0.29777657985687255859 0.30053591728210449219 0.30289471149444580078 0.30507200956344604492 0.30660399794578552246 0.30771085619926452637 0.30827200412750244141 0.3084475100040435791 0.30827605724334716797 0.30779740214347839355 0.30711886286735534668 0.30613046884536743164 0.30496710538864135742 0.30343204736709594727 0.3017425537109375 0.29964569211006164551 0.29750204086303710938 0.29508888721466064453 0.29284679889678955078 0.29054802656173706055 0.28860896825790405273 0.28677585721015930176 0.28523775935173034668 0.28367367386817932129 0.28220322728157043457 0.28051799535751342773 0.27878725528717041016 0.27680677175521850586 0.27495059370994567871 0.27325204014778137207 0.27218878269195556641 0.2717335820198059082 0.27177479863166809082 0.27204033732414245605 0.27234637737274169922 0.27257004380226135254 0.27252089977264404297 0.27204948663711547852 0.27121677994728088379 0.27006378769874572754 0.26891767978668212891 0.26780092716217041016 0.26697567105293273926 0.26635846495628356934 0.26595565676689147949 0.26565021276473999023 0.26541176438331604004 0.26514112949371337891 0.2648099064826965332 0.26433336734771728516 0.26373147964477539062 0.26289835572242736816 0.26189589500427246094 0.26058286428451538086 0.25913798809051513672 0.25751450657844543457 0.25599661469459533691 0.25454604625701904297 0.25342205166816711426 0.25257501006126403809 0.25202718377113342285 0.25159993767738342285 0.25121548771858215332 0.25070556998252868652 0.25001493096351623535 0.24905411899089813232 0.24797964096069335938 0.2467689812183380127 0.24560895562171936035 0.24446777999401092529 0.24347119033336639404 0.24243921041488647461 0.24134412407875061035 0.23995576798915863037 0.23827596008777618408 0.23604907095432281494 0.23349882662296295166 0.23056006431579589844 0.2276382148265838623 0.22466284036636352539 0.22202734649181365967 0.21959002315998077393 0.21743126213550567627 0.2152112126350402832 0.2129370570182800293 0.21025951206684112549 0.20724651217460632324 0.20367090404033660889 0.19989444315433502197 0.19575837254524230957 0.19166719913482666016 0.18744252622127532959 0.1834204941987991333 0.17928665876388549805 0.175249442458152771 0.17096626758575439453 0.16663283109664916992 0.16186493635177612305 0.156732901930809021 0.15058609843254089355 0.14348383247852325439 0.13465251028537750244 0.12432705610990524292 0.11191591620445251465 0.098595902323722839355 0.084358081221580505371 0.070541836321353912354 0.056946221739053726196 0.044710889458656311035 0.03319757804274559021 0.022660790011286735535 0.012302871793508529663 0.019229780882596969604 0.023608483374118804932 0 0 0 0 0 0 0 0 0 0 0 0 0 0 0 0 0 0 0 0 0 0 0 0 0 0 0 
0 0 0 0 0 0 0 0 0 0 0 0 0 0 0 0 0 0 0 0 0 0 0 0 0 0 0 0 0 0 0 0 0 0 0 0 0 0 0 0 0 0 0 0 0 0 0 0 0 0 0 0 0 0 0 0 0 0 0 0 0 0 0 0.084755249321460723877 0.56377238035202026367 1.1274137496948242188 1.6487417221069335938 1.9171793460845947266 1.8477330207824707031 1.8020178079605102539 1.3300713300704956055 0.9738966822624206543 0.58071804046630859375 0.12181813269853591919 0.047696556895971298218 0.0018568861996755003929 0.0021277361083775758743 0.0069144009612500667572 0.020875627174973487854 0.0079856198281049728394 0.013661999255418777466 0.019608903676271438599 0.026687648147344589233 0.036098554730415344238 0.050600048154592514038 0.068908371031284332275 0.088775880634784698486 0.10183867812156677246 0.10873243957757949829 0.11741001904010772705 0.1299129873514175415 0.14861345291137695312 0.16487208008766174316 0.16910482943058013916 0.17345570027828216553 0.17946854233741760254 0.17907765507698059082 0.18043981492519378662 0.17426909506320953369 0.10003631561994552612 0.08796958625316619873 0.10360005497932434082 0.11936502158641815186 0.13379012048244476318 0.14823581278324127197 0.16134126484394073486 0.17440786957740783691 0.18619382381439208984 0.20792284607887268066 0.28205278515815734863 0.30055248737335205078 0.30885082483291625977 0.31653153896331787109 0.26762256026268005371 0.24927251040935516357 0.25426450371742248535 0.25827234983444213867 0.26134800910949707031 0.26415583491325378418 0.26652202010154724121 0.26873221993446350098 0.27054414153099060059 0.27216294407844543457 0.27344226837158203125 0.27467206120491027832 0.27575644850730895996 0.27685526013374328613 0.27784287929534912109 0.27881446480751037598 0.27280190587043762207 0.26982861757278442383 0.26926824450492858887 0.26862341165542602539 0.26798659563064575195 0.26721286773681640625 0.2663129270076751709 0.26501959562301635742 0.26333639025688171387 0.26095589995384216309 0.25803729891777038574 0.2544638216495513916 0.25138956308364868164 0.24881133437156677246 0.24732479453086853027 0.24682986736297607422 0.2473605722188949585 0.24892780184745788574 0.25126576423645019531 0.25464421510696411133 0.25844007730484008789 0.26290231943130493164 0.2672049105167388916 0.27175918221473693848 0.27570632100105285645 0.27943304181098937988 0.28238856792449951172 0.28517645597457885742 0.28753873705863952637 0.29001009464263916016 0.29236739873886108398 0.29505932331085205078 0.29760450124740600586 0.30028384923934936523 0.30257117748260498047 0.30470240116119384766 0.30624550580978393555 0.30742555856704711914 0.30809634923934936523 0.30841463804244995117 0.30837815999984741211 0.30803152918815612793 0.30745211243629455566 0.30654466152191162109 0.30543372035026550293 0.30393263697624206543 0.30225273966789245605 0.3001448512077331543 0.29797738790512084961 0.2955315709114074707 0.29325944185256958008 0.29093623161315917969 0.28898778557777404785 0.28716203570365905762 0.2856387794017791748 0.28409087657928466797 0.28263744711875915527 0.28096368908882141113 0.27923688292503356934 0.27725932002067565918 0.27539226412773132324 0.27353388071060180664 0.27224931120872497559 0.27159970998764038086 0.27158468961715698242 0.27182650566101074219 0.27211099863052368164 0.27230721712112426758 0.27222466468811035156 0.27166977524757385254 0.27073168754577636719 0.26950630545616149902 0.26830270886421203613 0.26712819933891296387 0.26623439788818359375 0.26553237438201904297 0.26505798101425170898 0.26468959450721740723 0.26440858840942382812 0.26411512494087219238 0.26378515362739562988 0.26332962512969970703 0.26275911927223205566 0.26196509599685668945 0.26099708676338195801 0.25970983505249023438 0.25827765464782714844 0.25665837526321411133 0.25513976812362670898 0.25368770956993103027 0.25256553292274475098 0.25172784924507141113 0.25119444727897644043 0.25078400969505310059 0.25041460990905761719 0.24991686642169952393 0.24923215806484222412 0.24826984107494354248 0.24718596041202545166 0.24595573544502258301 0.24476708471775054932 0.24358460307121276855 0.24253861606121063232 0.2414487302303314209 0.24029737710952758789 0.23885479569435119629 0.2371324002742767334 0.23487550020217895508 0.23231144249439239502 0.22937263548374176025 0.22646218538284301758 0.22350831329822540283 0.22090063989162445068 0.21850213408470153809 0.21639990806579589844 0.2142718881368637085 0.21213020384311676025 0.2096493840217590332 0.20688971877098083496 0.20362712442874908447 0.20016883313655853271 0.19634085893630981445 0.19249376654624938965 0.18843346834182739258 0.18447476625442504883 0.18033100664615631104 0.17624434828758239746 0.17190435528755187988 0.16754330694675445557 0.16280086338520050049 0.15773588418960571289 0.15166941285133361816 0.14462295174598693848 0.13579086959362030029 0.12537804245948791504 0.11278951168060302734 0.099248342216014862061 0.084679782390594482422 0.070597514510154724121 0.056824661791324615479 0.044496875256299972534 0.032962016761302947998 0.022444367408752441406 0.012103871442377567291 0.019097194075584411621 0.0057086930610239505768 0 0 0 0 0 0 0 0 0 0 0 0 0 0 0 0 0 0 0 0 0 0 0 0 0 0 0 
0 0 0 0 0 0 0 0 0 0 0 0 0 0 0 0 0 0 0 0 0 0 0 0 0 0 0 0 0 0 0 0 0 0 0 0 0 0 0 0 0 0 0 0 0 0 0 0 0 0 0 0 0 0 0 0 0 0.00105628184974193573 0.014827800914645195007 0.0051278714090585708618 0.0066598467528820037842 0 0 0.028030548244714736938 0.22179149091243743896 0.2155923992395401001 0.340190887451171875 0.22457167506217956543 0 0 0 0 0 0.0015673675807192921638 0.028017345815896987915 0.035094462335109710693 0.035117745399475097656 0.026312790811061859131 0.0081844441592693328857 0.013151081278920173645 0.018522452563047409058 0.024450350552797317505 0.031281560659408569336 0.041152540594339370728 0.056131020188331604004 0.074036270380020141602 0.092092938721179962158 0.10260848701000213623 0.10904783010482788086 0.1175775378942489624 0.13078089058399200439 0.14987431466579437256 0.16289217770099639893 0.16581670939922332764 0.17226806282997131348 0.176509857177734375 0.17723035812377929688 0.17607469856739044189 0.16454784572124481201 0.089933581650257110596 0.088123008608818054199 0.10373571515083312988 0.11947000026702880859 0.1338818669319152832 0.14831723272800445557 0.16141211986541748047 0.17445562779903411865 0.18621832132339477539 0.19787360727787017822 0.26752552390098571777 0.30107405781745910645 0.30920442938804626465 0.30340796709060668945 0.25119477510452270508 0.2492084801197052002 0.25418987870216369629 0.25816065073013305664 0.26118829846382141113 0.2639496922492980957 0.26626786589622497559 0.26841965317726135254 0.27016630768775939941 0.27170291543006896973 0.27290672063827514648 0.27374029159545898438 0.27483782172203063965 0.27588602900505065918 0.27674791216850280762 0.27754521369934082031 0.27265149354934692383 0.26964387297630310059 0.26864230632781982422 0.26761999726295471191 0.26671075820922851562 0.26563683152198791504 0.26439270377159118652 0.26274928450584411621 0.2608400881290435791 0.25817286968231201172 0.25518172979354858398 0.2519677579402923584 0.24931995570659637451 0.2471682131290435791 0.24602225422859191895 0.24582074582576751709 0.2465619891881942749 0.24829339981079101562 0.25073266029357910156 0.25416368246078491211 0.25794592499732971191 0.26239034533500671387 0.26668226718902587891 0.27123349905014038086 0.27519065141677856445 0.27894756197929382324 0.2819455265998840332 0.28478223085403442383 0.28718098998069763184 0.28966948390007019043 0.29201135039329528809 0.29465135931968688965 0.29713156819343566895 0.29974320530891418457 0.30198913812637329102 0.30411446094512939453 0.30569908022880554199 0.30697447061538696289 0.30777156352996826172 0.30825537443161010742 0.30837792158126831055 0.30818548798561096191 0.30771759152412414551 0.30689701437950134277 0.30583995580673217773 0.30437326431274414062 0.3027063906192779541 0.30059480667114257812 0.29841470718383789062 0.29595154523849487305 0.29366526007652282715 0.29133492708206176758 0.28939187526702880859 0.28758630156517028809 0.28609099984169006348 0.28457233309745788574 0.28313735127449035645 0.28147041797637939453 0.27973243594169616699 0.27773275971412658691 0.27584424614906311035 0.27392280101776123047 0.27241992950439453125 0.27152624726295471191 0.27139720320701599121 0.27160593867301940918 0.27186557650566101074 0.2720330357551574707 0.27189758419990539551 0.2712268829345703125 0.27021545171737670898 0.26893344521522521973 0.26767900586128234863 0.26644363999366760254 0.26546737551689147949 0.26466983556747436523 0.26410588622093200684 0.26364859938621520996 0.26329502463340759277 0.26294258236885070801 0.26257741451263427734 0.26210567355155944824 0.2615375816822052002 0.26076295971870422363 0.25982469320297241211 0.25857779383659362793 0.25718969106674194336 0.25562041997909545898 0.25415012240409851074 0.25274726748466491699 0.25166791677474975586 0.2508704066276550293 0.25036859512329101562 0.24998338520526885986 0.24963030219078063965 0.24914129078388214111 0.24845682084560394287 0.24748593568801879883 0.24638535082340240479 0.24512758851051330566 0.24390269815921783447 0.2426713407039642334 0.24156956374645233154 0.24041688442230224609 0.23920708894729614258 0.23771163821220397949 0.2359524071216583252 0.23367692530155181885 0.23111465573310852051 0.22819477319717407227 0.22531452775001525879 0.22240041196346282959 0.21983507275581359863 0.21748647093772888184 0.21544891595840454102 0.2134208381175994873 0.21142067015171051025 0.20914961397647857666 0.20666065812110900879 0.20373259484767913818 0.2006133347749710083 0.19711323082447052002 0.19352221488952636719 0.18962773680686950684 0.18571971356868743896 0.18153387308120727539 0.17734441161155700684 0.1728655695915222168 0.16836734116077423096 0.16350474953651428223 0.15834644436836242676 0.15219655632972717285 0.14506956934928894043 0.13614247739315032959 0.12561461329460144043 0.11288347095251083374 0.099213682115077972412 0.084497869014739990234 0.070254825055599212646 0.056425977498292922974 0.044105008244514465332 0.032619744539260864258 0.022168928757309913635 0.011883479543030261993 0.018964976072311401367 0.0035952287726104259491 0 0 0 0 0 0 0 0 0 0 0 0 0 0 0 0 0 0 0 0 0 0 0 0 0 0 0 
0 0 0 0 0 0 0 0 0 0 0 0 0 0 0 0 0 0 0 0 0 0 0 0 0 0 0 0 0 0 0 0 0 0 0 0 0 0 0 0 0 0 0 0 0 0 0 0 0 0 0 0 0 0 0 0 0 0.00064774981001392006874 0.01368263736367225647 0.012858417816460132599 0.026137541979551315308 0.017881285399198532104 0.044854789972305297852 0.035516899079084396362 0.019554374739527702332 0.0045851119793951511383 0 0 0 0 0 0.0043238978832960128784 0.032133419066667556763 0.040531128644943237305 0.022848222404718399048 0.035694003105163574219 0.042028013616800308228 0.0085082687437534332275 0.012423586100339889526 0.016875172033905982971 0.02247681841254234314 0.028126440942287445068 0.035247031599283218384 0.04626976698637008667 0.061674844473600387573 0.078684180974960327148 0.094404749572277069092 0.10255328565835952759 0.10898692160844802856 0.11769875138998031616 0.13210600614547729492 0.15099197626113891602 0.16091012954711914062 0.16388310492038726807 0.17125026881694793701 0.1733945310115814209 0.17558218538761138916 0.17178064584732055664 0.15465980768203735352 0.087099887430667877197 0.088459670543670654297 0.10407271236181259155 0.11979082971811294556 0.13418608903884887695 0.14861340820789337158 0.16170080006122589111 0.17472557723522186279 0.18646170198917388916 0.19808998703956604004 0.26789596676826477051 0.3016452789306640625 0.3084271550178527832 0.27066522836685180664 0.24323996901512145996 0.2492443770170211792 0.25415503978729248047 0.2580572664737701416 0.26103383302688598633 0.26375415921211242676 0.26602643728256225586 0.26811692118644714355 0.26978847384452819824 0.27122822403907775879 0.27230611443519592285 0.27053636312484741211 0.27184030413627624512 0.2729040682315826416 0.27306336164474487305 0.2724927365779876709 0.27108135819435119629 0.26943346858024597168 0.26794892549514770508 0.26638761162757873535 0.26495698094367980957 0.26342147588729858398 0.26191273331642150879 0.26014131307601928711 0.25810667872428894043 0.25541701912879943848 0.25268208980560302734 0.24988454580307006836 0.24764202535152435303 0.24589106440544128418 0.24506129324436187744 0.24512366950511932373 0.24604310095310211182 0.24789743125438690186 0.25039204955101013184 0.25381246209144592285 0.25753107666969299316 0.26189720630645751953 0.26611623167991638184 0.27060139179229736328 0.27452129125595092773 0.2782764732837677002 0.28130516409873962402 0.28419217467308044434 0.28663676977157592773 0.28915494680404663086 0.29149019718170166016 0.29408085346221923828 0.29649293422698974609 0.299030303955078125 0.30123195052146911621 0.30336269736289978027 0.30502134561538696289 0.30644091963768005371 0.30739948153495788574 0.30805999040603637695 0.30833545327186584473 0.30828699469566345215 0.30792480707168579102 0.30718785524368286133 0.30618262290954589844 0.30475032329559326172 0.30310127139091491699 0.30099689960479736328 0.29881760478019714355 0.29635441303253173828 0.2940705716609954834 0.2917493283748626709 0.28982377052307128906 0.28804594278335571289 0.28658065199851989746 0.28509259223937988281 0.28367581963539123535 0.28200879693031311035 0.28024712204933166504 0.27820390462875366211 0.27626839280128479004 0.27430072426795959473 0.27267310023307800293 0.27150616049766540527 0.27120137214660644531 0.27136090397834777832 0.27159291505813598633 0.27172639966011047363 0.27149626612663269043 0.27073210477828979492 0.2696762382984161377 0.26835453510284423828 0.26706141233444213867 0.26576173305511474609 0.26469814777374267578 0.26379221677780151367 0.26311758160591125488 0.26254308223724365234 0.26208713650703430176 0.26164364814758300781 0.2612152099609375 0.26070249080657958984 0.26012086868286132812 0.25935712456703186035 0.25845092535018920898 0.25726008415222167969 0.25594231486320495605 0.25445869565010070801 0.25307354331016540527 0.25175735354423522949 0.25075089931488037109 0.25001564621925354004 0.24955761432647705078 0.2492033541202545166 0.24886690080165863037 0.24838335812091827393 0.24769411981105804443 0.24670864641666412354 0.2455854266881942749 0.2442944645881652832 0.24302893877029418945 0.24174585938453674316 0.24058768153190612793 0.23937368392944335938 0.23810906708240509033 0.23656667768955230713 0.23477822542190551758 0.23249441385269165039 0.22994530200958251953 0.22705662250518798828 0.22421786189079284668 0.22135366499423980713 0.21883802115917205811 0.21654394268989562988 0.21457278728485107422 0.21264418959617614746 0.21078340709209442139 0.20871868729591369629 0.20649640262126922607 0.20389765501022338867 0.20111116766929626465 0.19793188571929931641 0.1945886462926864624 0.19084879755973815918 0.1869767606258392334 0.1827259361743927002 0.1784000694751739502 0.17373171448707580566 0.16902847588062286377 0.16395387053489685059 0.15860018134117126465 0.15226344764232635498 0.14497198164463043213 0.13589631021022796631 0.12524691224098205566 0.11241716146469116211 0.098681420087814331055 0.083953380584716796875 0.069668561220169067383 0.055856883525848388672 0.043615758419036865234 0.032229464501142501831 0.02187343500554561615 0.011660885997116565704 0.010665201582014560699 0.0018061148002743721008 0 0 0 0 0 0 0 0 0 0 0 0 0 0 0 0 0 0 0 0 0 0 0 0 0 0 0 
0 0 0 0 0 0 0 0 0 0 0 0 0 0 0 0 0 0 0 0 0 0 0 0 0 0 0 0 0 0 0 0 0 0 0 0 0 0 0 0 0 0 0 0 0 0 0 0 0.040554951876401901245 0.059851013123989105225 0.036003973335027694702 0.059851013123989105225 0.059851013123989105225 0.055428780615329742432 0 0 0 0 0.010215035639703273773 0.015242619439959526062 0.027895279228687286377 0.017063163220882415771 0.050000000745058059692 0.050000000745058059692 0.050000000745058059692 0.049006737768650054932 0.029634827747941017151 0.014962753280997276306 0.014962753280997276306 0.014301337301731109619 0.011161381378769874573 0.037457678467035293579 0.060142237693071365356 0.059053480625152587891 0.037771034985780715942 0.016872767359018325806 0.010335206054151058197 0.0081152664497494697571 0.015698889270424842834 0.02073321118950843811 0.025819538161158561707 0.030567755922675132751 0.036885809153318405151 0.049388032406568527222 0.065851062536239624023 0.082694232463836669922 0.097014866769313812256 0.10321414470672607422 0.10898770391941070557 0.11785825341939926147 0.13425368070602416992 0.15178591012954711914 0.15915784239768981934 0.16302727162837982178 0.16974966228008270264 0.17116980254650115967 0.17287798225879669189 0.1678123176097869873 0.14560677111148834229 0.084433443844318389893 0.08897450566291809082 0.10459091514348983765 0.12031371146440505981 0.13469298183917999268 0.14911597967147827148 0.1621999591588973999 0.1752115786075592041 0.18692094087600708008 0.19851961731910705566 0.25211507081985473633 0.2977294921875 0.27389305830001831055 0.23864224553108215332 0.24308632314205169678 0.24939177930355072021 0.25416007637977600098 0.25795274972915649414 0.26088112592697143555 0.2635682225227355957 0.26579645276069641113 0.26781928539276123047 0.26939821243286132812 0.2707271277904510498 0.27177023887634277344 0.27121484279632568359 0.27272275090217590332 0.27368426322937011719 0.27354791760444641113 0.27250939607620239258 0.2709407806396484375 0.26886382699012756348 0.26672846078872680664 0.26454931497573852539 0.26270970702171325684 0.26091280579566955566 0.25929269194602966309 0.25744417309761047363 0.25539475679397583008 0.25291958451271057129 0.2505321204662322998 0.24816307425498962402 0.24631907045841217041 0.24495494365692138672 0.24442261457443237305 0.24472226202487945557 0.24578887224197387695 0.24772602319717407227 0.25023165345191955566 0.25358524918556213379 0.2571944892406463623 0.26142454147338867188 0.26551571488380432129 0.26988187432289123535 0.27372729778289794922 0.27745908498764038086 0.28051576018333435059 0.28346467018127441406 0.28597497940063476562 0.28854936361312866211 0.29090279340744018555 0.29346731305122375488 0.29582822322845458984 0.29830399155616760254 0.3004665672779083252 0.3026008903980255127 0.30432456731796264648 0.30587974190711975098 0.30700534582138061523 0.30786341428756713867 0.30830335617065429688 0.30838525295257568359 0.3081029057502746582 0.3074264824390411377 0.30646380782127380371 0.30506542325019836426 0.30343967676162719727 0.30135640501976013184 0.2991936802864074707 0.29674887657165527344 0.29448413848876953125 0.2921867072582244873 0.29028713703155517578 0.28853973746299743652 0.28710073232650756836 0.2856343388557434082 0.28422710299491882324 0.28255096077919006348 0.28075656294822692871 0.27865317463874816895 0.27665093541145324707 0.27461287379264831543 0.27292302250862121582 0.2715294957160949707 0.27098816633224487305 0.27107200026512145996 0.27127379179000854492 0.2713470458984375 0.27100452780723571777 0.27018818259239196777 0.26911106705665588379 0.26777243614196777344 0.2664546966552734375 0.26509273052215576172 0.26393985748291015625 0.26290947198867797852 0.2621002197265625 0.2613779604434967041 0.26079005002975463867 0.26022812724113464355 0.25971746444702148438 0.25915288925170898438 0.25855487585067749023 0.25780537724494934082 0.25694108009338378906 0.2558231651782989502 0.25459653139114379883 0.253223419189453125 0.25194761157035827637 0.25074163079261779785 0.24982661008834838867 0.24916687607765197754 0.24875986576080322266 0.24843965470790863037 0.24811941385269165039 0.2476383894681930542 0.24694013595581054688 0.2459351271390914917 0.24478481709957122803 0.24345703423023223877 0.24214941263198852539 0.24081599712371826172 0.23960576951503753662 0.23833772540092468262 0.23702678084373474121 0.23544707894325256348 0.2336384207010269165 0.23135466873645782471 0.22882550954818725586 0.22597338259220123291 0.22317971289157867432 0.22036759555339813232 0.21790209412574768066 0.21566101908683776855 0.21375229954719543457 0.21191540360450744629 0.21018232405185699463 0.20830646157264709473 0.20632843673229217529 0.20403115451335906982 0.20154818892478942871 0.1986598968505859375 0.19553880393505096436 0.19193206727504730225 0.18808034062385559082 0.18375107645988464355 0.17927502095699310303 0.17439797520637512207 0.16946437954902648926 0.16414140164852142334 0.15855121612548828125 0.15198713541030883789 0.14450161159038543701 0.13526551425457000732 0.12450838088989257812 0.11162221431732177734 0.097878232598304748535 0.083195559680461883545 0.068984672427177429199 0.055228997021913528442 0.043107826262712478638 0.031847093254327774048 0.021595308557152748108 0.011452737264335155487 0.0022984726820141077042 0 0 0 0 0 0 0 0 0 0 0 0 0 0 0 0 0 0 0 0 0 0 0 0 0 0 0 0 
0 0 0 0 0 0 0 0 0 0 0 0 0 0 0 0 0 0 0 0 0 0 0 0 0 0 0 0 0 0 0 0 0 0 0 0 0 0 0 0 0 0.017801720649003982544 0.020174898207187652588 0.058585338294506072998 0.10006693750619888306 0.1063935011625289917 0.17995898425579071045 0.17995898425579071045 0.19353874027729034424 0.20000000298023223877 0.19201485812664031982 0.20000000298023223877 0.20000000298023223877 0.19851922988891601562 0.17995898425579071045 0.17995898425579071045 0.17995898425579071045 0.17995898425579071045 0.18465572595596313477 0.13432888686656951904 0.13658584654331207275 0.13214974105358123779 0.1435353010892868042 0.079380407929420471191 0.038234394043684005737 0.026872141286730766296 0.050000000745058059692 0.050000000745058059692 0.048923633992671966553 0.036364689469337463379 0.042926616966724395752 0.051484096795320510864 0.060886278748512268066 0.061374425888061523438 0.052331551909446716309 0.023365793749690055847 0.010302994400262832642 0.014308292418718338013 0.01977416500449180603 0.024882409721612930298 0.028405144810676574707 0.032163824886083602905 0.038372524082660675049 0.051675204187631607056 0.06930195540189743042 0.086476780474185943604 0.099776186048984527588 0.1042979806661605835 0.10940336436033248901 0.11864160746335983276 0.13686016201972961426 0.15196333825588226318 0.15805965662002563477 0.1627559661865234375 0.16796614229679107666 0.16997319459915161133 0.16945546865463256836 0.16448697447776794434 0.13639710843563079834 0.083540327847003936768 0.089643552899360656738 0.10526389628648757935 0.12101260572671890259 0.13539527356624603271 0.14981850981712341309 0.16290713846683502197 0.17591311037540435791 0.18759931623935699463 0.19916890561580657959 0.21176411211490631104 0.2354478985071182251 0.23019933700561523438 0.23656231164932250977 0.24349112808704376221 0.24966062605381011963 0.25421372056007385254 0.25784143805503845215 0.26072639226913452148 0.26339262723922729492 0.26557841897010803223 0.26752066612243652344 0.26897543668746948242 0.27019077539443969727 0.27119854092597961426 0.27181565761566162109 0.27340224385261535645 0.27417492866516113281 0.27377727627754211426 0.27232304215431213379 0.27020749449729919434 0.2675069272518157959 0.26487439870834350586 0.26230520009994506836 0.26023447513580322266 0.25832000374794006348 0.25665992498397827148 0.25480282306671142578 0.25291246175765991211 0.25075653195381164551 0.24875067174434661865 0.24681271612644195557 0.24535885453224182129 0.24436414241790771484 0.2441059499979019165 0.24461084604263305664 0.24578869342803955078 0.24776437878608703613 0.25023418664932250977 0.2534701228141784668 0.25692409276962280273 0.26096445322036743164 0.26487955451011657715 0.26908290386199951172 0.27282547950744628906 0.27652144432067871094 0.27961167693138122559 0.28264355659484863281 0.28524982929229736328 0.28792068362236022949 0.29033327102661132812 0.29291585087776184082 0.29526284337043762207 0.29770967364311218262 0.29985192418098449707 0.30199411511421203613 0.30376836657524108887 0.30542573332786560059 0.30667653679847717285 0.30768740177154541016 0.30826967954635620117 0.30848112702369689941 0.30827531218528747559 0.3076381683349609375 0.30669391155242919922 0.30531650781631469727 0.30371829867362976074 0.30167120695114135742 0.29954445362091064453 0.29713839292526245117 0.2949098050594329834 0.2926495671272277832 0.29078122973442077637 0.28906136751174926758 0.28763949871063232422 0.28617915511131286621 0.2847645878791809082 0.28306379914283752441 0.28122705221176147461 0.27905556559562683105 0.27697280049324035645 0.27484503388404846191 0.2730808258056640625 0.27156659960746765137 0.27075153589248657227 0.27072098851203918457 0.27088731527328491211 0.27084976434707641602 0.2704245150089263916 0.26958996057510375977 0.26851943135261535645 0.26719367504119873047 0.26586702466011047363 0.26445329189300537109 0.26320916414260864258 0.2620366215705871582 0.26106631755828857422 0.26016384363174438477 0.25941497087478637695 0.25871181488037109375 0.25810962915420532227 0.257495880126953125 0.25689077377319335938 0.2561708986759185791 0.25536575913429260254 0.25433886051177978516 0.25321906805038452148 0.2519709169864654541 0.25081616640090942383 0.24973042309284210205 0.24891401827335357666 0.24833443760871887207 0.24798066914081573486 0.24769477546215057373 0.24738945066928863525 0.24690817296504974365 0.24619728326797485352 0.24516886472702026367 0.24398829042911529541 0.24262237548828125 0.24127429723739624023 0.23989644646644592285 0.23864407837390899658 0.2373355180025100708 0.23599229753017425537 0.23438923060894012451 0.23257115483283996582 0.23029442131519317627 0.22778758406639099121 0.22497072815895080566 0.22221814095973968506 0.21945205330848693848 0.21702995896339416504 0.2148339003324508667 0.21297720074653625488 0.21121603250503540039 0.2095880359411239624 0.20786751806735992432 0.20609052479267120361 0.2040411531925201416 0.20180618762969970703 0.19915360212326049805 0.19620934128761291504 0.19270192086696624756 0.18885314464569091797 0.18444120883941650391 0.17982099950313568115 0.17474800348281860352 0.16960074007511138916 0.16404812037944793701 0.15824025869369506836 0.15147037804126739502 0.1438150554895401001 0.13444851338863372803 0.12361881881952285767 0.1107181161642074585 0.097009457647800445557 0.082404442131519317627 0.068319484591484069824 0.054660491645336151123 0.042660526931285858154 0.03153004869818687439 0.021372696384787559509 0.01127714104950428009 0.0018726218258962035179 0 0 0 0 0 0 0 0 0 0 0 0 0 0 0 0 0 0 0 0 0 0 0 0 0 0 0 0 
0 0 0 0 0 0 0 0 0 0 0 0 0 0 0 0 0 0 0 0 0 0 0 0 0 0 0 0 0 0 0 0 0 0 0 0 0 0.027489978820085525513 0.031677838414907455444 0.1320254206657409668 0.14028286933898925781 0.19297546148300170898 0.20000000298023223877 0.20000000298023223877 0.20000000298023223877 0.20000000298023223877 0.20000000298023223877 0.20000000298023223877 0.20000000298023223877 0.20000000298023223877 0.20000000298023223877 0.20000000298023223877 0.20000000298023223877 0.20000000298023223877 0.20000000298023223877 0.20000000298023223877 0.20000000298023223877 0.20000000298023223877 0.21353532373905181885 0.25 0.25 0.25 0.25 0.24598339200019836426 0.18630920350551605225 0.10144681483507156372 0.050000000745058059692 0.049187187105417251587 0.028885731473565101624 0.052612416446208953857 0.066000752151012420654 0.061315167695283889771 0.057223401963710784912 0.062467120587825775146 0.057757906615734100342 0.024947648867964744568 0.018976241350173950195 0.021427670493721961975 0.025071177631616592407 0.029013922438025474548 0.031414605677127838135 0.034019611775875091553 0.040717717260122299194 0.054116982966661453247 0.072617352008819580078 0.090064972639083862305 0.10034356266260147095 0.1042092740535736084 0.10978064686059951782 0.11992067843675613403 0.13867245614528656006 0.15115889906883239746 0.1569264531135559082 0.16209378838539123535 0.16551013290882110596 0.16910560429096221924 0.16558170318603515625 0.16046880185604095459 0.12493973970413208008 0.082617416977882385254 0.090520821511745452881 0.10614052414894104004 0.12190333008766174316 0.13630418479442596436 0.15073035657405853271 0.16382375359535217285 0.17682892084121704102 0.18849650025367736816 0.20003996789455413818 0.21031039953231811523 0.22032332420349121094 0.22901943325996398926 0.23724801838397979736 0.24407263100147247314 0.25005051493644714355 0.25431925058364868164 0.25775387883186340332 0.2605711519718170166 0.26322665810585021973 0.26537075638771057129 0.26720294356346130371 0.26849275827407836914 0.26960659027099609375 0.27056574821472167969 0.27185970544815063477 0.27331867814064025879 0.27381342649459838867 0.27306088805198669434 0.27113139629364013672 0.26859363913536071777 0.26551860570907592773 0.2626101076602935791 0.25984287261962890625 0.25768262147903442383 0.25575274229049682617 0.254100799560546875 0.25237375497817993164 0.25073534250259399414 0.24894894659519195557 0.2473354637622833252 0.2458260655403137207 0.24475091695785522461 0.24410559237003326416 0.24409629404544830322 0.2447728961706161499 0.24602545797824859619 0.24799582362174987793 0.25038468837738037109 0.25345689058303833008 0.25671175122261047363 0.26051476597785949707 0.26421374082565307617 0.26822033524513244629 0.27184078097343444824 0.27549648284912109375 0.27863150835037231445 0.28177279233932495117 0.28451037406921386719 0.28732484579086303711 0.28984621167182922363 0.29250302910804748535 0.29488542675971984863 0.29734835028648376465 0.29949727654457092285 0.30165505409240722656 0.30346286296844482422 0.30517935752868652344 0.30650043487548828125 0.30759668350219726562 0.30825981497764587402 0.30855217576026916504 0.30840951204299926758 0.30782145261764526367 0.30689659714698791504 0.30552724003791809082 0.30394583940505981445 0.30194103717803955078 0.29986846446990966797 0.29752197861671447754 0.29534506797790527344 0.29313296079635620117 0.29129800200462341309 0.28959852457046508789 0.28818085789680480957 0.28670892119407653809 0.28526863455772399902 0.2835254371166229248 0.2816359400749206543 0.27939391136169433594 0.27723073959350585938 0.27500420808792114258 0.27314826846122741699 0.27154842019081115723 0.27050724625587463379 0.27030387520790100098 0.27040332555770874023 0.27022629976272583008 0.26975396275520324707 0.26892793178558349609 0.267894744873046875 0.26660996675491333008 0.26529204845428466797 0.26384091377258300781 0.26250535249710083008 0.26117524504661560059 0.2600199282169342041 0.25890854001045227051 0.2579746246337890625 0.25711539387702941895 0.25642213225364685059 0.25577068328857421875 0.25517660379409790039 0.25450932979583740234 0.25378435850143432617 0.25286573171615600586 0.2518628537654876709 0.25074487924575805664 0.24971228837966918945 0.24874556064605712891 0.24802550673484802246 0.24752365052700042725 0.24722100794315338135 0.24696737527847290039 0.24667488038539886475 0.24619083106517791748 0.2454646378755569458 0.24440999329090118408 0.24319748580455780029 0.24179407954216003418 0.24040956795215606689 0.23899622261524200439 0.23771500587463378906 0.23638308048248291016 0.23502495884895324707 0.23341515660285949707 0.23159997165203094482 0.22933711111545562744 0.22685346007347106934 0.22406773269176483154 0.22134862840175628662 0.21861818432807922363 0.21622835099697113037 0.21406447887420654297 0.21224424242973327637 0.21053613722324371338 0.20898245275020599365 0.20737287402153015137 0.20574052631855010986 0.20386974513530731201 0.20181190967559814453 0.1993246227502822876 0.19649970531463623047 0.19304995238780975342 0.18918456137180328369 0.18469038605690002441 0.17994369566440582275 0.17470780014991760254 0.16939115524291992188 0.163665771484375 0.1577018052339553833 0.15079212188720703125 0.14302986860275268555 0.13359235227108001709 0.12273909151554107666 0.10986319184303283691 0.09621750563383102417 0.081707082688808441162 0.067743346095085144043 0.054215852171182632446 0.042313139885663986206 0.031297646462917327881 0.021210491657257080078 0.01112622581422328949 0.0014852694002911448479 0 0 0 0 0 0 0 0 0 0 0 0 0 0 0 0 0 0 0 0 0 0 0 0 0 0 0 0 
0 0 0 0 0 0 0 0 0 0 0 0 0 0 0 0 0 0 0 0 0 0 0 0 0 0 0 0 0 0 0 0 0 0 0 0 0.091763079166412353516 0.18276844918727874756 0.1652183830738067627 0.20000000298023223877 0.20000000298023223877 0.20000000298023223877 0.20000000298023223877 0.20000000298023223877 0.20000000298023223877 0.20000000298023223877 0.20000000298023223877 0.20000000298023223877 0.20000000298023223877 0.20000000298023223877 0.20000000298023223877 0.20000000298023223877 0.20000000298023223877 0.20000000298023223877 0.20000000298023223877 0.20000000298023223877 0.20000000298023223877 0.20000000298023223877 0.21213342249393463135 0.24932906031608581543 0.25 0.25 0.25 0.25 0.25 0.24871419370174407959 0.20409514009952545166 0.12798848748207092285 0.050504475831985473633 0.075931087136268615723 0.084683075547218322754 0.074114754796028137207 0.06697384268045425415 0.075506933033466339111 0.055842660367488861084 0.02705727703869342804 0.028563978150486946106 0.028706790879368782043 0.031375505030155181885 0.03316386789083480835 0.034596558660268783569 0.036778301000595092773 0.043333347886800765991 0.057049490511417388916 0.076395153999328613281 0.092503115534782409668 0.10030514746904373169 0.10435654968023300171 0.11019859462976455688 0.12199979275465011597 0.14011488854885101318 0.15087935328483581543 0.15584273636341094971 0.16061522066593170166 0.16361272335052490234 0.16708615422248840332 0.16257585585117340088 0.15457607805728912354 0.11656561493873596191 0.082407973706722259521 0.091588594019412994385 0.10722263157367706299 0.12299215048551559448 0.13740970194339752197 0.15185384452342987061 0.1649567335844039917 0.17796432971954345703 0.1896206289529800415 0.20114523172378540039 0.21139164268970489502 0.22136799991130828857 0.23001274466514587402 0.23815697431564331055 0.2448424994945526123 0.25054368376731872559 0.25447517633438110352 0.25774499773979187012 0.26048338413238525391 0.26308321952819824219 0.26516953110694885254 0.26681745052337646484 0.26792684197425842285 0.26894780993461608887 0.2698427736759185791 0.27128973603248596191 0.27244639396667480469 0.27255800366401672363 0.27145904302597045898 0.26922613382339477539 0.26645430922508239746 0.26318228244781494141 0.26014664769172668457 0.25731441378593444824 0.25515902042388916016 0.25326532125473022461 0.25170978903770446777 0.25020524859428405762 0.24886690080165863037 0.24746650457382202148 0.24624621868133544922 0.24515746533870697021 0.24444735050201416016 0.24413190782070159912 0.24434919655323028564 0.24516986310482025146 0.24646832048892974854 0.24839965999126434326 0.25067448616027832031 0.25355014204978942871 0.25657406449317932129 0.26010531187057495117 0.26355895400047302246 0.26734375953674316406 0.27082803845405578613 0.27444151043891906738 0.27763244509696960449 0.28090697526931762695 0.28380733728408813477 0.28680759668350219727 0.28948292136192321777 0.29226630926132202148 0.29473066329956054688 0.29725241661071777344 0.29943385720252990723 0.30161339044570922852 0.30343642830848693848 0.30516809225082397461 0.30650362372398376465 0.30761733651161193848 0.30829924345016479492 0.30861571431159973145 0.30849847197532653809 0.30794358253479003906 0.30705434083938598633 0.30571448802947998047 0.30415195226669311523 0.30217891931533813477 0.30015850067138671875 0.29788485169410705566 0.2957718968391418457 0.29361465573310852051 0.29181277751922607422 0.29012602567672729492 0.28870090842247009277 0.28720352053642272949 0.28572595119476318359 0.28393125534057617188 0.28198605775833129883 0.27967730164527893066 0.27744492888450622559 0.27513223886489868164 0.27318030595779418945 0.27147561311721801758 0.27028661966323852539 0.26984354853630065918 0.26980349421501159668 0.2694905698299407959 0.26898631453514099121 0.26818716526031494141 0.26720958948135375977 0.26598310470581054688 0.26468944549560546875 0.26321578025817871094 0.26179364323616027832 0.26030078530311584473 0.2589492499828338623 0.25761520862579345703 0.25648683309555053711 0.25546973943710327148 0.25469180941581726074 0.25401738286018371582 0.25345310568809509277 0.25285938382148742676 0.25223201513290405273 0.25143390893936157227 0.25055280327796936035 0.24956436455249786377 0.24864964187145233154 0.24779522418975830078 0.24716490507125854492 0.24673460423946380615 0.24647858738899230957 0.24625350534915924072 0.24597111344337463379 0.24548190832138061523 0.24473862349987030029 0.24365632236003875732 0.24241177737712860107 0.24097310006618499756 0.2395572960376739502 0.23811782896518707275 0.23682075738906860352 0.23548206686973571777 0.2341260761022567749 0.23252688348293304443 0.23072907328605651855 0.22849132120609283447 0.22603748738765716553 0.2232853621244430542 0.22059798240661621094 0.217897072434425354 0.2155297398567199707 0.21338330209255218506 0.21157974004745483398 0.20989656448364257812 0.20838122069835662842 0.20683430135250091553 0.20528870820999145508 0.20352791249752044678 0.20157828927040100098 0.19918751716613769531 0.19642449915409088135 0.19298829138278961182 0.18908166885375976562 0.18449857831001281738 0.17963604629039764404 0.17426466941833496094 0.1688187718391418457 0.16297782957553863525 0.15692284703254699707 0.14994479715824127197 0.14214360713958740234 0.13269791007041931152 0.12187014520168304443 0.10905393213033676147 0.09549166262149810791 0.081083908677101135254 0.067229241132736206055 0.053835816681385040283 0.042014487087726593018 0.031084422022104263306 0.021037228405475616455 0.010861719958484172821 0.0012883155141025781631 0 0 0 0 0 0 0 0 0 0 0 0 0 0 0 0 0 0 0 0 0 0 0 0 0 0 0 0 
0 0 0 0 0 0 0 0 0 0 0 0 0 0 0 0 0 0 0 0 0 0 0 0 0 0 0 0 0 0 0 0 0 0 0 0.036473210901021957397 0.1813917309045791626 0.20000000298023223877 0.20000000298023223877 0.20000000298023223877 0.20000000298023223877 0.20000000298023223877 0.20000000298023223877 0.20000000298023223877 0.20000000298023223877 0.20000000298023223877 0.20000000298023223877 0.20000000298023223877 0.20000000298023223877 0.20000000298023223877 0.20000000298023223877 0.20000000298023223877 0.20000000298023223877 0.20000000298023223877 0.20000000298023223877 0.20000000298023223877 0.20000000298023223877 0.20000000298023223877 0.20000000298023223877 0.24352206289768218994 0.25 0.24396790564060211182 0.25 0.25 0.25 0.25 0.25 0.20776861906051635742 0.10900838673114776611 0.1020621955394744873 0.1035065576434135437 0.086966551840305328369 0.088804140686988830566 0.089926458895206451416 0.051209311932325363159 0.034998774528503417969 0.037392318248748779297 0.036226045340299606323 0.037506438791751861572 0.037667632102966308594 0.038267109543085098267 0.04082568734884262085 0.047858949750661849976 0.062308587133884429932 0.081080459058284759521 0.093974836170673370361 0.10001345723867416382 0.10451461374759674072 0.11133301258087158203 0.12429242581129074097 0.14133459329605102539 0.15067094564437866211 0.15493416786193847656 0.15867979824542999268 0.16276608407497406006 0.16444687545299530029 0.16076925396919250488 0.14652654528617858887 0.11113680899143218994 0.082710154354572296143 0.092842489480972290039 0.10851072520017623901 0.12429993599653244019 0.13871778547763824463 0.15317277610301971436 0.16629847884178161621 0.17931285500526428223 0.19096423685550689697 0.20248174667358398438 0.21271435916423797607 0.22266022861003875732 0.23125274479389190674 0.23929537832736968994 0.24578702449798583984 0.25108253955841064453 0.25468549132347106934 0.25786405801773071289 0.2605774998664855957 0.26310127973556518555 0.26499861478805541992 0.26630154252052307129 0.2672570645809173584 0.26817166805267333984 0.26896306872367858887 0.27025550603866577148 0.27105239033699035645 0.27079722285270690918 0.2694193422794342041 0.26696324348449707031 0.2640495002269744873 0.26069498062133789062 0.25763919949531555176 0.25483861565589904785 0.25274685025215148926 0.25094649195671081543 0.24956279993057250977 0.24832397699356079102 0.24729618430137634277 0.2462777942419052124 0.245439186692237854 0.24475325644016265869 0.2443882375955581665 0.24437953531742095947 0.24480108916759490967 0.24574215710163116455 0.24706532061100006104 0.24893644452095031738 0.2510795891284942627 0.25374397635459899902 0.25652298331260681152 0.25976803898811340332 0.26296481490135192871 0.26651903986930847168 0.26986321806907653809 0.2734355628490447998 0.2766888737678527832 0.28011086583137512207 0.28319433331489562988 0.2864093482494354248 0.2892710566520690918 0.29221993684768676758 0.29480156302452087402 0.29741409420967102051 0.29964733123779296875 0.30185070633888244629 0.30367055535316467285 0.30537769198417663574 0.3066781461238861084 0.30774959921836853027 0.30839622020721435547 0.30868688225746154785 0.30856207013130187988 0.30801594257354736328 0.30715134739875793457 0.30585560202598571777 0.30433893203735351562 0.30240720510482788086 0.3004265129566192627 0.29820939898490905762 0.29616108536720275879 0.29406180977821350098 0.29229083657264709473 0.29061034321784973145 0.28917038440704345703 0.28764072060585021973 0.28612318634986877441 0.28428086638450622559 0.28229042887687683105 0.27993133664131164551 0.27764660120010375977 0.27526876330375671387 0.27324002981185913086 0.27142411470413208008 0.27010878920555114746 0.26936131715774536133 0.2690970301628112793 0.26866540312767028809 0.26812955737113952637 0.26735451817512512207 0.26643297076225280762 0.26526871323585510254 0.26401016116142272949 0.2625274658203125 0.26102992892265319824 0.25938367843627929688 0.25784382224082946777 0.25629651546478271484 0.25498357415199279785 0.25381997227668762207 0.2529703974723815918 0.25228875875473022461 0.25176915526390075684 0.25126281380653381348 0.25074252486228942871 0.2500693202018737793 0.24930861592292785645 0.24844375252723693848 0.24763844907283782959 0.24688628315925598145 0.24633617699146270752 0.24596899747848510742 0.24575325846672058105 0.24555176496505737305 0.24527609348297119141 0.24477970600128173828 0.2440185546875 0.2429088205099105835 0.24163399636745452881 0.2401638031005859375 0.23872238397598266602 0.23726540803909301758 0.23596321046352386475 0.23463122546672821045 0.23329190909862518311 0.2317196577787399292 0.22995544970035552979 0.22775939106941223145 0.2253500819206237793 0.22264413535594940186 0.21999618411064147949 0.21732655167579650879 0.21497587859630584717 0.21283198893070220947 0.21102233231067657471 0.20933195948600769043 0.20781643688678741455 0.20628452301025390625 0.20477321743965148926 0.20306335389614105225 0.20116434991359710693 0.19881233572959899902 0.19606101512908935547 0.19259597361087799072 0.18861857056617736816 0.18392930924892425537 0.1789474189281463623 0.17345152795314788818 0.16789971292018890381 0.16198322176933288574 0.15588824450969696045 0.1489003598690032959 0.14111727476119995117 0.13171654939651489258 0.12095521390438079834 0.10822666436433792114 0.09476165473461151123 0.080458976328372955322 0.066704899072647094727 0.053417962044477462769 0.04167529568076133728 0.030791530385613441467 0.020751969888806343079 0.0099526159465312957764 0 0 0 0 0 0 0 0 0 0 0 0 0 0 0 0 0 0 0 0 0 0 0 0 0 0 0 0 0 
0 0 0 0 0 0 0 0 0 0 0 0 0 0 0 0 0 0 0 0 0 0 0 0 0 0 0 0 0 0 0 0 0 0 0.0060917795635759830475 0.17209526896476745605 0.20000000298023223877 0.20000000298023223877 0.20000000298023223877 0.20000000298023223877 0.20000000298023223877 0.20000000298023223877 0.18649034202098846436 0.1900777667760848999 0.20000000298023223877 0.20000000298023223877 0.20000000298023223877 0.20000000298023223877 0.20000000298023223877 0.20000000298023223877 0.20000000298023223877 0.20000000298023223877 0.20000000298023223877 0.20000000298023223877 0.20000000298023223877 0.20000000298023223877 0.20000000298023223877 0.20000000298023223877 0.20000000298023223877 0.23340070247650146484 0.25 0.22900189459323883057 0.25 0.25 0.25 0.25 0.2318871915340423584 0.17446731030941009521 0.13072271645069122314 0.12374630570411682129 0.11591934412717819214 0.096880108118057250977 0.09636125713586807251 0.089336983859539031982 0.057399105280637741089 0.050074256956577301025 0.046354170888662338257 0.043147306889295578003 0.04332014918327331543 0.042888980358839035034 0.042563747614622116089 0.045047108083963394165 0.052647043019533157349 0.068513318896293640137 0.086619764566421508789 0.095973312854766845703 0.099725447595119476318 0.10477085411548614502 0.11317255347967147827 0.12644967436790466309 0.14227542281150817871 0.14980597794055938721 0.15369153022766113281 0.15653757750988006592 0.16226097941398620605 0.16165253520011901855 0.15834993124008178711 0.13866446912288665771 0.10731646418571472168 0.08339907228946685791 0.094298146665096282959 0.11002561450004577637 0.12585556507110595703 0.14028225839138031006 0.15472191572189331055 0.16785082221031188965 0.18087755143642425537 0.19253614544868469238 0.20406255125999450684 0.21429778635501861572 0.22422543168067932129 0.23276714980602264404 0.24067802727222442627 0.24686416983604431152 0.25160706043243408203 0.25499260425567626953 0.25818657875061035156 0.26095336675643920898 0.26345235109329223633 0.2649396359920501709 0.26585906744003295898 0.26657027006149291992 0.26741579174995422363 0.2681643068790435791 0.2689889073371887207 0.26930734515190124512 0.26866164803504943848 0.26703774929046630859 0.26443824172019958496 0.26148107647895812988 0.25815474987030029297 0.25517684221267700195 0.25249236822128295898 0.25051367282867431641 0.2488771975040435791 0.24770419299602508545 0.24674105644226074219 0.24601641297340393066 0.24536283314228057861 0.24488504230976104736 0.24457694590091705322 0.24453316628932952881 0.24480649828910827637 0.24541112780570983887 0.24645276367664337158 0.24778477847576141357 0.249581947922706604 0.25158464908599853516 0.25403377413749694824 0.25656688213348388672 0.25952735543251037598 0.26247057318687438965 0.2657985985279083252 0.26900708675384521484 0.27254414558410644531 0.27586677670478820801 0.27944532036781311035 0.2827225029468536377 0.28616830706596374512 0.2892373204231262207 0.29237946867942810059 0.29510441422462463379 0.29783079028129577637 0.3001289665699005127 0.30235508084297180176 0.30415263772010803223 0.3057975471019744873 0.30701801180839538574 0.3079935908317565918 0.30855667591094970703 0.30877760052680969238 0.30861541628837585449 0.3080577552318572998 0.30720537900924682617 0.30594551563262939453 0.30448132753372192383 0.30261528491973876953 0.30068266391754150391 0.29850476980209350586 0.29649284482002258301 0.29443991184234619141 0.2926972508430480957 0.29101952910423278809 0.28956183791160583496 0.28800043463706970215 0.28644904494285583496 0.28457400202751159668 0.28256121277809143066 0.28018248081207275391 0.2778740227222442627 0.27545499801635742188 0.27336496114730834961 0.27144831418991088867 0.26999020576477050781 0.26883167028427124023 0.26831024885177612305 0.26776513457298278809 0.2671744227409362793 0.26640075445175170898 0.26552212238311767578 0.2644138336181640625 0.26319524645805358887 0.26171591877937316895 0.26016071438789367676 0.25838562846183776855 0.2566839754581451416 0.2549521327018737793 0.25348022580146789551 0.2521947324275970459 0.25129348039627075195 0.25062155723571777344 0.25015845894813537598 0.24974739551544189453 0.2493368983268737793 0.24878637492656707764 0.24813959002494812012 0.24738806486129760742 0.24668066203594207764 0.24601788818836212158 0.2455364614725112915 0.24522192776203155518 0.24503850936889648438 0.2448543161153793335 0.24458144605159759521 0.24407605826854705811 0.24329690635204315186 0.2421614527702331543 0.2408596724271774292 0.23936304450035095215 0.23790226876735687256 0.23643553256988525391 0.23513686656951904297 0.23382243514060974121 0.23251238465309143066 0.23098316788673400879 0.2292712479829788208 0.2271401137113571167 0.22479903697967529297 0.22216302156448364258 0.21957251429557800293 0.21694426238536834717 0.2146085202693939209 0.2124515920877456665 0.21060931682586669922 0.20887458324432373047 0.20731656253337860107 0.2057514190673828125 0.20422613620758056641 0.20251677930355072021 0.20062084496021270752 0.19825987517833709717 0.19547607004642486572 0.19194002449512481689 0.18785583972930908203 0.1830304563045501709 0.17790986597537994385 0.1722822338342666626 0.16663146018981933594 0.16066123545169830322 0.15456344187259674072 0.14761242270469665527 0.13989493250846862793 0.13058421015739440918 0.11992385238409042358 0.10730557143688201904 0.093947425484657287598 0.079748101532459259033 0.066082201898097991943 0.052869696170091629028 0.041190162301063537598 0.030312914401292800903 0.020245753228664398193 0.0091141955927014350891 0 0 0 0 0 0 0 0 0 0 0 0 0 0 0 0 0 0 0 0 0 0 0 0 0 0 0 0 0 
0 0 0 0 0 0 0 0 0 0 0 0 0 0 0 0 0 0 0 0 0 0 0 0 0 0 0 0 0 0 0 0 0 0.0053566056303679943085 0.13315252959728240967 0.20000000298023223877 0.20000000298023223877 0.20000000298023223877 0.20000000298023223877 0.20000000298023223877 0.20000000298023223877 0.1934645920991897583 0.04706026613712310791 0.055405717343091964722 0.15876097977161407471 0.20000000298023223877 0.20000000298023223877 0.20000000298023223877 0.20000000298023223877 0.20000000298023223877 0.20000000298023223877 0.20000000298023223877 0.20000000298023223877 0.20000000298023223877 0.20000000298023223877 0.20000000298023223877 0.20000000298023223877 0.20000000298023223877 0.20000000298023223877 0.20864446461200714111 0.23591051995754241943 0.21044780313968658447 0.25 0.25 0.25 0.2426948249340057373 0.17494849860668182373 0.17619119584560394287 0.16512410342693328857 0.13416001200675964355 0.12707504630088806152 0.11188503354787826538 0.097255758941173553467 0.086712196469306945801 0.074189782142639160156 0.070368804037570953369 0.056606128811836242676 0.050186306238174438477 0.048816360533237457275 0.047752220183610916138 0.046922426670789718628 0.049389608204364776611 0.058580040931701660156 0.074758209288120269775 0.0907858237624168396 0.098409682512283325195 0.10023265331983566284 0.10546875 0.11526142805814743042 0.12904842197895050049 0.14277575910091400146 0.14839513599872589111 0.15201798081398010254 0.15505324304103851318 0.15989817678928375244 0.15827839076519012451 0.15402872860431671143 0.13195237517356872559 0.10458744317293167114 0.08437798917293548584 0.095941379666328430176 0.11175791174173355103 0.12765325605869293213 0.14210489392280578613 0.15654039382934570312 0.16964310407638549805 0.18263368308544158936 0.19429811835289001465 0.2058553844690322876 0.21611680090427398682 0.22604727745056152344 0.23454141616821289062 0.24225437641143798828 0.24790991842746734619 0.25210833549499511719 0.25548118352890014648 0.25883454084396362305 0.26180446147918701172 0.26395240426063537598 0.26470518112182617188 0.26518815755844116211 0.26577231287956237793 0.26645353436470031738 0.26701581478118896484 0.26719385385513305664 0.26706767082214355469 0.26611694693565368652 0.26434573531150817871 0.26171690225601196289 0.25882431864738464355 0.25563445687294006348 0.25282329320907592773 0.25032159686088562012 0.24850825965404510498 0.2470785975456237793 0.24612982571125030518 0.2454388737678527832 0.24500392377376556396 0.24469365179538726807 0.24455100297927856445 0.24458974599838256836 0.24483734369277954102 0.24536328017711639404 0.24612885713577270508 0.24725426733493804932 0.24858598411083221436 0.25030589103698730469 0.25217148661613464355 0.25441515445709228516 0.25671499967575073242 0.25940692424774169922 0.26211270689964294434 0.26523178815841674805 0.26831871271133422852 0.2718302607536315918 0.27522623538970947266 0.27896314859390258789 0.28243559598922729492 0.28611510992050170898 0.28939688205718994141 0.2927430272102355957 0.29562422633171081543 0.29847681522369384766 0.30084571242332458496 0.30309092998504638672 0.30484905838966369629 0.30639991164207458496 0.30750316381454467773 0.30833914875984191895 0.3087793886661529541 0.30889463424682617188 0.30867072939872741699 0.30808377265930175781 0.30723345279693603516 0.30600047111511230469 0.3045794367790222168 0.30277431011199951172 0.30090114474296569824 0.29876464605331420898 0.29676857590675354004 0.29472279548645019531 0.29299080371856689453 0.29131272435188293457 0.28984063863754272461 0.28825742006301879883 0.28668859601020812988 0.28480795025825500488 0.28280740976333618164 0.28045156598091125488 0.27815791964530944824 0.27572986483573913574 0.2735901176929473877 0.27154484391212463379 0.26981818675994873047 0.26827803254127502441 0.26752412319183349609 0.26682099699974060059 0.26613143086433410645 0.26531982421875 0.26445603370666503906 0.26338618993759155273 0.26220521330833435059 0.26074069738388061523 0.25915235280990600586 0.2572867274284362793 0.25546658039093017578 0.25359874963760375977 0.25201195478439331055 0.25064414739608764648 0.24971829354763031006 0.2490736842155456543 0.24867486953735351562 0.24835935235023498535 0.24805313348770141602 0.24761486053466796875 0.24706904590129852295 0.24641524255275726318 0.24578998982906341553 0.24520026147365570068 0.24477317929267883301 0.24449840188026428223 0.24433752894401550293 0.24416312575340270996 0.24388876557350158691 0.24337260425090789795 0.24257633090019226074 0.24141870439052581787 0.24009512364864349365 0.23857870697975158691 0.23710530996322631836 0.2356357276439666748 0.23434689640998840332 0.23305763304233551025 0.23178668320178985596 0.2303152233362197876 0.22867555916309356689 0.22663736343383789062 0.22439576685428619385 0.22186265885829925537 0.21935649216175079346 0.21678721904754638672 0.21446855366230010986 0.21228301525115966797 0.21037906408309936523 0.20855961740016937256 0.20691481232643127441 0.2052694857120513916 0.20368775725364685059 0.2019385993480682373 0.20000921189785003662 0.19760315120220184326 0.19475069642066955566 0.1911039501428604126 0.18687294423580169678 0.18187186121940612793 0.17657999694347381592 0.1707973480224609375 0.16503897309303283691 0.15902101993560791016 0.15294104814529418945 0.14605994522571563721 0.1384436488151550293 0.12925732135772705078 0.11872383207082748413 0.10623096674680709839 0.092983156442642211914 0.07887935638427734375 0.06528367847204208374 0.052114691585302352905 0.040461532771587371826 0.029556252062320709229 0.019423760473728179932 0.0056913183070719242096 0 0 0 0 0 0 0 0 0 0 0 0 0 0 0 0 0 0 0 0 0 0 0 0 0 0 0 0 0 
0 0 0 0 0 0 0 0 0 0 0 0 0 0 0 0 0 0 0 0 0 0 0 0 0 0 0 0 0 0 0 0 0 0.065072402358055114746 0.14793413877487182617 0.19755721092224121094 0.20000000298023223877 0.20000000298023223877 0.20000000298023223877 0.20000000298023223877 0.20000000298023223877 0.20000000298023223877 0.16622464358806610107 0.029029780998826026917 0.044490065425634384155 0.053010385483503341675 0.076730795204639434814 0.20000000298023223877 0.11230234056711196899 0.068957954645156860352 0.18449677526950836182 0.20000000298023223877 0.20000000298023223877 0.20000000298023223877 0.20000000298023223877 0.20000000298023223877 0.20000000298023223877 0.20000000298023223877 0.20000000298023223877 0.20046870410442352295 0.20661064982414245605 0.21382801234722137451 0.24217557907104492188 0.25 0.24248610436916351318 0.21985313296318054199 0.20630322396755218506 0.25847581028938293457 0.18573898077011108398 0.14472663402557373047 0.13153876364231109619 0.11416139453649520874 0.095385611057281494141 0.10119449347257614136 0.11792089790105819702 0.10299376398324966431 0.069238997995853424072 0.057734362781047821045 0.054600123316049575806 0.051854617893695831299 0.050551429390907287598 0.054347317665815353394 0.065210543572902679443 0.081123709678649902344 0.09466196596622467041 0.099233776330947875977 0.10168423503637313843 0.10719747841358184814 0.11839324235916137695 0.13357208669185638428 0.14273683726787567139 0.14700408279895782471 0.1503353118896484375 0.15399828553199768066 0.15652328729629516602 0.15496502816677093506 0.14741614460945129395 0.126177176833152771 0.10264135152101516724 0.085604041814804077148 0.097784906625747680664 0.11372920870780944824 0.12972049415111541748 0.14421577751636505127 0.15867021679878234863 0.17175512015819549561 0.18468596041202545166 0.19632022082805633545 0.20787794888019561768 0.2181625068187713623 0.22810615599155426025 0.23652684688568115234 0.24380820989608764648 0.24862210452556610107 0.25256469845771789551 0.25607410073280334473 0.25953197479248046875 0.26168352365493774414 0.26227858662605285645 0.26277896761894226074 0.26348444819450378418 0.26419457793235778809 0.26487559080123901367 0.26543253660202026367 0.26502725481986999512 0.26456591486930847168 0.26342442631721496582 0.26160529255867004395 0.25904610753059387207 0.25630322098731994629 0.25332778692245483398 0.25073873996734619141 0.24845016002655029297 0.24682509899139404297 0.24560067057609558105 0.24485529959201812744 0.24440217018127441406 0.24421942234039306641 0.244213104248046875 0.244373321533203125 0.24473050236701965332 0.24524854123592376709 0.24600887298583984375 0.2469212263822555542 0.24811980128288269043 0.24944756925106048584 0.25109374523162841797 0.25283259153366088867 0.25488945841789245605 0.25697839260101318359 0.25942897796630859375 0.26192313432693481445 0.26485860347747802734 0.26784265041351318359 0.27134180068969726562 0.2748164832592010498 0.27871099114418029785 0.28237414360046386719 0.28628236055374145508 0.28977480530738830566 0.29332578182220458984 0.2963644564151763916 0.29934370517730712891 0.30178049206733703613 0.30403465032577514648 0.30573412775993347168 0.30716010928153991699 0.30811294913291931152 0.30877292156219482422 0.30905956029891967773 0.30904191732406616211 0.30873760581016540527 0.30810648202896118164 0.30724796652793884277 0.30603292584419250488 0.30464470386505126953 0.30288386344909667969 0.30105474591255187988 0.29896005988121032715 0.29697668552398681641 0.29491391777992248535 0.2931531071662902832 0.29145726561546325684 0.289974212646484375 0.28838363289833068848 0.28682124614715576172 0.28497225046157836914 0.28302866220474243164 0.28074845671653747559 0.27851510047912597656 0.27611058950424194336 0.27392297983169555664 0.27169215679168701172 0.26964554190635681152 0.26783630251884460449 0.26679450273513793945 0.26586234569549560547 0.26500859856605529785 0.26409938931465148926 0.26320636272430419922 0.26214483380317687988 0.26099035143852233887 0.25954845547676086426 0.25795444846153259277 0.25604718923568725586 0.25416648387908935547 0.25222891569137573242 0.25058677792549133301 0.24918860197067260742 0.24827143549919128418 0.24767290055751800537 0.24734339118003845215 0.24711844325065612793 0.24690504372119903564 0.24656280875205993652 0.24610064923763275146 0.24552525579929351807 0.24496376514434814453 0.24442853033542633057 0.24403966963291168213 0.24379013478755950928 0.24364070594310760498 0.24346771836280822754 0.24318711459636688232 0.24265849590301513672 0.24184711277484893799 0.24067263305187225342 0.23933431506156921387 0.23780630528926849365 0.23632776737213134766 0.23486152291297912598 0.23358678817749023438 0.23232746124267578125 0.23110315203666687012 0.22970336675643920898 0.22815765440464019775 0.22624595463275909424 0.22414337098598480225 0.22175581753253936768 0.21937024593353271484 0.21688514947891235352 0.21458953619003295898 0.21235945820808410645 0.21036149561405181885 0.20841246843338012695 0.20663322508335113525 0.20486019551753997803 0.20318321883678436279 0.20136158168315887451 0.1993709951639175415 0.19689162075519561768 0.19394010305404663086 0.19014278054237365723 0.18571852147579193115 0.18049013614654541016 0.17497947812080383301 0.16900134086608886719 0.16311009228229522705 0.15703672170639038086 0.15098017454147338867 0.14418898522853851318 0.13669997453689575195 0.12766432762145996094 0.11727708578109741211 0.10491919517517089844 0.091780968010425567627 0.077760741114616394043 0.064213536679744720459 0.051054634153842926025 0.039379015564918518066 0.028412517160177230835 0.018173329532146453857 0.0050563332624733448029 0 0 0 0 0 0 0 0 0 0 0 0 0 0 0 0 0 0 0 0 0 0 0 0 0 0 0 0 0 
0 0 0 0 0 0 0 0 0 0 0 0 0 0 0 0 0 0 0 0 0 0 0 0 0 0 0 0 0 0 0 0 0.0032739676535129547119 0.066120699048042297363 0.013642192818224430084 0.17758840322494506836 0.20000000298023223877 0.20000000298023223877 0.20000000298023223877 0.20000000298023223877 0.20000000298023223877 0.20000000298023223877 0.20000000298023223877 0.084997266530990600586 0.024858538061380386353 0.035379271954298019409 0.031981024891138076782 0.12704902887344360352 0.033093523234128952026 0.018917614594101905823 0.022536454722285270691 0.1579357534646987915 0.20000000298023223877 0.20000000298023223877 0.20000000298023223877 0.20000000298023223877 0.20000000298023223877 0.20000000298023223877 0.20000000298023223877 0.20018988847732543945 0.21308842301368713379 0.2247444838285446167 0.23605485260486602783 0.24786482751369476318 0.22275999188423156738 0.23790253698825836182 0.18302196264266967773 0.24274617433547973633 0.19316968321800231934 0.16104201972484588623 0.14310735464096069336 0.11426336318254470825 0.10050228983163833618 0.1161473393440246582 0.13477560877799987793 0.11607965826988220215 0.079806670546531677246 0.064941540360450744629 0.060467224568128585815 0.05660586431622505188 0.055102143436670303345 0.060096845030784606934 0.07204195857048034668 0.087294258177280426025 0.09976688772439956665 0.10176190733909606934 0.10353082418441772461 0.10935858637094497681 0.12209807336330413818 0.13634322583675384521 0.14278881251811981201 0.14657478034496307373 0.14866173267364501953 0.15290105342864990234 0.15223921835422515869 0.15157267451286315918 0.14085274934768676758 0.12168588489294052124 0.10131686925888061523 0.086999952793121337891 0.099776409566402435303 0.11589377373456954956 0.13201417028903961182 0.14657503366470336914 0.16107565164566040039 0.17414954304695129395 0.18704062700271606445 0.19868032634258270264 0.21025109291076660156 0.22054173052310943604 0.23045115172863006592 0.23858843743801116943 0.24473135173320770264 0.24875214695930480957 0.25254660844802856445 0.25560501217842102051 0.25758823752403259277 0.2586886286735534668 0.25978225469589233398 0.26076638698577880859 0.26172545552253723145 0.26251634955406188965 0.26325020194053649902 0.26383572816848754883 0.2628612518310546875 0.26213192939758300781 0.26087734103202819824 0.25907936692237854004 0.2566559910774230957 0.25411558151245117188 0.2513974606990814209 0.24905194342136383057 0.2469876706600189209 0.24554820358753204346 0.2445052415132522583 0.24392709136009216309 0.2436637580394744873 0.24368309974670410156 0.24392536282539367676 0.24433737993240356445 0.244963034987449646 0.2457129359245300293 0.24667967855930328369 0.24772766232490539551 0.24899999797344207764 0.25033047795295715332 0.25191479921340942383 0.25354459881782531738 0.25544285774230957031 0.25735342502593994141 0.25960090756416320801 0.26191824674606323242 0.26470285654067993164 0.26760655641555786133 0.27110576629638671875 0.27466031908988952637 0.27870658040046691895 0.28255060315132141113 0.28667363524436950684 0.29036408662796020508 0.29410910606384277344 0.29729688167572021484 0.30039206147193908691 0.30288422107696533203 0.30513098835945129395 0.3067531287670135498 0.30802848935127258301 0.30880403518676757812 0.30925920605659484863 0.30936899781227111816 0.30920046567916870117 0.3088067471981048584 0.30812659859657287598 0.30725526809692382812 0.3060500025749206543 0.30468377470970153809 0.30295103788375854492 0.30114638805389404297 0.29907310009002685547 0.29710018634796142578 0.29501813650131225586 0.29321148991584777832 0.29146140813827514648 0.289958953857421875 0.28837272524833679199 0.28683635592460632324 0.28504955768585205078 0.28319987654685974121 0.28103879094123840332 0.27890229225158691406 0.27654471993446350098 0.27430623769760131836 0.27187782526016235352 0.26956254243850708008 0.26749420166015625 0.26612624526023864746 0.26490890979766845703 0.26383739709854125977 0.26277723908424377441 0.26181277632713317871 0.26072898507118225098 0.25958743691444396973 0.25817325711250305176 0.25659957528114318848 0.25469899177551269531 0.25281593203544616699 0.25087517499923706055 0.24923710525035858154 0.24785940349102020264 0.24698185920715332031 0.24644444882869720459 0.24618509411811828613 0.24604113399982452393 0.24590499699115753174 0.24563896656036376953 0.24524064362049102783 0.24472258985042572021 0.24420540034770965576 0.24370549619197845459 0.24333864450454711914 0.24309998750686645508 0.24295160174369812012 0.24277284741401672363 0.24248254299163818359 0.24194225668907165527 0.24112085998058319092 0.23993866145610809326 0.23859615623950958252 0.23706772923469543457 0.23559297621250152588 0.23413582146167755127 0.23287670314311981201 0.23164710402488708496 0.23047055304050445557 0.22914840281009674072 0.22771003842353820801 0.22594931721687316895 0.22401717305183410645 0.22180987894535064697 0.21957550942897796631 0.21719682216644287109 0.21493062376976013184 0.21264408528804779053 0.21052634716033935547 0.20841147005558013916 0.20645904541015625 0.204519614577293396 0.20271590352058410645 0.20079533755779266357 0.19872109591960906982 0.19614493846893310547 0.19306918978691101074 0.18908852338790893555 0.184431418776512146 0.17893101274967193604 0.17315906286239624023 0.16694718599319458008 0.16089601814746856689 0.15475334227085113525 0.14871720969676971436 0.14201810956001281738 0.13466587662696838379 0.125791206955909729 0.11555548757314682007 0.10333069413900375366 0.090292334556579589844 0.076338216662406921387 0.062815263867378234863 0.049634441733360290527 0.037893187254667282104 0.026838319376111030579 0.016464045271277427673 0.0019453803543001413345 0 0 0 0 0 0 0 0 0 0 0 0 0 0 0 0 0 0 0 0 0 0 0 0 0 0 0 0 0 
0 0 0 0 0 0 0 0 0 0 0 0 0 0 0 0 0 0 0 0 0 0 0 0 0 0 0 0 0 0 0 0.0013748294441029429436 0.040276572108268737793 0.05135942995548248291 0.02067682705819606781 0.065050251781940460205 0.17806473374366760254 0.17966300249099731445 0.20000000298023223877 0.20000000298023223877 0.20000000298023223877 0.19821268320083618164 0.12429851293563842773 0.023059383034706115723 0.017053825780749320984 0.027955038473010063171 0.029261933639645576477 0.038336023688316345215 0.036663856357336044312 0.023257764056324958801 0.014855043962597846985 0.025342801585793495178 0.19277401268482208252 0.20000000298023223877 0.20000000298023223877 0.20000000298023223877 0.20000000298023223877 0.20000000298023223877 0.20000000298023223877 0.20000000298023223877 0.21906910836696624756 0.23293754458427429199 0.23788726329803466797 0.23886665701866149902 0.2412980198860168457 0.20002733170986175537 0.22041453421115875244 0.23819917440414428711 0.1929486393928527832 0.16946120560169219971 0.14823478460311889648 0.12175647169351577759 0.12361736595630645752 0.14362330734729766846 0.14674627780914306641 0.11352492868900299072 0.083511270582675933838 0.072989478707313537598 0.066851720213890075684 0.061861909925937652588 0.061214551329612731934 0.067410990595817565918 0.079167142510414123535 0.092734977602958679199 0.10323538631200790405 0.10456492006778717041 0.10601945221424102783 0.11242639273405075073 0.12560130655765533447 0.13807757198810577393 0.14350780844688415527 0.14611604809761047363 0.14731083810329437256 0.15085782110691070557 0.14828853309154510498 0.1475766599178314209 0.13491229712963104248 0.11827893555164337158 0.10056710988283157349 0.088540405035018920898 0.1018830910325050354 0.11822640895843505859 0.1345116347074508667 0.14916983246803283691 0.16374416649341583252 0.17680095136165618896 0.18971197307109832764 0.20142602920532226562 0.21309542655944824219 0.22348499298095703125 0.23334188759326934814 0.24034160375595092773 0.24571372568607330322 0.25231960415840148926 0.25519457459449768066 0.25689333677291870117 0.25815245509147644043 0.25907930731773376465 0.25983679294586181641 0.26040440797805786133 0.26088306307792663574 0.26128163933753967285 0.26168543100357055664 0.26200658082962036133 0.26076611876487731934 0.25982624292373657227 0.2585214078426361084 0.25679761171340942383 0.25455820560455322266 0.25225710868835449219 0.24982497096061706543 0.24773676693439483643 0.24590894579887390137 0.24465271830558776855 0.24377432465553283691 0.24333609640598297119 0.24322329461574554443 0.24340070784091949463 0.24384000897407531738 0.24445508420467376709 0.24530027806758880615 0.24624079465866088867 0.24737678468227386475 0.24853616952896118164 0.24987262487411499023 0.25121408700942993164 0.25276023149490356445 0.25430923700332641602 0.25608024001121520996 0.25784385204315185547 0.25992399454116821289 0.26209729909896850586 0.26476204395294189453 0.26760712265968322754 0.27111920714378356934 0.27475556731224060059 0.27894711494445800781 0.28296121954917907715 0.28728541731834411621 0.2911599278450012207 0.29508277773857116699 0.29840439558029174805 0.30159857869148254395 0.3041286766529083252 0.30634611845016479492 0.3078696131706237793 0.3089720606803894043 0.3095493018627166748 0.30977764725685119629 0.30969253182411193848 0.30935758352279663086 0.3088646233081817627 0.30812966823577880859 0.30724444985389709473 0.30604922771453857422 0.30470129847526550293 0.30298477411270141602 0.30118909478187561035 0.29911890625953674316 0.29714182019233703613 0.29504317045211791992 0.29319325089454650879 0.29137477278709411621 0.28981930017471313477 0.28823146224021911621 0.28673154115676879883 0.28502383828163146973 0.28328803181648254395 0.28126806020736694336 0.27924504876136779785 0.27694532275199890137 0.27466621994972229004 0.27206239104270935059 0.26952263712882995605 0.26718801259994506836 0.26548042893409729004 0.26394301652908325195 0.26262262463569641113 0.26137784123420715332 0.26031324267387390137 0.25918555259704589844 0.25804692506790161133 0.256664276123046875 0.25513088703155517578 0.25327473878860473633 0.25143483281135559082 0.24954275786876678467 0.2479549795389175415 0.24663674831390380859 0.24582184851169586182 0.24535562098026275635 0.24516516923904418945 0.24509237706661224365 0.2450189441442489624 0.2448110431432723999 0.24445857107639312744 0.24397887289524078369 0.2434886544942855835 0.24300718307495117188 0.24264831840991973877 0.24240870773792266846 0.24225321412086486816 0.24206370115280151367 0.24176335334777832031 0.24121613800525665283 0.24039436876773834229 0.23921895027160644531 0.23788791894912719727 0.23637469112873077393 0.23491537570953369141 0.23347339034080505371 0.23222893476486206055 0.23102328181266784668 0.22988770902156829834 0.22863845527172088623 0.22730837762355804443 0.22570838034152984619 0.22396335005760192871 0.22195672988891601562 0.21989223361015319824 0.21763464808464050293 0.21540273725986480713 0.21305280923843383789 0.2107988893985748291 0.20849373936653137207 0.20634049177169799805 0.20420469343662261963 0.20224654674530029297 0.2002000957727432251 0.19801688194274902344 0.19531714916229248047 0.19208997488021850586 0.18789625167846679688 0.18297445774078369141 0.17716735601425170898 0.17110180854797363281 0.16462647914886474609 0.15839231014251708984 0.15216417610645294189 0.14613939821720123291 0.13952431082725524902 0.13229982554912567139 0.12357985228300094604 0.11348737031221389771 0.10138197988271713257 0.088425755500793457031 0.074515864253044128418 0.060992959886789321899 0.047763578593730926514 0.035929635167121887207 0.02476293221116065979 0.014248389750719070435 0.00072229967918246984482 0 0 0 0 0 0 0 0 0 0 0 0 0 0 0 0 0 0 0 0 0 0 0 0 0 0 0 0 0 
0 0 0 0 0 0 0 0 0 0 0 0 0 0 0 0 0 0 0 0 0 0 0 0 0 0 0 0 0 0 0 0.044306974858045578003 0.086630553007125854492 0.058849889785051345825 0.034951440989971160889 0.019923048093914985657 0.013219982385635375977 0.01554629206657409668 0.064361356198787689209 0.063921965658664703369 0.064612857997417449951 0.061856631189584732056 0.012764105573296546936 0.015416574664413928986 0.019380968064069747925 0.025102574378252029419 0.028919095173478126526 0.033251885324716567993 0.025745464488863945007 0.023860702291131019592 0.020200764760375022888 0.011627465486526489258 0.11131927371025085449 0.20000000298023223877 0.20000000298023223877 0.20000000298023223877 0.20000000298023223877 0.20000000298023223877 0.20000000298023223877 0.20000000298023223877 0.21185894310474395752 0.23461452126502990723 0.22555789351463317871 0.23154148459434509277 0.2612807154655456543 0.21653005480766296387 0.28257691860198974609 0.2542934119701385498 0.19572919607162475586 0.17296391725540161133 0.16050308942794799805 0.13889625668525695801 0.1512432396411895752 0.16680781543254852295 0.15382437407970428467 0.11672889441251754761 0.08871529996395111084 0.079307787120342254639 0.072781898081302642822 0.067580111324787139893 0.067981705069541931152 0.075046204030513763428 0.085941605269908905029 0.098750799894332885742 0.10704848170280456543 0.10730312764644622803 0.10848140716552734375 0.11639740318059921265 0.12897467613220214844 0.13995106518268585205 0.1432545781135559082 0.14406949281692504883 0.14559637010097503662 0.1470807194709777832 0.144989013671875 0.14285635948181152344 0.13004970550537109375 0.11581698805093765259 0.10051427781581878662 0.090419918298721313477 0.10413567721843719482 0.12060814350843429565 0.13701063394546508789 0.15178388357162475586 0.1664225459098815918 0.17945626378059387207 0.19247825443744659424 0.20436018705368041992 0.21627762913703918457 0.2270024418830871582 0.23604103922843933105 0.24028404057025909424 0.24702776968479156494 0.26506778597831726074 0.26731714606285095215 0.26780027151107788086 0.26756262779235839844 0.26670533418655395508 0.26535493135452270508 0.26385450363159179688 0.26228490471839904785 0.26103183627128601074 0.26002982258796691895 0.25926733016967773438 0.25849127769470214844 0.25761196017265319824 0.25635904073715209961 0.25478079915046691895 0.25277432799339294434 0.25073656439781188965 0.24859900772571563721 0.24676930904388427734 0.24517929553985595703 0.24410158395767211914 0.24337628483772277832 0.24306069314479827881 0.24307225644588470459 0.24337469041347503662 0.24396625161170959473 0.24473527073860168457 0.24574391543865203857 0.24682602286338806152 0.24809014797210693359 0.24933631718158721924 0.25072437524795532227 0.25207659602165222168 0.253597259521484375 0.2550907433032989502 0.25677481293678283691 0.25843209028244018555 0.26038450002670288086 0.26244726777076721191 0.26502361893653869629 0.26783198118209838867 0.27136933803558349609 0.27508822083473205566 0.27941614389419555664 0.28358483314514160156 0.28808811306953430176 0.29212397336959838867 0.29619932174682617188 0.29962947964668273926 0.30289527773857116699 0.30543971061706542969 0.30760496854782104492 0.30901113152503967285 0.30992496013641357422 0.31029495596885681152 0.31028965115547180176 0.31000500917434692383 0.30950009822845458984 0.30890524387359619141 0.30811250209808349609 0.30720981955528259277 0.3060207068920135498 0.30468907952308654785 0.3029874265193939209 0.30119472742080688477 0.29911509156227111816 0.29712057113647460938 0.29499554634094238281 0.29311034083366394043 0.29122868180274963379 0.28960639238357543945 0.28797802329063415527 0.28650608658790588379 0.28487601876258850098 0.28325253725051879883 0.2813720703125 0.27946233749389648438 0.27722793817520141602 0.27492544054985046387 0.2721710205078125 0.26944503188133239746 0.26685914397239685059 0.2648334503173828125 0.26297858357429504395 0.26140868663787841797 0.25997295975685119629 0.25879874825477600098 0.25761756300926208496 0.25647613406181335449 0.25512659549713134766 0.25364527106285095215 0.25185707211494445801 0.25008916854858398438 0.24827869236469268799 0.24676984548568725586 0.24553422629833221436 0.24479389190673828125 0.24440121650695800781 0.24427418410778045654 0.24426077306270599365 0.24423527717590332031 0.24406819045543670654 0.24374532699584960938 0.24328790605068206787 0.24281105399131774902 0.24233576655387878418 0.24197559058666229248 0.24172753095626831055 0.24156057834625244141 0.24135942757129669189 0.24105225503444671631 0.24050658941268920898 0.23969782888889312744 0.23854736983776092529 0.23724628984928131104 0.23576563596725463867 0.23433354496955871582 0.23291085660457611084 0.23167614638805389404 0.23048183321952819824 0.22937116026878356934 0.22817668318748474121 0.22693938016891479492 0.22548878192901611328 0.2239252626895904541 0.22211746871471405029 0.22022290527820587158 0.21808837354183197021 0.21589268743991851807 0.21347987651824951172 0.211087837815284729 0.20858718454837799072 0.20622427761554718018 0.203878059983253479 0.20174698531627655029 0.19955113530158996582 0.19723398983478546143 0.19438444077968597412 0.19098207354545593262 0.1865545809268951416 0.1813535541296005249 0.17522753775119781494 0.1688575446605682373 0.16210794448852539062 0.15567909181118011475 0.14935110509395599365 0.1433210223913192749 0.13677003979682922363 0.12964835762977600098 0.12105177342891693115 0.11107387393712997437 0.099059015512466430664 0.086157023906707763672 0.072264298796653747559 0.05871825292706489563 0.045421261340379714966 0.033482491970062255859 0.022200301289558410645 0.010917175561189651489 0.00039045428275130689144 0 0 0 0 0 0 0 0 0 0 0 0 0 0 0 0 0 0 0 0 0 0 0 0 0 0 0 0 0 
0 0 0 0 0 0 0 0 0 0 0 0 0 0 0 0 0 0 0 0 0 0 0 0 0 0 0 0 0 0 0.0097669549286365509033 0.12058072537183761597 0.10466238856315612793 0.074153490364551544189 0.056208219379186630249 0.044427134096622467041 0.038269735872745513916 0.034650616347789764404 0.030765326693654060364 0.030946567654609680176 0.032472126185894012451 0.031712021678686141968 0.031697366386651992798 0.029930226504802703857 0.028666971251368522644 0.029076810926198959351 0.037289626896381378174 0.048381518572568893433 0.047546163201332092285 0.041622050106525421143 0.034064941108226776123 0.025793900713324546814 0.037575710564851760864 0.16950938105583190918 0.20000000298023223877 0.20000000298023223877 0.20000000298023223877 0.20000000298023223877 0.20000000298023223877 0.20000000298023223877 0.20106019079685211182 0.23357081413269042969 0.22020901739597320557 0.25081333518028259277 0.24231408536434173584 0.2407674938440322876 0.31006157398223876953 0.26560059189796447754 0.19245550036430358887 0.17022241652011871338 0.1658827364444732666 0.15816375613212585449 0.17484733462333679199 0.17980724573135375977 0.15734529495239257812 0.11268165707588195801 0.092554874718189239502 0.083885245025157928467 0.077707536518573760986 0.073378689587116241455 0.074864603579044342041 0.082003928720951080322 0.092293381690979003906 0.10459841042757034302 0.1107150837779045105 0.10951533913612365723 0.11152385175228118896 0.12050776183605194092 0.13220791518688201904 0.14169731736183166504 0.14240354299545288086 0.14146287739276885986 0.14418068528175354004 0.1431389153003692627 0.14197826385498046875 0.13844798505306243896 0.12643800675868988037 0.11431913077831268311 0.10123900324106216431 0.092948324978351593018 0.1070149540901184082 0.12347774207592010498 0.13973473012447357178 0.15438891947269439697 0.16875806450843811035 0.18165092170238494873 0.19469694793224334717 0.2066389620304107666 0.21848708391189575195 0.22751802206039428711 0.23241947591304779053 0.2358127981424331665 0.24309970438480377197 0.26380977034568786621 0.26653581857681274414 0.26728346943855285645 0.26708939671516418457 0.26607212424278259277 0.26440700888633728027 0.26255187392234802246 0.26061570644378662109 0.2590719759464263916 0.25784143805503845215 0.25694790482521057129 0.25611481070518493652 0.25528085231781005859 0.25417619943618774414 0.25282514095306396484 0.25112733244895935059 0.2494137883186340332 0.24761733412742614746 0.24607415497303009033 0.24473480880260467529 0.24383844435214996338 0.24326533079147338867 0.24306762218475341797 0.24319154024124145508 0.24359795451164245605 0.24430616199970245361 0.24518699944019317627 0.24631178379058837891 0.24749267101287841797 0.2488444894552230835 0.25015023350715637207 0.25157594680786132812 0.25293871760368347168 0.25444418191909790039 0.25589960813522338867 0.25752392411231994629 0.25911119580268859863 0.26098108291625976562 0.26297008991241455078 0.2654882967472076416 0.26828089356422424316 0.27185660600662231445 0.27566060423851013184 0.28011822700500488281 0.28442737460136413574 0.28908696770668029785 0.29325720667839050293 0.29745170474052429199 0.30095875263214111328 0.30426117777824401855 0.30678915977478027344 0.30887454748153686523 0.31014493107795715332 0.31085675954818725586 0.31101262569427490234 0.31077286601066589355 0.31029069423675537109 0.30961829423904418945 0.3089230954647064209 0.3080730140209197998 0.30715185403823852539 0.30596581101417541504 0.30464565753936767578 0.30295330286026000977 0.30116233229637145996 0.29907423257827758789 0.29705795645713806152 0.29489660263061523438 0.29297006130218505859 0.29103401303291320801 0.28934434056282043457 0.28764709830284118652 0.28615671396255493164 0.28458493947982788086 0.28305697441101074219 0.28129789233207702637 0.27949053049087524414 0.27731910347938537598 0.27499812841415405273 0.27211740612983703613 0.26924407482147216797 0.26643896102905273438 0.26413744688034057617 0.26199513673782348633 0.26019784808158874512 0.25858467817306518555 0.25730592012405395508 0.25607189536094665527 0.25492644309997558594 0.2536105811595916748 0.25218692421913146973 0.25047883391380310059 0.2487980276346206665 0.24708618223667144775 0.2456706613302230835 0.2445281296968460083 0.24386587738990783691 0.24354399740695953369 0.243473052978515625 0.24350847303867340088 0.24352057278156280518 0.24338440597057342529 0.24308209121227264404 0.2426370084285736084 0.24216355383396148682 0.24168409407138824463 0.24131366610527038574 0.2410497516393661499 0.24086737632751464844 0.24065509438514709473 0.24034698307514190674 0.23981586098670959473 0.23903948068618774414 0.23793978989124298096 0.23669460415840148926 0.23527030646800994873 0.23388072848320007324 0.23248104751110076904 0.23124559223651885986 0.23003964126110076904 0.2289247363805770874 0.22775207459926605225 0.22657711803913116455 0.22524817287921905518 0.22384434938430786133 0.22221794724464416504 0.22048138082027435303 0.21846297383308410645 0.21630372107028961182 0.21383367478847503662 0.2113113701343536377 0.20862227678298950195 0.20605207979679107666 0.20348975062370300293 0.20116989314556121826 0.1987988203763961792 0.19631776213645935059 0.19328677654266357422 0.18968239426612854004 0.18500155210494995117 0.17951193451881408691 0.17306543886661529541 0.16639187932014465332 0.1593662649393081665 0.15273548662662506104 0.14629101753234863281 0.1402308344841003418 0.13371121883392333984 0.12665563821792602539 0.11813854426145553589 0.10822696983814239502 0.096257150173187255859 0.083371698856353759766 0.069463863968849182129 0.055871013551950454712 0.042492371052503585815 0.030447257682681083679 0.01905919983983039856 0.0069465436972677707672 0 0 0 0 0 0 0 0 0 0 0 0 0 0 0 0 0 0 0 0 0 0 0 0 0 0 0 0 0 0 
0 0 0 0 0 0 0 0 0 0 0 0 0 0 0 0 0 0 0 0 0 0 0 0 0 0 0 0 0 0 0.062738567590713500977 0.16093571484088897705 0.11674380302429199219 0.092654816806316375732 0.075678035616874694824 0.064599759876728057861 0.058336909860372543335 0.054650790989398956299 0.052729066461324691772 0.055409658700227737427 0.057015292346477508545 0.051674555987119674683 0.045841474086046218872 0.042507749050855636597 0.042746376246213912964 0.046056635677814483643 0.053509313613176345825 0.078771837055683135986 0.084254875779151916504 0.076260574162006378174 0.058606579899787902832 0.042540960013866424561 0.029649412259459495544 0.015554995276033878326 0.15422831475734710693 0.20000000298023223877 0.20000000298023223877 0.20000000298023223877 0.20000000298023223877 0.20000000298023223877 0.20000000298023223877 0.25123640894889831543 0.28382733464241027832 0.27618104219436645508 0.23542936146259307861 0.30785679817199707031 0.34537199139595031738 0.2607669830322265625 0.18997532129287719727 0.17195773124694824219 0.16854278743267059326 0.18274265527725219727 0.20214699208736419678 0.18236203491687774658 0.14109860360622406006 0.11282387375831604004 0.097119241952896118164 0.088692128658294677734 0.083153679966926574707 0.07910235971212387085 0.081341654062271118164 0.088517785072326660156 0.098469056189060211182 0.10854362696409225464 0.11181528866291046143 0.11097770184278488159 0.11407399922609329224 0.12288723886013031006 0.13479492068290710449 0.14186166226863861084 0.1410837322473526001 0.13922029733657836914 0.14226636290550231934 0.13961087167263031006 0.13857944309711456299 0.13377620279788970947 0.12400512397289276123 0.11384378373622894287 0.10284360498189926147 0.096247918903827667236 0.11071662604808807373 0.12716062366962432861 0.1432552337646484375 0.15756438672542572021 0.17143672704696655273 0.18415160477161407471 0.19676144421100616455 0.2076326906681060791 0.2163861691951751709 0.22178284823894500732 0.22659328579902648926 0.23070007562637329102 0.23896443843841552734 0.26244941353797912598 0.26563748717308044434 0.26650357246398925781 0.26621845364570617676 0.26498299837112426758 0.2630093991756439209 0.26084870100021362305 0.25861567258834838867 0.25685450434684753418 0.25548157095909118652 0.25453799962997436523 0.25373700261116027832 0.25300988554954528809 0.25209414958953857422 0.25098532438278198242 0.24959507584571838379 0.2481988072395324707 0.24674324691295623779 0.24550719559192657471 0.24445801973342895508 0.2437823563814163208 0.2433881908655166626 0.24331721663475036621 0.24355018138885498047 0.24404469132423400879 0.24483913183212280273 0.24579471349716186523 0.24699124693870544434 0.24822989106178283691 0.24963155388832092285 0.25097095966339111328 0.25241810083389282227 0.25378778576850891113 0.25528723001480102539 0.2567227482795715332 0.25831213593482971191 0.25985863804817199707 0.26168209314346313477 0.26363614201545715332 0.26613393425941467285 0.26893308758735656738 0.27255901694297790527 0.27644890546798706055 0.28102648258209228516 0.28545793890953063965 0.29024493694305419922 0.29451480507850646973 0.29878416657447814941 0.30232462286949157715 0.30561983585357666016 0.30809605121612548828 0.31007242202758789062 0.31119301915168762207 0.31170105934143066406 0.311649322509765625 0.31118729710578918457 0.31052249670028686523 0.3096974492073059082 0.3089116215705871582 0.30801019072532653809 0.30707284808158874512 0.30588969588279724121 0.30457904934883117676 0.30289256572723388672 0.30109924077987670898 0.29900091886520385742 0.29696798324584960938 0.29477471113204956055 0.29280248284339904785 0.29080861806869506836 0.2890568077564239502 0.28727981448173522949 0.28572362661361694336 0.28414925932884216309 0.28268155455589294434 0.28100645542144775391 0.27927041053771972656 0.27713891863822937012 0.27479624748229980469 0.27181768417358398438 0.26884391903877258301 0.2658799290657043457 0.26337319612503051758 0.26101127266883850098 0.25903928279876708984 0.25728842616081237793 0.25592789053916931152 0.25465318560600280762 0.25350686907768249512 0.25222319364547729492 0.25085458159446716309 0.2492243647575378418 0.24762888252735137939 0.2460133284330368042 0.24468779563903808594 0.24363277852535247803 0.24304157495498657227 0.24278374016284942627 0.24276444315910339355 0.24284407496452331543 0.24288643896579742432 0.24276950955390930176 0.24247460067272186279 0.24202778935432434082 0.24154546856880187988 0.24105073511600494385 0.24066188931465148926 0.24037675559520721436 0.24017743766307830811 0.23995739221572875977 0.23965722322463989258 0.23915700614452362061 0.23843580484390258789 0.23741644620895385742 0.23625655472278594971 0.23491600155830383301 0.23358739912509918213 0.23221714794635772705 0.23097236454486846924 0.22973124682903289795 0.22857785224914550781 0.22738105058670043945 0.2262185513973236084 0.22495846450328826904 0.22366817295551300049 0.22218306362628936768 0.22057524323463439941 0.21865384280681610107 0.21652740240097045898 0.21401284635066986084 0.21138231456279754639 0.2085307687520980835 0.20577451586723327637 0.20300681889057159424 0.20049260556697845459 0.19792549312114715576 0.19525288045406341553 0.19201123714447021484 0.1881834864616394043 0.1832412034273147583 0.17747101187705993652 0.17072331905364990234 0.16376888751983642578 0.15648631751537322998 0.14965911209583282471 0.14308442175388336182 0.13696298003196716309 0.13042898476123809814 0.12338662147521972656 0.11489078402519226074 0.10498826950788497925 0.093003652989864349365 0.08008304983377456665 0.066121332347393035889 0.052459642291069030762 0.038993716239929199219 0.026854583993554115295 0.015392868779599666595 0.0040510045364499092102 0 0 0 0 0 0 0 0 0 0 0 0 0 0 0 0 0 0 0 0 0 0 0 0 0 0 0 0 0 0 
0 0 0 0 0 0 0 0 0 0 0 0 0 0 0 0 0 0 0 0 0 0 0 0 0 0 0 0 0 0.0037138140760362148285 0.10962372273206710815 0.17032326757907867432 0.13024553656578063965 0.10775762051343917847 0.092213772237300872803 0.084745481610298156738 0.078517876565456390381 0.071488469839096069336 0.070194490253925323486 0.071217797696590423584 0.069025732576847076416 0.06019000709056854248 0.054098062217235565186 0.054083470255136489868 0.059132851660251617432 0.067942827939987182617 0.082271702587604522705 0.093384250998497009277 0.095290988683700561523 0.092500738799571990967 0.079619973897933959961 0.064536824822425842285 0.053005598485469818115 0.030161594972014427185 0.042718738317489624023 0.1779216378927230835 0.20000000298023223877 0.20000000298023223877 0.20000000298023223877 0.20075345039367675781 0.21044401824474334717 0.25324764847755432129 0.29000002145767211914 0.26806432008743286133 0.26226416230201721191 0.36534452438354492188 0.34572619199752807617 0.25016054511070251465 0.19352461397647857666 0.18040013313293457031 0.18075971305370330811 0.20028711855411529541 0.21166443824768066406 0.19555717706680297852 0.14218178391456604004 0.11486562341451644897 0.10327072441577911377 0.095347329974174499512 0.089342772960662841797 0.08548755943775177002 0.087976321578025817871 0.095143325626850128174 0.10563337802886962891 0.11436180025339126587 0.11371415108442306519 0.11276233941316604614 0.1172968745231628418 0.12767049670219421387 0.13805994391441345215 0.14087536931037902832 0.13945774734020233154 0.13860091567039489746 0.13946063816547393799 0.13551469147205352783 0.1347967982292175293 0.13079814612865447998 0.12276211380958557129 0.11452823132276535034 0.10562501102685928345 0.10070255398750305176 0.11564648896455764771 0.13206279277801513672 0.14791229367256164551 0.1615511775016784668 0.17473244667053222656 0.18611817061901092529 0.19677674770355224609 0.20481880009174346924 0.21132636070251464844 0.21680964529514312744 0.22198066115379333496 0.2263530343770980835 0.23540537059307098389 0.26127639412879943848 0.26466631889343261719 0.26543512940406799316 0.26495623588562011719 0.26347184181213378906 0.26122424006462097168 0.2588176727294921875 0.25636878609657287598 0.25447341799736022949 0.25304636359214782715 0.25213003158569335938 0.25143033266067504883 0.25085860490798950195 0.25016078352928161621 0.2492980659008026123 0.24819947779178619385 0.24709361791610717773 0.24594761431217193604 0.24499678611755371094 0.24423296749591827393 0.243801116943359375 0.24363715946674346924 0.24374471604824066162 0.24411785602569580078 0.24470183253288269043 0.24556322395801544189 0.24656328558921813965 0.247792854905128479 0.24905256927013397217 0.25047063827514648438 0.25182315707206726074 0.25328266620635986328 0.25466045737266540527 0.25616297125816345215 0.25759553909301757812 0.25917494297027587891 0.26070886850357055664 0.2625178992748260498 0.26446607708930969238 0.26697558164596557617 0.26980891823768615723 0.27349984645843505859 0.27747604250907897949 0.28216332197189331055 0.28669774532318115234 0.29158097505569458008 0.29591205716133117676 0.30020618438720703125 0.30372983217239379883 0.30696505308151245117 0.30934822559356689453 0.31118318438529968262 0.31213793158531188965 0.31244057416915893555 0.31219056248664855957 0.31152242422103881836 0.31069138646125793457 0.30973079800605773926 0.30886623263359069824 0.30792212486267089844 0.30697360634803771973 0.30579680204391479492 0.30449840426445007324 0.30282109975814819336 0.3010285794734954834 0.29892212152481079102 0.29687315225601196289 0.29465317726135253906 0.29264217615127563477 0.29058420658111572266 0.28876084089279174805 0.28689253330230712891 0.28524023294448852539 0.28358048200607299805 0.28210797905921936035 0.28046393394470214844 0.27875462174415588379 0.2766297459602355957 0.27425634860992431641 0.27120757102966308594 0.26818355917930603027 0.26512998342514038086 0.2624995112419128418 0.26000094413757324219 0.25792017579078674316 0.25608387589454650879 0.25467377901077270508 0.25337746739387512207 0.25223705172538757324 0.25098425149917602539 0.24966460466384887695 0.24810293316841125488 0.24658207595348358154 0.24505002796649932861 0.24380259215831756592 0.24282720685005187988 0.24230495095252990723 0.24210783839225769043 0.24213194847106933594 0.24224269390106201172 0.24230189621448516846 0.24219058454036712646 0.2418909221887588501 0.24143049120903015137 0.24092915654182434082 0.24041005969047546387 0.23999603092670440674 0.23968517780303955078 0.23946781456470489502 0.23924367129802703857 0.23896059393882751465 0.23850826919078826904 0.23786602914333343506 0.23695795238018035889 0.23591405153274536133 0.23468543589115142822 0.23343612253665924072 0.23210036754608154297 0.23083491623401641846 0.2295316159725189209 0.22830283641815185547 0.22703523933887481689 0.22583502531051635742 0.22458715736865997314 0.2233543097972869873 0.22195637226104736328 0.22043755650520324707 0.21858955919742584229 0.21649065613746643066 0.21394523978233337402 0.21123221516609191895 0.20824892818927764893 0.20533198118209838867 0.20237244665622711182 0.1996583789587020874 0.19687211513519287109 0.19397656619548797607 0.19049127399921417236 0.18641586601734161377 0.18120336532592773438 0.17516228556632995605 0.16813579201698303223 0.16092537343502044678 0.15340642631053924561 0.14638939499855041504 0.13966909050941467285 0.13345053791999816895 0.12684977054595947266 0.119761638343334198 0.11122474819421768188 0.10127550363540649414 0.089227892458438873291 0.076232790946960449219 0.062184799462556838989 0.048434983938932418823 0.034879889339208602905 0.022663110867142677307 0.011160427704453468323 0.0013667092425748705864 0 0 0 0 0 0 0 0 0 0 0 0 0 0 0 0 0 0 0 0 0 0 0 0 0 0 0 0 0 0 
0 0 0 0 0 0 0 0 0 0 0 0 0 0 0 0 0 0 0 0 0 0 0 0 0 0 0 0 0 0.028275627642869949341 0.13805341720581054688 0.17259031534194946289 0.14314392209053039551 0.11983796954154968262 0.10593505203723907471 0.10216670483350753784 0.097034215927124023438 0.088895879685878753662 0.087453894317150115967 0.085059106349945068359 0.075423710048198699951 0.066694930195808410645 0.062645234167575836182 0.066995941102504730225 0.074616029858589172363 0.095985658466815948486 0.11061149090528488159 0.10812603682279586792 0.10566169768571853638 0.10291848331689834595 0.091499969363212585449 0.078635908663272857666 0.069978006184101104736 0.052462667226791381836 0.020713604986667633057 0.092069968581199645996 0.15489332377910614014 0.20003150403499603271 0.20892947912216186523 0.22188654541969299316 0.23642966151237487793 0.26344254612922668457 0.28140926361083984375 0.24753035604953765869 0.32986223697662353516 0.39280122518539428711 0.340969085693359375 0.24048908054828643799 0.19524630904197692871 0.18772001564502716064 0.19164586067199707031 0.21396790444850921631 0.20917910337448120117 0.19062252342700958252 0.14202620089054107666 0.11915680021047592163 0.10897478461265563965 0.10126832872629165649 0.095589406788349151611 0.092443175613880157471 0.095179103314876556396 0.10258847475051879883 0.11307103186845779419 0.11849836260080337524 0.11534602195024490356 0.11469198763370513916 0.12153831124305725098 0.13218620419502258301 0.13879376649856567383 0.13858103752136230469 0.13656593859195709229 0.1377789229154586792 0.13539278507232666016 0.13136367499828338623 0.13189195096492767334 0.12897719442844390869 0.12269993871450424194 0.11650826036930084229 0.10982671380043029785 0.10662201792001724243 0.12209609150886535645 0.13834847509860992432 0.1526676565408706665 0.16428738832473754883 0.17521688342094421387 0.18477340042591094971 0.19325393438339233398 0.20005546510219573975 0.20659630000591278076 0.21225813031196594238 0.21762645244598388672 0.22225612401962280273 0.23200710117816925049 0.25989684462547302246 0.26330405473709106445 0.26391112804412841797 0.26322150230407714844 0.26153934001922607422 0.25910335779190063477 0.25655135512351989746 0.2539990544319152832 0.25206929445266723633 0.25067853927612304688 0.2498572617769241333 0.24931195378303527832 0.24892705678939819336 0.24845804274082183838 0.24782888591289520264 0.2469905465841293335 0.24613654613494873047 0.24525974690914154053 0.24456213414669036865 0.24406118690967559814 0.24386399984359741211 0.24392935633659362793 0.24422824382781982422 0.24477513134479522705 0.24548065662384033203 0.24641382694244384766 0.2474381178617477417 0.24867138266563415527 0.24992556869983673096 0.25133773684501647949 0.25269243121147155762 0.25416478514671325684 0.25556105375289916992 0.2570857703685760498 0.2585372626781463623 0.26013261079788208008 0.26168203353881835938 0.26350906491279602051 0.26547837257385253906 0.26802238821983337402 0.27090513706207275391 0.27467161417007446289 0.27872937917709350586 0.28350517153739929199 0.28811323642730712891 0.29305234551429748535 0.29740047454833984375 0.30166682600975036621 0.30512413382530212402 0.30824989080429077148 0.3105023503303527832 0.31217008829116821289 0.31295132637023925781 0.31305512785911560059 0.31262344121932983398 0.31177347898483276367 0.31079906225204467773 0.30972316861152648926 0.3087940216064453125 0.30781781673431396484 0.30686557292938232422 0.30570301413536071777 0.30442601442337036133 0.30277165770530700684 0.30099493265151977539 0.29889586567878723145 0.29684159159660339355 0.29459914565086364746 0.29254898428916931152 0.29042696952819824219 0.2885182499885559082 0.28653776645660400391 0.28476127982139587402 0.28296056389808654785 0.2813885807991027832 0.27971413731575012207 0.27798852324485778809 0.2758394777774810791 0.27342760562896728516 0.27033311128616333008 0.26730519533157348633 0.26422360539436340332 0.26154354214668273926 0.25898581743240356445 0.25685843825340270996 0.25498732924461364746 0.25356015563011169434 0.25226271152496337891 0.25113639235496520996 0.24991400539875030518 0.24863652884960174561 0.24713151156902313232 0.24567151069641113281 0.24421201646327972412 0.24303868412971496582 0.24213676154613494873 0.24167090654373168945 0.24151882529258728027 0.24157264828681945801 0.24170190095901489258 0.24176710844039916992 0.2416508793830871582 0.24133734405040740967 0.24085465073585510254 0.24032694101333618164 0.23977667093276977539 0.23933178186416625977 0.23899054527282714844 0.23875215649604797363 0.23852315545082092285 0.23825958371162414551 0.23786182701587677002 0.23730930685997009277 0.23652723431587219238 0.23561385273933410645 0.23450995981693267822 0.23334704339504241943 0.23204486072063446045 0.23074842989444732666 0.22936260700225830078 0.22803136706352233887 0.22665809094905853271 0.22538225352764129639 0.22410422563552856445 0.22288841009140014648 0.22153739631175994873 0.22007139027118682861 0.218267783522605896 0.21618609130382537842 0.21361808478832244873 0.21084246039390563965 0.20775355398654937744 0.20469909906387329102 0.2015628516674041748 0.19864995777606964111 0.19563272595405578613 0.1924965977668762207 0.18874973058700561523 0.18441596627235412598 0.17893548309803009033 0.17264024913311004639 0.16536167263984680176 0.15792265534400939941 0.15018902719020843506 0.14298968017101287842 0.13611206412315368652 0.12976872920989990234 0.12306252121925354004 0.11588868498802185059 0.10727511346340179443 0.097257368266582489014 0.085141852498054504395 0.072082117199897766113 0.057969070971012115479 0.044156886637210845947 0.030539309605956077576 0.018269794061779975891 0.0067588337697088718414 0.00019073679868597537279 0 0 0 0 0 0 0 0 0 0 0 0 0 0 0 0 0 0 0 0 0 0 0 0 0 0 0 0 0 0 
0 0 0 0 0 0 0 0 0 0 0 0 0 0 0 0 0 0 0 0 0 0 0 0 0 0 0 0 0 0.054793111979961395264 0.15179373323917388916 0.1732317507266998291 0.15239609777927398682 0.13308070600032806396 0.12091051042079925537 0.11679862439632415771 0.11363120377063751221 0.10429628938436508179 0.099714212119579315186 0.096049547195434570312 0.088439136743545532227 0.086088448762893676758 0.080759339034557342529 0.07052672654390335083 0.094699546694755554199 0.12987975776195526123 0.13165120780467987061 0.12640139460563659668 0.12213268876075744629 0.11614768952131271362 0.10889267176389694214 0.096823878586292266846 0.082257963716983795166 0.06986255943775177002 0.050925027579069137573 0.028780536726117134094 0.023590236902236938477 0.15049569308757781982 0.19590166211128234863 0.21863704919815063477 0.24000000953674316406 0.26344254612922668457 0.28086143732070922852 0.2565059363842010498 0.38216057419776916504 0.39515468478202819824 0.32855322957038879395 0.2198445051908493042 0.19520992040634155273 0.19056305289268493652 0.20170366764068603516 0.22893412411212921143 0.21406389772891998291 0.18253327906131744385 0.14060188829898834229 0.12451437115669250488 0.11523824930191040039 0.10784122347831726074 0.1020488739013671875 0.10042484849691390991 0.10464034974575042725 0.11112540215253829956 0.11810935288667678833 0.12026575952768325806 0.1173242032527923584 0.11696346104145050049 0.12548841536045074463 0.13463920354843139648 0.13606874644756317139 0.13565289974212646484 0.13336090743541717529 0.13433958590030670166 0.12948366999626159668 0.12694461643695831299 0.1291503608226776123 0.12680016458034515381 0.12307257205247879028 0.11964846402406692505 0.11570747196674346924 0.1147686690092086792 0.1295188218355178833 0.14132383465766906738 0.15151762962341308594 0.16111190617084503174 0.17108738422393798828 0.17965522408485412598 0.18764844536781311035 0.20253099501132965088 0.22423379123210906982 0.23019485175609588623 0.2357804030179977417 0.24044589698314666748 0.24644136428833007812 0.25897374749183654785 0.26148584485054016113 0.26190984249114990234 0.26102805137634277344 0.25919315218925476074 0.25663319230079650879 0.2540104985237121582 0.2514445185661315918 0.24956975877285003662 0.2483065873384475708 0.24765738844871520996 0.24732947349548339844 0.24716666340827941895 0.24693882465362548828 0.24653586745262145996 0.24593588709831237793 0.24530450999736785889 0.24466426670551300049 0.24419285356998443604 0.24393577873706817627 0.24396339058876037598 0.24425497651100158691 0.24474644660949707031 0.24546873569488525391 0.2463023066520690918 0.24732704460620880127 0.24839109182357788086 0.24962212145328521729 0.2508570253849029541 0.25225427746772766113 0.25361245870590209961 0.25511029362678527832 0.25654569268226623535 0.25812193751335144043 0.25962433218955993652 0.26127073168754577637 0.2628644406795501709 0.26474171876907348633 0.26675918698310852051 0.26935842633247375488 0.27229908108711242676 0.27613785862922668457 0.28026661276817321777 0.28510606288909912109 0.28975075483322143555 0.29469770193099975586 0.29901343584060668945 0.3031959831714630127 0.30653616786003112793 0.30950254201889038086 0.31158649921417236328 0.31305918097496032715 0.31365719437599182129 0.31356680393218994141 0.31296649575233459473 0.31195479631423950195 0.31085699796676635742 0.30968368053436279297 0.30870136618614196777 0.30770346522331237793 0.30675712227821350098 0.3056221306324005127 0.30438432097434997559 0.30277973413467407227 0.30104857683181762695 0.2989883124828338623 0.29695206880569458008 0.2946999967098236084 0.29260590672492980957 0.2903982698917388916 0.28838235139846801758 0.2862555384635925293 0.28431633114814758301 0.28232237696647644043 0.28057238459587097168 0.27877727150917053223 0.27699694037437438965 0.27479800581932067871 0.27234125137329101562 0.26922440528869628906 0.26622536778450012207 0.2631625831127166748 0.26049014925956726074 0.2579332888126373291 0.25580799579620361328 0.25394329428672790527 0.25252747535705566406 0.25124856829643249512 0.25014629960060119629 0.24895703792572021484 0.24771827459335327148 0.24626512825489044189 0.24486806988716125488 0.24348108470439910889 0.2423705756664276123 0.24152491986751556396 0.24110063910484313965 0.24097977578639984131 0.24105174839496612549 0.24118907749652862549 0.24125225841999053955 0.24112415313720703125 0.24079124629497528076 0.24028106033802032471 0.23972208797931671143 0.23913499712944030762 0.23865303397178649902 0.2382739335298538208 0.23800702393054962158 0.23776531219482421875 0.23751489818096160889 0.23716695606708526611 0.23670223355293273926 0.2360464632511138916 0.23526488244533538818 0.23428648710250854492 0.23320852220058441162 0.23193438351154327393 0.23059682548046112061 0.22911314666271209717 0.2276611328125 0.22615988552570343018 0.22478467226028442383 0.22345010936260223389 0.22222590446472167969 0.22089785337448120117 0.21946656703948974609 0.21769312024116516113 0.21561698615550994873 0.21302045881748199463 0.210186004638671875 0.20700083673000335693 0.20381754636764526367 0.20050840079784393311 0.1973924487829208374 0.19413259625434875488 0.19074125587940216064 0.18671852350234985352 0.1821168363094329834 0.17636710405349731445 0.16982571780681610107 0.16230869293212890625 0.15465433895587921143 0.14671437442302703857 0.13933044672012329102 0.13227884471416473389 0.12578465044498443604 0.11894476413726806641 0.11166510730981826782 0.10297097265720367432 0.092904709279537200928 0.080768130719661712646 0.067706510424613952637 0.053600147366523742676 0.039792764931917190552 0.026168821379542350769 0.01388675253838300705 0.0029871426522731781006 0 0 0 0 0 0 0 0 0 0 0 0 0 0 0 0 0 0 0 0 0 0 0 0 0 0 0 0 0 0 0 
0 0 0 0 0 0 0 0 0 0 0 0 0 0 0 0 0 0 0 0 0 0 0 0 0 0 0 0 0.0091760130599141120911 0.085510686039924621582 0.15835218131542205811 0.17311200499534606934 0.16123905777931213379 0.14829644560813903809 0.13806800544261932373 0.13271115720272064209 0.1274868696928024292 0.11586577445268630981 0.1072605624794960022 0.10177955031394958496 0.10169011354446411133 0.10905854403972625732 0.10996517539024353027 0.088380418717861175537 0.12093824148178100586 0.14504471421241760254 0.14189541339874267578 0.14023192226886749268 0.13617736101150512695 0.12899950146675109863 0.12280985713005065918 0.11489579826593399048 0.10099299252033233643 0.094082877039909362793 0.078545019030570983887 0.05316837504506111145 0.054241143167018890381 0.05033459886908531189 0.06332979351282119751 0.14269644021987915039 0.24000000953674316406 0.26344254612922668457 0.26438385248184204102 0.29519227147102355957 0.41969317197799682617 0.39081794023513793945 0.2857220768928527832 0.21001222729682922363 0.19536246359348297119 0.19340485334396362305 0.2091254889965057373 0.23606626689434051514 0.22394883632659912109 0.17994879186153411865 0.14146287739276885986 0.12897595763206481934 0.12160957604646682739 0.11502924561500549316 0.10845839977264404297 0.10852801054716110229 0.11351227760314941406 0.11864894628524780273 0.12322897464036941528 0.12291007488965988159 0.11963811516761779785 0.11918819695711135864 0.12852548062801361084 0.13452985882759094238 0.13239134848117828369 0.13227094709873199463 0.12885269522666931152 0.1285178065299987793 0.1227059289813041687 0.12268872559070587158 0.12391196191310882568 0.12248546630144119263 0.12127052247524261475 0.12036365270614624023 0.11859427392482757568 0.11620386689901351929 0.1238190382719039917 0.13350497186183929443 0.14435978233814239502 0.15475045144557952881 0.16476735472679138184 0.17337867617607116699 0.18178851902484893799 0.20143724977970123291 0.23398135602474212646 0.24033206701278686523 0.24616399407386779785 0.25086915493011474609 0.25487148761749267578 0.25758522748947143555 0.25920128822326660156 0.25947135686874389648 0.25847196578979492188 0.25657236576080322266 0.25398981571197509766 0.25138607621192932129 0.24888460338115692139 0.24711871147155761719 0.24602346122264862061 0.24557574093341827393 0.24549232423305511475 0.24557490646839141846 0.24560382962226867676 0.24542441964149475098 0.2450418621301651001 0.24460458755493164062 0.24416948854923248291 0.24389444291591644287 0.24385024607181549072 0.24408082664012908936 0.2445837855339050293 0.24525800347328186035 0.24614632129669189453 0.24709837138652801514 0.24820517003536224365 0.24931302666664123535 0.25056618452072143555 0.25179898738861083984 0.25318944454193115234 0.25456416606903076172 0.2561104893684387207 0.25761336088180541992 0.2592767179012298584 0.2608661949634552002 0.26260355114936828613 0.26427468657493591309 0.2662315666675567627 0.26831912994384765625 0.27098873257637023926 0.27398878335952758789 0.27788475155830383301 0.28205654025077819824 0.28692272305488586426 0.29156169295310974121 0.29646128416061401367 0.30069211125373840332 0.30473679304122924805 0.30791461467742919922 0.31068077683448791504 0.31256809830665588379 0.31382828950881958008 0.31424096226692199707 0.31396850943565368652 0.31321924924850463867 0.31207075715065002441 0.31087282299995422363 0.30962285399436950684 0.30860024690628051758 0.30759143829345703125 0.30666249990463256836 0.30557218194007873535 0.30439737439155578613 0.30287933349609375 0.30123502016067504883 0.29925799369812011719 0.29727402329444885254 0.29503351449966430664 0.29289400577545166016 0.2905737459659576416 0.28840839862823486328 0.28609284758567810059 0.28395384550094604492 0.28172123432159423828 0.27974790334701538086 0.27774259448051452637 0.27586156129837036133 0.27359509468078613281 0.27109155058860778809 0.26797661185264587402 0.26502206921577453613 0.26200985908508300781 0.25938507914543151855 0.25687065720558166504 0.25478228926658630371 0.25295531749725341797 0.25157397985458374023 0.25033146142959594727 0.2492634505033493042 0.24811215698719024658 0.246919289231300354 0.24552850425243377686 0.24418948590755462646 0.24285683035850524902 0.24178969860076904297 0.24098065495491027832 0.24058230221271514893 0.24048025906085968018 0.24056237936019897461 0.24070240557193756104 0.24076056480407714844 0.24061912298202514648 0.24026639759540557861 0.2397283017635345459 0.23913700878620147705 0.23851035535335540771 0.23798640072345733643 0.23756118118762969971 0.23725536465644836426 0.23698697984218597412 0.23673389852046966553 0.23641692101955413818 0.23602019250392913818 0.23546886444091796875 0.23479847609996795654 0.23392565548419952393 0.23291662335395812988 0.23165839910507202148 0.23027285933494567871 0.22868774831295013428 0.22711287438869476318 0.22548133134841918945 0.2240031510591506958 0.2226056903600692749 0.22136451303958892822 0.22004903852939605713 0.21864247322082519531 0.2168906480073928833 0.21481537818908691406 0.21218533813953399658 0.20928291976451873779 0.20599472522735595703 0.2026821523904800415 0.19920194149017333984 0.19588494300842285156 0.19238461554050445557 0.18874098360538482666 0.18444710969924926758 0.17958430945873260498 0.17357575893402099609 0.16680106520652770996 0.15905958414077758789 0.15120130777359008789 0.14306159317493438721 0.13549186289310455322 0.12825571000576019287 0.12159645557403564453 0.11461360007524490356 0.10723347216844558716 0.098488822579383850098 0.08843577653169631958 0.076374575495719909668 0.063423886895179748535 0.049442298710346221924 0.035741247236728668213 0.022188046947121620178 0.0099361985921859741211 0.00083764077862724661827 0 0 0 0 0 0 0 0 0 0 0 0 0 0 0 0 0 0 0 0 0 0 0 0 0 0 0 0 0 0 0 
0 0 0 0 0 0 0 0 0 0 0 0 0 0 0 0 0 0 0 0 0 0 0 0 0 0 0 0 0.029451029375195503235 0.10579176992177963257 0.1622607111930847168 0.175196036696434021 0.16890352964401245117 0.16130244731903076172 0.1543022841215133667 0.14725917577743530273 0.13968850672245025635 0.12955923378467559814 0.12122097611427307129 0.11304919421672821045 0.11245843768119812012 0.12143267691135406494 0.109351329505443573 0.085185013711452484131 0.13839706778526306152 0.14744275808334350586 0.15016771852970123291 0.15180011093616485596 0.14917096495628356934 0.14243787527084350586 0.13687868416309356689 0.13190740346908569336 0.12405815720558166504 0.11730918288230895996 0.096767567098140716553 0.08702138066291809082 0.091327644884586334229 0.065078854560852050781 0.046487662941217422485 0.17135167121887207031 0.24000000953674316406 0.27981147170066833496 0.27495923638343811035 0.45853155851364135742 0.48207360506057739258 0.3878148496150970459 0.25894764065742492676 0.21005433797836303711 0.2048466801643371582 0.20500524342060089111 0.20981876552104949951 0.22456958889961242676 0.20117585361003875732 0.16489449143409729004 0.14371107518672943115 0.13377639651298522949 0.12803727388381958008 0.12199456244707107544 0.11449181288480758667 0.1166040077805519104 0.12157735228538513184 0.12524551153182983398 0.12785923480987548828 0.1248931586742401123 0.12118377536535263062 0.12144622206687927246 0.13055701553821563721 0.1330944448709487915 0.13074548542499542236 0.12879720330238342285 0.12582893669605255127 0.12239019572734832764 0.11682289838790893555 0.11770606786012649536 0.11727474629878997803 0.11697082966566085815 0.11775344610214233398 0.11730898171663284302 0.11194909363985061646 0.10425966978073120117 0.1136658787727355957 0.12557277083396911621 0.13770930469036102295 0.14838686585426330566 0.15852795541286468506 0.16749404370784759521 0.17627085745334625244 0.19681122899055480957 0.23100666701793670654 0.23765617609024047852 0.24370649456977844238 0.24850849807262420654 0.25246563553810119629 0.25504967570304870605 0.25650259852409362793 0.25664308667182922363 0.25556778907775878906 0.25365749001502990723 0.2511228024959564209 0.24861702322959899902 0.24626846611499786377 0.24468630552291870117 0.24381300806999206543 0.2435884326696395874 0.24375158548355102539 0.2440726161003112793 0.24435085058212280273 0.24439425766468048096 0.24423204362392425537 0.24398489296436309814 0.24373899400234222412 0.2436393052339553833 0.24378831684589385986 0.24420562386512756348 0.24490363895893096924 0.24574811756610870361 0.24679325520992279053 0.24785730242729187012 0.24904097616672515869 0.2501907050609588623 0.25147429108619689941 0.25273668766021728516 0.25416454672813415527 0.25558757781982421875 0.25721940398216247559 0.25883024930953979492 0.26062834262847900391 0.26235091686248779297 0.26422789692878723145 0.26601785421371459961 0.2680893242359161377 0.27027052640914916992 0.27302223443984985352 0.2760791778564453125 0.28001037240028381348 0.28418755531311035156 0.28902676701545715332 0.29360657930374145508 0.29839688539505004883 0.30248191952705383301 0.30632755160331726074 0.30929329991340637207 0.31181472539901733398 0.3134746551513671875 0.31450241804122924805 0.31472465395927429199 0.3142776787281036377 0.31339594721794128418 0.3121325373649597168 0.31085467338562011719 0.30954644083976745605 0.30849605798721313477 0.30748748779296875 0.30658993124961853027 0.30556821823120117188 0.30449056625366210938 0.30311155319213867188 0.30161258578300476074 0.2997818291187286377 0.29789879918098449707 0.29570034146308898926 0.29351413249969482422 0.2910448908805847168 0.28867110610008239746 0.28608909249305725098 0.28368932008743286133 0.28117129206657409668 0.2789281010627746582 0.2766545414924621582 0.27459731698036193848 0.27224579453468322754 0.26970106363296508789 0.26660311222076416016 0.26369905471801757812 0.26075711846351623535 0.2582060694694519043 0.2557595670223236084 0.25373104214668273926 0.25196534395217895508 0.25063872337341308594 0.24945075809955596924 0.24843241274356842041 0.24734507501125335693 0.24621663987636566162 0.24488309025764465332 0.24358625710010528564 0.24228779971599578857 0.24124580621719360352 0.24045790731906890869 0.24007515609264373779 0.23998484015464782715 0.24007324874401092529 0.24021434783935546875 0.24026793241500854492 0.24011525511741638184 0.23974539339542388916 0.23918174207210540771 0.23855870962142944336 0.23789007961750030518 0.23731781542301177979 0.23683464527130126953 0.23647390305995941162 0.23615701496601104736 0.23587581515312194824 0.23555862903594970703 0.23519642651081085205 0.23471207916736602783 0.23411749303340911865 0.23331625759601593018 0.2323494255542755127 0.23108781874179840088 0.22964569926261901855 0.22795927524566650391 0.22626826167106628418 0.2245174795389175415 0.2229477614164352417 0.22149771451950073242 0.22024711966514587402 0.21894910931587219238 0.21756856143474578857 0.21583548188209533691 0.21375386416912078857 0.21107944846153259277 0.20809622108936309814 0.20468394458293914795 0.20121945440769195557 0.19755430519580841064 0.19403111934661865234 0.19029119610786437988 0.18640023469924926758 0.1818424612283706665 0.17672577500343322754 0.1704645007848739624 0.16345997154712677002 0.15549433231353759766 0.14742881059646606445 0.13908170163631439209 0.1313142627477645874 0.12387768179178237915 0.11704112589359283447 0.10991704463958740234 0.10246264934539794922 0.093731462955474853516 0.083798475563526153564 0.071967206895351409912 0.05930057913064956665 0.045621320605278015137 0.032177481800317764282 0.018801065161824226379 0.0065787644125521183014 0.00014520152762997895479 0 0 0 0 0 0 0 0 0 0 0 0 0 0 0 0 0 0 0 0 0 0 0 0 0 0 0 0 0 0 0 
0 0 0 0 0 0 0 0 0 0 0 0 0 0 0 0 0 0 0 0 0 0 0 0 0 0 0 0.0014454029733315110207 0.047503616660833358765 0.11556364595890045166 0.1598256230354309082 0.18062330782413482666 0.18001706898212432861 0.17327088117599487305 0.16721367835998535156 0.16334684193134307861 0.15711009502410888672 0.14921975135803222656 0.14004935324192047119 0.12813360989093780518 0.12919248640537261963 0.1318750232458114624 0.093513533473014831543 0.10312280803918838501 0.15550531446933746338 0.15177892148494720459 0.15725079178810119629 0.1638628542423248291 0.16265909373760223389 0.15888051688671112061 0.15354613959789276123 0.15150183439254760742 0.1486772000789642334 0.14925511181354522705 0.14784663915634155273 0.16040316224098205566 0.13272210955619812012 0.086243562400341033936 0.051930662244558334351 0.15462371706962585449 0.24000000953674316406 0.25584456324577331543 0.39467102289199829102 0.53125071525573730469 0.48750722408294677734 0.37998059391975402832 0.2372900843620300293 0.20602375268936157227 0.2075386345386505127 0.22840401530265808105 0.22538891434669494629 0.21369166672229766846 0.18445602059364318848 0.16134043037891387939 0.14806284010410308838 0.13909648358821868896 0.13338984549045562744 0.12692409753799438477 0.12118639051914215088 0.12475187331438064575 0.12921831011772155762 0.13268394768238067627 0.13378377258777618408 0.12781222164630889893 0.12277295440435409546 0.1235680505633354187 0.13112109899520874023 0.13202281296253204346 0.12966844439506530762 0.12546430528163909912 0.12298890203237533569 0.1161680370569229126 0.11119493097066879272 0.11104243248701095581 0.11101837456226348877 0.11448061466217041016 0.11662430316209793091 0.11368964612483978271 0.10457206517457962036 0.097140781581401824951 0.10764941573143005371 0.12019807100296020508 0.132402762770652771 0.14298981428146362305 0.15328690409660339355 0.16247372329235076904 0.17141370475292205811 0.19265761971473693848 0.22815136611461639404 0.23498311638832092285 0.24115490913391113281 0.24597878754138946533 0.24983933568000793457 0.2523021697998046875 0.2536246180534362793 0.25368487834930419922 0.25258797407150268555 0.25071689486503601074 0.24827817082405090332 0.2459080815315246582 0.24374260008335113525 0.24236464500427246094 0.24173232913017272949 0.24174854159355163574 0.24216344952583312988 0.24270653724670410156 0.24320389330387115479 0.24344214797019958496 0.24347779154777526855 0.24341075122356414795 0.24334855377674102783 0.24341279268264770508 0.24373374879360198975 0.24431510269641876221 0.24518406391143798828 0.24617680907249450684 0.24735854566097259521 0.24852322041988372803 0.24978038668632507324 0.25097611546516418457 0.25230199098587036133 0.25361356139183044434 0.25512155890464782715 0.25665080547332763672 0.25841921567916870117 0.26018184423446655273 0.2621631920337677002 0.26406395435333251953 0.2661266028881072998 0.26807397603988647461 0.27029117941856384277 0.27258482575416564941 0.27542412281036376953 0.27852603793144226074 0.2824618220329284668 0.28659924864768981934 0.29134994745254516602 0.29580771923065185547 0.30042505264282226562 0.30430930852890014648 0.30790236592292785645 0.31061637401580810547 0.31286162137985229492 0.31427600979804992676 0.31506392359733581543 0.31510031223297119141 0.31449404358863830566 0.31350028514862060547 0.31214827299118041992 0.3108132481575012207 0.30946671962738037109 0.30840209126472473145 0.30740666389465332031 0.30655458569526672363 0.30562624335289001465 0.30468139052391052246 0.30349650979042053223 0.30220466852188110352 0.30058696866035461426 0.29885709285736083984 0.2967345118522644043 0.29450276494026184082 0.29185003042221069336 0.28921055793762207031 0.28628548979759216309 0.2835515141487121582 0.28070095181465148926 0.27817040681838989258 0.27560675144195556641 0.27331659197807312012 0.27085170149803161621 0.26828143000602722168 0.26520141959190368652 0.26234510540962219238 0.25947859883308410645 0.25701025128364562988 0.25463896989822387695 0.25267878174781799316 0.25098705291748046875 0.24972885847091674805 0.24861574172973632812 0.24768108129501342773 0.24667839705944061279 0.24560943245887756348 0.24431812763214111328 0.24304729700088500977 0.24176687002182006836 0.2407360076904296875 0.23995666205883026123 0.23958089947700500488 0.23949702084064483643 0.23958988487720489502 0.23973314464092254639 0.23978559672832489014 0.23962743580341339111 0.23924691975116729736 0.23866416513919830322 0.2380135953426361084 0.23730377852916717529 0.23667903244495391846 0.23612692952156066895 0.23569418489933013916 0.2353038787841796875 0.23496326804161071777 0.23460498452186584473 0.23423099517822265625 0.23375992476940155029 0.2331895977258682251 0.23241099715232849121 0.2314491569995880127 0.23016056418418884277 0.22865626215934753418 0.22687797248363494873 0.22509029507637023926 0.22324746847152709961 0.22161479294300079346 0.22014003992080688477 0.21890151500701904297 0.21763667464256286621 0.21629028022289276123 0.21457628905773162842 0.21247994899749755859 0.20974394679069519043 0.20665930211544036865 0.20310296118259429932 0.19946734607219696045 0.19559870660305023193 0.19186794757843017578 0.18790215253829956055 0.18378493189811706543 0.1789881289005279541 0.17364035546779632568 0.16714395582675933838 0.15991857647895812988 0.15173065662384033203 0.14345437288284301758 0.13489250838756561279 0.12691843509674072266 0.11927341669797897339 0.1122600361704826355 0.10501432418823242188 0.097532890737056732178 0.088904350996017456055 0.079226136207580566406 0.067810207605361938477 0.055631343275308609009 0.042460020631551742554 0.029440974816679954529 0.016347842290997505188 0.0042910133488476276398 0 0 0 0 0 0 0 0 0 0 0 0 0 0 0 0 0 0 0 0 0 0 0 0 0 0 0 0 0 0 0 0 
0 0 0 0 0 0 0 0 0 0 0 0 0 0 0 0 0 0 0 0 0 0 0 0 0 0 0 0.0061255120672285556793 0.065401479601860046387 0.12147704511880874634 0.16708000004291534424 0.18953327834606170654 0.1901508718729019165 0.18361337482929229736 0.17850193381309509277 0.17709274590015411377 0.17113158106803894043 0.16197577118873596191 0.15540929138660430908 0.1491550058126449585 0.15065972506999969482 0.13091398775577545166 0.098058611154556274414 0.14909614622592926025 0.17058381438255310059 0.16158287227153778076 0.16540014743804931641 0.17289632558822631836 0.17600868642330169678 0.17655846476554870605 0.16905604302883148193 0.16825234889984130859 0.17015734314918518066 0.19137895107269287109 0.21315690875053405762 0.2183414846658706665 0.18638327717781066895 0.16322699189186096191 0.12018311768770217896 0.11665264517068862915 0.24000000953674316406 0.21486048400402069092 0.49398341774940490723 0.55524402856826782227 0.4852879643440246582 0.35579976439476013184 0.22100375592708587646 0.19730454683303833008 0.2091588824987411499 0.24356129765510559082 0.24376341700553894043 0.23091879487037658691 0.18986159563064575195 0.16423101723194122314 0.15357705950736999512 0.14530348777770996094 0.13967543840408325195 0.13346007466316223145 0.130008697509765625 0.13303300738334655762 0.13674813508987426758 0.13972266018390655518 0.13813248276710510254 0.13109874725341796875 0.12536725401878356934 0.12825885415077209473 0.1327994614839553833 0.13259153068065643311 0.12882797420024871826 0.12263473868370056152 0.11865885555744171143 0.11044916510581970215 0.10624429583549499512 0.10915389657020568848 0.11532650142908096313 0.11896383017301559448 0.1180316731333732605 0.11175227165222167969 0.10137538611888885498 0.09311370551586151123 0.10361362248659133911 0.11602103710174560547 0.12792360782623291016 0.13845779001712799072 0.14882931113243103027 0.15806220471858978271 0.16707578301429748535 0.18885131180286407471 0.22535730898380279541 0.23225927352905273438 0.23846641182899475098 0.24323827028274536133 0.24699535965919494629 0.24934916198253631592 0.25058466196060180664 0.2506135106086730957 0.24954850971698760986 0.24776563048362731934 0.24546734988689422607 0.24326397478580474854 0.24130056798458099365 0.24012994766235351562 0.23972721397876739502 0.23996627330780029297 0.24062027037143707275 0.24138577282428741455 0.24210236966609954834 0.24252380430698394775 0.24274013936519622803 0.24283763766288757324 0.24294932186603546143 0.24317911267280578613 0.24367372691631317139 0.24440908432006835938 0.24543288350105285645 0.24656024575233459473 0.24786739051342010498 0.24912653863430023193 0.25045996904373168945 0.25171399116516113281 0.25310352444648742676 0.25449120998382568359 0.25611555576324462891 0.25779992341995239258 0.25977721810340881348 0.26174893975257873535 0.26396635174751281738 0.26609259843826293945 0.26838761568069458008 0.27052992582321166992 0.27292320132255554199 0.27534329891204833984 0.27827256917953491211 0.28140375018119812012 0.28530642390251159668 0.28935408592224121094 0.29395020008087158203 0.29821836948394775391 0.30259022116661071777 0.30621609091758728027 0.30950209498405456543 0.31192180514335632324 0.31385639309883117676 0.3150043785572052002 0.31554198265075683594 0.31539404392242431641 0.31464031338691711426 0.31355208158493041992 0.31213468313217163086 0.31076517701148986816 0.30940109491348266602 0.30833795666694641113 0.30737212300300598145 0.30658346414566040039 0.30577504634857177734 0.30499929189682006836 0.30406183004379272461 0.30303499102592468262 0.30169156193733215332 0.30016106367111206055 0.29814207553863525391 0.2958609163761138916 0.29298621416091918945 0.29002141952514648438 0.28667557239532470703 0.28353264927864074707 0.28028187155723571777 0.27744764089584350586 0.27459076046943664551 0.27204537391662597656 0.26941496133804321289 0.2668272852897644043 0.26376220583915710449 0.26095107197761535645 0.25816524028778076172 0.25578629970550537109 0.25349307060241699219 0.25160640478134155273 0.24999862909317016602 0.24882914125919342041 0.24783343076705932617 0.24700179696083068848 0.24608130753040313721 0.245065346360206604 0.24380861222743988037 0.24255472421646118164 0.24128068983554840088 0.24024945497512817383 0.23946772515773773193 0.23909120261669158936 0.23900866508483886719 0.23910406231880187988 0.23925045132637023926 0.23930543661117553711 0.23914837837219238281 0.23876513540744781494 0.23817145824432373047 0.2374992072582244873 0.23675015568733215332 0.23606911301612854004 0.23543643951416015625 0.2349131852388381958 0.23442250490188598633 0.23398989439010620117 0.2335484921932220459 0.2331161797046661377 0.2326053231954574585 0.23200899362564086914 0.23120558261871337891 0.23021301627159118652 0.22887492179870605469 0.22730329632759094238 0.22544240951538085938 0.22357675433158874512 0.2216672748327255249 0.21999751031398773193 0.21852290630340576172 0.21731610596179962158 0.21609818935394287109 0.21479064226150512695 0.21309091150760650635 0.21096536517143249512 0.20814295113086700439 0.20492756366729736328 0.20119646191596984863 0.19736613333225250244 0.19327746331691741943 0.18932761251926422119 0.18514074385166168213 0.18081364035606384277 0.17579694092273712158 0.17023381590843200684 0.16351094841957092285 0.15606328845024108887 0.14764304459095001221 0.13914088904857635498 0.13034594058990478516 0.12214771658182144165 0.1142803579568862915 0.10708767175674438477 0.099738754332065582275 0.092278160154819488525 0.083842694759368896484 0.07455504685640335083 0.063739702105522155762 0.052250247448682785034 0.039788708090782165527 0.027359504252672195435 0.014654239639639854431 0.0021847584284842014313 0 0 0 0 0 0 0 0 0 0 0 0 0 0 0 0 0 0 0 0 0 0 0 0 0 0 0 0 0 0 0 0 
0 0 0 0 0 0 0 0 0 0 0 0 0 0 0 0 0 0 0 0 0 0 0 0 0 0 0 0.022355934605002403259 0.079610444605350494385 0.12777505815029144287 0.17561012506484985352 0.19883479177951812744 0.200742378830909729 0.19622997939586639404 0.19181831181049346924 0.18785990774631500244 0.17919006943702697754 0.16929869353771209717 0.16245019435882568359 0.16487701237201690674 0.16455128788948059082 0.1125914156436920166 0.1225292012095451355 0.16730508208274841309 0.17067642509937286377 0.17537455260753631592 0.17664822936058044434 0.1841643601655960083 0.18794591724872589111 0.18742342293262481689 0.18281061947345733643 0.18196396529674530029 0.18945524096488952637 0.21674577891826629639 0.25844424962997436523 0.28262406587600708008 0.26645967364311218262 0.2236722111701965332 0.15363146364688873291 0.092791773378849029541 0.21016134321689605713 0.2721106410026550293 0.488368988037109375 0.53500533103942871094 0.46953308582305908203 0.31621664762496948242 0.20860294997692108154 0.2009576261043548584 0.22407396137714385986 0.25660255551338195801 0.24218773841857910156 0.21672362089157104492 0.1873957216739654541 0.16915000975131988525 0.16189798712730407715 0.15263795852661132812 0.14579914510250091553 0.14130672812461853027 0.13991327583789825439 0.14128203690052032471 0.14350326359272003174 0.14454469084739685059 0.14120785892009735107 0.13357414305210113525 0.12893056869506835938 0.13472004234790802002 0.1376536637544631958 0.13435922563076019287 0.12848326563835144043 0.1219218820333480835 0.11670075356960296631 0.10969983786344528198 0.11161871999502182007 0.11779543757438659668 0.12250517308712005615 0.12404733151197433472 0.12122967839241027832 0.1143603101372718811 0.10240101069211959839 0.09146283566951751709 0.10117767006158828735 0.11700687557458877563 0.12465710192918777466 0.13505592942237854004 0.14532549679279327393 0.15447634458541870117 0.16346099972724914551 0.18560168147087097168 0.2228568345308303833 0.22973912954330444336 0.23589707911014556885 0.24055826663970947266 0.24419817328453063965 0.24645346403121948242 0.24763463437557220459 0.2476663440465927124 0.24666543304920196533 0.24499519169330596924 0.24285735189914703369 0.24083277583122253418 0.23907215893268585205 0.23809473216533660889 0.23789326846599578857 0.23832045495510101318 0.23917277157306671143 0.24012504518032073975 0.24103996157646179199 0.24164502322673797607 0.24203880131244659424 0.24228680133819580078 0.24255736172199249268 0.2429393380880355835 0.24359823763370513916 0.24448530375957489014 0.24565576016902923584 0.24690540134906768799 0.24832917749881744385 0.24968142807483673096 0.25109693408012390137 0.25242263078689575195 0.25389879941940307617 0.25538903474807739258 0.25716105103492736816 0.25903099775314331055 0.26125657558441162109 0.26348796486854553223 0.26598173379898071289 0.26835957169532775879 0.27090999484062194824 0.27326303720474243164 0.27584180235862731934 0.27838715910911560059 0.28139299154281616211 0.28453233838081359863 0.28836455941200256348 0.29227751493453979492 0.29666596651077270508 0.30069369077682495117 0.30476817488670349121 0.3080953061580657959 0.31104579567909240723 0.31315186619758605957 0.31476360559463500977 0.31564238667488098145 0.31593528389930725098 0.31561523675918579102 0.31473341584205627441 0.31357243657112121582 0.31211528182029724121 0.31073585152626037598 0.3093789219856262207 0.30833685398101806641 0.30741938948631286621 0.30671036243438720703 0.30603846907615661621 0.30544841289520263672 0.3047783970832824707 0.30403536558151245117 0.30298370122909545898 0.30166351795196533203 0.29975086450576782227 0.29741200804710388184 0.29429429769515991211 0.29097658395767211914 0.28717654943466186523 0.28359434008598327637 0.2799161374568939209 0.27676731348037719727 0.27365127205848693848 0.27087822556495666504 0.26805141568183898926 0.26542633771896362305 0.26237452030181884766 0.25960698723793029785 0.2569083869457244873 0.25462347269058227539 0.25240737199783325195 0.25059622526168823242 0.24908609688282012939 0.24803994596004486084 0.24716842174530029297 0.24642936885356903076 0.24558502435684204102 0.24461866915225982666 0.24339111149311065674 0.24214716255664825439 0.24087075889110565186 0.23983038961887359619 0.2390372157096862793 0.2386522442102432251 0.23856455087661743164 0.23865836858749389648 0.23880636692047119141 0.23886558413505554199 0.2387151569128036499 0.23833733797073364258 0.2377427220344543457 0.23705755174160003662 0.23627591133117675781 0.23554050922393798828 0.23482330143451690674 0.23419973254203796387 0.23359209299087524414 0.23304639756679534912 0.23249350488185882568 0.23197042942047119141 0.23138235509395599365 0.23072469234466552734 0.229863777756690979 0.22881713509559631348 0.22741729021072387695 0.22577978670597076416 0.22384867072105407715 0.22192284464836120605 0.21996684372425079346 0.21827633678913116455 0.21681165695190429688 0.21563787758350372314 0.2144613116979598999 0.2131818234920501709 0.21147897839546203613 0.20930285751819610596 0.20636935532093048096 0.20299999415874481201 0.19907358288764953613 0.19503526389598846436 0.19072408974170684814 0.18656420707702636719 0.18216679990291595459 0.17764836549758911133 0.17243762314319610596 0.16668112576007843018 0.15974649786949157715 0.15208128094673156738 0.14342583715915679932 0.1346905827522277832 0.12565360963344573975 0.11722412705421447754 0.10913196951150894165 0.10176545381546020508 0.09433113783597946167 0.086923062801361083984 0.078732036054134368896 0.069905832409858703613 0.059783451259136199951 0.049083858728408813477 0.037434682250022888184 0.025683179497718811035 0.012806244194507598877 0.00051472242921590805054 0 0 0 0 0 0 0 0 0 0 0 0 0 0 0 0 0 0 0 0 0 0 0 0 0 0 0 0 0 0 0 0 
0 0 0 0 0 0 0 0 0 0 0 0 0 0 0 0 0 0 0 0 0 0 0 0 0 0 0.0033753379248082637787 0.04230032116174697876 0.089212797582149505615 0.13549400866031646729 0.18433338403701782227 0.20801876485347747803 0.20886035263538360596 0.20696598291397094727 0.20436012744903564453 0.19947694242000579834 0.19195432960987091064 0.17808514833450317383 0.17181318998336791992 0.17697533965110778809 0.15911567211151123047 0.11959754675626754761 0.14584267139434814453 0.16334466636180877686 0.16722536087036132812 0.18098576366901397705 0.18872179090976715088 0.19489862024784088135 0.20269274711608886719 0.19800320267677307129 0.19644486904144287109 0.20082910358905792236 0.21347144246101379395 0.24299998581409454346 0.29987889528274536133 0.3238423466682434082 0.28700771927833557129 0.25176253914833068848 0.18373890221118927002 0.10276886820793151855 0.1687342524528503418 0.40801167488098144531 0.54083573818206787109 0.55342155694961547852 0.45772132277488708496 0.28156703710556030273 0.20422911643981933594 0.20674729347229003906 0.23635621368885040283 0.27082234621047973633 0.26282104849815368652 0.22658257186412811279 0.19020512700080871582 0.17468446493148803711 0.16993065178394317627 0.15978001058101654053 0.15289008617401123047 0.15056777000427246094 0.15043269097805023193 0.14993758499622344971 0.15051916241645812988 0.14931714534759521484 0.14355982840061187744 0.13597944378852844238 0.13368995487689971924 0.1412700265645980835 0.14240835607051849365 0.13604176044464111328 0.12836353480815887451 0.12454247474670410156 0.1201578974723815918 0.11610604822635650635 0.12016528844833374023 0.12587715685367584229 0.1295992434024810791 0.13036572933197021484 0.12828145921230316162 0.12243494391441345215 0.10885969549417495728 0.093267105519771575928 0.11587284505367279053 0.18174448609352111816 0.16342568397521972656 0.13304971158504486084 0.14250749349594116211 0.15153382718563079834 0.16041921079158782959 0.18281960487365722656 0.2206525951623916626 0.22744502127170562744 0.23348052799701690674 0.23801036179065704346 0.24152259528636932373 0.24368505179882049561 0.244815826416015625 0.24485470354557037354 0.24392645061016082764 0.24237714707851409912 0.24040296673774719238 0.23855371773242950439 0.23698700964450836182 0.236189231276512146 0.23616580665111541748 0.23675115406513214111 0.23776715993881225586 0.23887532949447631836 0.23996129631996154785 0.24073427915573120117 0.24130994081497192383 0.24172540009021759033 0.24215984344482421875 0.24269092082977294922 0.243508949875831604 0.24454417824745178223 0.24586749076843261719 0.24724690616130828857 0.24879147112369537354 0.25024595856666564941 0.25176191329956054688 0.25318217277526855469 0.25477454066276550293 0.25640061497688293457 0.25835818052291870117 0.26044890284538269043 0.26295894384384155273 0.26548615097999572754 0.26830542087554931641 0.27096498012542724609 0.27378916740417480469 0.27636247873306274414 0.27912822365760803223 0.28179129958152770996 0.28485259413719177246 0.28797048330307006836 0.29169136285781860352 0.29542127251625061035 0.29954552650451660156 0.30328083038330078125 0.30700501799583435059 0.3099911808967590332 0.31257238984107971191 0.31434604525566101074 0.31562036275863647461 0.31622445583343505859 0.31627508997917175293 0.31579232215881347656 0.31479910016059875488 0.31358551979064941406 0.31211388111114501953 0.31074994802474975586 0.3094291388988494873 0.30843353271484375 0.30758950114250183105 0.30698046088218688965 0.30646246671676635742 0.3060683906078338623 0.30567130446434020996 0.30521157383918762207 0.30444535613059997559 0.3033249974250793457 0.30150303244590759277 0.29908844828605651855 0.29570564627647399902 0.29201349616050720215 0.2877369225025177002 0.28369688987731933594 0.27957591414451599121 0.27610352635383605957 0.27274364233016967773 0.26979809999465942383 0.26677352190017700195 0.26405689120292663574 0.26101756095886230469 0.25829708576202392578 0.2557023465633392334 0.25351926684379577637 0.25138458609580993652 0.24966424703598022461 0.24829244613647460938 0.2473713308572769165 0.24661143124103546143 0.24596166610717773438 0.24519230425357818604 0.24427367746829986572 0.24307195842266082764 0.24183358252048492432 0.24054895341396331787 0.23949277400970458984 0.23868004977703094482 0.2382783740758895874 0.23817703127861022949 0.23826271295547485352 0.23840798437595367432 0.23847115039825439453 0.23833207786083221436 0.2379684150218963623 0.23738425970077514648 0.23669694364070892334 0.23589153587818145752 0.2351054847240447998 0.23430110514163970947 0.23356866836547851562 0.23282963037490844727 0.23215295374393463135 0.23146659135818481445 0.23082894086837768555 0.23013779520988464355 0.22939540445804595947 0.22845637798309326172 0.22734181582927703857 0.22587430477142333984 0.22417397797107696533 0.22218221426010131836 0.22020746767520904541 0.21821476519107818604 0.21650718152523040771 0.21504651010036468506 0.21389052271842956543 0.21273133158683776855 0.21145178377628326416 0.20971418917179107666 0.20745575428009033203 0.20437824726104736328 0.20082603394985198975 0.19667951762676239014 0.1924162060022354126 0.18787421286106109619 0.18350768089294433594 0.17891207337379455566 0.17420892417430877686 0.16881473362445831299 0.16287627816200256348 0.15573377907276153564 0.1478452831506729126 0.13894121348857879639 0.12995585799217224121 0.12065879255533218384 0.11198334395885467529 0.10365730524063110352 0.096115477383136749268 0.088602900505065917969 0.081263720989227294922 0.073344372212886810303 0.065016679465770721436 0.055636297911405563354 0.045781780034303665161 0.035005696117877960205 0.023988278582692146301 0.0076829972676932811737 0 0 0 0 0 0 0 0 0 0 0 0 0 0 0 0 0 0 0 0 0 0 0 0 0 0 0 0 0 0 0 0 0 
0 0 0 0 0 0 0 0 0 0 0 0 0 0 0 0 0 0 0 0 0 0 0 0 0 0 0.011064514517784118652 0.052892439067363739014 0.098356366157531738281 0.14607067406177520752 0.19264440238475799561 0.20960791409015655518 0.21035015583038330078 0.21100285649299621582 0.21058727800846099854 0.21038623154163360596 0.20677560567855834961 0.19219893217086791992 0.18453873693943023682 0.18271821737289428711 0.14103843271732330322 0.13842521607875823975 0.15843991935253143311 0.16578128933906555176 0.17495726048946380615 0.18895266950130462646 0.1987511366605758667 0.20398977398872375488 0.20913544297218322754 0.21236386895179748535 0.21151171624660491943 0.21748647093772888184 0.24041995406150817871 0.30079174041748046875 0.32074779272079467773 0.31932112574577331543 0.30476805567741394043 0.28243607282638549805 0.21269407868385314941 0.12985461950302124023 0.26239809393882751465 0.50198590755462646484 0.59188681840896606445 0.563446044921875 0.42016246914863586426 0.25053361058235168457 0.20051966607570648193 0.20806382596492767334 0.23970139026641845703 0.28045430779457092285 0.28994199633598327637 0.25438567996025085449 0.1982349008321762085 0.1797212064266204834 0.17138960957527160645 0.16521511971950531006 0.16212786734104156494 0.16168534755706787109 0.16029828786849975586 0.15790028870105743408 0.1554155200719833374 0.15215134620666503906 0.14571486413478851318 0.13871717453002929688 0.13922892510890960693 0.14757905900478363037 0.14669707417488098145 0.13841649889945983887 0.13178575038909912109 0.13088427484035491943 0.12591858208179473877 0.12235867977142333984 0.12719155848026275635 0.13247953355312347412 0.13594584167003631592 0.13771465420722961426 0.13807623088359832764 0.13614776730537414551 0.12799809873104095459 0.13005371391773223877 0.19662337005138397217 0.21951252222061157227 0.21370933949947357178 0.13691297173500061035 0.14028126001358032227 0.14916403591632843018 0.15793457627296447754 0.18053999543190002441 0.21885830163955688477 0.2255474776029586792 0.23143813014030456543 0.23583631217479705811 0.23922061920166015625 0.24130101501941680908 0.24239057302474975586 0.24243390560150146484 0.24155758321285247803 0.24010029435157775879 0.2382596135139465332 0.23655648529529571533 0.23514787852764129639 0.2344922870397567749 0.23460805416107177734 0.23531672358512878418 0.23645812273025512695 0.23768658936023712158 0.23891110718250274658 0.23982673883438110352 0.2405671924352645874 0.24114854633808135986 0.2417621910572052002 0.24244871735572814941 0.24342010915279388428 0.24459600448608398438 0.24606646597385406494 0.24758090078830718994 0.24926009774208068848 0.25082936882972717285 0.25246608257293701172 0.25400659441947937012 0.25574493408203125 0.25753441452980041504 0.2597064971923828125 0.2620404660701751709 0.2648518979549407959 0.26768407225608825684 0.27083727717399597168 0.27379241585731506348 0.27688658237457275391 0.27966582775115966797 0.28259718418121337891 0.28535324335098266602 0.2884387671947479248 0.2915001213550567627 0.2950706183910369873 0.29858228564262390137 0.30240410566329956055 0.30581641197204589844 0.30916452407836914062 0.31179380416870117188 0.31399846076965332031 0.31544378399848937988 0.31639298796653747559 0.31673637032508850098 0.31656372547149658203 0.31593802571296691895 0.31485658884048461914 0.31361335515975952148 0.31215366721153259277 0.31083089113235473633 0.30957567691802978516 0.30865430831909179688 0.30790916085243225098 0.3074162900447845459 0.30705735087394714355 0.30684840679168701172 0.30669343471527099609 0.3064746856689453125 0.30594149231910705566 0.30497348308563232422 0.30320119857788085938 0.30068954825401306152 0.29703998565673828125 0.29298776388168334961 0.28826132416725158691 0.28379338979721069336 0.27926117181777954102 0.27549165487289428711 0.27192047238349914551 0.26884809136390686035 0.26568147540092468262 0.2628230750560760498 0.25978174805641174316 0.25711283087730407715 0.25464078783988952637 0.25256145000457763672 0.250518798828125 0.2489280402660369873 0.24768771231174468994 0.24686960875988006592 0.246209755539894104 0.24564100801944732666 0.24493932723999023438 0.24406337738037109375 0.24288401007652282715 0.24164888262748718262 0.24035347998142242432 0.23927815258502960205 0.23844029009342193604 0.23801428079605102539 0.237889900803565979 0.2379589080810546875 0.23809482157230377197 0.23815937340259552002 0.23803466558456420898 0.23769322037696838379 0.23713171482086181641 0.23645520210266113281 0.23563890159130096436 0.23481182754039764404 0.23392598330974578857 0.23308615386486053467 0.23221389949321746826 0.23140208423137664795 0.23057654500007629395 0.2298183739185333252 0.22901754081249237061 0.22818537056446075439 0.22716543078422546387 0.22598378360271453857 0.2244542539119720459 0.22270087897777557373 0.2206602245569229126 0.21864555776119232178 0.21661898493766784668 0.21488708257675170898 0.21340906620025634766 0.21223819255828857422 0.21105386316776275635 0.20973001420497894287 0.20791296660900115967 0.2055358588695526123 0.20228582620620727539 0.19853137433528900146 0.19415351748466491699 0.18966281414031982422 0.18489603698253631592 0.18033623695373535156 0.17556270956993103027 0.17069697380065917969 0.16513121128082275391 0.15902292728424072266 0.15168209373950958252 0.14357189834117889404 0.13441500067710876465 0.12517298758029937744 0.11560961604118347168 0.10668580979108810425 0.098129071295261383057 0.090418323874473571777 0.082831658422946929932 0.075557738542556762695 0.067892558872699737549 0.06002850458025932312 0.051337283104658126831 0.042271178215742111206 0.032316658645868301392 0.021997855976223945618 0.0027622818015515804291 0 0 0 0 0 0 0 0 0 0 0 0 0 0 0 0 0 0 0 0 0 0 0 0 0 0 0 0 0 0 0 0 0 
0 0 0 0 0 0 0 0 0 0 0 0 0 0 0 0 0 0 0 0 0 0 0 0 0 0 0.013192150741815567017 0.055420264601707458496 0.10485129803419113159 0.15476536750793457031 0.20354960858821868896 0.21316111087799072266 0.2071895301342010498 0.20784775912761688232 0.20962473750114440918 0.21368582546710968018 0.21321862936019897461 0.20527260005474090576 0.19915367662906646729 0.17826867103576660156 0.14826534688472747803 0.16586767137050628662 0.16883148252964019775 0.17586587369441986084 0.19022253155708312988 0.1995239555835723877 0.20863687992095947266 0.21642734110355377197 0.21934957802295684814 0.22477175295352935791 0.22815765440464019775 0.24152706563472747803 0.29447075724601745605 0.341732025146484375 0.33628726005554199219 0.32381319999694824219 0.33064264059066772461 0.31927508115768432617 0.23662838339805603027 0.19293394684791564941 0.41800233721733093262 0.60366344451904296875 0.63567721843719482422 0.5504525303840637207 0.3583679497241973877 0.20968432724475860596 0.19555580615997314453 0.20995047688484191895 0.23504090309143066406 0.27626174688339233398 0.28956207633018493652 0.25375899672508239746 0.20607750117778778076 0.18886706233024597168 0.17737706005573272705 0.17376531660556793213 0.17351436614990234375 0.17279183864593505859 0.16934444010257720947 0.16511078178882598877 0.16145521402359008789 0.15555140376091003418 0.14751711487770080566 0.14145599305629730225 0.14631381630897521973 0.15304173529148101807 0.1492747962474822998 0.1420523524284362793 0.13778857886791229248 0.13755033910274505615 0.13074578344821929932 0.1285762786865234375 0.13406595587730407715 0.13880203664302825928 0.14269858598709106445 0.14599348604679107666 0.14945583045482635498 0.15343241393566131592 0.16159382462501525879 0.18811210989952087402 0.21053929626941680908 0.22192788124084472656 0.23120178282260894775 0.15783807635307312012 0.13842177391052246094 0.14714777469635009766 0.1557960808277130127 0.17858754098415374756 0.21738916635513305664 0.22399179637432098389 0.22976389527320861816 0.23405037820339202881 0.23732610046863555908 0.23933009803295135498 0.24037140607833862305 0.24040579795837402344 0.2395601123571395874 0.23816116154193878174 0.23640286922454833984 0.23479351401329040527 0.23349393904209136963 0.23293696343898773193 0.23314671218395233154 0.23394006490707397461 0.23517455160617828369 0.23649848997592926025 0.23783679306507110596 0.23887997865676879883 0.23977865278720855713 0.24052555859088897705 0.24132648110389709473 0.24219126999378204346 0.24333582818508148193 0.24465794861316680908 0.24628102779388427734 0.24793934822082519531 0.24977484345436096191 0.25149044394493103027 0.25328266620635986328 0.25498044490814208984 0.25690773129463195801 0.25889959931373596191 0.26132339239120483398 0.26393070816993713379 0.26706749200820922852 0.27021846175193786621 0.27371132373809814453 0.27696457505226135254 0.28033134341239929199 0.28329876065254211426 0.28636604547500610352 0.28918144106864929199 0.29225024580955505371 0.29521340131759643555 0.29858419299125671387 0.30183318257331848145 0.3053086400032043457 0.3083603978157043457 0.31130072474479675293 0.31355240941047668457 0.31536829471588134766 0.31648284196853637695 0.31711542606353759766 0.31720972061157226562 0.31682962179183959961 0.31607860326766967773 0.31493076682090759277 0.31368076801300048828 0.31226110458374023438 0.31100896000862121582 0.30985504388809204102 0.30904343724250793457 0.30843156576156616211 0.3080768883228302002 0.30788370966911315918 0.30784437060356140137 0.30788603425025939941 0.30784574151039123535 0.30746799707412719727 0.30658176541328430176 0.30479770898818969727 0.30215573310852050781 0.29823452234268188477 0.29384064674377441406 0.28870004415512084961 0.28384459018707275391 0.27894514799118041992 0.27491846680641174316 0.2711658179759979248 0.26798936724662780762 0.26474148035049438477 0.26173725724220275879 0.25864759087562561035 0.25604107975959777832 0.25372332334518432617 0.25175490975379943848 0.24985723197460174561 0.24839980900287628174 0.24727179110050201416 0.24654693901538848877 0.24597683548927307129 0.24548038840293884277 0.24483862519264221191 0.24400082230567932129 0.24284209311008453369 0.24161021411418914795 0.24030388891696929932 0.23920764029026031494 0.23833931982517242432 0.23787996172904968262 0.23772028088569641113 0.23776082694530487061 0.23787738382816314697 0.2379385828971862793 0.23783065378665924072 0.23752054572105407715 0.23699618875980377197 0.23634615540504455566 0.2355346977710723877 0.23467808961868286133 0.23371750116348266602 0.23277227580547332764 0.23176589608192443848 0.23081690073013305664 0.22985057532787322998 0.22897268831729888916 0.2280658036470413208 0.22714935243129730225 0.22605648636817932129 0.22481733560562133789 0.22323749959468841553 0.22144280374050140381 0.21936284005641937256 0.21731136739253997803 0.21524399518966674805 0.21346780657768249512 0.21193467080593109131 0.21069827675819396973 0.20942665636539459229 0.20799566805362701416 0.20603659749031066895 0.20348912477493286133 0.20002639293670654297 0.19604340195655822754 0.19141684472560882568 0.1866909712553024292 0.18169990181922912598 0.17695343494415283203 0.1720129549503326416 0.16699765622615814209 0.16127113997936248779 0.1549892127513885498 0.14744521677494049072 0.13910311460494995117 0.12967698276042938232 0.12016028910875320435 0.1103136017918586731 0.10112986713647842407 0.092337891459465026855 0.084457084536552429199 0.076790437102317810059 0.069563604891300201416 0.062112793326377868652 0.054645884782075881958 0.046549804508686065674 0.038172103464603424072 0.028946258127689361572 0.016676774248480796814 0.00051855394849553704262 0 0 0 0 0 0 0 0 0 0 0 0 0 0 0 0 0 0 0 0 0 0 0 0 0 0 0 0 0 0 0 0 0 
0 0 0 0 0 0 0 0 0 0 0 0 0 0 0 0 0 0 0 0 0 0 0 0 0 0 0.010114244185388088226 0.054448612034320831299 0.10597747564315795898 0.1552136540412902832 0.20447172224521636963 0.21732315421104431152 0.21177783608436584473 0.20828054845333099365 0.20623120665550231934 0.20891515910625457764 0.20925121009349822998 0.21269619464874267578 0.21113088726997375488 0.14977057278156280518 0.16497728228569030762 0.17856179177761077881 0.17598398029804229736 0.18134792149066925049 0.19068634510040283203 0.20658281445503234863 0.22271597385406494141 0.22620990872383117676 0.2306388169527053833 0.23620112240314483643 0.24218487739562988281 0.26542174816131591797 0.34877124428749084473 0.36468282341957092285 0.36156281828880310059 0.32325240969657897949 0.32916045188903808594 0.33100539445877075195 0.27197048068046569824 0.30597972869873046875 0.58995741605758666992 0.68761098384857177734 0.66255539655685424805 0.50707352161407470703 0.29305303096771240234 0.19173145294189453125 0.19225485622882843018 0.21136645972728729248 0.23531347513198852539 0.27438834309577941895 0.28970366716384887695 0.24026881158351898193 0.21214056015014648438 0.19553677737712860107 0.18481121957302093506 0.18383833765983581543 0.18501912057399749756 0.18331545591354370117 0.17753206193447113037 0.17131921648979187012 0.16509284079074859619 0.15840591490268707275 0.14987622201442718506 0.14776508510112762451 0.15579596161842346191 0.15979140996932983398 0.15482738614082336426 0.14789380133152008057 0.14495931565761566162 0.14276464283466339111 0.13587239384651184082 0.1364018172025680542 0.14102441072463989258 0.14530935883522033691 0.14966124296188354492 0.15415005385875701904 0.1598062664270401001 0.16740761697292327881 0.18077966570854187012 0.19917133450508117676 0.21360446512699127197 0.22396047413349151611 0.23342940211296081543 0.15862487256526947021 0.13692612946033477783 0.14550293982028961182 0.15403154492378234863 0.17699547111988067627 0.21628211438655853271 0.22283039987087249756 0.22853176295757293701 0.23273885250091552734 0.2359370887279510498 0.23788130283355712891 0.23887643218040466309 0.23888686299324035645 0.23804104328155517578 0.23666436970233917236 0.23494397103786468506 0.23337537050247192383 0.23211948573589324951 0.23160493373870849609 0.23185852169990539551 0.23269338905811309814 0.23398037254810333252 0.23536956310272216797 0.2367983013391494751 0.23795238137245178223 0.23899678885936737061 0.23990248143672943115 0.24088692665100097656 0.241930350661277771 0.24326226115226745605 0.24474488198757171631 0.24652530252933502197 0.24833375215530395508 0.25033795833587646484 0.25222349166870117188 0.25420805811882019043 0.25609582662582397461 0.25824666023254394531 0.26047021150588989258 0.26316854357719421387 0.26605987548828125 0.26952281594276428223 0.27298286557197570801 0.27679479122161865234 0.28031873703002929688 0.28392970561981201172 0.28705754876136779785 0.29021695256233215332 0.29304879903793334961 0.29605585336685180664 0.29888236522674560547 0.30201742053031921387 0.30497440695762634277 0.30808031558990478516 0.3107585608959197998 0.31328609585762023926 0.31516546010971069336 0.31660729646682739258 0.31741130352020263672 0.31775513291358947754 0.31763064861297607422 0.31707328557968139648 0.31622275710105895996 0.31503444910049438477 0.3138007819652557373 0.31244674324989318848 0.31129053235054016113 0.3102683722972869873 0.30959630012512207031 0.30914542078971862793 0.30894258618354797363 0.30890950560569763184 0.30900856852531433105 0.30918025970458984375 0.30923283100128173828 0.30890941619873046875 0.30801725387573242188 0.30615055561065673828 0.30334842205047607422 0.29916784167289733887 0.29447650909423828125 0.28899100422859191895 0.28382295370101928711 0.27863717079162597656 0.27441072463989257812 0.27051696181297302246 0.26726478338241577148 0.26397192478179931641 0.26089152693748474121 0.2576840817928314209 0.25515019893646240234 0.25301244854927062988 0.25119003653526306152 0.24944910407066345215 0.24810157716274261475 0.24707268178462982178 0.24642729759216308594 0.24593010544776916504 0.24549148976802825928 0.24489741027355194092 0.24409076571464538574 0.24295030534267425537 0.24172233045101165771 0.24040681123733520508 0.23929002881050109863 0.2383880615234375 0.23788782954216003418 0.23768131434917449951 0.23768144845962524414 0.23776736855506896973 0.23781822621822357178 0.23772573471069335938 0.23745194077491760254 0.23697482049465179443 0.23636369407176971436 0.23557117581367492676 0.23469769954681396484 0.23367364704608917236 0.23263220489025115967 0.23150089383125305176 0.2304239422082901001 0.22932825982570648193 0.22834405303001403809 0.22734840214252471924 0.22636587917804718018 0.22521974146366119385 0.2239417731761932373 0.22233025729656219482 0.22050967812538146973 0.2184016108512878418 0.21631649136543273926 0.21420058608055114746 0.21235954761505126953 0.210733756422996521 0.20938295125961303711 0.20796555280685424805 0.20637048780918121338 0.20421582460403442383 0.20145811140537261963 0.19775705039501190186 0.19353517889976501465 0.18866051733493804932 0.18370641767978668213 0.17850193381309509277 0.17358002066612243652 0.16848395764827728271 0.16332946717739105225 0.15745374560356140137 0.15100558102130889893 0.14325688779354095459 0.13468769192695617676 0.12499787658452987671 0.11521215736865997314 0.10508885979652404785 0.095653429627418518066 0.086635805666446685791 0.078589074313640594482 0.070830777287483215332 0.063614234328269958496 0.056302379816770553589 0.049114633351564407349 0.04144944995641708374 0.033581521362066268921 0.024919476360082626343 0.0097904363647103309631 0 0 0 0 0 0 0 0 0 0 0 0 0 0 0 0 0 0 0 0 0 0 0 0 0 0 0 0 0 0 0 0 0 0 
0 0 0 0 0 0 0 0 0 0 0 0 0 0 0 0 0 0 0 0 0 0 0 0 0 0 0.0096346139907836914062 0.055025219917297363281 0.10421597212553024292 0.15399801731109619141 0.20328049361705780029 0.21486245095729827881 0.21395878493785858154 0.20968595147132873535 0.20425795018672943115 0.20414155721664428711 0.20770210027694702148 0.21851438283920288086 0.19951765239238739014 0.15039052069187164307 0.17955458164215087891 0.17112477123737335205 0.17266379296779632568 0.18016973137855529785 0.18957236409187316895 0.2055606842041015625 0.22069755196571350098 0.22344666719436645508 0.23114509880542755127 0.2377579808235168457 0.24471555650234222412 0.28583744168281555176 0.37750586867332458496 0.36203083395957946777 0.34863269329071044922 0.32293683290481567383 0.33329868316650390625 0.34187167882919311523 0.32413002848625183105 0.49305891990661621094 0.70028072595596313477 0.72432887554168701172 0.65436351299285888672 0.44881144165992736816 0.23664645850658416748 0.1873356550931930542 0.19573526084423065186 0.21603478491306304932 0.2517147362232208252 0.28790807723999023438 0.29496172070503234863 0.24720175564289093018 0.21855527162551879883 0.1997864842414855957 0.19180433452129364014 0.19429448246955871582 0.1960328519344329834 0.1923805922269821167 0.18478126823902130127 0.17716032266616821289 0.1694723665714263916 0.1624225229024887085 0.15732964873313903809 0.15951804816722869873 0.16698227822780609131 0.16764128208160400391 0.16013883054256439209 0.1540559232234954834 0.15161392092704772949 0.14689485728740692139 0.14110173285007476807 0.14363202452659606934 0.14761163294315338135 0.15175582468509674072 0.15643209218978881836 0.16156083345413208008 0.16811321675777435303 0.17635998129844665527 0.18822404742240905762 0.20341373980045318604 0.21633636951446533203 0.22570599615573883057 0.23429974913597106934 0.15802428126335144043 0.13568384945392608643 0.14410805702209472656 0.15251429378986358643 0.17562864720821380615 0.21538019180297851562 0.22190050780773162842 0.22756487131118774414 0.23171830177307128906 0.23486220836639404297 0.23676052689552307129 0.23771671950817108154 0.23770353198051452637 0.23684985935688018799 0.2354793846607208252 0.23377491533756256104 0.2322244495153427124 0.23098181188106536865 0.23046895861625671387 0.23072035610675811768 0.2315606921911239624 0.23286558687686920166 0.23428928852081298828 0.23578616976737976074 0.23704200983047485352 0.23822665214538574219 0.23928932845592498779 0.24046014249324798584 0.24168805778026580811 0.24321702122688293457 0.24488201737403869629 0.24684676527976989746 0.2488234788179397583 0.25101971626281738281 0.25310313701629638672 0.25532171130180358887 0.25744456052780151367 0.25986072421073913574 0.26235094666481018066 0.26535379886627197266 0.26854583621025085449 0.27234098315238952637 0.27610662579536437988 0.28022396564483642578 0.28399756550788879395 0.28782311081886291504 0.29108756780624389648 0.29430544376373291016 0.29711315035820007324 0.30001315474510192871 0.30266091227531433105 0.3055165410041809082 0.30814376473426818848 0.31084197759628295898 0.31311690807342529297 0.31520834565162658691 0.31670483946800231934 0.31777250766754150391 0.31827422976493835449 0.31834518909454345703 0.31802329421043395996 0.31731367111206054688 0.31638619303703308105 0.31518203020095825195 0.31398826837539672852 0.31272688508033752441 0.31169369816780090332 0.31083530187606811523 0.31033337116241455078 0.31007242202758789062 0.31003743410110473633 0.31016314029693603516 0.31037622690200805664 0.31062215566635131836 0.31069362163543701172 0.31033545732498168945 0.30935773253440856934 0.30734020471572875977 0.30434241890907287598 0.2999000251293182373 0.29493609070777893066 0.28915441036224365234 0.28373041749000549316 0.27831321954727172852 0.2739270329475402832 0.26992404460906982422 0.26661902666091918945 0.26330468058586120605 0.26021304726600646973 0.25686356425285339355 0.25439354777336120605 0.25248426198959350586 0.25083979964256286621 0.24923460185527801514 0.24799197912216186523 0.24705584347248077393 0.24648119509220123291 0.24604487419128417969 0.24565303325653076172 0.24509702622890472412 0.24431589245796203613 0.24319145083427429199 0.24196729063987731934 0.24064245820045471191 0.23950332403182983398 0.23856204748153686523 0.23801091313362121582 0.23774331808090209961 0.23768815398216247559 0.23772859573364257812 0.23775805532932281494 0.23767457902431488037 0.23743624985218048096 0.23700971901416778564 0.23644295334815979004 0.23567590117454528809 0.2347908318042755127 0.23370687663555145264 0.23257119953632354736 0.23131676018238067627 0.23011459410190582275 0.22889460623264312744 0.22781211137771606445 0.22673952579498291016 0.22570505738258361816 0.22452184557914733887 0.22322046756744384766 0.22159275412559509277 0.2197593003511428833 0.21763296425342559814 0.21551828086376190186 0.21335044503211975098 0.21143217384815216064 0.20968976616859436035 0.20819257199764251709 0.20659090578556060791 0.20479394495487213135 0.20240806043148040771 0.19941343367099761963 0.19545634090900421143 0.19098612666130065918 0.1858590543270111084 0.18067388236522674561 0.17524904012680053711 0.17013983428478240967 0.16487154364585876465 0.15956097841262817383 0.15352162718772888184 0.14690171182155609131 0.13894644379615783691 0.13015623390674591064 0.12022349238395690918 0.11019172519445419312 0.099813625216484069824 0.09014094620943069458 0.080901153385639190674 0.072676509618759155273 0.06479403376579284668 0.057532709091901779175 0.050273865461349487305 0.043249297887086868286 0.035865947604179382324 0.028360150754451751709 0.019899632781744003296 0.0036307626869529485703 0 0 0 0 0 0 0 0 0 0 0 0 0 0 0 0 0 0 0 0 0 0 0 0 0 0 0 0 0 0 0 0 0 0 
0 0 0 0 0 0 0 0 0 0 0 0 0 0 0 0 0 0 0 0 0 0 0 0 0 0 0.012761357240378856659 0.056938245892524719238 0.10542245954275131226 0.15688924491405487061 0.20394374430179595947 0.21355667710304260254 0.21121382713317871094 0.20777644217014312744 0.20106244087219238281 0.20142135024070739746 0.21174784004688262939 0.21499970555305480957 0.16009536385536193848 0.16880047321319580078 0.18970446288585662842 0.1766061931848526001 0.17679215967655181885 0.17727190256118774414 0.18352183699607849121 0.19718164205551147461 0.21198868751525878906 0.21662861108779907227 0.22510193288326263428 0.23389495909214019775 0.24351972341537475586 0.3114706873893737793 0.37127780914306640625 0.35284575819969177246 0.34079441428184509277 0.33673712611198425293 0.35090777277946472168 0.38276383280754089355 0.41296035051345825195 0.67170464992523193359 0.7922732234001159668 0.73738867044448852539 0.60380256175994873047 0.37588897347450256348 0.20047858357429504395 0.18721938133239746094 0.20170725882053375244 0.22290202975273132324 0.27187940478324890137 0.30284890532493591309 0.28968408703804016113 0.24725523591041564941 0.21956594288349151611 0.20309504866600036621 0.19751872122287750244 0.20366457104682922363 0.20444396138191223145 0.19816668331623077393 0.1886529773473739624 0.17970427870750427246 0.17269401252269744873 0.16844245791435241699 0.16515488922595977783 0.16907045245170593262 0.17576569318771362305 0.17302615940570831299 0.16432757675647735596 0.1593751758337020874 0.15782225131988525391 0.14991384744644165039 0.1451301872730255127 0.14895173907279968262 0.15324543416500091553 0.15745900571346282959 0.16227258741855621338 0.16751837730407714844 0.17400951683521270752 0.1814848482608795166 0.19165715575218200684 0.20601834356784820557 0.21795877814292907715 0.22690142691135406494 0.23508436977863311768 0.15768921375274658203 0.13478824496269226074 0.14302676916122436523 0.15129192173480987549 0.17449861764907836914 0.21460777521133422852 0.22111862897872924805 0.22676359117031097412 0.23088344931602478027 0.23399211466312408447 0.23586042225360870361 0.23679339885711669922 0.23677137494087219238 0.23592577874660491943 0.2345753014087677002 0.23289625346660614014 0.23136664927005767822 0.23013529181480407715 0.22961424291133880615 0.22983781993389129639 0.23064915835857391357 0.23193843662738800049 0.2333669811487197876 0.23490390181541442871 0.23624058067798614502 0.23755200207233428955 0.23876059055328369141 0.24010768532752990723 0.24151438474655151367 0.24323824048042297363 0.245088234543800354 0.24725495278835296631 0.24942025542259216309 0.25182428956031799316 0.2541230618953704834 0.25659728050231933594 0.25898119807243347168 0.26168817281723022461 0.26445856690406799316 0.26777097582817077637 0.27125707268714904785 0.27536368370056152344 0.27940693497657775879 0.28379324078559875488 0.2877781987190246582 0.29177519679069519043 0.29513797163963317871 0.2983849942684173584 0.30113646388053894043 0.3038959503173828125 0.30633786320686340332 0.30889016389846801758 0.31117093563079833984 0.31345000863075256348 0.31531637907028198242 0.31697168946266174316 0.31809332966804504395 0.31880676746368408203 0.31903120875358581543 0.31886026263236999512 0.3183714747428894043 0.31754401326179504395 0.31656634807586669922 0.31537139415740966797 0.31423768401145935059 0.31308829784393310547 0.31219446659088134766 0.31151637434959411621 0.31119832396507263184 0.31113710999488830566 0.31127119064331054688 0.31154337525367736816 0.31184339523315429688 0.31211501359939575195 0.31214657425880432129 0.31168562173843383789 0.31056430935859680176 0.30834910273551940918 0.3051356971263885498 0.30044034123420715332 0.29523652791976928711 0.28920841217041015625 0.28357744216918945312 0.27797856926918029785 0.27347147464752197266 0.2693913877010345459 0.26605653762817382812 0.26274389028549194336 0.25966995954513549805 0.25624239444732666016 0.25381240248680114746 0.25216820836067199707 0.25066578388214111328 0.24918131530284881592 0.24803522229194641113 0.24718201160430908203 0.24666747450828552246 0.2462794184684753418 0.24592284858226776123 0.24539460241794586182 0.24463227391242980957 0.24351987242698669434 0.24229753017425537109 0.24096180498600006104 0.239797934889793396 0.23881247639656066895 0.23820288479328155518 0.23786327242851257324 0.23774062097072601318 0.23772169649600982666 0.23771646618843078613 0.23762889206409454346 0.23741501569747924805 0.23702923953533172607 0.23649957776069641113 0.2357527613639831543 0.23485372960567474365 0.23371019959449768066 0.2324832230806350708 0.23111113905906677246 0.22979092597961425781 0.22845603525638580322 0.22728554904460906982 0.22614803910255432129 0.2250738292932510376 0.2238671034574508667 0.22255529463291168213 0.22092390060424804688 0.21908864378929138184 0.21695457398891448975 0.21481934189796447754 0.21260783076286315918 0.21061906218528747559 0.20876583456993103027 0.20712731778621673584 0.20534712076187133789 0.20335558056831359863 0.20074914395809173584 0.19753183424472808838 0.19333735108375549316 0.1886374056339263916 0.18327364325523376465 0.17786552011966705322 0.17221657931804656982 0.16690124571323394775 0.16143026947975158691 0.15593247115612030029 0.14970485866069793701 0.14290602505207061768 0.13476474583148956299 0.12579101324081420898 0.11567663401365280151 0.10546797513961791992 0.094900824129581451416 0.085037745535373687744 0.075595557689666748047 0.067181564867496490479 0.059132423251867294312 0.051756817847490310669 0.044449713081121444702 0.037461861968040466309 0.0302143096923828125 0.022930091246962547302 0.013591336086392402649 0 0 0 0 0 0 0 0 0 0 0 0 0 0 0 0 0 0 0 0 0 0 0 0 0 0 0 0 0 0 0 0 0 0 0 
0 0 0 0 0 0 0 0 0 0 0 0 0 0 0 0 0 0 0 0 0 0 0 0 0 0 0.03024023398756980896 0.067406214773654937744 0.11020867526531219482 0.15938286483287811279 0.20538164675235748291 0.21314279735088348389 0.20865574479103088379 0.20550785958766937256 0.20032490789890289307 0.20325791835784912109 0.21670614182949066162 0.1894537806510925293 0.15406110882759094238 0.18643879890441894531 0.18892711400985717773 0.18350669741630554199 0.18419618904590606689 0.18143101036548614502 0.18580867350101470947 0.19681619107723236084 0.2036400139331817627 0.21156908571720123291 0.22365273535251617432 0.23091012239456176758 0.24824120104312896729 0.32117006182670593262 0.34675061702728271484 0.35256516933441162109 0.35662263631820678711 0.36640083789825439453 0.3845838010311126709 0.42767509818077087402 0.53347492218017578125 0.76268231868743896484 0.81890684366226196289 0.72251260280609130859 0.53108018636703491211 0.3059590756893157959 0.18750376999378204346 0.1925687640905380249 0.20953032374382019043 0.23424772918224334717 0.28611859679222106934 0.30742827057838439941 0.2893975377082824707 0.2471644282341003418 0.22570833563804626465 0.20549240708351135254 0.2014462202787399292 0.21358425915241241455 0.21005438268184661865 0.20229077339172363281 0.19281564652919769287 0.18523302674293518066 0.17822855710983276367 0.17445531487464904785 0.17195303738117218018 0.17795763909816741943 0.18336153030395507812 0.17659787833690643311 0.1687427908182144165 0.1648413538932800293 0.16210713982582092285 0.15280400216579437256 0.15038359165191650391 0.15421502292156219482 0.1584421694278717041 0.16265544295310974121 0.16741195321083068848 0.17248395085334777832 0.17850585281848907471 0.18489235639572143555 0.19416946172714233398 0.20813965797424316406 0.21954023838043212891 0.2282457500696182251 0.23627939820289611816 0.15769900381565093994 0.13419334590435028076 0.14223591983318328857 0.15032561123371124268 0.17351599037647247314 0.21381340920925140381 0.22031508386135101318 0.22594051063060760498 0.23003429174423217773 0.23311798274517059326 0.23497034609317779541 0.23590146005153656006 0.23589876294136047363 0.23509983718395233154 0.2338113635778427124 0.23220244050025939941 0.2307303696870803833 0.22953675687313079834 0.22901892662048339844 0.22921106219291687012 0.22997361421585083008 0.23121058940887451172 0.23261350393295288086 0.23416319489479064941 0.23555941879749298096 0.23698215186595916748 0.23833154141902923584 0.23985277116298675537 0.24143990874290466309 0.24336662888526916504 0.24541479349136352539 0.24780414998531341553 0.25019168853759765625 0.25283947587013244629 0.2553831934928894043 0.25814595818519592285 0.26082146167755126953 0.26385381817817687988 0.26692816615104675293 0.27056229114532470703 0.27434214949607849121 0.2787469327449798584 0.2830447852611541748 0.28766927123069763184 0.29183271527290344238 0.29596388339996337891 0.29939025640487670898 0.30263441801071166992 0.3053041994571685791 0.30788815021514892578 0.31009116768836975098 0.31230452656745910645 0.31420686841011047363 0.31603574752807617188 0.31746986508369445801 0.31867080926895141602 0.31940734386444091797 0.31976652145385742188 0.31972420215606689453 0.31933090090751647949 0.31869804859161376953 0.31778132915496826172 0.31677955389022827148 0.31561970710754394531 0.31456872820854187012 0.31355440616607666016 0.31281962990760803223 0.31234145164489746094 0.3122228085994720459 0.31237274408340454102 0.31267943978309631348 0.3130906224250793457 0.3134575188159942627 0.31371763348579406738 0.31366318464279174805 0.31304413080215454102 0.31172975897789001465 0.30927380919456481934 0.30582115054130554199 0.3008670806884765625 0.29543057084083557129 0.28917279839515686035 0.28335684537887573242 0.27760270237922668457 0.27299866080284118652 0.26886510848999023438 0.26552060246467590332 0.26223200559616088867 0.25919926166534423828 0.25579616427421569824 0.25344946980476379395 0.25199821591377258301 0.25061711668968200684 0.24924889206886291504 0.24819624423980712891 0.24742121994495391846 0.24696077406406402588 0.24661314487457275391 0.24628368020057678223 0.24577577412128448486 0.24502637982368469238 0.24392150342464447021 0.24269734323024749756 0.2413463294506072998 0.24015213549137115479 0.23911392688751220703 0.23843461275100708008 0.23800797760486602783 0.23780140280723571777 0.23770403861999511719 0.23764514923095703125 0.23753313720226287842 0.23732480406761169434 0.23696082830429077148 0.23645177483558654785 0.23570996522903442383 0.2347850501537322998 0.23357260227203369141 0.23224824666976928711 0.23075492680072784424 0.22931568324565887451 0.22786705195903778076 0.22661167383193969727 0.22541421651840209961 0.22430631518363952637 0.2230835258960723877 0.22176945209503173828 0.2201436161994934082 0.21831537783145904541 0.21618376672267913818 0.21403984725475311279 0.21180032193660736084 0.20976011455059051514 0.20782101154327392578 0.20606948435306549072 0.20414371788501739502 0.20199100673198699951 0.19919921457767486572 0.19579209387302398682 0.19139112532138824463 0.18648415803909301758 0.18089492619037628174 0.17525888979434967041 0.16936047375202178955 0.1637916862964630127 0.15805190801620483398 0.15230107307434082031 0.14583019912242889404 0.13882599771022796631 0.13051451742649078369 0.12141531705856323242 0.11120084673166275024 0.10091169923543930054 0.090245760977268218994 0.080251120030879974365 0.07062088698148727417 0.061986751854419708252 0.053700383752584457397 0.046112552285194396973 0.03863595426082611084 0.031560678035020828247 0.02432445622980594635 0.017152199521660804749 0.0053284964524209499359 0 0 0 0 0 0 0 0 0 0 0 0 0 0 0 0 0 0 0 0 0 0 0 0 0 0 0 0 0 0 0 0 0 0 0 
0 0 0 0 0 0 0 0 0 0 0 0 0 0 0 0 0 0 0 0 0 0 0 0 0 0 0.12542600929737091064 0.088914625346660614014 0.11999320238828659058 0.16968497633934020996 0.21069064736366271973 0.21232940256595611572 0.2039975970983505249 0.19958087801933288574 0.19828011095523834229 0.20536188781261444092 0.20748239755630493164 0.16473811864852905273 0.19739410281181335449 0.19968381524085998535 0.19082190096378326416 0.18654735386371612549 0.18539893627166748047 0.18606354296207427979 0.18651892244815826416 0.1944777071475982666 0.19703890383243560791 0.20829397439956665039 0.22256126999855041504 0.23322242498397827148 0.2617123723030090332 0.31181764602661132812 0.32488337159156799316 0.36067283153533935547 0.38362556695938110352 0.38074079155921936035 0.40472891926765441895 0.44775974750518798828 0.62828797101974487305 0.78256237506866455078 0.8057193756103515625 0.68794322013854980469 0.45181497931480407715 0.25407567620277404785 0.19034728407859802246 0.20372940599918365479 0.22325953841209411621 0.2616768181324005127 0.30469480156898498535 0.30351868271827697754 0.27026990056037902832 0.23978279531002044678 0.22510831058025360107 0.2083851248025894165 0.20823016762733459473 0.21747885644435882568 0.21472607553005218506 0.20757332444190979004 0.1972322613000869751 0.18977941572666168213 0.18369650840759277344 0.179840087890625 0.17849645018577575684 0.18585015833377838135 0.18932731449604034424 0.18039755523204803467 0.17405234277248382568 0.17103515565395355225 0.16621194779872894287 0.15624418854713439941 0.15536239743232727051 0.15902684628963470459 0.16303236782550811768 0.16710716485977172852 0.17167066037654876709 0.17647412419319152832 0.18201023340225219727 0.1878271251916885376 0.19689267873764038086 0.20985238254070281982 0.22073882818222045898 0.22943131625652313232 0.2271152883768081665 0.14654192328453063965 0.13387727737426757812 0.14173950254917144775 0.14966338872909545898 0.17272765934467315674 0.21296162903308868408 0.21941863000392913818 0.22500751912593841553 0.22907209396362304688 0.23213538527488708496 0.23398584127426147461 0.23494207859039306641 0.23499786853790283203 0.23430141806602478027 0.23313754796981811523 0.23166780173778533936 0.23031468689441680908 0.22921200096607208252 0.22872906923294067383 0.22890335321426391602 0.22961336374282836914 0.23077806830406188965 0.23212382197380065918 0.23365473747253417969 0.23508371412754058838 0.23659141361713409424 0.23806113004684448242 0.23974357545375823975 0.24150215089321136475 0.2436282038688659668 0.24587808549404144287 0.24849951267242431641 0.25112336874008178711 0.25404193997383117676 0.25684976577758789062 0.25991532206535339355 0.26289144158363342285 0.2662537693977355957 0.26963341236114501953 0.27357575297355651855 0.27762377262115478516 0.28228816390037536621 0.28679645061492919922 0.29160743951797485352 0.2959022819995880127 0.30012115836143493652 0.30357408523559570312 0.30678293108940124512 0.30935406684875488281 0.3117459714412689209 0.31369599699974060059 0.31555879116058349609 0.31707546114921569824 0.31845107674598693848 0.3194554448127746582 0.32021152973175048828 0.32057842612266540527 0.32060587406158447266 0.32032296061515808105 0.31973844766616821289 0.31899148225784301758 0.31801748275756835938 0.31701952219009399414 0.31591835618019104004 0.31496676802635192871 0.31410017609596252441 0.31353116035461425781 0.31325459480285644531 0.31333187222480773926 0.31368413567543029785 0.31415095925331115723 0.31468322873115539551 0.31509637832641601562 0.31531926989555358887 0.31515368819236755371 0.3143507838249206543 0.31282395124435424805 0.31011295318603515625 0.30641439557075500488 0.3012021183967590332 0.29554039239883422852 0.28906729817390441895 0.28308370709419250488 0.27719542384147644043 0.2725149691104888916 0.26834949851036071777 0.26501449942588806152 0.26176995038986206055 0.25879982113838195801 0.25558868050575256348 0.25335150957107543945 0.25193315744400024414 0.25065758824348449707 0.24939529597759246826 0.24842761456966400146 0.2477222830057144165 0.24730831384658813477 0.24699324369430541992 0.24668288230895996094 0.24618820846080780029 0.24544566869735717773 0.24434225261211395264 0.24311104416847229004 0.2417392432689666748 0.24050910770893096924 0.23941135406494140625 0.2386547774076461792 0.23813112080097198486 0.23782868683338165283 0.23763675987720489502 0.23750501871109008789 0.23734356462955474854 0.23711337149143218994 0.23674084246158599854 0.23622460663318634033 0.235462188720703125 0.23449297249317169189 0.23319995403289794922 0.23177376389503479004 0.23015969991683959961 0.22860507667064666748 0.22704820334911346436 0.2257130742073059082 0.2244602590799331665 0.22332260012626647949 0.22208765149116516113 0.22077511250972747803 0.21915955841541290283 0.217344626784324646 0.21522580087184906006 0.21308897435665130615 0.21084734797477722168 0.20879222452640533447 0.20682005584239959717 0.20501863956451416016 0.20302207767963409424 0.20078404247760772705 0.19788578152656555176 0.19436021149158477783 0.18981762230396270752 0.18475221097469329834 0.17896875739097595215 0.17311206459999084473 0.16694311797618865967 0.16107198596000671387 0.15499079227447509766 0.14891372621059417725 0.14214023947715759277 0.1349073946475982666 0.126455649733543396 0.11731714010238647461 0.10712409019470214844 0.096883416175842285156 0.086244754493236541748 0.076203964650630950928 0.066415190696716308594 0.057532656937837600708 0.048933323472738265991 0.041030529886484146118 0.033265348523855209351 0.025986384600400924683 0.018651248887181282043 0.011473376303911209106 0.00057862955145537853241 0 0 0 0 0 0 0 0 0 0 0 0 0 0 0 0 0 0 0 0 0 0 0 0 0 0 0 0 0 0 0 0 0 0 0 
0 0 0 0 0 0 0 0 0 0 0 0 0 0 0 0 0 0 0 0 0 0 0 0 0 0 0.029430978000164031982 0.071703895926475524902 0.098575755953788757324 0.17208482325077056885 0.21994979679584503174 0.21769498288631439209 0.20427535474300384521 0.19416895508766174316 0.19619734585285186768 0.20871324837207794189 0.18650324642658233643 0.16469745337963104248 0.20513077080249786377 0.19601012766361236572 0.18769590556621551514 0.1855163872241973877 0.18306045234203338623 0.18321044743061065674 0.1835250556468963623 0.18398080766201019287 0.18860065937042236328 0.19947205483913421631 0.21065515279769897461 0.22757941484451293945 0.27634638547897338867 0.32650598883628845215 0.33365458250045776367 0.37432551383972167969 0.39513918757438659668 0.37372368574142456055 0.38940548896789550781 0.44361245632171630859 0.67289119958877563477 0.83177584409713745117 0.7950751185417175293 0.62812483310699462891 0.37657284736633300781 0.23238630592823028564 0.19728220999240875244 0.2175003737211227417 0.24087582528591156006 0.28578278422355651855 0.32144489884376525879 0.30321368575096130371 0.26671516895294189453 0.23832076787948608398 0.22277870774269104004 0.21439263224601745605 0.21886813640594482422 0.22054032981395721436 0.21980269253253936768 0.21296712756156921387 0.20242001116275787354 0.19442509114742279053 0.18896001577377319336 0.18530918657779693604 0.18550926446914672852 0.19323939085006713867 0.19385792315006256104 0.18454800546169281006 0.17955377697944641113 0.17726586759090423584 0.16938367486000061035 0.15978071093559265137 0.16043700277805328369 0.16372087597846984863 0.16738049685955047607 0.17116715013980865479 0.17542694509029388428 0.17991913855075836182 0.18505397439002990723 0.19025981426239013672 0.20051980018615722656 0.21235164999961853027 0.22240181267261505127 0.23079188168048858643 0.20608842372894287109 0.13005955517292022705 0.1337887495756149292 0.14147561788558959961 0.14923658967018127441 0.17204701900482177734 0.21193391084671020508 0.21829794347286224365 0.22379978001117706299 0.22781339287757873535 0.23085312545299530029 0.23271475732326507568 0.23372948169708251953 0.23389662802219390869 0.23338133096694946289 0.23243224620819091797 0.23120290040969848633 0.23006024956703186035 0.22912986576557159424 0.22873470187187194824 0.22891771793365478516 0.22957658767700195312 0.23065462708473205566 0.2319173961877822876 0.23339235782623291016 0.23482532799243927002 0.2363939434289932251 0.2379665374755859375 0.2398001551628112793 0.24173188209533691406 0.24406543374061584473 0.24653288722038269043 0.24941034615039825439 0.25229737162590026855 0.25552076101303100586 0.25863099098205566406 0.26202860474586486816 0.26532635092735290527 0.26903355121612548828 0.2727260589599609375 0.27697554230690002441 0.28127422928810119629 0.28616690635681152344 0.29084813594818115234 0.29579967260360717773 0.30018272995948791504 0.30444666743278503418 0.30789163708686828613 0.3110332489013671875 0.31348168849945068359 0.3156630098819732666 0.31733697652816772461 0.31882318854331970215 0.3199297487735748291 0.32082781195640563965 0.32138416171073913574 0.32168278098106384277 0.32167732715606689453 0.32137975096702575684 0.32087108492851257324 0.32011803984642028809 0.31928098201751708984 0.31827661395072937012 0.31730803847312927246 0.31629037857055664062 0.31545794010162353516 0.31475660204887390137 0.31436526775360107422 0.31429752707481384277 0.31457191705703735352 0.31512239575386047363 0.31574133038520812988 0.31638285517692565918 0.31682834029197692871 0.31699708104133605957 0.31670325994491577148 0.31569686532020568848 0.313938140869140625 0.31095102429389953613 0.3069877326488494873 0.30149933695793151855 0.29559883475303649902 0.28890019655227661133 0.2827447354793548584 0.27672430872917175293 0.27197614312171936035 0.26779419183731079102 0.26448690891265869141 0.2613086402416229248 0.25843659043312072754 0.25554868578910827637 0.25338894128799438477 0.25193375349044799805 0.25075688958168029785 0.24959585070610046387 0.24870917201042175293 0.24806949496269226074 0.24769830703735351562 0.24741178750991821289 0.24711579084396362305 0.24662913382053375244 0.24588897824287414551 0.24478159844875335693 0.24353715777397155762 0.24213695526123046875 0.24086241424083709717 0.23969432711601257324 0.23884803056716918945 0.23821137845516204834 0.23779459297657012939 0.2374843209981918335 0.23725263774394989014 0.23700770735740661621 0.23671931028366088867 0.23629789054393768311 0.23573692142963409424 0.23491789400577545166 0.23387601971626281738 0.23248043656349182129 0.23093836009502410889 0.22919440269470214844 0.22751946747303009033 0.22585146129131317139 0.22443465888500213623 0.22312474250793457031 0.22195598483085632324 0.22070823609828948975 0.21939760446548461914 0.21779409050941467285 0.21599674224853515625 0.21390132606029510498 0.21179099380970001221 0.20958079397678375244 0.20755878090858459473 0.20562352240085601807 0.20385618507862091064 0.20188754796981811523 0.19966323673725128174 0.19675911962985992432 0.19320274889469146729 0.18859344720840454102 0.18342119455337524414 0.17747037112712860107 0.17138841748237609863 0.16490690410137176514 0.15865592658519744873 0.15212737023830413818 0.14561828970909118652 0.13845476508140563965 0.13095340132713317871 0.12239039689302444458 0.11331298202276229858 0.10329597443342208862 0.093260698020458221436 0.082800328731536865234 0.072812154889106750488 0.062888115644454956055 0.053707011044025421143 0.044690363109111785889 0.036342218518257141113 0.028145441785454750061 0.020536053925752639771 0.012998307123780250549 0.0048764087259769439697 2.7123067411594092846e-05 0 0 0 0 0 0 0 0 0 0 0 0 0 0 0 0 0 0 0 0 0 0 0 0 0 0 0 0 0 0 0 0 0 0 0 
0 0 0 0 0 0 0 0 0 0 0 0 0 0 0 0 0 0 0 0 0 0 0 0 0 0 0.019231649115681648254 0.096633166074752807617 0.12241657823324203491 0.13763260841369628906 0.19214363396167755127 0.22388352453708648682 0.21238887310028076172 0.19544720649719238281 0.19925338029861450195 0.20569151639938354492 0.1647987067699432373 0.18760235607624053955 0.19800384342670440674 0.18967300653457641602 0.18370869755744934082 0.18024362623691558838 0.17599466443061828613 0.17389704287052154541 0.17959026992321014404 0.17885716259479522705 0.18485908210277557373 0.1946217268705368042 0.20676524937152862549 0.2328548133373260498 0.29301095008850097656 0.33452326059341430664 0.34953987598419189453 0.37712049484252929688 0.38782316446304321289 0.36529865860939025879 0.36503240466117858887 0.47252237796783447266 0.73588532209396362305 0.85107332468032836914 0.77146375179290771484 0.56513428688049316406 0.31994974613189697266 0.20521287620067596436 0.20922571420669555664 0.23622223734855651855 0.27020668983459472656 0.29779815673828125 0.31516981124877929688 0.29574808478355407715 0.26291173696517944336 0.2413485795259475708 0.22308482229709625244 0.22174702584743499756 0.22591567039489746094 0.22578458487987518311 0.225233420729637146 0.2181726992130279541 0.20810371637344360352 0.19941429793834686279 0.19380278885364532471 0.19051547348499298096 0.19224946200847625732 0.19973124563694000244 0.19736315310001373291 0.18907676637172698975 0.18461774289608001709 0.18217980861663818359 0.17195665836334228516 0.16402111947536468506 0.16507665812969207764 0.16790716350078582764 0.1712363511323928833 0.17470245063304901123 0.17862993478775024414 0.18277151882648468018 0.18757942318916320801 0.19333627820014953613 0.20418082177639007568 0.21496148407459259033 0.224393501877784729 0.23181469738483428955 0.17110569775104522705 0.12570877373218536377 0.13390579819679260254 0.14143198728561401367 0.14904238283634185791 0.17149646580219268799 0.21078506112098693848 0.21701921522617340088 0.22239975631237030029 0.22633005678653717041 0.22933602333068847656 0.23121948540210723877 0.23231969773769378662 0.23263990879058837891 0.23236645758152008057 0.23170112073421478271 0.23078966140747070312 0.22992832958698272705 0.22923496365547180176 0.22897252440452575684 0.22919146716594696045 0.22980746626853942871 0.23079560697078704834 0.23196342587471008301 0.23336111009120941162 0.23477113246917724609 0.23637712001800537109 0.23803296685218811035 0.23999951779842376709 0.24209365248680114746 0.2446308434009552002 0.24731451272964477539 0.25045001506805419922 0.25360348820686340332 0.25713440775871276855 0.26055234670639038086 0.26428508758544921875 0.26789623498916625977 0.27193340659141540527 0.27591904997825622559 0.28045222163200378418 0.28497213125228881836 0.2900536954402923584 0.29486814141273498535 0.29991653561592102051 0.30434823036193847656 0.30862018465995788574 0.31202900409698486328 0.31508007645606994629 0.31739091873168945312 0.31935867667198181152 0.32075887918472290039 0.32187530398368835449 0.32258382439613342285 0.32302257418632507324 0.32315161824226379395 0.32301831245422363281 0.32266598939895629883 0.32207161188125610352 0.32136252522468566895 0.32046794891357421875 0.31956362724304199219 0.31855002045631408691 0.31762653589248657227 0.31670516729354858398 0.31599801778793334961 0.31546360254287719727 0.31524693965911865234 0.31538024544715881348 0.31584072113037109375 0.31657481193542480469 0.31733125448226928711 0.31806701421737670898 0.31853255629539489746 0.31863689422607421875 0.31820836663246154785 0.31699410080909729004 0.31500130891799926758 0.31173753738403320312 0.30751022696495056152 0.30174735188484191895 0.29561063647270202637 0.28869077563285827637 0.28236919641494750977 0.27622526884078979492 0.27141979336738586426 0.26723441481590270996 0.26396790146827697754 0.26087102293968200684 0.2581679224967956543 0.25557783246040344238 0.25350794196128845215 0.25198203325271606445 0.25088864564895629883 0.24981895089149475098 0.24900512397289276123 0.24842423200607299805 0.24809107184410095215 0.24782958626747131348 0.24754574894905090332 0.24706465005874633789 0.24632665514945983887 0.24521578848361968994 0.24395853281021118164 0.24252936244010925293 0.24120856821537017822 0.23996621370315551758 0.23902407288551330566 0.23826447129249572754 0.23772013187408447266 0.23727281391620635986 0.23691840469837188721 0.23656007647514343262 0.23618057370185852051 0.2356735914945602417 0.23503394424915313721 0.23412646353244781494 0.23298807442188262939 0.231473580002784729 0.22980731725692749023 0.22793039679527282715 0.2261355966329574585 0.22435835003852844238 0.22286120057106018066 0.2214943617582321167 0.22029384970664978027 0.21903227269649505615 0.21772283315658569336 0.21613144874572753906 0.21435368061065673828 0.21228869259357452393 0.21021947264671325684 0.20806777477264404297 0.20611904561519622803 0.20427989959716796875 0.20261789858341217041 0.20076160132884979248 0.19863620400428771973 0.19581331312656402588 0.19230271875858306885 0.18769431114196777344 0.18246564269065856934 0.17638185620307922363 0.17008818686008453369 0.16328486800193786621 0.15662235021591186523 0.14959901571273803711 0.14261175692081451416 0.13502542674541473389 0.12725387513637542725 0.11862441152334213257 0.10969875752925872803 0.099984832108020782471 0.090282328426837921143 0.080115713179111480713 0.070262230932712554932 0.060234289616346359253 0.05073549225926399231 0.041242744773626327515 0.032368540763854980469 0.023647025227546691895 0.015620191581547260284 0.0077960216440260410309 0.0012401308631524443626 0 0 0 0 0 0 0 0 0 0 0 0 0 0 0 0 0 0 0 0 0 0 0 0 0 0 0 0 0 0 0 0 0 0 0 0 
0 0 0 0 0 0 0 0 0 0 0 0 0 0 0 0 0 0 0 0 0 0 0 0 0 0 0.012948716059327125549 0.076100103557109832764 0.16110672056674957275 0.20173124969005584717 0.19715122878551483154 0.18478929996490478516 0.20010370016098022461 0.20416615903377532959 0.2037620842456817627 0.17560212314128875732 0.1696583181619644165 0.19297344982624053955 0.18801957368850708008 0.17977735400199890137 0.178998604416847229 0.17601272463798522949 0.17111998796463012695 0.16773763298988342285 0.16910532116889953613 0.17299345135688781738 0.1783329695463180542 0.18846470117568969727 0.21569778025150299072 0.24534742534160614014 0.32021090388298034668 0.34208121895790100098 0.34936237335205078125 0.36895492672920227051 0.3812249302864074707 0.36116248369216918945 0.35118523240089416504 0.5460020899772644043 0.79099601507186889648 0.82019901275634765625 0.70789420604705810547 0.48856189846992492676 0.27341046929359436035 0.21211773157119750977 0.22586023807525634766 0.25291368365287780762 0.29395353794097900391 0.31664285063743591309 0.3253510594367980957 0.30150336027145385742 0.25510644912719726562 0.23824140429496765137 0.22867973148822784424 0.22800152003765106201 0.23019273579120635986 0.23175549507141113281 0.23079118132591247559 0.22328525781631469727 0.21271906793117523193 0.20397414267063140869 0.19868671894073486328 0.19600290060043334961 0.19934488832950592041 0.20566610991954803467 0.20107671618461608887 0.19403816759586334229 0.19031822681427001953 0.18718838691711425781 0.17423252761363983154 0.16692943871021270752 0.16906471550464630127 0.17175246775150299072 0.17477503418922424316 0.17791824042797088623 0.18152692914009094238 0.18531779944896697998 0.18947480618953704834 0.19581672549247741699 0.20737974345684051514 0.21724401414394378662 0.22620068490505218506 0.22808340191841125488 0.1326923072338104248 0.12620739638805389404 0.13422212004661560059 0.14159180223941802979 0.14905440807342529297 0.17103910446166992188 0.20947070419788360596 0.2155380547046661377 0.22077059745788574219 0.22459863126277923584 0.22755242884159088135 0.22946155071258544922 0.23067277669906616211 0.23118501901626586914 0.23120887577533721924 0.23088949918746948242 0.23036521673202514648 0.22984795272350311279 0.2294482886791229248 0.22935715317726135254 0.22963403165340423584 0.23021402955055236816 0.23110933601856231689 0.23217302560806274414 0.23348106443881988525 0.23485414683818817139 0.23648229241371154785 0.23821420967578887939 0.24030917882919311523 0.24256439507007598877 0.2453098595142364502 0.24821622669696807861 0.25161594152450561523 0.25504180788993835449 0.25888562202453613281 0.2626145780086517334 0.26669004559516906738 0.2706146240234375 0.27497598528861999512 0.27924677729606628418 0.28405386209487915039 0.28878712654113769531 0.29404357075691223145 0.29897567629814147949 0.30410233139991760254 0.30856254696846008301 0.31281924247741699219 0.31616920232772827148 0.31910565495491027832 0.32125836610794067383 0.3229967951774597168 0.32411807775497436523 0.32486242055892944336 0.32517772912979125977 0.3251679539680480957 0.32488301396369934082 0.32433331012725830078 0.3236477971076965332 0.32276901602745056152 0.32186803221702575684 0.32083991169929504395 0.31987461447715759277 0.31885755062103271484 0.31798401474952697754 0.31716519594192504883 0.31658780574798583984 0.31622478365898132324 0.3161869347095489502 0.31652551889419555664 0.31717571616172790527 0.31809607148170471191 0.31899023056030273438 0.31981694698333740234 0.32029551267623901367 0.32032230496406555176 0.31974279880523681641 0.3183009028434753418 0.3160553276538848877 0.31249698996543884277 0.30799272656440734863 0.3019466400146484375 0.29557007551193237305 0.28842931985855102539 0.28194519877433776855 0.27568444609642028809 0.27083006501197814941 0.26665204763412475586 0.26343768835067749023 0.26044762134552001953 0.25797489285469055176 0.25562533736228942871 0.25366356968879699707 0.25208827853202819824 0.25104984641075134277 0.25006830692291259766 0.24932505190372467041 0.24880112707614898682 0.24850505590438842773 0.24826900660991668701 0.24799945950508117676 0.24752762913703918457 0.2467981874942779541 0.24569362401962280273 0.24443291127681732178 0.24298249185085296631 0.24161846935749053955 0.2402982860803604126 0.23924928903579711914 0.23834757506847381592 0.23765155673027038574 0.23703674972057342529 0.23652739822864532471 0.23601946234703063965 0.23551377654075622559 0.23488464951515197754 0.23413336277008056641 0.23310580849647521973 0.23184512555599212646 0.23018985986709594727 0.22838331758975982666 0.22636069357395172119 0.2244370877742767334 0.2225437164306640625 0.22096128761768341064 0.21953371167182922363 0.21829907596111297607 0.21702246367931365967 0.21571426093578338623 0.21413630247116088867 0.2123810499906539917 0.21035292744636535645 0.20833608508110046387 0.20626202225685119629 0.20441389083862304688 0.20271046459674835205 0.2012011110782623291 0.19951222836971282959 0.19754004478454589844 0.19485250115394592285 0.19143377244472503662 0.18686510622501373291 0.18160794675350189209 0.17541004717350006104 0.16891275346279144287 0.16178533434867858887 0.15469948947429656982 0.14716461300849914551 0.13968767225742340088 0.13167925179004669189 0.12365943193435668945 0.11501717567443847656 0.10632529854774475098 0.097018472850322723389 0.087753765285015106201 0.077968075871467590332 0.068312250077724456787 0.058204084634780883789 0.048370279371738433838 0.038350921124219894409 0.028880286961793899536 0.019549138844013214111 0.011021121405065059662 0.0086085563525557518005 0.0053397472947835922241 0 0 0 0 0 0 0 0 0 0 0 0 0 0 0 0 0 0 0 0 0 0 0 0 0 0 0 0 0 0 0 0 0 0 0 0 
0 0 0 0 0 0 0 0 0 0 0 0 0 0 0 0 0 0 0 0 0 0 0 0 0 0 0.038813352584838867188 0.045637484639883041382 0.12157543748617172241 0.21901400387287139893 0.29704502224922180176 0.23405854403972625732 0.16189020872116088867 0.17670394480228424072 0.1865962594747543335 0.14977528154850006104 0.1806277930736541748 0.18038636445999145508 0.17693538963794708252 0.16972771286964416504 0.17035306990146636963 0.16903379559516906738 0.16519190371036529541 0.16474282741546630859 0.1624997556209564209 0.16634503006935119629 0.17093417048454284668 0.18225882947444915771 0.21690008044242858887 0.26989609003067016602 0.33089792728424072266 0.35364490747451782227 0.35704511404037475586 0.36361777782440185547 0.36720043420791625977 0.33259120583534240723 0.36716485023498535156 0.63832056522369384766 0.79187083244323730469 0.79473245143890380859 0.63159275054931640625 0.41298785805702209473 0.24164023995399475098 0.2215467989444732666 0.23902322351932525635 0.25603908300399780273 0.28723028302192687988 0.32373785972595214844 0.34003520011901855469 0.30572378635406494141 0.2569885551929473877 0.24429644644260406494 0.23529988527297973633 0.23406286537647247314 0.23589694499969482422 0.23750144243240356445 0.23582972586154937744 0.22751055657863616943 0.21615944802761077881 0.20785167813301086426 0.20345641672611236572 0.20142135024070739746 0.20592068135738372803 0.21113006770610809326 0.20499679446220397949 0.19847097992897033691 0.19480066001415252686 0.18994866311550140381 0.17671272158622741699 0.17096029222011566162 0.17267432808876037598 0.17506434023380279541 0.17776647210121154785 0.18060347437858581543 0.18394100666046142578 0.18753258883953094482 0.19165223836898803711 0.19953919947147369385 0.21073311567306518555 0.21991367638111114502 0.22796605527400970459 0.20019236207008361816 0.12232124060392379761 0.12685510516166687012 0.13470421731472015381 0.14193075895309448242 0.1492573469877243042 0.17070730030536651611 0.2081158757209777832 0.21399584412574768066 0.21906834840774536133 0.22279094159603118896 0.22569295763969421387 0.22762325406074523926 0.22895155847072601318 0.22966888546943664551 0.23000471293926239014 0.23004516959190368652 0.22992245852947235107 0.22976249456405639648 0.22966979444026947021 0.22976152598857879639 0.23010636866092681885 0.23065952956676483154 0.23147040605545043945 0.23243626952171325684 0.23365914821624755859 0.23499731719493865967 0.23664331436157226562 0.23844449222087860107 0.24066071212291717529 0.24306683242321014404 0.24600633978843688965 0.24912099540233612061 0.25276330113410949707 0.25643658638000488281 0.26056259870529174805 0.26457011699676513672 0.26895272731781005859 0.27316081523895263672 0.27780985832214355469 0.28233423829078674316 0.28738707304000854492 0.29231739044189453125 0.29773870110511779785 0.3027820289134979248 0.30798241496086120605 0.31246656179428100586 0.31669947504997253418 0.31997990608215332031 0.32278996706008911133 0.3247775733470916748 0.32628837227821350098 0.32714959979057312012 0.32755735516548156738 0.32752582430839538574 0.32712692022323608398 0.32648551464080810547 0.32557731866836547852 0.32460227608680725098 0.32347133755683898926 0.32239484786987304688 0.32123923301696777344 0.32021069526672363281 0.31918138265609741211 0.3183460533618927002 0.31761586666107177734 0.31715476512908935547 0.31694886088371276855 0.3170782625675201416 0.3176129758358001709 0.31844782829284667969 0.3195514976978302002 0.32058167457580566406 0.32149735093116760254 0.32198545336723327637 0.32192814350128173828 0.32118993997573852539 0.3195126652717590332 0.31700968742370605469 0.31315717101097106934 0.30838349461555480957 0.30207037925720214844 0.29547423124313354492 0.2881368100643157959 0.28151214122772216797 0.27515453100204467773 0.27026423811912536621 0.26610162854194641113 0.26294285058975219727 0.26008626818656921387 0.25783056020736694336 0.25567045807838439941 0.25381574034690856934 0.25223562121391296387 0.2512200772762298584 0.25031903386116027832 0.24964080750942230225 0.24916970729827880859 0.24890895187854766846 0.24869938194751739502 0.24844859540462493896 0.24799498915672302246 0.24728608131408691406 0.24620606005191802979 0.2449607551097869873 0.24350766837596893311 0.2421137690544128418 0.24072238802909851074 0.2395639270544052124 0.23850865662097930908 0.23764410614967346191 0.23683966696262359619 0.23615224659442901611 0.23546999692916870117 0.2348156273365020752 0.23404234647750854492 0.23316052556037902832 0.23199582099914550781 0.23059967160224914551 0.22879333794116973877 0.22683978080749511719 0.22466695308685302734 0.22261208295822143555 0.22060130536556243896 0.2189331352710723877 0.21744465827941894531 0.21617609262466430664 0.21488496661186218262 0.21357870101928710938 0.2120151817798614502 0.21028365194797515869 0.20829401910305023193 0.20633146166801452637 0.20433761179447174072 0.20259322226047515869 0.20102956891059875488 0.19967727363109588623 0.19816094636917114258 0.19634719192981719971 0.19380061328411102295 0.19047909975051879883 0.18595658242702484131 0.18068085610866546631 0.17438687384128570557 0.16771429777145385742 0.16030746698379516602 0.15285831689834594727 0.14488895237445831299 0.13700477778911590576 0.12866047024726867676 0.12046889215707778931 0.1118796616792678833 0.10346961021423339844 0.09460630267858505249 0.085807025432586669922 0.076421760022640228271 0.06698191910982131958 0.056818488985300064087 0.046675089746713638306 0.036150872707366943359 0.026095369830727577209 0.016152095049619674683 0.0071013881824910640717 0.020586688071489334106 0 0 0 0 0 0 0 0 0 0 0 0 0 0 0 0 0 0 0 0 0 0 0 0 0 0 0 0 0 0 0 0 0 0 0 0 0 
0 0 0 0 0 0 0 0 0 0 0 0 0 0 0 0 0 0 0 0 0 0 0 0 0 0 0.0034620703663676977158 0.042229823768138885498 0.084644176065921783447 0.15582759678363800049 0.26964399218559265137 0.28935533761978149414 0.24413663148880004883 0.1935091167688369751 0.13521310687065124512 0.1196088641881942749 0.16988086700439453125 0.17529815435409545898 0.16321271657943725586 0.16066062450408935547 0.16307291388511657715 0.16109043359756469727 0.15678007900714874268 0.15830481052398681641 0.15667839348316192627 0.15938031673431396484 0.16282257437705993652 0.17500980198383331299 0.21359646320343017578 0.2841231226921081543 0.32446590065956115723 0.35600242018699645996 0.36548030376434326172 0.36949577927589416504 0.35330229997634887695 0.30139824748039245605 0.40991511940956115723 0.68279856443405151367 0.80127471685409545898 0.75320529937744140625 0.56589269638061523438 0.36134868860244750977 0.23216141760349273682 0.23255461454391479492 0.24618084728717803955 0.25558423995971679688 0.28506541252136230469 0.32172742486000061035 0.34287822246551513672 0.31403040885925292969 0.26716265082359313965 0.25041425228118896484 0.24071814119815826416 0.23978768289089202881 0.24177829921245574951 0.24336944520473480225 0.24057023227214813232 0.2313515394926071167 0.2204360663890838623 0.21198146045207977295 0.20819455385208129883 0.20640546083450317383 0.21220533549785614014 0.21636277437210083008 0.20923858880996704102 0.20249281823635101318 0.19912713766098022461 0.19210492074489593506 0.17856203019618988037 0.17452201247215270996 0.17606990039348602295 0.17810229957103729248 0.18043528497219085693 0.18292666971683502197 0.18595913052558898926 0.18947744369506835938 0.19475583732128143311 0.20443817973136901855 0.21450033783912658691 0.22274897992610931396 0.23000244796276092529 0.18316532671451568604 0.12010857462882995605 0.12769187986850738525 0.13538008928298950195 0.14246675372123718262 0.14965967833995819092 0.17048978805541992188 0.20667500793933868408 0.21233913302421569824 0.21723315119743347168 0.2208439260721206665 0.22369691729545593262 0.22565470635890960693 0.22710195183753967285 0.22803407907485961914 0.2286948859691619873 0.22910609841346740723 0.22939527034759521484 0.22960130870342254639 0.2298240363597869873 0.2301057279109954834 0.2305253148078918457 0.23105883598327636719 0.23179352283477783203 0.23267047107219696045 0.23381900787353515625 0.23513345420360565186 0.2368087470531463623 0.23868459463119506836 0.24102734029293060303 0.24358576536178588867 0.24671399593353271484 0.25002625584602355957 0.25389444828033447266 0.25779193639755249023 0.26217070221900939941 0.26642572879791259766 0.27108061313629150391 0.27554488182067871094 0.28045442700386047363 0.28521123528480529785 0.29049757122993469238 0.29562628269195556641 0.30122861266136169434 0.30640196800231933594 0.31169646978378295898 0.31621918082237243652 0.32043302059173583984 0.32363674044609069824 0.32630509138107299805 0.32811275124549865723 0.32938674092292785645 0.32999476790428161621 0.33009472489356994629 0.32975819706916809082 0.32902601361274719238 0.32808229327201843262 0.32686755061149597168 0.32563760876655578613 0.32427236437797546387 0.32302072644233703613 0.32172426581382751465 0.32061281800270080566 0.31954586505889892578 0.31872513890266418457 0.31806108355522155762 0.31769987940788269043 0.31763851642608642578 0.31793034076690673828 0.31866466999053955078 0.31969493627548217773 0.32099795341491699219 0.32217901945114135742 0.32319474220275878906 0.32369443774223327637 0.3235422670841217041 0.32262542843818664551 0.32068610191345214844 0.31790137290954589844 0.31373474001884460449 0.30868414044380187988 0.30210962891578674316 0.29530900716781616211 0.28779685497283935547 0.2810535430908203125 0.27461916208267211914 0.26970562338829040527 0.26556533575057983398 0.2624619901180267334 0.25976589322090148926 0.25769954919815063477 0.25570499897003173828 0.25395768880844116211 0.25240734219551086426 0.25140416622161865234 0.25057911872863769531 0.24996586143970489502 0.24954822659492492676 0.2493248283863067627 0.24914696812629699707 0.24892418086528778076 0.2485049813985824585 0.24783802032470703125 0.24681165814399719238 0.24561202526092529297 0.24418513476848602295 0.24278090894222259521 0.24132576584815979004 0.24004945158958435059 0.23881749808788299561 0.23775318264961242676 0.23672080039978027344 0.23581843078136444092 0.23492646217346191406 0.2340949326753616333 0.23315197229385375977 0.23211872577667236328 0.23079709708690643311 0.22924786806106567383 0.22727236151695251465 0.22515530884265899658 0.22281633317470550537 0.22061699628829956055 0.21847772598266601562 0.21671633422374725342 0.21516248583793640137 0.21385824680328369141 0.21255291998386383057 0.21125030517578125 0.20970387756824493408 0.20799866318702697754 0.20604915916919708252 0.2041403353214263916 0.20222268998622894287 0.20057356357574462891 0.19913499057292938232 0.19792060554027557373 0.19655288755893707275 0.19487237930297851562 0.19243970513343811035 0.18919017910957336426 0.18469151854515075684 0.17938487231731414795 0.17299816012382507324 0.16617503762245178223 0.15854369103908538818 0.1508159637451171875 0.14252713322639465332 0.13435980677604675293 0.12580819427967071533 0.11755418777465820312 0.10910228639841079712 0.1010227203369140625 0.092625953257083892822 0.084298655390739440918 0.075314506888389587402 0.066090345382690429688 0.055890321731567382812 0.045464541763067245483 0.034464348107576370239 0.023843277245759963989 0.01328872237354516983 0.012898604385554790497 0.018940040841698646545 0 0 0 0 0 0 0 0 0 0 0 0 0 0 0 0 0 0 0 0 0 0 0 0 0 0 0 0 0 0 0 0 0 0 0 0 0 
0 0 0 0 0 0 0 0 0 0 0 0 0 0 0 0 0 0 0 0 0 0 0 0 0 0 0.00026879916549660265446 0.038539212197065353394 0.097166113555431365967 0.1491915285587310791 0.20691604912281036377 0.25730776786804199219 0.29633247852325439453 0.27351540327072143555 0.2075916677713394165 0.13870470225811004639 0.12852728366851806641 0.17038275301456451416 0.16195334494113922119 0.15556874871253967285 0.1552241891622543335 0.15136887133121490479 0.14747621119022369385 0.14666856825351715088 0.1465114206075668335 0.14715465903282165527 0.14902545511722564697 0.16881868243217468262 0.20855613052845001221 0.26199090480804443359 0.31432315707206726074 0.33628353476524353027 0.34285771846771240234 0.35516181588172912598 0.31799471378326416016 0.28708198666572570801 0.48196750879287719727 0.72508847713470458984 0.79301011562347412109 0.70511519908905029297 0.50772178173065185547 0.31172358989715576172 0.23876455426216125488 0.24178743362426757812 0.2493403702974319458 0.2610988616943359375 0.29849037528038024902 0.33617159724235534668 0.34440901875495910645 0.30351603031158447266 0.28188362717628479004 0.25864836573600769043 0.24507170915603637695 0.24502290785312652588 0.24753750860691070557 0.24865835905075073242 0.2448428422212600708 0.23546195030212402344 0.22402937710285186768 0.21625593304634094238 0.2126862257719039917 0.21142406761646270752 0.21861767768859863281 0.22039274871349334717 0.21294969320297241211 0.20635877549648284912 0.20382510125637054443 0.193790435791015625 0.1797364652156829834 0.17688192427158355713 0.17892102897167205811 0.18072831630706787109 0.18269492685794830322 0.18479709327220916748 0.18732362985610961914 0.19063435494899749756 0.19894951581954956055 0.20883703231811523438 0.21792152523994445801 0.22520250082015991211 0.22898772358894348145 0.14535851776599884033 0.12122669070959091187 0.12865553796291351318 0.13619752228260040283 0.14315646886825561523 0.15022660791873931885 0.17041040956974029541 0.20529219508171081543 0.21073272824287414551 0.21544639766216278076 0.2189496457576751709 0.22176095843315124512 0.22375133633613586426 0.2253125607967376709 0.22643706202507019043 0.22739128768444061279 0.22813425958156585693 0.22878926992416381836 0.22931936383247375488 0.22982142865657806396 0.23027218878269195557 0.23076112568378448486 0.23128324747085571289 0.23196011781692504883 0.23277086019515991211 0.23387126624584197998 0.23518492281436920166 0.23690912127494812012 0.23887045681476593018 0.24133947491645812988 0.24404256045818328857 0.2473385930061340332 0.25081643462181091309 0.2548675835132598877 0.25893947482109069824 0.26350992918014526367 0.26795074343681335449 0.2728099822998046875 0.27747035026550292969 0.28258764743804931641 0.28753489255905151367 0.29302656650543212891 0.2983468472957611084 0.30414447188377380371 0.30947336554527282715 0.31489330530166625977 0.31948146224021911621 0.32369530200958251953 0.32682767510414123535 0.32935345172882080078 0.33098176121711730957 0.33203032612800598145 0.33241415023803710938 0.3322683870792388916 0.33170452713966369629 0.33073574304580688477 0.32958057522773742676 0.32814639806747436523 0.32672145962715148926 0.32515716552734375 0.32373824715614318848 0.32228821516036987305 0.32106837630271911621 0.31992739439010620117 0.31908452510833740234 0.31844744086265563965 0.31815370917320251465 0.31820705533027648926 0.31864133477210998535 0.31956434249877929688 0.32079017162322998047 0.32230037450790405273 0.32364279031753540039 0.32476907968521118164 0.32528543472290039062 0.32503578066825866699 0.32393166422843933105 0.32171964645385742188 0.31864637136459350586 0.31416729092597961426 0.30885398387908935547 0.30204820632934570312 0.2950802147388458252 0.28743651509284973145 0.28061199188232421875 0.2741317451000213623 0.26921063661575317383 0.26509049534797668457 0.26203948259353637695 0.25949749350547790527 0.25757813453674316406 0.25571894645690917969 0.25406882166862487793 0.25256645679473876953 0.25158160924911499023 0.25082391500473022461 0.25027215480804443359 0.24990610778331756592 0.24972069263458251953 0.24957942962646484375 0.24939472973346710205 0.24902813136577606201 0.24842840433120727539 0.24748852849006652832 0.24636951088905334473 0.245004311203956604 0.24361664056777954102 0.2421140819787979126 0.240721091628074646 0.23930062353610992432 0.23801726102828979492 0.23673254251480102539 0.23559261858463287354 0.234471932053565979 0.23345117270946502686 0.23233090341091156006 0.23114217817783355713 0.22966092824935913086 0.22795592248439788818 0.22580714523792266846 0.22352164983749389648 0.22101095318794250488 0.21866221725940704346 0.21639043092727661133 0.2145337909460067749 0.21291428804397583008 0.21157547831535339355 0.21025797724723815918 0.20896123349666595459 0.20743390917778015137 0.20575556159019470215 0.20384272933006286621 0.2019777446985244751 0.20011593401432037354 0.198530539870262146 0.19716909527778625488 0.19603390991687774658 0.1947450488805770874 0.19312758743762969971 0.19073735177516937256 0.18749769032001495361 0.18297167122364044189 0.17760594189167022705 0.17112900316715240479 0.16419704258441925049 0.15643544495105743408 0.1485735774040222168 0.1401576697826385498 0.13190770149230957031 0.12334368377923965454 0.11517582088708877563 0.10694560408592224121 0.099203579127788543701 0.091224789619445800781 0.083297155797481536865 0.074644327163696289062 0.065593838691711425781 0.055373188108205795288 0.044731192290782928467 0.033351898193359375 0.022264137864112854004 0.011181409470736980438 0.012899468652904033661 0.0021373899653553962708 0 0 0 0 0 0 0 0 0 0 0 0 0 0 0 0 0 0 0 0 0 0 0 0 0 0 0 0 0 0 0 0 0 0 0 0 0 
0 0 0 0 0 0 0 0 0 0 0 0 0 0 0 0 0 0 0 0 0 0 0 0 0 0 0 0.048091430217027664185 0.087133377790451049805 0.15337258577346801758 0.20406094193458557129 0.19851973652839660645 0.2114009559154510498 0.25219362974166870117 0.25244581699371337891 0.23101642727851867676 0.15574249625205993652 0.1092775389552116394 0.12631659209728240967 0.14573337137699127197 0.15464353561401367188 0.14484475553035736084 0.13662107288837432861 0.13648492097854614258 0.13885240256786346436 0.14138260483741760254 0.13955768942832946777 0.15421459078788757324 0.18779613077640533447 0.22851254045963287354 0.2393124699592590332 0.20753537118434906006 0.26410877704620361328 0.32690244913101196289 0.26769769191741943359 0.34222352504730224609 0.62514495849609375 0.76598328351974487305 0.77706217765808105469 0.65441793203353881836 0.43973705172538757324 0.26563248038291931152 0.23753206431865692139 0.24354660511016845703 0.24832575023174285889 0.27565371990203857422 0.31413188576698303223 0.35073307156562805176 0.34777092933654785156 0.30502614378929138184 0.28657814860343933105 0.25949704647064208984 0.24876011908054351807 0.25013247132301330566 0.25334474444389343262 0.25413826107978820801 0.2493832707405090332 0.23952642083168029785 0.22720132768154144287 0.22062119841575622559 0.21716618537902832031 0.21676146984100341797 0.22452783584594726562 0.22422906756401062012 0.21646080911159515381 0.21002049744129180908 0.20646226406097412109 0.1948661506175994873 0.18260188400745391846 0.18064261972904205322 0.18186037242412567139 0.18327865004539489746 0.1848691105842590332 0.18658216297626495361 0.18838600814342498779 0.19287359714508056641 0.20419466495513916016 0.21311345696449279785 0.22109115123748779297 0.22757354378700256348 0.2110843360424041748 0.12162225693464279175 0.1225551217794418335 0.12981879711151123047 0.13721555471420288086 0.14404940605163574219 0.15099880099296569824 0.17049133777618408203 0.20394858717918395996 0.20913976430892944336 0.21365819871425628662 0.21704897284507751465 0.2198187410831451416 0.22184239327907562256 0.22351399064064025879 0.22481478750705718994 0.22603024542331695557 0.22707098722457885742 0.22805254161357879639 0.22887109220027923584 0.22962243854999542236 0.23022541403770446777 0.23078110814094543457 0.23130156099796295166 0.23194035887718200684 0.23270975053310394287 0.23379185795783996582 0.23513355851173400879 0.23693449795246124268 0.23900260031223297119 0.24161003530025482178 0.24445983767509460449 0.24791474640369415283 0.2515372931957244873 0.25573828816413879395 0.25994610786437988281 0.26465803384780883789 0.26923274993896484375 0.27423873543739318848 0.27904346585273742676 0.28432455658912658691 0.2894312441349029541 0.29511114954948425293 0.30062747001647949219 0.3066456913948059082 0.31216672062873840332 0.31775328516960144043 0.32244002819061279297 0.32667520642280578613 0.32973900437355041504 0.33211433887481689453 0.33355468511581420898 0.33437767624855041504 0.33455500006675720215 0.33421301841735839844 0.33349046111106872559 0.33237186074256896973 0.33108693361282348633 0.32950988411903381348 0.32793885469436645508 0.32619741559028625488 0.32460609078407287598 0.32297602295875549316 0.32161059975624084473 0.32034885883331298828 0.31944030523300170898 0.31878703832626342773 0.31852746009826660156 0.31866809725761413574 0.31922981142997741699 0.32033869624137878418 0.32176962494850158691 0.32350546121597290039 0.32502835988998413086 0.32628160715103149414 0.32682046294212341309 0.3264649510383605957 0.32515433430671691895 0.32264360785484313965 0.31925979256629943848 0.31445416808128356934 0.30888062715530395508 0.30186507105827331543 0.29476237297058105469 0.28702837228775024414 0.28016012907028198242 0.2736657261848449707 0.26874971389770507812 0.26463779807090759277 0.26165652275085449219 0.25925022363662719727 0.25745168328285217285 0.25571075081825256348 0.2541542351245880127 0.2527141273021697998 0.25176101922988891602 0.2510757148265838623 0.25058704614639282227 0.25027421116828918457 0.25012928247451782227 0.25003066658973693848 0.24989522993564605713 0.24960163235664367676 0.24909825623035430908 0.24828419089317321777 0.24728523194789886475 0.24602198600769042969 0.24467998743057250977 0.24314476549625396729 0.24163018167018890381 0.23999884724617004395 0.23846480250358581543 0.23688946664333343506 0.23547694087028503418 0.23409758508205413818 0.2328675687313079834 0.23155555129051208496 0.23020136356353759766 0.22855101525783538818 0.22667971253395080566 0.22434318065643310547 0.2218729853630065918 0.21917273104190826416 0.21665853261947631836 0.21424020826816558838 0.21227908134460449219 0.21058899164199829102 0.20921446382999420166 0.20788604021072387695 0.20659774541854858398 0.2050924152135848999 0.20344215631484985352 0.20156249403953552246 0.19973014295101165771 0.19790044426918029785 0.19634124636650085449 0.19499942660331726074 0.19387289881706237793 0.19257897138595581055 0.19094008207321166992 0.1885067373514175415 0.18520306050777435303 0.18058890104293823242 0.17512935400009155273 0.16856072843074798584 0.16156052052974700928 0.153764382004737854 0.14591684937477111816 0.13757252693176269531 0.12944746017456054688 0.12107307463884353638 0.11314649134874343872 0.10522700846195220947 0.097831912338733673096 0.090222150087356567383 0.082619130611419677734 0.074222505092620849609 0.065301269292831420898 0.055068626999855041504 0.044270604848861694336 0.032602109014987945557 0.021140053868293762207 0.0096051860600709915161 0.016920939087867736816 0 0 0 0 0 0 0 0 0 0 0 0 0 0 0 0 0 0 0 0 0 0 0 0 0 0 0 0 0 0 0 0 0 0 0 0 0 0 
0 0 0 0 0 0 0 0 0 0 0 0 0 0 0 0 0 0 0 0 0 0 0 0 0 0 0 0.036226678639650344849 0.075230471789836883545 0.14904783666133880615 0.19655847549438476562 0.20172426104545593262 0.18526501953601837158 0.17720529437065124512 0.19910810887813568115 0.23428420722484588623 0.23763144016265869141 0.18217015266418457031 0.092773251235485076904 0.07573970407247543335 0.13682943582534790039 0.16211493313312530518 0.1445223391056060791 0.13396713137626647949 0.13438758254051208496 0.13965052366256713867 0.14197778701782226562 0.15663613379001617432 0.18974149227142333984 0.22147539258003234863 0.18328061699867248535 0.16615352034568786621 0.19253413379192352295 0.20225347578525543213 0.20245440304279327393 0.45823696255683898926 0.72513991594314575195 0.78598099946975708008 0.7387339472770690918 0.56427472829818725586 0.3420365750789642334 0.23885419964790344238 0.23440438508987426758 0.23948849737644195557 0.25014600157737731934 0.28462427854537963867 0.31507974863052368164 0.34625467658042907715 0.34410497546195983887 0.30608958005905151367 0.28635537624359130859 0.2585792839527130127 0.25219038128852844238 0.2548459172248840332 0.25841474533081054688 0.25878065824508666992 0.25301122665405273438 0.2422421872615814209 0.23038995265960693359 0.22471173107624053955 0.22143973410129547119 0.22310464084148406982 0.22900553047657012939 0.22760377824306488037 0.21902027726173400879 0.21356309950351715088 0.2081829756498336792 0.19559843838214874268 0.18466308712959289551 0.18372708559036254883 0.18455718457698822021 0.1856438368558883667 0.18695539236068725586 0.18843436241149902344 0.19033987820148468018 0.19811996817588806152 0.20902755856513977051 0.2169113457202911377 0.22381792962551116943 0.23004639148712158203 0.17715570330619812012 0.11779401451349258423 0.12400331348180770874 0.13110661506652832031 0.13835963606834411621 0.14507821202278137207 0.15191724896430969238 0.1707535088062286377 0.20283597707748413086 0.20777368545532226562 0.2120923846960067749 0.21536560356616973877 0.21808502078056335449 0.22012761235237121582 0.22188511490821838379 0.22332704067230224609 0.22474749386310577393 0.22602427005767822266 0.22726863622665405273 0.22832091152667999268 0.22927707433700561523 0.23000940680503845215 0.23063036799430847168 0.23116433620452880859 0.23179224133491516113 0.2325506359338760376 0.23364554345607757568 0.23503915965557098389 0.23693442344665527344 0.23911799490451812744 0.24186468124389648438 0.24485199153423309326 0.24845030903816223145 0.25219610333442687988 0.25651711225509643555 0.26082825660705566406 0.26564005017280578613 0.27030363678932189941 0.27540385723114013672 0.2803020775318145752 0.2856959998607635498 0.29092183709144592285 0.29675307869911193848 0.30244195461273193359 0.30866768956184387207 0.31437903642654418945 0.32013535499572753906 0.32492625713348388672 0.32918772101402282715 0.3321850895881652832 0.33441334962844848633 0.33567443490028381348 0.33629187941551208496 0.33629560470581054688 0.33581316471099853516 0.33500039577484130859 0.33381286263465881348 0.33247315883636474609 0.3308251500129699707 0.32915869355201721191 0.3272724151611328125 0.32551935315132141113 0.32370391488075256348 0.32217547297477722168 0.32076561450958251953 0.31976121664047241211 0.31905660033226013184 0.31879848241806030273 0.31899225711822509766 0.31965219974517822266 0.32092005014419555664 0.32253628969192504883 0.32448169589042663574 0.32617458701133728027 0.3275477290153503418 0.3281059563159942627 0.32764458656311035156 0.32613113522529602051 0.3233312070369720459 0.31965216994285583496 0.31454497575759887695 0.3087437748908996582 0.30156248807907104492 0.2943706214427947998 0.28659468889236450195 0.27972280979156494141 0.2732422947883605957 0.26833355426788330078 0.26423379778861999512 0.26133257150650024414 0.25903159379959106445 0.2573280632495880127 0.25568702816963195801 0.25421807169914245605 0.25284945964813232422 0.25193765759468078613 0.25133550167083740234 0.25091004371643066406 0.25064617395401000977 0.25053742527961730957 0.25047802925109863281 0.25039115548133850098 0.25017425417900085449 0.24977628886699676514 0.24910321831703186035 0.24824069440364837646 0.24709758162498474121 0.24581789970397949219 0.24426320195198059082 0.24263373017311096191 0.24079324305057525635 0.23900689184665679932 0.23713776469230651855 0.23545010387897491455 0.2338117063045501709 0.23237478733062744141 0.2308753281831741333 0.22936044633388519287 0.22754560410976409912 0.22551096975803375244 0.22298748791217803955 0.22033159434795379639 0.21743954718112945557 0.21475750207901000977 0.21219070255756378174 0.21012441813945770264 0.20836424827575683594 0.20695513486862182617 0.20561707019805908203 0.20433782041072845459 0.20285382866859436035 0.20122866332530975342 0.1993741840124130249 0.19755956530570983887 0.19573600590229034424 0.19416566193103790283 0.19278933107852935791 0.19160775840282440186 0.19023644924163818359 0.18850767612457275391 0.18596789240837097168 0.18255338072776794434 0.1778227388858795166 0.17226471006870269775 0.16562597453594207764 0.15860587358474731445 0.15085723996162414551 0.14313344657421112061 0.13499495387077331543 0.12712584435939788818 0.11905794590711593628 0.11144873499870300293 0.10386051982641220093 0.096771761775016784668 0.089446492493152618408 0.082071036100387573242 0.073841817677021026611 0.064999975264072418213 0.05475867539644241333 0.043865073472261428833 0.032007440924644470215 0.020284971222281455994 0.0084002539515495300293 0.00052396504906937479973 0 0 0 0 0 0 0 0 0 0 0 0 0 0 0 0 0 0 0 0 0 0 0 0 0 0 0 0 0 0 0 0 0 0 0 0 0 0 
0 0 0 0 0 0 0 0 0 0 0 0 0 0 0 0 0 0 0 0 0 0 0 0 0 0 0 0.0012211077846586704254 0.055994682013988494873 0.14515484869480133057 0.1882321089506149292 0.19612538814544677734 0.19277396798133850098 0.17801310122013092041 0.15301597118377685547 0.15648338198661804199 0.21063046157360076904 0.23038646578788757324 0.20498029887676239014 0.10475439578294754028 0.056861296296119689941 0.1272118687629699707 0.16216278076171875 0.15013906359672546387 0.14288687705993652344 0.14957013726234436035 0.15655630826950073242 0.16924613714218139648 0.20018839836120605469 0.21437919139862060547 0.17379392683506011963 0.1834672391414642334 0.18554092943668365479 0.18427933752536773682 0.23984566330909729004 0.57278883457183837891 0.75918436050415039062 0.78264379501342773438 0.67210227251052856445 0.46000805497169494629 0.26646113395690917969 0.23034146428108215332 0.23325479030609130859 0.23570927977561950684 0.25761887431144714355 0.2915891110897064209 0.31245300173759460449 0.34797826409339904785 0.35016652941703796387 0.30655816197395324707 0.28545588254928588867 0.25890660285949707031 0.25572335720062255859 0.25951421260833740234 0.26342654228210449219 0.26329573988914489746 0.25704434514045715332 0.24495521187782287598 0.23345462977886199951 0.22840249538421630859 0.22553932666778564453 0.22891518473625183105 0.23257784545421600342 0.22992958128452301025 0.22106142342090606689 0.21575748920440673828 0.20870421826839447021 0.19625189900398254395 0.18651534616947174072 0.18628157675266265869 0.18711780011653900146 0.18803188204765319824 0.18919958174228668213 0.19058774411678314209 0.19344718754291534424 0.20383426547050476074 0.21339045464992523193 0.22026643157005310059 0.22643649578094482422 0.22964100539684295654 0.1401608586311340332 0.11820726096630096436 0.12567771971225738525 0.13262581825256347656 0.13972783088684082031 0.14632494747638702393 0.15305469930171966553 0.17125611007213592529 0.20198757946491241455 0.20664948225021362305 0.21074311435222625732 0.21387393772602081299 0.21651551127433776855 0.21854867041110992432 0.22035877406597137451 0.22190596163272857666 0.22348800301551818848 0.22495347261428833008 0.22641739249229431152 0.22767077386379241943 0.22880952060222625732 0.2296657860279083252 0.23036369681358337402 0.23093439638614654541 0.23158349096775054932 0.2323633730411529541 0.23350261151790618896 0.23497143387794494629 0.23697903752326965332 0.23928911983966827393 0.24218219518661499023 0.24530909955501556396 0.24905164539813995361 0.25292116403579711914 0.2573598325252532959 0.26176893711090087891 0.26667028665542602539 0.27140536904335021973 0.27657401561737060547 0.281536102294921875 0.28700807690620422363 0.29232239723205566406 0.29827144742012023926 0.30410453677177429199 0.31051179766654968262 0.31639394164085388184 0.3223025202751159668 0.32718309760093688965 0.33145785331726074219 0.33437830209732055664 0.33645167946815490723 0.33753284811973571777 0.33795371651649475098 0.33780360221862792969 0.33721697330474853516 0.33636078238487243652 0.33515954017639160156 0.33381614089012145996 0.33214563131332397461 0.33041670918464660645 0.32840448617935180664 0.3264929354190826416 0.3244832158088684082 0.32277464866638183594 0.32119199633598327637 0.32006561756134033203 0.31927961111068725586 0.31899443268775939941 0.31921073794364929199 0.31994116306304931641 0.32133945822715759277 0.32311674952507019043 0.32524839043617248535 0.32709267735481262207 0.32856929302215576172 0.32913556694984436035 0.32856079936027526855 0.32684266567230224609 0.32375824451446533203 0.3197955787181854248 0.31440833210945129395 0.30840867757797241211 0.30110228061676025391 0.2938639521598815918 0.28609207272529602051 0.27925086021423339844 0.27280312776565551758 0.26791197061538696289 0.26384475827217102051 0.26102787256240844727 0.25881710648536682129 0.25719839334487915039 0.25565391778945922852 0.25427848100662231445 0.25299820303916931152 0.25214740633964538574 0.25163823366165161133 0.25129365921020507812 0.25107610225677490234 0.25099700689315795898 0.25096818804740905762 0.25092238187789916992 0.25077739357948303223 0.25048542022705078125 0.24995978176593780518 0.24924296140670776367 0.24822957813739776611 0.24702115356922149658 0.24545362591743469238 0.24371057748794555664 0.24165754020214080811 0.23961253464221954346 0.23744122684001922607 0.23547030985355377197 0.23356558382511138916 0.23191633820533752441 0.23022453486919403076 0.22854399681091308594 0.22655811905860900879 0.22435159981250762939 0.22162935137748718262 0.21877458691596984863 0.2156763225793838501 0.21281348168849945068 0.2100868523120880127 0.20790787041187286377 0.20607331395149230957 0.20462787151336669922 0.20327970385551452637 0.2020092308521270752 0.20054520666599273682 0.19894142448902130127 0.19710358977317810059 0.19529202580451965332 0.1934499591588973999 0.19183394312858581543 0.19037419557571411133 0.18908137083053588867 0.18757127225399017334 0.18569807708263397217 0.18300701677799224854 0.17945677042007446289 0.17460723221302032471 0.1689691692590713501 0.16229824721813201904 0.155309334397315979 0.14767311513423919678 0.14014342427253723145 0.13228492438793182373 0.12473592907190322876 0.11702384054660797119 0.10975470393896102905 0.10248611122369766235 0.095658093690872192383 0.088547244668006896973 0.081325329840183258057 0.073197238147258758545 0.064397223293781280518 0.054144311696290969849 0.043194234371185302734 0.031217142939567565918 0.019319565966725349426 0.0070886136963963508606 1.9443683413555845618e-05 0 0 0 0 0 0 0 0 0 0 0 0 0 0 0 0 0 0 0 0 0 0 0 0 0 0 0 0 0 0 0 0 0 0 0 0 0 0 
0 0 0 0 0 0 0 0 0 0 0 0 0 0 0 0 0 0 0 0 0 0 0 0 0 0 0 0 0.027359256520867347717 0.13285918533802032471 0.18473933637142181396 0.19029916822910308838 0.18341718614101409912 0.17839872837066650391 0.16532182693481445312 0.14223898947238922119 0.13417236506938934326 0.16378979384899139404 0.21450529992580413818 0.17084348201751708984 0.064149267971515655518 0.11777659505605697632 0.18774993717670440674 0.17877502739429473877 0.14281322062015533447 0.14693173766136169434 0.15438070893287658691 0.17216756939888000488 0.20957158505916595459 0.21536742150783538818 0.21314796805381774902 0.24842654168605804443 0.21287254989147186279 0.18480658531188964844 0.33564031124114990234 0.64918363094329833984 0.77349883317947387695 0.75242441892623901367 0.59612411260604858398 0.37865391373634338379 0.23596879839897155762 0.22785992920398712158 0.23159131407737731934 0.2371031641960144043 0.26719310879707336426 0.2915051877498626709 0.32808625698089599609 0.36517789959907531738 0.34023991227149963379 0.29559507966041564941 0.27909898757934570312 0.2594159245491027832 0.25926631689071655273 0.26407986879348754883 0.26796364784240722656 0.26692318916320800781 0.25969225168228149414 0.24688857793807983398 0.23629227280616760254 0.23183536529541015625 0.22939231991767883301 0.23266926407814025879 0.23648792505264282227 0.23172876238822937012 0.22251380980014801025 0.21810564398765563965 0.20827969908714294434 0.19664628803730010986 0.1897220611572265625 0.18890671432018280029 0.18945112824440002441 0.19030994176864624023 0.19146730005741119385 0.19287607073783874512 0.1978368610143661499 0.20894864201545715332 0.21742126345634460449 0.22334375977516174316 0.22894851863384246826 0.23040618002414703369 0.12587405741214752197 0.12012642621994018555 0.12744423747062683105 0.13425463438034057617 0.14122027158737182617 0.14769794046878814697 0.15432362258434295654 0.17199315130710601807 0.20157222449779510498 0.2059573829174041748 0.20981274545192718506 0.21277756989002227783 0.21530637145042419434 0.21728867292404174805 0.21910052001476287842 0.22069926559925079346 0.2223825305700302124 0.22397743165493011475 0.22560194134712219238 0.22701375186443328857 0.22830614447593688965 0.22927899658679962158 0.23006711900234222412 0.23070099949836730957 0.2314061969518661499 0.23224025964736938477 0.2334505915641784668 0.2350076138973236084 0.23712991178035736084 0.23956161737442016602 0.2425924837589263916 0.24585163593292236328 0.24973377585411071777 0.25372987985610961914 0.25829273462295532227 0.2628059685230255127 0.26780176162719726562 0.27260613441467285156 0.2778314054012298584 0.28283706307411193848 0.28835555911064147949 0.29372167587280273438 0.29973959922790527344 0.30566135048866271973 0.31218436360359191895 0.31817531585693359375 0.32417601346969604492 0.32909956574440002441 0.33335426449775695801 0.33618587255477905273 0.33810892701148986816 0.33902707695960998535 0.33927896618843078613 0.33900603652000427246 0.33835041522979736328 0.3374849855899810791 0.33630543947219848633 0.33498960733413696289 0.33332818746566772461 0.33156365156173706055 0.32945111393928527832 0.32740077376365661621 0.32521277666091918945 0.32333269715309143066 0.32157933712005615234 0.32032555341720581055 0.31944346427917480469 0.31910970807075500488 0.31931653618812561035 0.32007938623428344727 0.32155790925025939941 0.32344314455986022949 0.32570242881774902344 0.32764872908592224121 0.32918772101402282715 0.32974129915237426758 0.32905492186546325684 0.32715493440628051758 0.32382807135581970215 0.31963196396827697754 0.31402474641799926758 0.30788335204124450684 0.30050930380821228027 0.29327243566513061523 0.28554370999336242676 0.27875748276710510254 0.27236455678939819336 0.2675049901008605957 0.26349252462387084961 0.26075166463851928711 0.25861716270446777344 0.25707346200942993164 0.25562173128128051758 0.25434374809265136719 0.25316473841667175293 0.25239336490631103516 0.25197589397430419922 0.25172969698905944824 0.25155478715896606445 0.25149199366569519043 0.25147533416748046875 0.25145030021667480469 0.25135371088981628418 0.25114476680755615234 0.25074318051338195801 0.25015297532081604004 0.24925395846366882324 0.24810796976089477539 0.24652971327304840088 0.24468599259853363037 0.24244317412376403809 0.24016639590263366699 0.23772346973419189453 0.23549713194370269775 0.23335099220275878906 0.23150767385959625244 0.22963781654834747314 0.22780151665210723877 0.22565218806266784668 0.22327931225299835205 0.22036314010620117188 0.21731348335742950439 0.21401262283325195312 0.21097196638584136963 0.2080882638692855835 0.20579887926578521729 0.20389179885387420654 0.20241086184978485107 0.20105193555355072021 0.19978773593902587891 0.19833859801292419434 0.19674849510192871094 0.19491554796695709229 0.19309173524379730225 0.19121025502681732178 0.18952305614948272705 0.18794712424278259277 0.18650875985622406006 0.18482734262943267822 0.18278753757476806641 0.17993836104869842529 0.17626711726188659668 0.1713374704122543335 0.16567131876945495605 0.15902638435363769531 0.15211848914623260498 0.14462907612323760986 0.1373011171817779541 0.12970213592052459717 0.12243005633354187012 0.1150092780590057373 0.10800366848707199097 0.1009658128023147583 0.094307728111743927002 0.087320148944854736328 0.080173671245574951172 0.072084344923496246338 0.063291415572166442871 0.05302152782678604126 0.042042966932058334351 0.030007816851139068604 0.018022833392024040222 0.0047555607743561267853 0 0 0 0 0 0 0 0 0 0 0 0 0 0 0 0 0 0 0 0 0 0 0 0 0 0 0 0 0 0 0 0 0 0 0 0 0 0 0 
0 0 0 0 0 0 0 0 0 0 0 0 0 0 0 0 0 0 0 0 0 0 0 0 0 0 0 0 0.0093791242688894271851 0.1114779934287071228 0.18067087233066558838 0.17948693037033081055 0.17180575430393218994 0.16931170225143432617 0.16531491279602050781 0.15298818051815032959 0.13244205713272094727 0.11584936827421188354 0.12534677982330322266 0.11307835578918457031 0.15406328439712524414 0.19288976490497589111 0.18606895208358764648 0.15188467502593994141 0.12152837216854095459 0.13552986085414886475 0.14137309789657592773 0.16213454306125640869 0.19357185065746307373 0.21438170969486236572 0.21106421947479248047 0.22259350121021270752 0.20814317464828491211 0.19031795859336853027 0.43472778797149658203 0.69757008552551269531 0.78534561395645141602 0.70251369476318359375 0.51708739995956420898 0.32027873396873474121 0.22813488543033599854 0.22933714091777801514 0.22953110933303833008 0.23911842703819274902 0.27294617891311645508 0.30121445655822753906 0.34334981441497802734 0.37423938512802124023 0.33748805522918701172 0.28833338618278503418 0.27121579647064208984 0.26118570566177368164 0.26383858919143676758 0.26886570453643798828 0.27197119593620300293 0.26990628242492675781 0.26124018430709838867 0.24829064309597015381 0.23890140652656555176 0.23520335555076599121 0.23413045704364776611 0.23670625686645507812 0.24015188217163085938 0.2327353358268737793 0.22339421510696411133 0.21775546669960021973 0.20714174211025238037 0.19579216837882995605 0.19038955867290496826 0.19094346463680267334 0.19176170229911804199 0.19272451102733612061 0.19397777318954467773 0.19548024237155914307 0.20397828519344329834 0.21393461525440216064 0.22121693193912506104 0.22601148486137390137 0.2309497147798538208 0.22060956060886383057 0.12618650496006011963 0.1222724616527557373 0.12944468855857849121 0.13612338900566101074 0.14295805990695953369 0.14931771159172058105 0.15583254396915435791 0.17306523025035858154 0.20167784392833709717 0.2057641446590423584 0.20934320986270904541 0.21209415793418884277 0.21445102989673614502 0.21632117033004760742 0.21806840598583221436 0.21965731680393218994 0.2213821709156036377 0.2230574488639831543 0.224798545241355896 0.22634246945381164551 0.22777880728244781494 0.22887815535068511963 0.22978539764881134033 0.23052099347114562988 0.23132762312889099121 0.23225572705268859863 0.23356902599334716797 0.23522990942001342773 0.23747116327285766602 0.24002256989479064941 0.24318870902061462402 0.24658341705799102783 0.25061899423599243164 0.2547671198844909668 0.25948959589004516602 0.26414251327514648438 0.26926821470260620117 0.27416691184043884277 0.27946174144744873047 0.28450867533683776855 0.29005503654479980469 0.29544007778167724609 0.30147513747215270996 0.30741867423057556152 0.31397169828414916992 0.31998586654663085938 0.32599112391471862793 0.33088639378547668457 0.33506515622138977051 0.33777976036071777344 0.33954498171806335449 0.34030869603157043457 0.34041073918342590332 0.34003618359565734863 0.33933290839195251465 0.33847588300704956055 0.33733403682708740234 0.33605897426605224609 0.33442029356956481934 0.33263337612152099609 0.33043554425239562988 0.32825997471809387207 0.32590618729591369629 0.32386246323585510254 0.32194119691848754883 0.32055580615997314453 0.31956455111503601074 0.31916117668151855469 0.31932532787322998047 0.32007896900177001953 0.32157996296882629395 0.32350981235504150391 0.32582458853721618652 0.32781007885932922363 0.3293564915657043457 0.32986557483673095703 0.32906094193458557129 0.32699739933013916016 0.32346820831298828125 0.3190892636775970459 0.31332439184188842773 0.30710068345069885254 0.29971793293952941895 0.29252764582633972168 0.28488302230834960938 0.278186798095703125 0.27187767624855041504 0.26707038283348083496 0.26313361525535583496 0.26046913862228393555 0.25841048359870910645 0.2569446861743927002 0.25559607148170471191 0.25443288683891296387 0.25338056683540344238 0.25271567702293395996 0.25240409374237060547 0.25226733088493347168 0.25214675068855285645 0.25208401679992675781 0.25205361843109130859 0.25202000141143798828 0.25193735957145690918 0.25177839398384094238 0.25146728754043579102 0.25097575783729553223 0.25016775727272033691 0.24906970560550689697 0.24747528135776519775 0.24553866684436798096 0.24312448501586914062 0.24063895642757415771 0.23795066773891448975 0.23549187183380126953 0.2331228405237197876 0.2310962975025177002 0.22905345261096954346 0.2270612567663192749 0.22474423050880432129 0.22219818830490112305 0.21907898783683776855 0.21582485735416412354 0.21231120824813842773 0.20908370614051818848 0.20603501796722412109 0.20362992584705352783 0.2016468048095703125 0.20012807846069335938 0.19875583052635192871 0.19749425351619720459 0.19605395197868347168 0.19446921348571777344 0.19262914359569549561 0.19077743589878082275 0.18883459270000457764 0.18704916536808013916 0.18532270193099975586 0.18370443582534790039 0.18182231485843658447 0.1796016991138458252 0.17660264670848846436 0.17284747958183288574 0.1679070591926574707 0.16229534149169921875 0.15575982630252838135 0.14899326860904693604 0.14167323708534240723 0.13451740145683288574 0.12709739804267883301 0.11999160051345825195 0.11272778362035751343 0.10585102438926696777 0.098914809525012969971 0.092320673167705535889 0.085367955267429351807 0.078230775892734527588 0.07013165205717086792 0.06131684035062789917 0.051018547266721725464 0.040022280067205429077 0.027969762682914733887 0.015960952267050743103 0.0020115207880735397339 0 0 0 0 0 0 0 0 0 0 0 0 0 0 0 0 0 0 0 0 0 0 0 0 0 0 0 0 0 0 0 0 0 0 0 0 0 0 0 
0 0 0 0 0 0 0 0 0 0 0 0 0 0 0 0 0 0 0 0 0 0 0 0 0 0 0 0 0.00068373087560757994652 0.083106413483619689941 0.17970333993434906006 0.16909791529178619385 0.15808387100696563721 0.15663848817348480225 0.15418064594268798828 0.14242108166217803955 0.13104468584060668945 0.12782646715641021729 0.12811487913131713867 0.086237803101539611816 0.13395294547080993652 0.18796879053115844727 0.188288077712059021 0.14216393232345581055 0.10120011121034622192 0.11674312502145767212 0.16204829514026641846 0.20114086568355560303 0.208831787109375 0.22535063326358795166 0.21045310795307159424 0.18600180745124816895 0.16512770950794219971 0.2091207653284072876 0.53536820411682128906 0.72781199216842651367 0.78202253580093383789 0.66584354639053344727 0.46637561917304992676 0.28422757983207702637 0.22873999178409576416 0.23004271090030670166 0.22844150662422180176 0.24420893192291259766 0.27408599853515625 0.32118594646453857422 0.36533242464065551758 0.37027794122695922852 0.32281059026718139648 0.28478756546974182129 0.27015978097915649414 0.26424628496170043945 0.2683175206184387207 0.27322900295257568359 0.27560850977897644043 0.27258878946304321289 0.26235669851303100586 0.24934360384941101074 0.24090297520160675049 0.2380183786153793335 0.23969607055187225342 0.24382998049259185791 0.24236199259757995605 0.23316515982151031494 0.22371818125247955322 0.21745745837688446045 0.20616288483142852783 0.19558358192443847656 0.19149187207221984863 0.19283637404441833496 0.19402521848678588867 0.19517205655574798584 0.1965389251708984375 0.19920134544372558594 0.21014912426471710205 0.21844084560871124268 0.2241729050874710083 0.22777228057384490967 0.23292869329452514648 0.19585613906383514404 0.11757985502481460571 0.12447135895490646362 0.13151597976684570312 0.13807880878448486328 0.14479792118072509766 0.15105292201042175293 0.15746438503265380859 0.17440186440944671631 0.20234897732734680176 0.20613972842693328857 0.20942534506320953369 0.21192759275436401367 0.2140607684850692749 0.21575978398323059082 0.21737484633922576904 0.21888925135135650635 0.22059141099452972412 0.2222935408353805542 0.22410413622856140137 0.2257474362850189209 0.22731252014636993408 0.22854359447956085205 0.22959432005882263184 0.23046566545963287354 0.23141303658485412598 0.23246784508228302002 0.23390586674213409424 0.23567402362823486328 0.23802335560321807861 0.24067802727222442627 0.24396270513534545898 0.24748519062995910645 0.25168108940124511719 0.25600257515907287598 0.2609201967716217041 0.26575139164924621582 0.27104768157005310059 0.27607333660125732422 0.28145936131477355957 0.28655287623405456543 0.29211381077766418457 0.29748520255088806152 0.3034801781177520752 0.30936649441719055176 0.31584402918815612793 0.32177442312240600586 0.32767465710639953613 0.33245560526847839355 0.33649593591690063477 0.33906987309455871582 0.34068211913108825684 0.34131455421447753906 0.3413003385066986084 0.34085282683372497559 0.34011945128440856934 0.33927425742149353027 0.33816578984260559082 0.33692470192909240723 0.33530527353286743164 0.33350163698196411133 0.33123737573623657227 0.32896307110786437988 0.32647666335105895996 0.32429954409599304199 0.32223743200302124023 0.32073608040809631348 0.3196392059326171875 0.31915542483329772949 0.31924837827682495117 0.31994909048080444336 0.32140490412712097168 0.32330045104026794434 0.3255786597728729248 0.32752296328544616699 0.32900834083557128906 0.32943782210350036621 0.32851743698120117188 0.32632786035537719727 0.3226636350154876709 0.31817898154258728027 0.31234237551689147949 0.30610692501068115234 0.29877489805221557617 0.29167631268501281738 0.28415545821189880371 0.27757704257965087891 0.27137315273284912109 0.26663616299629211426 0.26278603076934814453 0.26019567251205444336 0.25821149349212646484 0.25682494044303894043 0.2555859684944152832 0.25454884767532348633 0.25364035367965698242 0.25310084223747253418 0.25290632247924804688 0.25287157297134399414 0.25281175971031188965 0.25273823738098144531 0.2526645958423614502 0.25258719921112060547 0.25247409939765930176 0.25231724977493286133 0.25204259157180786133 0.25160118937492370605 0.25084164738655090332 0.2497653961181640625 0.24814739823341369629 0.24613320827484130859 0.24358585476875305176 0.24094034731388092041 0.23806348443031311035 0.23542360961437225342 0.23287628591060638428 0.23069722950458526611 0.22850374877452850342 0.22637008130550384521 0.22389630973339080811 0.22118616104125976562 0.21787415444850921631 0.21442589163780212402 0.210710182785987854 0.20730520784854888916 0.20409953594207763672 0.20158396661281585693 0.19952738285064697266 0.19797052443027496338 0.19658194482326507568 0.19531832635402679443 0.19388031959533691406 0.19229221343994140625 0.19043286144733428955 0.18853941559791564941 0.18651944398880004883 0.1846202164888381958 0.18272756040096282959 0.18091848492622375488 0.17883449792861938477 0.17644739151000976562 0.17333583533763885498 0.16955924034118652344 0.16469888389110565186 0.1592372506856918335 0.15289758145809173584 0.14632244408130645752 0.13916680216789245605 0.1321070939302444458 0.12471728771924972534 0.11758965998888015747 0.11026996374130249023 0.10332490503787994385 0.096317276358604431152 0.089660979807376861572 0.082652010023593902588 0.075465738773345947266 0.067319601774215698242 0.05846153944730758667 0.048122692853212356567 0.037109386175870895386 0.025068167597055435181 0.012194287031888961792 0.0003763033600989729166 0 0 0 0 0 0 0 0 0 0 0 0 0 0 0 0 0 0 0 0 0 0 0 0 0 0 0 0 0 0 0 0 0 0 0 0 0 0 0 
0 0 0 0 0 0 0 0 0 0 0 0 0 0 0 0 0 0 0 0 0 0 0 0 0 0 0 0 0 0.042547665536403656006 0.15242370963096618652 0.1487242281436920166 0.13970844447612762451 0.13387599587440490723 0.13385365903377532959 0.12961432337760925293 0.12234728038311004639 0.11790671944618225098 0.1356426626443862915 0.1668663322925567627 0.1641511768102645874 0.095480360090732574463 0.14783023297786712646 0.13900771737098693848 0.11823764443397521973 0.11055460572242736816 0.18172848224639892578 0.21895988285541534424 0.21808061003684997559 0.20359949767589569092 0.18176037073135375977 0.14678058028221130371 0.12331810593605041504 0.27514481544494628906 0.61165165901184082031 0.75535494089126586914 0.74492126703262329102 0.62272703647613525391 0.42145711183547973633 0.25268602371215820312 0.22791282832622528076 0.22911708056926727295 0.22747103869915008545 0.24601925909519195557 0.27771419286727905273 0.33733668923377990723 0.38732469081878662109 0.36878100037574768066 0.31235846877098083496 0.28270992636680603027 0.27041590213775634766 0.26749759912490844727 0.27211564779281616211 0.27687406539916992188 0.27890956401824951172 0.27473264932632446289 0.26291239261627197266 0.25043982267379760742 0.24275580048561096191 0.2414684295654296875 0.24627323448657989502 0.24900305271148681641 0.24276971817016601562 0.23284856975078582764 0.22300267219543457031 0.21568092703819274902 0.20466771721839904785 0.19531635940074920654 0.19397090375423431396 0.19527348875999450684 0.19661727547645568848 0.19796343147754669189 0.19945763051509857178 0.20451709628105163574 0.21541556715965270996 0.2222325056791305542 0.22640909254550933838 0.22977118194103240967 0.23584203422069549561 0.1968762129545211792 0.1201410144567489624 0.12691202759742736816 0.1338361203670501709 0.14028906822204589844 0.14689812064170837402 0.15305301547050476074 0.15936446189880371094 0.17608468234539031982 0.20353049039840698242 0.20700842142105102539 0.20996956527233123779 0.21218071877956390381 0.21403560042381286621 0.21550607681274414062 0.21692690253257751465 0.2183103710412979126 0.21993678808212280273 0.22162455320358276367 0.22347274422645568848 0.22519667446613311768 0.22688877582550048828 0.22826839983463287354 0.22949700057506561279 0.23054625093936920166 0.23168121278285980225 0.23290200531482696533 0.23449346423149108887 0.23637929558753967285 0.23883408308029174805 0.24158388376235961914 0.24498066306114196777 0.24863405525684356689 0.25301069021224975586 0.25754091143608093262 0.26270416378974914551 0.26776611804962158203 0.27328667044639587402 0.27848166227340698242 0.28398823738098144531 0.28913825750350952148 0.29470372200012207031 0.30003061890602111816 0.30592888593673706055 0.31168040633201599121 0.31797841191291809082 0.323719024658203125 0.32940378785133361816 0.33398160338401794434 0.33781507611274719238 0.34021604061126708984 0.34166878461837768555 0.34218099713325500488 0.34207099676132202148 0.3415686190128326416 0.3408146202564239502 0.33997926115989685059 0.33889496326446533203 0.33767685294151306152 0.33606773614883422852 0.33424654603004455566 0.3319257199764251709 0.32956936955451965332 0.32697257399559020996 0.32468256354331970215 0.32249754667282104492 0.32088950276374816895 0.31968581676483154297 0.31910800933837890625 0.31909921765327453613 0.31970179080963134766 0.3210430443286895752 0.32282310724258422852 0.32496884465217590332 0.32678654789924621582 0.32813486456871032715 0.32844007015228271484 0.32739344239234924316 0.32510143518447875977 0.32135382294654846191 0.3168258368968963623 0.31099045276641845703 0.3048108518123626709 0.29759740829467773438 0.29064658284187316895 0.28330048918724060059 0.27687877416610717773 0.27081161737442016602 0.26617103815078735352 0.26242315769195556641 0.2599137425422668457 0.25801077485084533691 0.25671178102493286133 0.2555967867374420166 0.25470438599586486816 0.25396460294723510742 0.25357496738433837891 0.25351673364639282227 0.25358688831329345703 0.25358062982559204102 0.25349944829940795898 0.25335648655891418457 0.25319993495941162109 0.25301301479339599609 0.25281390547752380371 0.25252756476402282715 0.25209373235702514648 0.25134479999542236328 0.25026556849479675293 0.248613700270652771 0.24652832746505737305 0.2438688427209854126 0.24109353125095367432 0.23806408047676086426 0.23527517914772033691 0.23257586359977722168 0.23026041686534881592 0.22792577743530273438 0.22565484046936035156 0.22302609682083129883 0.22015325725078582764 0.21665127575397491455 0.21301257610321044922 0.20909868180751800537 0.20551884174346923828 0.20215679705142974854 0.19952832162380218506 0.19739267230033874512 0.19579072296619415283 0.19437856972217559814 0.19310565292835235596 0.19166138768196105957 0.19006140530109405518 0.18817307054996490479 0.18622650206089019775 0.18411359190940856934 0.18208026885986328125 0.17999425530433654785 0.17796638607978820801 0.17565786838531494141 0.17309665679931640625 0.16988839209079742432 0.1661357581615447998 0.16143368184566497803 0.15621082484722137451 0.15015053749084472656 0.14381800591945648193 0.13682639598846435547 0.12979502975940704346 0.12230002135038375854 0.11497762799263000488 0.10739973932504653931 0.10019265115261077881 0.09294681251049041748 0.086112752556800842285 0.078966654837131500244 0.071681164205074310303 0.063456207513809204102 0.05453500896692276001 0.04414100944995880127 0.033107675611972808838 0.021101888269186019897 0.0057168602943420410156 0 0 0 0 0 0 0 0 0 0 0 0 0 0 0 0 0 0 0 0 0 0 0 0 0 0 0 0 0 0 0 0 0 0 0 0 0 0 0 0 
0 0 0 0 0 0 0 0 0 0 0 0 0 0 0 0 0 0 0 0 0 0 0 0 0 0 0 0 0 0.015754150226712226868 0.10603906959295272827 0.11922688782215118408 0.11606363952159881592 0.11232652515172958374 0.1110475584864616394 0.11310838907957077026 0.11038267612457275391 0.10568455606698989868 0.1125127747654914856 0.12447833269834518433 0.14562940597534179688 0.10136054456233978271 0.076757840812206268311 0.096890412271022796631 0.13132771849632263184 0.16119673848152160645 0.19239035248756408691 0.20569111406803131104 0.19450135529041290283 0.17968557775020599365 0.1564318239688873291 0.11980958282947540283 0.11604720354080200195 0.38010466098785400391 0.6630064845085144043 0.76441609859466552734 0.7047240138053894043 0.56799036264419555664 0.36753353476524353027 0.23347261548042297363 0.22729140520095825195 0.22662112116813659668 0.22951705753803253174 0.24787244200706481934 0.28061035275459289551 0.33864748477935791016 0.39011874794960021973 0.37458899617195129395 0.31845262646675109863 0.28454267978668212891 0.27041465044021606445 0.27059468626976013184 0.27567750215530395508 0.28050673007965087891 0.28172704577445983887 0.27611330151557922363 0.26314812898635864258 0.25126662850379943848 0.24397540092468261719 0.24483650922775268555 0.25167867541313171387 0.25170731544494628906 0.24278053641319274902 0.23186416923999786377 0.22279238700866699219 0.21382774412631988525 0.20259527862071990967 0.19573201239109039307 0.19641600549221038818 0.19789145886898040771 0.19931362569332122803 0.20086675882339477539 0.20298656821250915527 0.21034349501132965088 0.21966905891895294189 0.22514057159423828125 0.22839120030403137207 0.23250325024127960205 0.23811206221580505371 0.15931540727615356445 0.12272353470325469971 0.12995646893978118896 0.15206806361675262451 0.15982854366302490234 0.16626955568790435791 0.17206887900829315186 0.17779083549976348877 0.18820869922637939453 0.20490857958793640137 0.20808975398540496826 0.21074105799198150635 0.21266657114028930664 0.21424096822738647461 0.21547400951385498047 0.21668510138988494873 0.21791797876358032227 0.21944411098957061768 0.22109298408031463623 0.22295503318309783936 0.22474077343940734863 0.22654834389686584473 0.22807762026786804199 0.22949680685997009277 0.23074258863925933838 0.23208698630332946777 0.23349140584468841553 0.23524689674377441406 0.237249717116355896 0.23980011045932769775 0.24263165891170501709 0.24612730741500854492 0.24990399181842803955 0.2544632256031036377 0.25921306014060974121 0.26464092731475830078 0.26995486021041870117 0.27572193741798400879 0.28110331296920776367 0.28674051165580749512 0.29194694757461547852 0.29750537872314453125 0.30276501178741455078 0.3085288703441619873 0.31409704685211181641 0.32015168666839599609 0.32563883066177368164 0.33104380965232849121 0.33536988496780395508 0.33896365761756896973 0.34118276834487915039 0.34248495101928710938 0.34289526939392089844 0.34271186590194702148 0.34217071533203125 0.34140154719352722168 0.34057003259658813477 0.3394972681999206543 0.33828881382942199707 0.3366794288158416748 0.33483946323394775391 0.33247289061546325684 0.33005377650260925293 0.32737314701080322266 0.32499644160270690918 0.32271406054496765137 0.3210169374942779541 0.31971609592437744141 0.3190422356128692627 0.31891581416130065918 0.31939095258712768555 0.32056802511215209961 0.32217168807983398438 0.32411164045333862305 0.3257370293140411377 0.32689008116722106934 0.32703790068626403809 0.32585945725440979004 0.32348585128784179688 0.3196977078914642334 0.31517904996871948242 0.30940783023834228516 0.30334043502807617188 0.29629778861999511719 0.28953513503074645996 0.28239932656288146973 0.27616059780120849609 0.27025115489959716797 0.26572558283805847168 0.26208677887916564941 0.25965923070907592773 0.25783687829971313477 0.25662410259246826172 0.25563198328018188477 0.25488382577896118164 0.25431501865386962891 0.25407907366752624512 0.25415948033332824707 0.25432729721069335938 0.25436100363731384277 0.25426778197288513184 0.25405779480934143066 0.25380438566207885742 0.25351887941360473633 0.25324907898902893066 0.25291714072227478027 0.25245878100395202637 0.25169098377227783203 0.25058922171592712402 0.24889592826366424561 0.24674709141254425049 0.24399603903293609619 0.24111767113208770752 0.23796914517879486084 0.23506301641464233398 0.23224031925201416016 0.22980985045433044434 0.2273527979850769043 0.22496137022972106934 0.2221972048282623291 0.21918448805809020996 0.21552243828773498535 0.21172496676445007324 0.20764580368995666504 0.20391850173473358154 0.20042070746421813965 0.19768835604190826416 0.19547310471534729004 0.19381946325302124023 0.19237190485000610352 0.19107735157012939453 0.18961760401725769043 0.18800255656242370605 0.18608616292476654053 0.18408864736557006836 0.18188364803791046143 0.17971281707286834717 0.17742308974266052246 0.17516165971755981445 0.17261223495006561279 0.16986495256423950195 0.16655625402927398682 0.16283649206161499023 0.1583153456449508667 0.15335822105407714844 0.14760023355484008789 0.14151740074157714844 0.1346708834171295166 0.12761695683002471924 0.11993286758661270142 0.11231637746095657349 0.1043703034520149231 0.096797272562980651855 0.089214354753494262695 0.08212957531213760376 0.074800617992877960205 0.067389398813247680664 0.059069544076919555664 0.050075251609086990356 0.039621226489543914795 0.02857089601457118988 0.016207514330744743347 0.0018427033210173249245 0 0 0 0 0 0 0 0 0 0 0 0 0 0 0 0 0 0 0 0 0 0 0 0 0 0 0 0 0 0 0 0 0 0 0 0 0 0 0 0 
0 0 0 0 0 0 0 0 0 0 0 0 0 0 0 0 0 0 0 0 0 0 0 0 0 0 0 0 0 0.0027832982596009969711 0.052953340113162994385 0.078283838927745819092 0.086657375097274780273 0.086163580417633056641 0.087860055267810821533 0.094021774828433990479 0.095340393483638763428 0.094780430197715759277 0.098205961287021636963 0.097979590296745300293 0.10167976468801498413 0.10389496386051177979 0.086016081273555755615 0.069309294223785400391 0.14877913892269134521 0.17336063086986541748 0.16651888191699981689 0.16812354326248168945 0.16573294997215270996 0.16550870239734649658 0.12170995771884918213 0.099066555500030517578 0.16085638105869293213 0.49381586909294128418 0.69737827777862548828 0.74160158634185791016 0.65280449390411376953 0.50092446804046630859 0.30707919597625732422 0.22438153624534606934 0.22610744833946228027 0.22209024429321289062 0.22883154451847076416 0.24923723936080932617 0.28913408517837524414 0.35490462183952331543 0.39994049072265625 0.36828091740608215332 0.31552484631538391113 0.28762415051460266113 0.27160304784774780273 0.27452564239501953125 0.27992326021194458008 0.28424590826034545898 0.2839686274528503418 0.27731317281723022461 0.26353472471237182617 0.25213345885276794434 0.24564325809478759766 0.2494045943021774292 0.25565743446350097656 0.25298345088958740234 0.24224784970283508301 0.2299232780933380127 0.22019900381565093994 0.21171547472476959229 0.20193125307559967041 0.19901771843433380127 0.19983701407909393311 0.20086945593357086182 0.20219817757606506348 0.20396865904331207275 0.20724110305309295654 0.21617460250854492188 0.22356264293193817139 0.22757206857204437256 0.23046511411666870117 0.23552495241165161133 0.24122129380702972412 0.15310181677341461182 0.12556588649749755859 0.13322909176349639893 0.17160268127918243408 0.18179088830947875977 0.18810364603996276855 0.1935084611177444458 0.19851896166801452637 0.20266433060169219971 0.20636925101280212402 0.20925924181938171387 0.21160739660263061523 0.21325279772281646729 0.21455086767673492432 0.21554814279079437256 0.21654792129993438721 0.21762476861476898193 0.21904055774211883545 0.22063894569873809814 0.22250358760356903076 0.22434453666210174561 0.22626712918281555176 0.22795736789703369141 0.22958974540233612061 0.23105974495410919189 0.23264458775520324707 0.23425905406475067139 0.23619869351387023926 0.23832710087299346924 0.24097375571727752686 0.24388398230075836182 0.24747659265995025635 0.25138038396835327148 0.2561365962028503418 0.26112949848175048828 0.26685324311256408691 0.27245071530342102051 0.27849498391151428223 0.28408470749855041504 0.28986445069313049316 0.29512622952461242676 0.30066373944282531738 0.3058312535285949707 0.31142187118530273438 0.31675958633422851562 0.32251119613647460938 0.32768604159355163574 0.33275118470191955566 0.33677846193313598633 0.34009715914726257324 0.34211862087249755859 0.3432680964469909668 0.34358289837837219238 0.34333589673042297363 0.34276232123374938965 0.34197667241096496582 0.34113973379135131836 0.34006425738334655762 0.33885145187377929688 0.33722984790802001953 0.33536627888679504395 0.3329575657844543457 0.33048540353775024414 0.32773554325103759766 0.3252868950366973877 0.32292145490646362305 0.32114449143409729004 0.31974914669990539551 0.31897252798080444336 0.31870821118354797363 0.31902259588241577148 0.3199806511402130127 0.32134094834327697754 0.32299315929412841797 0.32435023784637451172 0.32523611187934875488 0.32517808675765991211 0.32384416460990905762 0.3213939368724822998 0.31759417057037353516 0.31312772631645202637 0.30747753381729125977 0.30157962441444396973 0.29476943612098693848 0.28825011849403381348 0.2813790440559387207 0.27536672353744506836 0.26965382695198059082 0.26527270674705505371 0.26176011562347412109 0.25942352414131164551 0.25768774747848510742 0.25656485557556152344 0.25569993257522583008 0.25510099530220031738 0.25471207499504089355 0.25463891029357910156 0.25486686825752258301 0.25513103604316711426 0.25519835948944091797 0.25507971644401550293 0.25480613112449645996 0.25445231795310974121 0.25404807925224304199 0.25368604063987731934 0.25328418612480163574 0.25277882814407348633 0.25197058916091918945 0.25082981586456298828 0.24908366799354553223 0.24686723947525024414 0.24402633309364318848 0.24104970693588256836 0.23778809607028961182 0.2347714155912399292 0.23183165490627288818 0.22929067909717559814 0.22671638429164886475 0.22421193122863769531 0.22132529318332672119 0.21819195151329040527 0.21439802646636962891 0.21047297120094299316 0.20626091957092285156 0.20241178572177886963 0.19879485666751861572 0.19596202671527862549 0.19365744292736053467 0.19193311035633087158 0.19042694568634033203 0.18909151852130889893 0.18760512769222259521 0.18597523868083953857 0.1840381920337677002 0.18199756741523742676 0.17970249056816101074 0.17738410830497741699 0.1748622208833694458 0.17232462763786315918 0.16948167979717254639 0.16649790108203887939 0.1630449146032333374 0.15933182835578918457 0.15498431026935577393 0.15029864013195037842 0.14485277235507965088 0.1390237659215927124 0.13231137394905090332 0.12520241737365722656 0.11727403849363327026 0.10929696261882781982 0.10090848058462142944 0.09290062636137008667 0.084919318556785583496 0.077529951930046081543 0.069969281554222106934 0.062405940145254135132 0.053975462913513183594 0.044898536056280136108 0.03437883034348487854 0.023312730714678764343 0.010314293205738067627 0 0 0 0 0 0 0 0 0 0 0 0 0 0 0 0 0 0 0 0 0 0 0 0 0 0 0 0 0 0 0 0 0 0 0 0 0 0 0 0 0 
0 0 0 0 0 0 0 0 0 0 0 0 0 0 0 0 0 0 0 0 0 0 0 0 0 0 0 0 0 7.8457611380144953728e-05 0.014961782842874526978 0.036656636744737625122 0.048011790961027145386 0.053070712834596633911 0.059831850230693817139 0.070454604923725128174 0.078640967607498168945 0.078184559941291809082 0.080437071621417999268 0.081422626972198486328 0.085560120642185211182 0.094315379858016967773 0.091113612055778503418 0.0825120583176612854 0.10899303853511810303 0.12579685449600219727 0.15127097070217132568 0.1358111947774887085 0.13138933479785919189 0.11917862296104431152 0.096030049026012420654 0.23834551870822906494 0.26118132472038269043 0.56358218193054199219 0.71713578701019287109 0.69244474172592163086 0.58003729581832885742 0.41337677836418151855 0.24445866048336029053 0.21831308305263519287 0.22086611390113830566 0.2203899770975112915 0.22952935099601745605 0.25299927592277526855 0.30694988369941711426 0.37716934084892272949 0.38819456100463867188 0.35199913382530212402 0.30605936050415039062 0.28255155682563781738 0.27393779158592224121 0.27841106057167053223 0.28353413939476013184 0.28706207871437072754 0.2857437431812286377 0.27790406346321105957 0.26370590925216674805 0.25320786237716674805 0.24923540651798248291 0.25455248355865478516 0.25832411646842956543 0.25367555022239685059 0.24107900261878967285 0.22810858488082885742 0.22056204080581665039 0.21035492420196533203 0.20414710044860839844 0.20305937528610229492 0.20314925909042358398 0.20369930565357208252 0.20475850999355316162 0.20640912652015686035 0.21121719479560852051 0.22055095434188842773 0.22654636204242706299 0.22953039407730102539 0.23213659226894378662 0.23836736381053924561 0.23975355923175811768 0.15061070024967193604 0.12840166687965393066 0.1359580308198928833 0.17368616163730621338 0.18380281329154968262 0.1900673210620880127 0.19536226987838745117 0.20019271969795227051 0.20412020385265350342 0.20756641030311584473 0.21020697057247161865 0.21230326592922210693 0.2137221992015838623 0.21480152010917663574 0.21561481058597564697 0.21645064651966094971 0.21740554273128509521 0.21873268485069274902 0.22028879821300506592 0.22215557098388671875 0.22404587268829345703 0.22607444226741790771 0.2279192507266998291 0.22976166009902954102 0.23145528137683868408 0.23328103125095367432 0.23510579764842987061 0.23722827434539794922 0.2394787222146987915 0.24221552908420562744 0.24519735574722290039 0.24887897074222564697 0.25290268659591674805 0.25784933567047119141 0.26308009028434753418 0.26909393072128295898 0.27496945858001708984 0.28128406405448913574 0.28707417845726013184 0.29298642277717590332 0.2982921302318572998 0.3037955164909362793 0.30885842442512512207 0.31426337361335754395 0.31936147809028625488 0.32480230927467346191 0.32966035604476928711 0.33438423275947570801 0.33811530470848083496 0.3411661684513092041 0.34300059080123901367 0.34401080012321472168 0.34424188733100891113 0.34394067525863647461 0.34333789348602294922 0.34253102540969848633 0.34167739748954772949 0.34058374166488647461 0.33935201168060302734 0.3377056419849395752 0.33581316471099853516 0.33336520195007324219 0.33084970712661743164 0.32804632186889648438 0.32554283738136291504 0.32311308383941650391 0.32127174735069274902 0.31979462504386901855 0.31892091035842895508 0.3185164034366607666 0.31865808367729187012 0.31937128305435180664 0.32045266032218933105 0.32177156209945678711 0.32281711697578430176 0.323394775390625 0.32310378551483154297 0.32160204648971557617 0.31907927989959716797 0.3152853846549987793 0.31089627742767333984 0.30539983510971069336 0.29970392584800720215 0.29316058754920959473 0.28691500425338745117 0.28033775091171264648 0.27457666397094726562 0.26908424496650695801 0.26486375927925109863 0.26148384809494018555 0.25923994183540344238 0.25758814811706542969 0.25654843449592590332 0.25579857826232910156 0.2553342282772064209 0.25510984659194946289 0.25518661737442016602 0.25555241107940673828 0.25590032339096069336 0.25599303841590881348 0.25584608316421508789 0.25550696253776550293 0.25507530570030212402 0.25456422567367553711 0.25410929322242736816 0.25363293290138244629 0.25307384133338928223 0.25221678614616394043 0.25102922320365905762 0.24922356009483337402 0.24693566560745239258 0.24400351941585540771 0.24092955887317657471 0.23755736649036407471 0.23443277180194854736 0.2313804328441619873 0.22873654961585998535 0.22605785727500915527 0.22345881164073944092 0.22047814726829528809 0.21726171672344207764 0.21338672935962677002 0.20938837528228759766 0.20509979128837585449 0.20117531716823577881 0.19747473299503326416 0.19455578923225402832 0.19215545058250427246 0.19034193456172943115 0.18875323235988616943 0.18735738098621368408 0.18583524227142333984 0.18419645726680755615 0.18225620687007904053 0.18019318580627441406 0.17782671749591827393 0.17536924779415130615 0.1726077646017074585 0.1697702258825302124 0.16659425199031829834 0.16332519054412841797 0.15966887772083282471 0.15590102970600128174 0.1516618579626083374 0.14718768000602722168 0.14199897646903991699 0.13638207316398620605 0.1297766268253326416 0.12260507792234420776 0.11444238573312759399 0.10612645745277404785 0.097325503826141357422 0.08891376107931137085 0.080562502145767211914 0.072889961302280426025 0.065103285014629364014 0.057375933974981307983 0.048834390938282012939 0.039677329361438751221 0.029092065989971160889 0.018013529479503631592 0.0044736294075846672058 0 0 0 0 0 0 0 0 0 0 0 0 0 0 0 0 0 0 0 0 0 0 0 0 0 0 0 0 0 0 0 0 0 0 0 0 0 0 0 0 0 
0 0 0 0 0 0 0 0 0 0 0 0 0 0 0 0 0 0 0 0 0 0 0 0 0 0 0 0 0 0 0.032217733561992645264 0.073961734771728515625 0.086042702198028564453 0.030287504196166992188 0.026729198172688484192 0.038905184715986251831 0.050914660096168518066 0.05473068729043006897 0.059705175459384918213 0.063185960054397583008 0.066052012145519256592 0.064405463635921478271 0.05566832423210144043 0.063671424984931945801 0.091825395822525024414 0.10482820123434066772 0.12627705931663513184 0.10275177657604217529 0.080842979252338409424 0.093562170863151550293 0.2424583137035369873 0.2478170543909072876 0.39009800553321838379 0.62123358249664306641 0.70294725894927978516 0.62956857681274414062 0.48862093687057495117 0.31815832853317260742 0.21624971926212310791 0.21626675128936767578 0.21686193346977233887 0.22072732448577880859 0.23562541604042053223 0.26566204428672790527 0.33110907673835754395 0.39583247900009155273 0.38702538609504699707 0.32864373922348022461 0.29476833343505859375 0.28020817041397094727 0.27691051363945007324 0.28159943222999572754 0.28692916035652160645 0.28999918699264526367 0.28745752573013305664 0.27753931283950805664 0.26386785507202148438 0.25504660606384277344 0.25454807281494140625 0.25841674208641052246 0.26104825735092163086 0.25317436456680297852 0.23965375125408172607 0.22618940472602844238 0.2191899418830871582 0.20966026186943054199 0.20716293156147003174 0.20661085844039916992 0.20630759000778198242 0.20641571283340454102 0.20703485608100891113 0.20826695859432220459 0.21547190845012664795 0.22436371445655822754 0.2291215062141418457 0.231478080153465271 0.23464556038379669189 0.24057646095752716064 0.21984981000423431396 0.14072951674461364746 0.13149364292621612549 0.13893322646617889404 0.17557752132415771484 0.18552953004837036133 0.19169917702674865723 0.19685187935829162598 0.20148453116416931152 0.20519246160984039307 0.20839507877826690674 0.21081182360649108887 0.21270270645618438721 0.21395224332809448242 0.21488022804260253906 0.215574607253074646 0.2163098752498626709 0.21719211339950561523 0.21846672892570495605 0.22000068426132202148 0.22188025712966918945 0.22382411360740661621 0.22596092522144317627 0.22796483337879180908 0.23002640902996063232 0.23195511102676391602 0.23403510451316833496 0.23608227074146270752 0.23839820921421051025 0.24077749252319335938 0.24360895156860351562 0.24666520953178405762 0.25043901801109313965 0.25458726286888122559 0.25973179936408996582 0.26520979404449462891 0.2715238034725189209 0.27768552303314208984 0.28427526354789733887 0.29026466608047485352 0.29630157351493835449 0.3016382753849029541 0.30708968639373779297 0.31202965974807739258 0.3172301948070526123 0.32207432389259338379 0.3271929323673248291 0.33172667026519775391 0.33610439300537109375 0.33953753113746643066 0.34232127666473388672 0.34397083520889282227 0.34484449028968811035 0.34499320387840270996 0.34463623166084289551 0.34399873018264770508 0.34315896034240722656 0.34227317571640014648 0.3411426544189453125 0.33987480401992797852 0.33818769454956054688 0.33625590801239013672 0.33376401662826538086 0.33120608329772949219 0.32835438847541809082 0.32580357789993286133 0.32331883907318115234 0.32142153382301330566 0.31986877322196960449 0.31889808177947998047 0.31834402680397033691 0.31829243898391723633 0.31872230768203735352 0.31947430968284606934 0.32039520144462585449 0.32106664776802062988 0.32127329707145690918 0.3207022249698638916 0.31900048255920410156 0.31639358401298522949 0.31261089444160461426 0.3083184659481048584 0.30300974845886230469 0.29755762219429016113 0.29133373498916625977 0.28541401028633117676 0.27918723225593566895 0.27372747659683227539 0.26850181818008422852 0.26447302103042602539 0.26124554872512817383 0.25910529494285583496 0.25754177570343017578 0.25658392906188964844 0.25594231486320495605 0.25560387969017028809 0.25553590059280395508 0.25575655698776245117 0.25625741481781005859 0.25668087601661682129 0.25679388642311096191 0.25661855936050415039 0.25621500611305236816 0.25571009516716003418 0.25511980056762695312 0.25458326935768127441 0.25403487682342529297 0.25342160463333129883 0.25251185894012451172 0.25126990675926208496 0.24939185380935668945 0.2470156550407409668 0.2439708709716796875 0.24077786505222320557 0.23727262020111083984 0.23402105271816253662 0.23083966970443725586 0.22808313369750976562 0.22529987990856170654 0.22261750698089599609 0.2195682525634765625 0.21630732715129852295 0.21240673959255218506 0.20839558541774749756 0.20409318804740905762 0.20014514029026031494 0.19639626145362854004 0.19339799880981445312 0.19088350236415863037 0.1889486461877822876 0.18723954260349273682 0.18575359880924224854 0.18418253958225250244 0.18254391849040985107 0.1806252896785736084 0.17856711149215698242 0.17614938318729400635 0.17355294525623321533 0.17052163183689117432 0.16732579469680786133 0.16373226046562194824 0.16008192300796508789 0.15611484646797180176 0.15218965709209442139 0.14795979857444763184 0.14361397922039031982 0.13861323893070220947 0.13316239416599273682 0.12664213776588439941 0.11941456049680709839 0.111049652099609375 0.10244223475456237793 0.093286223709583282471 0.084525682032108306885 0.07585325092077255249 0.067931585013866424561 0.059943348169326782227 0.052056375890970230103 0.043380830436944961548 0.034134011715650558472 0.023477682843804359436 0.012386081740260124207 0.0006237112102098762989 0 0 0 0 0 0 0 0 0 0 0 0 0 0 0 0 0 0 0 0 0 0 0 0 0 0 0 0 0 0 0 0 0 0 0 0 0 0 0 0 0 
0 0 0 0 0 0 0 0 0 0 0 0 0 0 0 0 0 0 0 0 0 0 0 0 0 0 0 0 0 0 0 0 0.032924450933933258057 0.031687643378973007202 0.059777334332466125488 0.038368526846170425415 0.022977294400334358215 0.027167433872818946838 0.033046580851078033447 0.032234206795692443848 0.026516040787100791931 0.02008988894522190094 0.017793610692024230957 0.035055365413427352905 0.10251916199922561646 0.089066900312900543213 0.13604842126369476318 0.12986665964126586914 0.13712874054908752441 0.23710200190544128418 0.28612813353538513184 0.25924581289291381836 0.44805696606636047363 0.63890933990478515625 0.66239023208618164062 0.55977368354797363281 0.4020773768424987793 0.25446757674217224121 0.2105448991060256958 0.21477741003036499023 0.21317292749881744385 0.22195795178413391113 0.24461498856544494629 0.27557364106178283691 0.33557713031768798828 0.40020909905433654785 0.39232778549194335938 0.33400201797485351562 0.2943058311939239502 0.28150442242622375488 0.28021100163459777832 0.28505843877792358398 0.29045015573501586914 0.29285213351249694824 0.28933089971542358398 0.27749273180961608887 0.26437944173812866211 0.25740352272987365723 0.26009482145309448242 0.26197421550750732422 0.2631740570068359375 0.25206464529037475586 0.23879091441631317139 0.22602389752864837646 0.21816146373748779297 0.21205513179302215576 0.21041324734687805176 0.20961056649684906006 0.20901420712471008301 0.20873424410820007324 0.20879210531711578369 0.21024432778358459473 0.2204599231481552124 0.22794662415981292725 0.23164951801300048828 0.23397953808307647705 0.2368030548095703125 0.2297875136137008667 0.18900530040264129639 0.13738758862018585205 0.13454991579055786133 0.14187215268611907959 0.17707575857639312744 0.18676415085792541504 0.1927890777587890625 0.19777385890483856201 0.2022062838077545166 0.20571365952491760254 0.20871274173259735107 0.21095809340476989746 0.21271601319313049316 0.21387787163257598877 0.21474646031856536865 0.21540862321853637695 0.21612712740898132324 0.21700257062911987305 0.21827468276023864746 0.21981549263000488281 0.22172234952449798584 0.22372110188007354736 0.22595769166946411133 0.22810615599155426025 0.23036819696426391602 0.23251283168792724609 0.23482751846313476562 0.23708128929138183594 0.23957894742488861084 0.24208177626132965088 0.24500657618045806885 0.2481374591588973999 0.25200197100639343262 0.25626897811889648438 0.26159778237342834473 0.26730269193649291992 0.27388897538185119629 0.28030735254287719727 0.28714001178741455078 0.29330003261566162109 0.2994353175163269043 0.3047841191291809082 0.31017124652862548828 0.3149853050708770752 0.31998902559280395508 0.32459840178489685059 0.32942655682563781738 0.33367228507995605469 0.33774545788764953613 0.3409182429313659668 0.34346956014633178711 0.34495845437049865723 0.34571260213851928711 0.34578728675842285156 0.34537649154663085938 0.34470036625862121582 0.34381848573684692383 0.34288859367370605469 0.34170740842819213867 0.34039106965065002441 0.33865195512771606445 0.33667415380477905273 0.33413612842559814453 0.33153811097145080566 0.32864451408386230469 0.32605504989624023438 0.32352676987648010254 0.32158520817756652832 0.31996947526931762695 0.31891226768493652344 0.31821751594543457031 0.31797704100608825684 0.31812280416488647461 0.31853920221328735352 0.31905099749565124512 0.31933557987213134766 0.31915676593780517578 0.31829333305358886719 0.31638130545616149902 0.31368413567543029785 0.30990976095199584961 0.30571487545967102051 0.30059862136840820312 0.29539802670478820801 0.28950458765029907227 0.28392377495765686035 0.27806368470191955566 0.27292096614837646484 0.26797783374786376953 0.26414862275123596191 0.26107639074325561523 0.2590395808219909668 0.25755929946899414062 0.25667351484298706055 0.25612160563468933105 0.25588747859001159668 0.25595062971115112305 0.25629392266273498535 0.25691241025924682617 0.25739434361457824707 0.2575207054615020752 0.25732082128524780273 0.2568652033805847168 0.25629991292953491211 0.25565123558044433594 0.25506922602653503418 0.25446799397468566895 0.25380808115005493164 0.25284853577613830566 0.25155013799667358398 0.24959181249141693115 0.24711476266384124756 0.24394054710865020752 0.24061183631420135498 0.2369578927755355835 0.23356892168521881104 0.23025463521480560303 0.22738969326019287109 0.22451524436473846436 0.22177247703075408936 0.21869164705276489258 0.21543395519256591797 0.21156978607177734375 0.20761039853096008301 0.20336158573627471924 0.19944596290588378906 0.19568923115730285645 0.19262804090976715088 0.18999437987804412842 0.18791972100734710693 0.18606516718864440918 0.18446800112724304199 0.1828374713659286499 0.1812041550874710083 0.17932438850402832031 0.17729195952415466309 0.17484195530414581299 0.17211522161960601807 0.16880623996257781982 0.165225982666015625 0.16116826236248016357 0.15707427263259887695 0.15271356701850891113 0.14853522181510925293 0.1442028433084487915 0.13987736403942108154 0.13496595621109008789 0.12961240112781524658 0.12314762920141220093 0.11588528752326965332 0.10738800466060638428 0.09858763962984085083 0.089194595813751220703 0.080199070274829864502 0.071307621896266937256 0.063213557004928588867 0.055081490427255630493 0.047073420137166976929 0.038272622972726821899 0.028913618996739387512 0.018184514716267585754 0.0065501639619469642639 7.7759301348123699427e-05 0 0 0 0 0 0 0 0 0 0 0 0 0 0 0 0 0 0 0 0 0 0 0 0 0 0 0 0 0 0 0 0 0 0 0 0 0 0 0 0 0 
0 0 0 0 0 0 0 0 0 0 0 0 0 0 0 0 0 0 0 0 0 0 0 0 0 0 0 0 0 0 0 0 0 0 0 0.0030841948464512825012 0.0015912631060928106308 0.071569837629795074463 0.081412449479103088379 0.1800362318754196167 0.19282166659832000732 0.19258829951286315918 0.19258269667625427246 0.11012502014636993408 0.074882820248603820801 0.21528765559196472168 0.24000000953674316406 0.24000000953674316406 0.24000000953674316406 0.25508263707160949707 0.29000002145767211914 0.20364139974117279053 0.41109260916709899902 0.55740529298782348633 0.41599714756011962891 0.35826241970062255859 0.27409434318542480469 0.21467362344264984131 0.21093751490116119385 0.21237730979919433594 0.21481819450855255127 0.22816535830497741699 0.2550163567066192627 0.29140031337738037109 0.35515946149826049805 0.40746733546257019043 0.38541412353515625 0.33498072624206542969 0.29679372906684875488 0.28316196799278259277 0.28296524286270141602 0.28832966089248657227 0.29363340139389038086 0.29551398754119873047 0.29119855165481567383 0.27813428640365600586 0.26535779237747192383 0.26090219616889953613 0.26695311069488525391 0.2691218256950378418 0.26444411277770996094 0.25155657529830932617 0.23786969482898712158 0.22567078471183776855 0.21869586408138275146 0.21521817147731781006 0.2136344611644744873 0.21254774928092956543 0.2116546928882598877 0.2110188901424407959 0.21053826808929443359 0.21319395303726196289 0.22548842430114746094 0.2312237471342086792 0.23422001302242279053 0.23676571249961853027 0.23428733646869659424 0.21154217422008514404 0.17465864121913909912 0.13803073763847351074 0.1378688514232635498 0.14506122469902038574 0.17836302518844604492 0.18767796456813812256 0.19350753724575042725 0.19829449057579040527 0.20251543819904327393 0.20582960546016693115 0.208650246262550354 0.21076256036758422852 0.21244345605373382568 0.21358503401279449463 0.21447186172008514404 0.21517618000507354736 0.21595081686973571777 0.2168776392936706543 0.21819238364696502686 0.21976748108863830566 0.22171731293201446533 0.22377593815326690674 0.22611008584499359131 0.22839662432670593262 0.23085044324398040771 0.23320266604423522949 0.23574489355087280273 0.23820197582244873047 0.2408831864595413208 0.24351735413074493408 0.24654841423034667969 0.24976770579814910889 0.25373625755310058594 0.25813075900077819824 0.26364600658416748047 0.26957261562347412109 0.27641904354095458984 0.28307804465293884277 0.29013350605964660645 0.29644408822059631348 0.30265671014785766602 0.30799940228462219238 0.3133055567741394043 0.31798195838928222656 0.32278114557266235352 0.32715421915054321289 0.33169624209403991699 0.33566191792488098145 0.33944156765937805176 0.34236541390419006348 0.34469613432884216309 0.34603339433670043945 0.34667500853538513184 0.3466790318489074707 0.34621408581733703613 0.34549513459205627441 0.34456205368041992188 0.34357613325119018555 0.34232997894287109375 0.34095180034637451172 0.33914762735366821289 0.33711463212966918945 0.33452466130256652832 0.33188468217849731445 0.32895013689994812012 0.32632488012313842773 0.32375708222389221191 0.3217754065990447998 0.32010045647621154785 0.31895795464515686035 0.31812015175819396973 0.3176835179328918457 0.31753018498420715332 0.31759035587310791016 0.31766563653945922852 0.3175360560417175293 0.31694322824478149414 0.31576448678970336914 0.31362399458885192871 0.31082668900489807129 0.30705779790878295898 0.30296495556831359863 0.29805332422256469727 0.29312223196029663086 0.28758633136749267578 0.28237447142601013184 0.27691513299942016602 0.27212026715278625488 0.2674884498119354248 0.26387485861778259277 0.26096776127815246582 0.2590401768684387207 0.25764486193656921387 0.25682932138442993164 0.25635924935340881348 0.25622245669364929199 0.25640764832496643066 0.2568683624267578125 0.25760057568550109863 0.25812882184982299805 0.25826194882392883301 0.25803765654563903809 0.25753447413444519043 0.2569141685962677002 0.25620821118354797363 0.25558808445930480957 0.25495636463165283203 0.25425362586975097656 0.25323668122291564941 0.25186911225318908691 0.24981065094470977783 0.24720782041549682617 0.24387396872043609619 0.24038110673427581787 0.23655259609222412109 0.2330093681812286377 0.22955642640590667725 0.22659039497375488281 0.22364544868469238281 0.22087273001670837402 0.21780304610729217529 0.21459931135177612305 0.21083438396453857422 0.20699080824851989746 0.20286092162132263184 0.19902907311916351318 0.19530121982097625732 0.19219098985195159912 0.18943113088607788086 0.18719585239887237549 0.18516692519187927246 0.18343129754066467285 0.1817207634449005127 0.18008413910865783691 0.17824159562587738037 0.17623370885848999023 0.17374320328235626221 0.17086489498615264893 0.16723573207855224609 0.16321043670177459717 0.1586084514856338501 0.15398225188255310059 0.1491279900074005127 0.14459758996963500977 0.14006218314170837402 0.13566924631595611572 0.13077259063720703125 0.12546741962432861328 0.11903882026672363281 0.11175818741321563721 0.10317843407392501831 0.094254486262798309326 0.084707900881767272949 0.075558781623840332031 0.066521473228931427002 0.058308497071266174316 0.050072856247425079346 0.041974220424890518188 0.033074002712965011597 0.023586599156260490417 0.012736883945763111115 0.002340413164347410202 0 0 0 0 0 0 0 0 0 0 0 0 0 0 0 0 0 0 0 0 0 0 0 0 0 0 0 0 0 0 0 0 0 0 0 0 0 0 0 0 0 0 
0 0 0 0 0 0 0 0 0 0 0 0 0 0 0 0 0 0 0 0 0 0 0 0 0 0 0 0 0 0 0 0 0 0 0 0 0 0 0 0.041800092905759811401 0.10185975581407546997 0.16229386627674102783 0.20000000298023223877 0.11210338026285171509 0.10196235030889511108 0.234676361083984375 0.18369065225124359131 0.1574395596981048584 0.13392449915409088135 0.09073940664529800415 0.11867394298315048218 0.14193943142890930176 0.20417377352714538574 0.24414870142936706543 0.24779783189296722412 0.23856830596923828125 0.2254937291145324707 0.21142376959323883057 0.21068657934665679932 0.20888465642929077148 0.2171735614538192749 0.23453758656978607178 0.2631155848503112793 0.30657029151916503906 0.37764343619346618652 0.41568776965141296387 0.37429076433181762695 0.32759767770767211914 0.29801732301712036133 0.28397446870803833008 0.28555479645729064941 0.29181146621704101562 0.29674863815307617188 0.29788839817047119141 0.29251721501350402832 0.27867388725280761719 0.26641371846199035645 0.26556327939033508301 0.27361622452735900879 0.27498036623001098633 0.26443153619766235352 0.25197738409042358398 0.23762306571006774902 0.2261594235897064209 0.21898224949836730957 0.21745161712169647217 0.21631555259227752686 0.2151676863431930542 0.21407741308212280273 0.21320283412933349609 0.21253535151481628418 0.21864239871501922607 0.22909478843212127686 0.23345094919204711914 0.23574900627136230469 0.2390152662992477417 0.23414994776248931885 0.2052615433931350708 0.17045043408870697021 0.14019532501697540283 0.14112499356269836426 0.14818769693374633789 0.17936272919178009033 0.18825587630271911621 0.19387795031070709229 0.19847184419631958008 0.20250324904918670654 0.20565880835056304932 0.20834752917289733887 0.21037828922271728516 0.21203890442848205566 0.21321970224380493164 0.21418701112270355225 0.21498961746692657471 0.21587353944778442383 0.21689367294311523438 0.21828399598598480225 0.21991294622421264648 0.22191436588764190674 0.22402948141098022461 0.22644586861133575439 0.2288449406623840332 0.23145462572574615479 0.23397658765316009521 0.23670774698257446289 0.23933808505535125732 0.2421833425760269165 0.24494494497776031494 0.24808955192565917969 0.25140833854675292969 0.25548982620239257812 0.26001083850860595703 0.26569500565528869629 0.27181038260459899902 0.27886998653411865234 0.28572013974189758301 0.29294687509536743164 0.29936677217483520508 0.30562537908554077148 0.31094509363174438477 0.31616410613059997559 0.32070723176002502441 0.32531651854515075684 0.32947546243667602539 0.33376163244247436523 0.33747908473014831543 0.34100055694580078125 0.34370744228363037109 0.34584808349609375 0.34705689549446105957 0.34760490059852600098 0.34755086898803710938 0.34704056382179260254 0.34628289937973022461 0.34529951214790344238 0.34425592422485351562 0.34294196963310241699 0.34149879217147827148 0.33962661027908325195 0.33753702044486999512 0.33489570021629333496 0.33221602439880371094 0.32924449443817138672 0.32658779621124267578 0.32398554682731628418 0.32196861505508422852 0.32024061679840087891 0.31902110576629638672 0.31805375218391418457 0.31743884086608886719 0.31701329350471496582 0.31674897670745849609 0.31642633676528930664 0.31591865420341491699 0.31494724750518798828 0.31347927451133728027 0.31112790107727050781 0.30823659896850585938 0.3044700324535369873 0.30046838521957397461 0.29574340581893920898 0.29106178879737854004 0.28585931658744812012 0.28099319338798522949 0.27591073513031005859 0.27144411206245422363 0.26710692048072814941 0.26369214057922363281 0.26093557476997375488 0.25910782814025878906 0.25778988003730773926 0.2570368647575378418 0.2566362917423248291 0.2565854489803314209 0.2568766176700592041 0.25744405388832092285 0.25827711820602416992 0.25883519649505615234 0.25896862149238586426 0.25871950387954711914 0.25817117094993591309 0.25749960541725158691 0.25673955678939819336 0.25607717037200927734 0.25541517138481140137 0.25468310713768005371 0.25360783934593200684 0.25216031074523925781 0.24998760223388671875 0.24724476039409637451 0.24373753368854522705 0.24007135629653930664 0.23606571555137634277 0.23237526416778564453 0.22880361974239349365 0.22576725482940673828 0.22279401123523712158 0.22003751993179321289 0.21703070402145385742 0.21392942965030670166 0.21031163632869720459 0.2066272050142288208 0.20265723764896392822 0.19894303381443023682 0.19527371227741241455 0.1921361386775970459 0.18926542997360229492 0.18687686324119567871 0.18467326462268829346 0.18279126286506652832 0.18098407983779907227 0.17932114005088806152 0.17748674750328063965 0.17547377943992614746 0.17291310429573059082 0.16985899209976196289 0.16589115560054779053 0.16140818595886230469 0.15624958276748657227 0.15107554197311401367 0.14570254087448120117 0.14078311622142791748 0.13599240779876708984 0.13147574663162231445 0.12653927505016326904 0.12124326080083847046 0.11483426392078399658 0.10755022615194320679 0.098934255540370941162 0.089952059090137481689 0.080330260097980499268 0.071103408932685852051 0.061989217996597290039 0.05371120944619178772 0.045419208705425262451 0.03727426379919052124 0.02832749485969543457 0.018770940601825714111 0.0076719839125871658325 0.0002338045596843585372 0 0 0 0 0 0 0 0 0 0 0 0 0 0 0 0 0 0 0 0 0 0 0 0 0 0 0 0 0 0 0 0 0 0 0 0 0 0 0 0 0 0 
0 0 0 0 0 0 0 0 0 0 0 0 0 0 0 0 0 0 0 0 0 0 0 0 0 0 0 0 0 0 0 0 0 0 0 0 0 0 0 0 0 0.0034159820061177015305 0.0070855603553354740143 0.036093238741159439087 0.0087291682139039039612 0.027198676019906997681 0.014236242510378360748 0.010531720705330371857 0.014459392055869102478 0.044112682342529296875 0.081378862261772155762 0.14932169020175933838 0.21765768527984619141 0.24552051723003387451 0.24401403963565826416 0.2358566969633102417 0.22215758264064788818 0.20979966223239898682 0.20776563882827758789 0.20546130836009979248 0.21817347407341003418 0.23928938806056976318 0.27635541558265686035 0.33660450577735900879 0.40768679976463317871 0.41507461667060852051 0.36273184418678283691 0.32708162069320678711 0.29922857880592346191 0.28419628739356994629 0.28924766182899475098 0.29596984386444091797 0.30000963807106018066 0.30024632811546325684 0.29668331146240234375 0.28194403648376464844 0.2683690488338470459 0.27184176445007324219 0.28039574623107910156 0.27846670150756835938 0.26382803916931152344 0.25289896130561828613 0.23783411085605621338 0.22783938050270080566 0.2216358482837677002 0.22028449177742004395 0.21905931830406188965 0.21786555647850036621 0.21664695441722869873 0.21554334461688995361 0.21552337706089019775 0.22509306669235229492 0.23285917937755584717 0.23577328026294708252 0.23769921064376831055 0.2421397864818572998 0.23161524534225463867 0.20233063399791717529 0.16973261535167694092 0.14314541220664978027 0.14465183019638061523 0.15157155692577362061 0.18022716045379638672 0.18863067030906677246 0.19403162598609924316 0.19843403995037078857 0.20229256153106689453 0.20531755685806274414 0.20791324973106384277 0.20990696549415588379 0.21159598231315612793 0.21286994218826293945 0.21397516131401062012 0.21492847800254821777 0.21597200632095336914 0.2171258777379989624 0.21862450242042541504 0.2203280329704284668 0.22239196300506591797 0.22456349432468414307 0.2270507514476776123 0.22954168915748596191 0.23227719962596893311 0.2349376678466796875 0.23782747983932495117 0.24061080813407897949 0.2436132282018661499 0.24651268124580383301 0.24979518353939056396 0.25324156880378723145 0.25746294856071472168 0.26212552189826965332 0.26797622442245483398 0.2742595970630645752 0.28149595856666564941 0.28849545121192932129 0.29584777355194091797 0.30233904719352722168 0.30861309170722961426 0.31389084458351135254 0.31901034712791442871 0.32341432571411132812 0.32783144712448120117 0.33177676796913146973 0.33580964803695678711 0.33928248286247253418 0.34255081415176391602 0.34504705667495727539 0.3470064699649810791 0.34809637069702148438 0.34856173396110534668 0.34845912456512451172 0.34791171550750732422 0.3471202850341796875 0.3460877537727355957 0.34498411417007446289 0.34359800815582275391 0.34208434820175170898 0.3401381075382232666 0.3379872441291809082 0.33529132604598999023 0.3325703740119934082 0.32956090569496154785 0.32687202095985412598 0.32423374056816101074 0.32217925786972045898 0.32039567828178405762 0.31909820437431335449 0.31800380349159240723 0.31721714138984680176 0.31653264164924621582 0.31596201658248901367 0.31526505947113037109 0.3144022822380065918 0.31307509541511535645 0.3113346099853515625 0.30878308415412902832 0.30580046772956848145 0.30203291773796081543 0.2981160581111907959 0.29356917738914489746 0.2891286313533782959 0.28425127267837524414 0.27972403168678283691 0.27501240372657775879 0.27086991071701049805 0.26682424545288085938 0.26359957456588745117 0.26098430156707763672 0.2592518925666809082 0.25801032781600952148 0.25731924176216125488 0.25698721408843994141 0.2570247352123260498 0.25742241740226745605 0.25810447335243225098 0.25903397798538208008 0.25961256027221679688 0.25973761081695556641 0.25945562124252319336 0.25885397195816040039 0.25812295079231262207 0.25729858875274658203 0.25658175349235534668 0.25586906075477600098 0.25509148836135864258 0.25395509600639343262 0.25241300463676452637 0.25009733438491821289 0.24718371033668518066 0.24347193539142608643 0.2396087646484375 0.23541195690631866455 0.23157569766044616699 0.22790688276290893555 0.2248391956090927124 0.22189354896545410156 0.21921525895595550537 0.21634033322334289551 0.21340550482273101807 0.209996834397315979 0.20652334392070770264 0.20275849103927612305 0.19919802248477935791 0.19561792910099029541 0.1924753040075302124 0.18950867652893066406 0.18697193264961242676 0.18458802998065948486 0.18254266679286956787 0.18060770630836486816 0.17887611687183380127 0.17699502408504486084 0.17491789162158966064 0.1722218245267868042 0.16892960667610168457 0.16456130146980285645 0.15956547856330871582 0.15379610657691955566 0.14802446961402893066 0.14208222925662994385 0.1367257535457611084 0.13163064420223236084 0.12694716453552246094 0.121934548020362854 0.11662477254867553711 0.11022878438234329224 0.10295394808053970337 0.094332367181777954102 0.085332468152046203613 0.075683891773223876953 0.066426932811737060547 0.057281740009784698486 0.048978958278894424438 0.040673743933439254761 0.032535698264837265015 0.023626221343874931335 0.014177067205309867859 0.0036436722148209810257 0 0 0 0 0 0 0 0 0 0 0 0 0 0 0 0 0 0 0 0 0 0 0 0 0 0 0 0 0 0 0 0 0 0 0 0 0 0 0 0 0 0 0 
0 0 0 0 0 0 0 0 0 0 0 0 0 0 0 0 0 0 0 0 0 0 0 0 0 0 0 0 0 0 0 0 0 0 0 0 0 0 0 0 0 0 0 0 0 0.010265844874083995819 0.011420168913900852203 0.0096676507964730262756 0.018779737874865531921 0.059072308242321014404 0.10659577697515487671 0.17126502096652984619 0.22808757424354553223 0.24304759502410888672 0.24043953418731689453 0.23265707492828369141 0.21791413426399230957 0.20777294039726257324 0.20406699180603027344 0.20737756788730621338 0.22518427670001983643 0.24984791874885559082 0.29772233963012695312 0.36456698179244995117 0.41475665569305419922 0.40448686480522155762 0.3465963900089263916 0.31180131435394287109 0.29326298832893371582 0.2860126793384552002 0.29274389147758483887 0.29956999421119689941 0.30286887288093566895 0.30349570512771606445 0.30578711628913879395 0.2908357083797454834 0.27081528306007385254 0.27721244096755981445 0.28536748886108398438 0.27887845039367675781 0.26380580663681030273 0.25407007336616516113 0.23839512467384338379 0.22945715487003326416 0.22496804594993591309 0.22302126884460449219 0.22163650393486022949 0.22049351036548614502 0.2193164825439453125 0.21785432100296020508 0.21978154778480529785 0.23128011822700500488 0.23764631152153015137 0.24059109389781951904 0.24307852983474731445 0.24641650915145874023 0.22920279204845428467 0.2005557715892791748 0.17031091451644897461 0.14623078703880310059 0.14809046685695648193 0.15486799180507659912 0.18091130256652832031 0.18883509933948516846 0.19404388964176177979 0.19829095900058746338 0.20202299952507019043 0.20496676862239837646 0.20752230286598205566 0.20952680706977844238 0.21128486096858978271 0.21268568933010101318 0.21395909786224365234 0.2150866091251373291 0.21631006896495819092 0.21761375665664672852 0.21923455595970153809 0.22102136909961700439 0.22314952313899993896 0.22536922991275787354 0.2279053032398223877 0.23045225441455841064 0.23326246440410614014 0.23600704967975616455 0.23899996280670166016 0.24189378321170806885 0.24502702057361602783 0.24806174635887145996 0.25149700045585632324 0.25509178638458251953 0.2594712674617767334 0.26427870988845825195 0.2702750861644744873 0.27668270468711853027 0.28403210639953613281 0.29111430048942565918 0.29852434992790222168 0.30503556132316589355 0.31129041314125061035 0.31651213765144348145 0.32153260707855224609 0.32580873370170593262 0.3300533294677734375 0.33380746841430664062 0.33761295676231384277 0.3408661186695098877 0.3439082801342010498 0.34621840715408325195 0.34802123904228210449 0.34901323914527893066 0.34941619634628295898 0.34928172826766967773 0.34871286153793334961 0.34790003299713134766 0.34682926535606384277 0.34567415714263916016 0.34422379732131958008 0.34264546632766723633 0.34063017368316650391 0.33842200040817260742 0.33567515015602111816 0.33291566371917724609 0.3298702538013458252 0.3271497189998626709 0.32447460293769836426 0.32238101959228515625 0.32054179906845092773 0.31917220354080200195 0.31796789169311523438 0.31703928112983703613 0.31614777445793151855 0.31533718109130859375 0.31435000896453857422 0.3132133185863494873 0.31161189079284667969 0.30966064333915710449 0.30695223808288574219 0.30389609932899475098 0.3001257777214050293 0.29627487063407897949 0.29187026619911193848 0.28762558102607727051 0.28301569819450378418 0.27876931428909301758 0.27436658740043640137 0.2704951167106628418 0.26669406890869140625 0.26362136006355285645 0.26111406087875366211 0.2594579160213470459 0.25828328728675842285 0.25764748454093933105 0.25738167762756347656 0.25750425457954406738 0.25800478458404541016 0.25880661606788635254 0.25981637835502624512 0.26040434837341308594 0.2605107426643371582 0.26018801331520080566 0.25952515006065368652 0.25872647762298583984 0.25782677531242370605 0.25704175233840942383 0.25625959038734436035 0.25541236996650695801 0.25419163703918457031 0.25255128741264343262 0.25008755922317504883 0.24699132144451141357 0.24306574463844299316 0.23900519311428070068 0.23462878167629241943 0.23067161440849304199 0.22694894671440124512 0.22390523552894592285 0.22105447947978973389 0.21851989626884460449 0.21584077179431915283 0.21312193572521209717 0.20995964109897613525 0.20671905577182769775 0.20317465066909790039 0.19978058338165283203 0.19630743563175201416 0.19318501651287078857 0.19015607237815856934 0.18750254809856414795 0.18496161699295043945 0.18275769054889678955 0.18067276477813720703 0.17882275581359863281 0.17682173848152160645 0.17460265755653381348 0.17169530689716339111 0.16810974478721618652 0.16331309080123901367 0.15780587494373321533 0.15144790709018707275 0.14511018991470336914 0.13863217830657958984 0.1328621208667755127 0.1274728626012802124 0.1226215362548828125 0.11752596497535705566 0.11219554394483566284 0.10581041872501373291 0.098552025854587554932 0.089942708611488342285 0.080950491130352020264 0.071306496858596801758 0.06205292046070098877 0.052912853658199310303 0.044623617082834243774 0.036356318742036819458 0.028297360986471176147 0.019583400338888168335 0.010574121959507465363 0.0013859164901077747345 0 0 0 0 0 0 0 0 0 0 0 0 0 0 0 0 0 0 0 0 0 0 0 0 0 0 0 0 0 0 0 0 0 0 0 0 0 0 0 0 0 0 0 
0 0 0 0 0 0 0 0 0 0 0 0 0 0 0 0 0 0 0 0 0 0 0 0 0 0 0 0 0 0 0 0 0 0 0 0 0 0 0 0 0 0 0 0 0 0.0057073775678873062134 0.015966976061463356018 0.013810706324875354767 0.045682515949010848999 0.07719185948371887207 0.12812355160713195801 0.19039580225944519043 0.23204033076763153076 0.23883910477161407471 0.23619201779365539551 0.22612453997135162354 0.21245793998241424561 0.20637305080890655518 0.20200856029987335205 0.21260431408882141113 0.23409099876880645752 0.26557177305221557617 0.3247712552547454834 0.39387038350105285645 0.41629880666732788086 0.38574331998825073242 0.33163252472877502441 0.30003720521926879883 0.29034534096717834473 0.29134455323219299316 0.29683482646942138672 0.30280074477195739746 0.30608004331588745117 0.30748766660690307617 0.30930680036544799805 0.29029181599617004395 0.27281373739242553711 0.28244978189468383789 0.28832876682281494141 0.27772217988967895508 0.26513212919235229492 0.25578957796096801758 0.24096976220607757568 0.23305624723434448242 0.22733168303966522217 0.22529332339763641357 0.22420480847358703613 0.22342050075531005859 0.22271555662155151367 0.22198450565338134766 0.22620686888694763184 0.23732197284698486328 0.24313214421272277832 0.24637977778911590576 0.24832698702812194824 0.24683263897895812988 0.22589837014675140381 0.19922578334808349609 0.17151290178298950195 0.14965799450874328613 0.1518090665340423584 0.15843160450458526611 0.18155099451541900635 0.1889686286449432373 0.19400767982006072998 0.19813172519207000732 0.20178069174289703369 0.20469048619270324707 0.20725785195827484131 0.20932102203369140625 0.21119168400764465332 0.21275496482849121094 0.21423225104808807373 0.21556289494037628174 0.2169923931360244751 0.21846698224544525146 0.22022868692874908447 0.22211126983165740967 0.22430840134620666504 0.22656995058059692383 0.22913372516632080078 0.23170077800750732422 0.23453436791896820068 0.23730890452861785889 0.2403513491153717041 0.24331752955913543701 0.24656397104263305664 0.24974396824836730957 0.25336387753486633301 0.25714564323425292969 0.26172029972076416016 0.26669198274612426758 0.27282664179801940918 0.27932336926460266113 0.2867278754711151123 0.29382890462875366211 0.30122968554496765137 0.30770918726921081543 0.31390917301177978516 0.31905847787857055664 0.32397520542144775391 0.3281262814998626709 0.33220398426055908203 0.33577096462249755859 0.33934980630874633789 0.34238201379776000977 0.34519663453102111816 0.34732171893119812012 0.3489729464054107666 0.34987604618072509766 0.35022968053817749023 0.35007706284523010254 0.34950175881385803223 0.34868007898330688477 0.34758168458938598633 0.34638255834579467773 0.34487366676330566406 0.34323370456695556641 0.34115114808082580566 0.33888640999794006348 0.3360888361930847168 0.33329018950462341309 0.33020687103271484375 0.32745069265365600586 0.32473218441009521484 0.32259127497673034668 0.32068789005279541016 0.3192431330680847168 0.31793490052223205566 0.3168824613094329834 0.31582155823707580566 0.31482300162315368652 0.31361380219459533691 0.31226995587348937988 0.31046199798583984375 0.30835196375846862793 0.30552411079406738281 0.30241087079048156738 0.2986380159854888916 0.29483968019485473633 0.29055133461952209473 0.28647008538246154785 0.28208690881729125977 0.27808088064193725586 0.27394393086433410645 0.27030652761459350586 0.26671782135963439941 0.26376730203628540039 0.26133605837821960449 0.25973927974700927734 0.25862655043601989746 0.25804492831230163574 0.25785580277442932129 0.25807133316993713379 0.25869011878967285156 0.25963777303695678711 0.26071462035179138184 0.26130089163780212402 0.2613741755485534668 0.26099443435668945312 0.26025021076202392578 0.25936210155487060547 0.25836074352264404297 0.25747984647750854492 0.25659596920013427734 0.25564691424369812012 0.2543036043643951416 0.25252863764762878418 0.24989597499370574951 0.24660441279411315918 0.24244737625122070312 0.23817777633666992188 0.23362512886524200439 0.22957034409046173096 0.22584395110607147217 0.22289374470710754395 0.22022624313831329346 0.21792463958263397217 0.21553170680999755859 0.2131033092737197876 0.21024714410305023193 0.20727989077568054199 0.20398731529712677002 0.20078393816947937012 0.19744285941123962402 0.19436900317668914795 0.19130969047546386719 0.18856437504291534424 0.18587799370288848877 0.18350462615489959717 0.18122661113739013672 0.17918419837951660156 0.17696039378643035889 0.1744890064001083374 0.17125584185123443604 0.16728043556213378906 0.16198016703128814697 0.15591557323932647705 0.14894317090511322021 0.14202959835529327393 0.13501481711864471436 0.12883329391479492188 0.12315085530281066895 0.11813126504421234131 0.11295184493064880371 0.10760056972503662109 0.10122799873352050781 0.093990661203861236572 0.085402153432369232178 0.076429061591625213623 0.066806472837924957275 0.057577945291996002197 0.048473700881004333496 0.040240179747343063354 0.0320797748863697052 0.024232266470789909363 0.015887949615716934204 0.007208020426332950592 0.00022248375171329826117 0 0 0 0 0 0 0 0 0 0 0 0 0 0 0 0 0 0 0 0 0 0 0 0 0 0 0 0 0 0 0 0 0 0 0 0 0 0 0 0 0 0 0 
0 0 0 0 0 0 0 0 0 0 0 0 0 0 0 0 0 0 0 0 0 0 0 0 0 0 0 0 0 0 0 0 0 0 0 0 0 0 0 0 0 0 0 0 0 0.00091347377747297286987 0.012459115125238895416 0.012476517818868160248 0.07336209714412689209 0.089229635894298553467 0.15235194563865661621 0.20832170546054840088 0.23407432436943054199 0.23431195318698883057 0.23084402084350585938 0.22145760059356689453 0.2089945673942565918 0.20420369505882263184 0.20281323790550231934 0.2184181511402130127 0.24098612368106842041 0.27682000398635864258 0.342487335205078125 0.40943107008934020996 0.42606496810913085938 0.37259176373481750488 0.31553488969802856445 0.29613536596298217773 0.29131478071212768555 0.29616194963455200195 0.30056899785995483398 0.30604389309883117676 0.30924597382545471191 0.31096500158309936523 0.30584472417831420898 0.28468400239944458008 0.2750822603702545166 0.2873604893684387207 0.28976356983184814453 0.27802187204360961914 0.26693126559257507324 0.25720998644828796387 0.24197028577327728271 0.23304222524166107178 0.22671079635620117188 0.22667668759822845459 0.22650100290775299072 0.22632624208927154541 0.22637760639190673828 0.22688411176204681396 0.23211394250392913818 0.24203117191791534424 0.24729788303375244141 0.24978257715702056885 0.25036415457725524902 0.24067996442317962646 0.22112743556499481201 0.19827754795551300049 0.17305299639701843262 0.15303458273410797119 0.15541453659534454346 0.16188807785511016846 0.18214593827724456787 0.18909129500389099121 0.19400161504745483398 0.19804802536964416504 0.20166432857513427734 0.20458751916885375977 0.20721226930618286133 0.20936940610408782959 0.2113774418830871582 0.21311032772064208984 0.21479491889476776123 0.21632617712020874023 0.21795572340488433838 0.21959535777568817139 0.22149334847927093506 0.22346735000610351562 0.2257251739501953125 0.22801375389099121094 0.23057819902896881104 0.23312538862228393555 0.23592756688594818115 0.23867405951023101807 0.24170538783073425293 0.24469459056854248047 0.24801798164844512939 0.25132846832275390625 0.25513327121734619141 0.25910916924476623535 0.26388475298881530762 0.26901605725288391113 0.27526530623435974121 0.28181055188179016113 0.289215087890625 0.29628038406372070312 0.30362015962600708008 0.31003338098526000977 0.31616288423538208008 0.3212433159351348877 0.32607406377792358398 0.33012530207633972168 0.33406677842140197754 0.33747497200965881348 0.34085395932197570801 0.34368699789047241211 0.34629425406455993652 0.34825074672698974609 0.34976536035537719727 0.35059154033660888672 0.35090738534927368164 0.35074642300605773926 0.35017502307891845703 0.34935447573661804199 0.34824022650718688965 0.34701019525527954102 0.34545680880546569824 0.34376776218414306641 0.34163051843643188477 0.33931931853294372559 0.33647978305816650391 0.33364796638488769531 0.33053088188171386719 0.32774025201797485352 0.32497769594192504883 0.32278719544410705566 0.32081803679466247559 0.31930196285247802734 0.31790283322334289551 0.31675124168395996094 0.31556558609008789062 0.3144372403621673584 0.31308099627494812012 0.31160369515419006348 0.30966541171073913574 0.30745685100555419922 0.30455571413040161133 0.30140906572341918945 0.29763969779014587402 0.29388284683227539062 0.2896823585033416748 0.28572419285774230957 0.28151226043701171875 0.27768805623054504395 0.27375197410583496094 0.27029109001159667969 0.26686173677444458008 0.26399368047714233398 0.2615935206413269043 0.26002874970436096191 0.2589613795280456543 0.25842636823654174805 0.25831577181816101074 0.25862294435501098633 0.2593714296817779541 0.26047337055206298828 0.26159054040908813477 0.26216286420822143555 0.26218888163566589355 0.2617378532886505127 0.26089581847190856934 0.25990182161331176758 0.25878027081489562988 0.25778499245643615723 0.25677987933158874512 0.2557125091552734375 0.25423353910446166992 0.25231575965881347656 0.24951136112213134766 0.24604205787181854248 0.24169455468654632568 0.23725913465023040771 0.23257622122764587402 0.22847177088260650635 0.22479888796806335449 0.22200061380863189697 0.21957837045192718506 0.21756505966186523438 0.2155084758996963501 0.21340714395046234131 0.21088041365146636963 0.20819744467735290527 0.20516145229339599609 0.2021516263484954834 0.19894877076148986816 0.19593614339828491211 0.19286614656448364258 0.19004738330841064453 0.18722681701183319092 0.18468046188354492188 0.18218338489532470703 0.17990072071552276611 0.1773884892463684082 0.1745990067720413208 0.17098094522953033447 0.16658006608486175537 0.16077181696891784668 0.15417611598968505859 0.14663864672183990479 0.13920700550079345703 0.13171562552452087402 0.12516999244689941406 0.11922625452280044556 0.11405409872531890869 0.10879557579755783081 0.10342092067003250122 0.097055353224277496338 0.089834630489349365234 0.081265784800052642822 0.07231591641902923584 0.062725819647312164307 0.053541459143161773682 0.044502552598714828491 0.036372479051351547241 0.028401359915733337402 0.020793704316020011902 0.012750286608934402466 0.0041375309228897094727 0 0 0 0 0 0 0 0 0 0 0 0 0 0 0 0 0 0 0 0 0 0 0 0 0 0 0 0 0 0 0 0 0 0 0 0 0 0 0 0 0 0 0 0 
0 0 0 0 0 0 0 0 0 0 0 0 0 0 0 0 0 0 0 0 0 0 0 0 0 0 0 0 0 0 0 0 0 0 0 0 0 0 0 0 0 0 0 0 0 2.2354779503075405955e-05 0.004397599492222070694 0.029961843043565750122 0.075304612517356872559 0.11131312698125839233 0.17435254156589508057 0.22471943497657775879 0.23549515008926391602 0.23331710696220397949 0.22628355026245117188 0.21631406247615814209 0.2062012404203414917 0.20341576635837554932 0.21022485196590423584 0.23119102418422698975 0.2575473487377166748 0.29631164669990539551 0.36569514870643615723 0.41117766499519348145 0.41800898313522338867 0.36070239543914794922 0.30828914046287536621 0.29513889551162719727 0.29192951321601867676 0.29719027876853942871 0.30390426516532897949 0.30941501259803771973 0.31287303566932678223 0.31355151534080505371 0.30126199126243591309 0.28246602416038513184 0.27908226847648620605 0.29123511910438537598 0.29148328304290771484 0.27961701154708862305 0.26877236366271972656 0.2585188448429107666 0.24595443904399871826 0.23462779819965362549 0.2271407395601272583 0.22831936180591583252 0.2290000617504119873 0.22942751646041870117 0.23022089898586273193 0.23180975019931793213 0.23778766393661499023 0.24690936505794525146 0.25182378292083740234 0.25422334671020507812 0.25406575202941894531 0.24015344679355621338 0.21961033344268798828 0.19840486347675323486 0.17516960203647613525 0.15673789381980895996 0.1593097001314163208 0.16562667489051818848 0.1828285902738571167 0.18929454684257507324 0.19410175085067749023 0.1981029808521270752 0.2017272263765335083 0.20470552146434783936 0.20743121206760406494 0.2097196727991104126 0.2118965834379196167 0.21381521224975585938 0.21572165191173553467 0.21746383607387542725 0.21929983794689178467 0.22110767662525177002 0.22314319014549255371 0.22520625591278076172 0.22751580178737640381 0.22981399297714233398 0.23234851658344268799 0.23483212292194366455 0.23754489421844482422 0.2402032315731048584 0.24316094815731048584 0.24612274765968322754 0.24948613345623016357 0.25291237235069274902 0.25690343976020812988 0.26108318567276000977 0.26607024669647216797 0.27136346697807312012 0.27771401405334472656 0.28427958488464355469 0.29164415597915649414 0.29863452911376953125 0.3058777153491973877 0.31220480799674987793 0.31826224923133850098 0.32328757643699645996 0.32805714011192321777 0.33203518390655517578 0.33586680889129638672 0.33913394808769226074 0.34232184290885925293 0.34495630860328674316 0.3473517298698425293 0.3491331934928894043 0.35050383210182189941 0.35124772787094116211 0.35152202844619750977 0.35135138034820556641 0.35078501701354980469 0.34996899962425231934 0.3488451540470123291 0.34759372472763061523 0.34600666165351867676 0.34427893161773681641 0.34209799766540527344 0.33974960446357727051 0.33687660098075866699 0.33401763439178466797 0.33087044954299926758 0.32804563641548156738 0.32523632049560546875 0.32299065589904785156 0.32094812393188476562 0.31935495138168334961 0.31786146759986877441 0.31661313772201538086 0.3153139650821685791 0.31407529115676879883 0.31260040402412414551 0.31102010607719421387 0.30898565053939819336 0.3067086637020111084 0.30376175045967102051 0.30060151219367980957 0.29684999585151672363 0.29314118623733520508 0.28902763128280639648 0.28518366813659667969 0.28112530708312988281 0.2774607539176940918 0.2736981511116027832 0.27038687467575073242 0.26708924770355224609 0.26428237557411193848 0.26186591386795043945 0.26030397415161132812 0.25926265120506286621 0.25877210497856140137 0.25874513387680053711 0.25915580987930297852 0.26007160544395446777 0.26133826375007629395 0.26247075200080871582 0.26301261782646179199 0.26296734809875488281 0.26241722702980041504 0.26144436001777648926 0.26031190156936645508 0.25903579592704772949 0.25789594650268554688 0.2567418217658996582 0.25553587079048156738 0.25390827655792236328 0.25184544920921325684 0.24887876212596893311 0.24525026977062225342 0.2407487034797668457 0.23620469868183135986 0.23146505653858184814 0.22738085687160491943 0.22383439540863037109 0.22125853598117828369 0.21915699541568756104 0.21750250458717346191 0.21585330367088317871 0.21414130926132202148 0.21200080215930938721 0.20964735746383666992 0.20690566301345825195 0.20411530137062072754 0.20106653869152069092 0.1981188654899597168 0.19503021240234375 0.19211918115615844727 0.18913273513317108154 0.18637175858020782471 0.18360021710395812988 0.18101456761360168457 0.17814293503761291504 0.17496810853481292725 0.17090174555778503418 0.16602693498134613037 0.1596781611442565918 0.15253691375255584717 0.1444317549467086792 0.1364860832691192627 0.12852337956428527832 0.12161470949649810791 0.11540333926677703857 0.11006645113229751587 0.10471228510141372681 0.099297493696212768555 0.092922896146774291992 0.085707724094390869141 0.0771541595458984375 0.068231530487537384033 0.058686975389719009399 0.049570817500352859497 0.040646906942129135132 0.032672237604856491089 0.02487669140100479126 0.017485825344920158386 0.0096965003758668899536 0.0013088403502479195595 0 0 0 0 0 0 0 0 0 0 0 0 0 0 0 0 0 0 0 0 0 0 0 0 0 0 0 0 0 0 0 0 0 0 0 0 0 0 0 0 0 0 0 0 
0 0 0 0 0 0 0 0 0 0 0 0 0 0 0 0 0 0 0 0 0 0 0 0 0 0 0 0 0 0 0 0 0 0 0 0 0 0 0 0 0 0 0 0 0 0 0.0016989478608593344688 0.056203424930572509766 0.081947356462478637695 0.13622166216373443604 0.19434599578380584717 0.23258692026138305664 0.23673288524150848389 0.23404067754745483398 0.2244367748498916626 0.20890688896179199219 0.19781604409217834473 0.19929017126560211182 0.21423962712287902832 0.24147915840148925781 0.28324860334396362305 0.33069658279418945312 0.38014081120491027832 0.39952704310417175293 0.38207021355628967285 0.33718758821487426758 0.30638283491134643555 0.29626896977424621582 0.29336750507354736328 0.2997468113899230957 0.30712965130805969238 0.31277814507484436035 0.31631636619567871094 0.31632968783378601074 0.29980272054672241211 0.28352773189544677734 0.28549361228942871094 0.29415586590766906738 0.2927608489990234375 0.28051075339317321777 0.27060481905937194824 0.26002570986747741699 0.24913227558135986328 0.23686076700687408447 0.22926163673400878906 0.23070085048675537109 0.23159725964069366455 0.23224197328090667725 0.23332741856575012207 0.23574312031269073486 0.24285186827182769775 0.25096297264099121094 0.2549197077751159668 0.25681519508361816406 0.25680977106094360352 0.24073892831802368164 0.21978279948234558105 0.19947966933250427246 0.17760992050170898438 0.16035930812358856201 0.16306766867637634277 0.16923981904983520508 0.1835924983024597168 0.18962784111499786377 0.19436527788639068604 0.19835382699966430664 0.20201902091503143311 0.2050806581974029541 0.20793102681636810303 0.21036536991596221924 0.21271516382694244385 0.21480882167816162109 0.21691448986530303955 0.21884617209434509277 0.22086344659328460693 0.22281599044799804688 0.2249667048454284668 0.22709929943084716797 0.22943924367427825928 0.23172383010387420654 0.23419816792011260986 0.23658128082752227783 0.23915751278400421143 0.24167931079864501953 0.24450987577438354492 0.24739436805248260498 0.25074866414070129395 0.25425016880035400391 0.2583904564380645752 0.2627436220645904541 0.26791310310363769531 0.27334290742874145508 0.27976846694946289062 0.28633105754852294922 0.2936350405216217041 0.30053809285163879395 0.30768212676048278809 0.31393346190452575684 0.31994533538818359375 0.32495176792144775391 0.32970634102821350098 0.33365708589553833008 0.33742672204971313477 0.34059196710586547852 0.34362202882766723633 0.34608107805252075195 0.34828191995620727539 0.34989720582962036133 0.3511257469654083252 0.35178297758102416992 0.35200676321983337402 0.35181695222854614258 0.35124698281288146973 0.35043159127235412598 0.34930148720741271973 0.3480395972728729248 0.34643420577049255371 0.34468498826026916504 0.34247982501983642578 0.3401114046573638916 0.33722084760665893555 0.33434689044952392578 0.33117958903312683105 0.32832729816436767578 0.32547646760940551758 0.32317835092544555664 0.32106468081474304199 0.31939595937728881836 0.31780973076820373535 0.31646755337715148926 0.31506052613258361816 0.31371957063674926758 0.31213790178298950195 0.31046828627586364746 0.30835551023483276367 0.30602881312370300293 0.30305826663970947266 0.29990506172180175781 0.29619109630584716797 0.29254370927810668945 0.28852313756942749023 0.28478884696960449219 0.28086769580841064453 0.27733898162841796875 0.27371826767921447754 0.27052459120750427246 0.26732468605041503906 0.26455864310264587402 0.26208066940307617188 0.26048457622528076172 0.25944089889526367188 0.25898781418800354004 0.25903558731079101562 0.25955620408058166504 0.26066929101943969727 0.26207008957862854004 0.26319354772567749023 0.26368942856788635254 0.26355266571044921875 0.26288205385208129883 0.26175493001937866211 0.2604630887508392334 0.25901353359222412109 0.25771614909172058105 0.25640687346458435059 0.25506633520126342773 0.25330778956413269043 0.25113177299499511719 0.24805559217929840088 0.2443361431360244751 0.23976443707942962646 0.23519504070281982422 0.23049184679985046387 0.22651582956314086914 0.22317130863666534424 0.2208649367094039917 0.21911269426345825195 0.2178319394588470459 0.21660004556179046631 0.2152859121561050415 0.21354267001152038574 0.21153004467487335205 0.20909187197685241699 0.20652399957180023193 0.20362293720245361328 0.20072230696678161621 0.19758448004722595215 0.1945457160472869873 0.19135403633117675781 0.18834345042705535889 0.18526813387870788574 0.18236213922500610352 0.17912575602531433105 0.17557333409786224365 0.17108131945133209229 0.16576889157295227051 0.15893299877643585205 0.15130841732025146484 0.14270474016666412354 0.13430811464786529541 0.12592868506908416748 0.11869183927774429321 0.11222691088914871216 0.10672119259834289551 0.10125440359115600586 0.095776453614234924316 0.08936856687068939209 0.082139402627944946289 0.073586076498031616211 0.06468226015567779541 0.055189091712236404419 0.046157255768775939941 0.037336729466915130615 0.02947353757917881012 0.021844545379281044006 0.014699094928801059723 0.0069147497415542602539 0 0 0 0 0 0 0 0 0 0 0 0 0 0 0 0 0 0 0 0 0 0 0 0 0 0 0 0 0 0 0 0 0 0 0 0 0 0 0 0 0 0 0 0 0 
0 0 0 0 0 0 0 0 0 0 0 0 0 0 0 0 0 0 0 0 0 0 0 0 0 0 0 0 0 0 0 0 0 0 0 0 0 0 0 0 0 0 0 0 0 0 0.0013242212589830160141 0.075444966554641723633 0.10387263447046279907 0.16214133799076080322 0.21898764371871948242 0.24067822098731994629 0.24105171859264373779 0.23569855093955993652 0.21994411945343017578 0.20071642100811004639 0.19250364601612091064 0.20151206851005554199 0.22171360254287719727 0.2538929283618927002 0.30288308858871459961 0.35819000005722045898 0.40237322449684143066 0.40898352861404418945 0.3645445406436920166 0.32129374146461486816 0.30346405506134033203 0.29549500346183776855 0.29568281769752502441 0.30317732691764831543 0.3106835484504699707 0.31651186943054199219 0.32083591818809509277 0.3209349215030670166 0.30014911293983459473 0.28717473149299621582 0.29384937882423400879 0.29780787229537963867 0.2936903834342956543 0.28101271390914916992 0.27241733670234680176 0.2619145810604095459 0.25220024585723876953 0.24001157283782958984 0.23358222842216491699 0.23412236571311950684 0.23459185659885406494 0.23501412570476531982 0.2357216179370880127 0.23692679405212402344 0.24660006165504455566 0.25461143255233764648 0.25742205977439880371 0.25764358043670654297 0.25464931130409240723 0.23959258198738098145 0.22043983638286590576 0.20124992728233337402 0.18057392537593841553 0.16431258618831634521 0.1671260148286819458 0.17315021157264709473 0.18460445106029510498 0.1902113109827041626 0.19490124285221099854 0.19890339672565460205 0.20264080166816711426 0.20581620931625366211 0.2088206857442855835 0.21142341196537017822 0.2139606773853302002 0.21623209118843078613 0.21852456033229827881 0.22063522040843963623 0.22281958162784576416 0.22490061819553375244 0.22714795172214508057 0.22933016717433929443 0.23167492449283599854 0.23391540348529815674 0.23628845810890197754 0.23852153122425079346 0.24089795351028442383 0.24321991205215454102 0.24585458636283874512 0.24859909713268280029 0.25188457965850830078 0.25541454553604125977 0.25966402888298034668 0.26416042447090148926 0.26948592066764831543 0.2750314176082611084 0.28151202201843261719 0.28805512189865112305 0.29528668522834777832 0.30209997296333312988 0.30915492773056030273 0.31535515189170837402 0.32136529684066772461 0.32640546560287475586 0.33120647072792053223 0.33518588542938232422 0.33894577622413635254 0.34204363822937011719 0.34493514895439147949 0.34722283482551574707 0.34922248125076293945 0.35065680742263793945 0.35172122716903686523 0.35226848721504211426 0.35241600871086120605 0.35218507051467895508 0.35159257054328918457 0.35076674818992614746 0.34962961077690124512 0.34836563467979431152 0.34675669670104980469 0.34500366449356079102 0.34279537200927734375 0.34042599797248840332 0.33753624558448791504 0.3346615135669708252 0.33148482441902160645 0.32861205935478210449 0.32572337985038757324 0.32337227463722229004 0.32118359208106994629 0.31943044066429138184 0.31773635745048522949 0.31628084182739257812 0.31473889946937561035 0.31326603889465332031 0.31154474616050720215 0.30975881218910217285 0.30754739046096801758 0.30516362190246582031 0.30217778682708740234 0.29905280470848083496 0.29540872573852539062 0.2918567955493927002 0.28796443343162536621 0.284366607666015625 0.28060173988342285156 0.27721768617630004883 0.27373960614204406738 0.27065667510032653809 0.26753997802734375 0.26480567455291748047 0.26222127676010131836 0.26053559780120849609 0.25945624709129333496 0.25903165340423583984 0.25915297865867614746 0.25981241464614868164 0.26118507981300354004 0.26267331838607788086 0.26376894116401672363 0.26419499516487121582 0.26393103599548339844 0.26309892535209655762 0.2617702484130859375 0.26027527451515197754 0.25861084461212158203 0.2571258246898651123 0.25564283132553100586 0.25416594743728637695 0.25229465961456298828 0.25004464387893676758 0.24692715704441070557 0.2432066798210144043 0.23868003487586975098 0.23420277237892150879 0.2296568453311920166 0.22589300572872161865 0.22284670174121856689 0.22088682651519775391 0.21954929828643798828 0.21869122982025146484 0.21792180836200714111 0.21705025434494018555 0.2157586514949798584 0.2141405940055847168 0.21205499768257141113 0.20974014699459075928 0.20699156820774078369 0.20410920679569244385 0.20085880160331726074 0.1976117938756942749 0.19412253797054290771 0.1907787024974822998 0.18733002245426177979 0.18406173586845397949 0.18044102191925048828 0.17651067674160003662 0.17160680890083312988 0.16587856411933898926 0.1585823744535446167 0.15049998462200164795 0.14142055809497833252 0.13258796930313110352 0.12379640340805053711 0.11622228473424911499 0.10947920382022857666 0.10376990586519241333 0.098147824406623840332 0.092562541365623474121 0.086075991392135620117 0.078794531524181365967 0.070214919745922088623 0.061317428946495056152 0.051854949444532394409 0.042870976030826568604 0.034137830138206481934 0.026416692882776260376 0.019009249284863471985 0.012169636785984039307 0.003421538742259144783 0 0 0 0 0 0 0 0 0 0 0 0 0 0 0 0 0 0 0 0 0 0 0 0 0 0 0 0 0 0 0 0 0 0 0 0 0 0 0 0 0 0 0 0 0 
0 0 0 0 0 0 0 0 0 0 0 0 0 0 0 0 0 0 0 0 0 0 0 0 0 0 0 0 0 0 0 0 0 0 0 0 0 0 0 0 0 0 0 0 0 0 0.006503539159893989563 0.056855678558349609375 0.12967951595783233643 0.18847632408142089844 0.23909735679626464844 0.24610781669616699219 0.24488486349582672119 0.23604454100131988525 0.21233415603637695312 0.19450813531875610352 0.19258111715316772461 0.20633596181869506836 0.23108816146850585938 0.26819899678230285645 0.31978154182434082031 0.37241548299789428711 0.41682973504066467285 0.40211173892021179199 0.34249159693717956543 0.31487256288528442383 0.30252346396446228027 0.29553717374801635742 0.29778933525085449219 0.30642050504684448242 0.31442633271217346191 0.32048666477203369141 0.32519000768661499023 0.32150402665138244629 0.29884502291679382324 0.29221954941749572754 0.30103200674057006836 0.30207031965255737305 0.29369819164276123047 0.2814197242259979248 0.27353882789611816406 0.26311856508255004883 0.25587290525436401367 0.24267973005771636963 0.23827055096626281738 0.23769553005695343018 0.23751856386661529541 0.23753561079502105713 0.23774987459182739258 0.2381327897310256958 0.2482497096061706543 0.25746327638626098633 0.25964057445526123047 0.25935029983520507812 0.25510701537132263184 0.23962126672267913818 0.22169785201549530029 0.20347364246845245361 0.18370054662227630615 0.16814607381820678711 0.17102448642253875732 0.17691545188426971436 0.18581029772758483887 0.19104586541652679443 0.19571289420127868652 0.19974882900714874268 0.20357513427734375 0.20687456429004669189 0.21003659069538116455 0.2128025442361831665 0.21551185846328735352 0.21793627738952636719 0.22037592530250549316 0.22262252867221832275 0.22493250668048858643 0.22710381448268890381 0.22941060364246368408 0.23161026835441589355 0.23392799496650695801 0.23609498143196105957 0.23833526670932769775 0.24038663506507873535 0.24252492189407348633 0.24460899829864501953 0.2470032423734664917 0.24955977499485015869 0.25271812081336975098 0.25621470808982849121 0.26050430536270141602 0.26508057117462158203 0.27050235867500305176 0.27611973881721496582 0.28262650966644287109 0.28914180397987365723 0.2963103950023651123 0.30305841565132141113 0.31006437540054321289 0.31626266241073608398 0.3223330378532409668 0.32747006416320800781 0.33238661289215087891 0.33645704388618469238 0.3402691185474395752 0.34334662556648254395 0.34613770246505737305 0.34827831387519836426 0.35009178519248962402 0.35134738683700561523 0.35223877429962158203 0.35265818238258361816 0.35270377993583679199 0.35240647196769714355 0.3517672419548034668 0.35091543197631835938 0.3497689366340637207 0.34850978851318359375 0.34691324830055236816 0.34517675638198852539 0.34298980236053466797 0.34064188599586486816 0.33777442574501037598 0.33491575717926025391 0.33174416422843933105 0.32886284589767456055 0.32594686746597290039 0.32355082035064697266 0.32129335403442382812 0.31945556402206420898 0.31764608621597290039 0.31606194376945495605 0.31435748934745788574 0.31271782517433166504 0.31081432104110717773 0.30887427926063537598 0.30653133988380432129 0.30407303571701049805 0.30107229948043823242 0.29799243807792663574 0.29444831609725952148 0.29102477431297302246 0.28729510307312011719 0.28385931253433227539 0.28026756644248962402 0.27703428268432617188 0.27369630336761474609 0.27071452140808105469 0.26766419410705566406 0.26494756340980529785 0.26224946975708007812 0.26040986180305480957 0.25926363468170166016 0.25884559750556945801 0.25903531908988952637 0.25986433029174804688 0.26151159405708312988 0.26302292943000793457 0.26407596468925476074 0.26441439986228942871 0.26399892568588256836 0.26297917962074279785 0.26142105460166931152 0.25969976186752319336 0.25780281424522399902 0.25612318515777587891 0.25447285175323486328 0.25288155674934387207 0.25094121694564819336 0.24868056178092956543 0.24561585485935211182 0.24200814962387084961 0.23766356706619262695 0.23341041803359985352 0.22914896905422210693 0.22569191455841064453 0.22300222516059875488 0.22140645980834960938 0.22047826647758483887 0.22002808749675750732 0.21970477700233459473 0.2192668914794921875 0.21843107044696807861 0.21721971035003662109 0.21549879014492034912 0.21343906223773956299 0.21082513034343719482 0.2079172283411026001 0.20448288321495056152 0.2009480595588684082 0.1970812678337097168 0.19334486126899719238 0.18949347734451293945 0.1858739703893661499 0.18191717565059661865 0.17768122255802154541 0.17245931923389434814 0.16641376912593841553 0.15876029431819915771 0.15031296014785766602 0.14084342122077941895 0.13164216279983520508 0.12248819321393966675 0.11460078507661819458 0.10757760703563690186 0.10164107382297515869 0.095822401344776153564 0.090082779526710510254 0.083470292389392852783 0.076094865798950195312 0.067440882325172424316 0.058494389057159423828 0.049017835408449172974 0.040069825947284698486 0.031438339501619338989 0.023885764181613922119 0.016732063144445419312 0.01021950598806142807 0.0010128244757652282715 0 0 0 0 0 0 0 0 0 0 0 0 0 0 0 0 0 0 0 0 0 0 0 0 0 0 0 0 0 0 0 0 0 0 0 0 0 0 0 0 0 0 0 0 0 
0 0 0 0 0 0 0 0 0 0 0 0 0 0 0 0 0 0 0 0 0 0 0 0 0 0 0 0 0 0 0 0 0 0 0 0 0 0 0 0 0 0 0 0 0 0 0.016069127246737480164 0.076604545116424560547 0.15104047954082489014 0.21401041746139526367 0.25111564993858337402 0.25068378448486328125 0.24474377930164337158 0.22515524923801422119 0.20338466763496398926 0.19084332883358001709 0.19584935903549194336 0.21446251869201660156 0.24108940362930297852 0.29312446713447570801 0.35161313414573669434 0.3949947357177734375 0.41910481452941894531 0.38416263461112976074 0.32651311159133911133 0.3126748502254486084 0.30374833941459655762 0.2971515655517578125 0.30087590217590332031 0.31013548374176025391 0.31833034753799438477 0.32413619756698608398 0.32870531082153320312 0.32001468539237976074 0.29859277606010437012 0.29823321104049682617 0.30729264020919799805 0.30560779571533203125 0.29364073276519775391 0.28253784775733947754 0.27450829744338989258 0.26369938254356384277 0.2562701106071472168 0.24489431083202362061 0.24206013977527618408 0.24127966165542602539 0.24059244990348815918 0.2402550429105758667 0.24026149511337280273 0.24208046495914459229 0.25291857123374938965 0.25983417034149169922 0.26129460334777832031 0.26166194677352905273 0.25545078516006469727 0.24128846824169158936 0.22418305277824401855 0.206582680344581604 0.18740950524806976318 0.17232805490493774414 0.17523539066314697266 0.1809934079647064209 0.18742419779300689697 0.19229744374752044678 0.19695152342319488525 0.20104080438613891602 0.20497643947601318359 0.20841701328754425049 0.21174973249435424805 0.21468463540077209473 0.21756260097026824951 0.22012722492218017578 0.22269037365913391113 0.22503721714019775391 0.2274405062198638916 0.22967110574245452881 0.23200432956218719482 0.23418971896171569824 0.23644518852233886719 0.23850278556346893311 0.24056831002235412598 0.24239324033260345459 0.24423928558826446533 0.24602976441383361816 0.24812227487564086914 0.25042819976806640625 0.25338822603225708008 0.25678080320358276367 0.26103517413139343262 0.26562410593032836914 0.27107933163642883301 0.27672165632247924805 0.2832215428352355957 0.28969573974609375 0.29680606722831726074 0.3035106658935546875 0.31050854921340942383 0.31676018238067626953 0.32296448945999145508 0.3282757103443145752 0.33339214324951171875 0.33762815594673156738 0.34156078100204467773 0.34466227889060974121 0.34737893939018249512 0.34937942028045654297 0.35099911689758300781 0.3520564734935760498 0.3527444005012512207 0.35300174355506896973 0.35290643572807312012 0.35250827670097351074 0.35179090499877929688 0.35089382529258728027 0.34973359107971191406 0.34848490357398986816 0.34691676497459411621 0.34521785378456115723 0.34307834506034851074 0.34077620506286621094 0.33795499801635742188 0.33513051271438598633 0.33197996020317077637 0.32910189032554626465 0.3261674344539642334 0.32373198866844177246 0.32140579819679260254 0.31947541236877441406 0.31753176450729370117 0.31579005718231201172 0.31387743353843688965 0.31201648712158203125 0.30986583232879638672 0.30771410465240478516 0.30518808960914611816 0.30262526869773864746 0.29960340261459350586 0.29658606648445129395 0.293178558349609375 0.28992733359336853027 0.28641030192375183105 0.28317922353744506836 0.2797972559928894043 0.27673953771591186523 0.27355787158012390137 0.27068233489990234375 0.26769268512725830078 0.26498338580131530762 0.26217812299728393555 0.26009640097618103027 0.25883537530899047852 0.25839945673942565918 0.25867548584938049316 0.25977489352226257324 0.26166564226150512695 0.26316410303115844727 0.26415589451789855957 0.26438054442405700684 0.26377451419830322266 0.26252266764640808105 0.26068484783172607422 0.25869247317314147949 0.25652346014976501465 0.25462451577186584473 0.25279864668846130371 0.2511056363582611084 0.24913516640663146973 0.24692758917808532715 0.24401557445526123047 0.24064525961875915527 0.23663635551929473877 0.23275889456272125244 0.22893342375755310059 0.22590410709381103516 0.22366099059581756592 0.2224769890308380127 0.22197896242141723633 0.22194215655326843262 0.22207154333591461182 0.22208791971206665039 0.22175063192844390869 0.22099699079990386963 0.21968954801559448242 0.21791243553161621094 0.21542792022228240967 0.21244664490222930908 0.20873677730560302734 0.20480452477931976318 0.20044213533401489258 0.19621591269969940186 0.19189572334289550781 0.18790635466575622559 0.18363504111766815186 0.17914201319217681885 0.17366990447044372559 0.16737678647041320801 0.15943267941474914551 0.15067219734191894531 0.14085136353969573975 0.13130196928977966309 0.12178748100996017456 0.11356842517852783203 0.10622638463973999023 0.10001195967197418213 0.093935847282409667969 0.087976969778537750244 0.081163361668586730957 0.073620773851871490479 0.064830504357814788818 0.055799305438995361328 0.046294961124658584595 0.037388436496257781982 0.028886482119560241699 0.021548081189393997192 0.014706557616591453552 0.0073842904530465602875 0.00017145839228760451078 0 0 0 0 0 0 0 0 0 0 0 0 0 0 0 0 0 0 0 0 0 0 0 0 0 0 0 0 0 0 0 0 0 0 0 0 0 0 0 0 0 0 0 0 0 
0 0 0 0 0 0 0 0 0 0 0 0 0 0 0 0 0 0 0 0 0 0 0 0 0 0 0 0 0 0 0 0 0 0 0 0 0 0 0 0 0 0 0 0 0 0.00089466344797983765602 0.029083902016282081604 0.10002806782722473145 0.17245660722255706787 0.23714053630828857422 0.2555312812328338623 0.25118163228034973145 0.23450291156768798828 0.21103264391422271729 0.19703090190887451172 0.19054245948791503906 0.20140588283538818359 0.22190177440643310547 0.25065475702285766602 0.31213608384132385254 0.38449329137802124023 0.40355214476585388184 0.39656242728233337402 0.35426831245422363281 0.31890967488288879395 0.31304088234901428223 0.30540314316749572754 0.29913198947906494141 0.30421435832977294922 0.31370157003402709961 0.32209405303001403809 0.32804399728775024414 0.33016145229339599609 0.31577992439270019531 0.29947763681411743164 0.30384418368339538574 0.31248056888580322266 0.30792409181594848633 0.29316991567611694336 0.28402116894721984863 0.2756119072437286377 0.26605358719825744629 0.25704243779182434082 0.24856035411357879639 0.24600714445114135742 0.24449037015438079834 0.24337719380855560303 0.24280606210231781006 0.24286386370658874512 0.24814680218696594238 0.25979715585708618164 0.26295644044876098633 0.26395529508590698242 0.26594644784927368164 0.25915831327438354492 0.24487580358982086182 0.22786006331443786621 0.2103163301944732666 0.19128903746604919434 0.17636962234973907471 0.17926415801048278809 0.18490554392337799072 0.18927013874053955078 0.19384516775608062744 0.19849102199077606201 0.20264211297035217285 0.20668783783912658691 0.21026208996772766113 0.21374984085559844971 0.21683181822299957275 0.21984875202178955078 0.22252066433429718018 0.22516983747482299805 0.22757241129875183105 0.23002195358276367188 0.23227648437023162842 0.23460367321968078613 0.23674948513507843018 0.23892207443714141846 0.24085685610771179199 0.2427400052547454834 0.24433752894401550293 0.24589425325393676758 0.2473907470703125 0.24917784333229064941 0.25121849775314331055 0.25394609570503234863 0.25718224048614501953 0.26132985949516296387 0.26585763692855834961 0.2712707817554473877 0.27687856554985046387 0.28332895040512084961 0.28974461555480957031 0.29679948091506958008 0.30347907543182373047 0.31050103902816772461 0.31684476137161254883 0.32322794198989868164 0.32875743508338928223 0.33412086963653564453 0.33856654167175292969 0.3426628410816192627 0.34582269191741943359 0.34849500656127929688 0.35037812590599060059 0.35182011127471923828 0.35268625617027282715 0.35316991806030273438 0.35325664281845092773 0.35300621390342712402 0.35249182581901550293 0.3516807258129119873 0.35073035955429077148 0.34955397248268127441 0.34831830859184265137 0.34678700566291809082 0.34513714909553527832 0.343059539794921875 0.34081670641899108887 0.3380552828311920166 0.33527490496635437012 0.33215668797492980957 0.32929202914237976074 0.32635027170181274414 0.32388737797737121582 0.32150319218635559082 0.31948873400688171387 0.3174177706241607666 0.31552201509475708008 0.31340080499649047852 0.31131419539451599121 0.30890914797782897949 0.30653801560401916504 0.30382081866264343262 0.30114835500717163086 0.29810386896133422852 0.29515123367309570312 0.29188424348831176758 0.2888087928295135498 0.28550636768341064453 0.2824783027172088623 0.27929961681365966797 0.27640694379806518555 0.27336668968200683594 0.27058210968971252441 0.26763963699340820312 0.26493090391159057617 0.26204961538314819336 0.25969767570495605469 0.25826787948608398438 0.25779715180397033691 0.25819799304008483887 0.25966367125511169434 0.26167643070220947266 0.26315227150917053223 0.2640756070613861084 0.26418027281761169434 0.26337784528732299805 0.26188981533050537109 0.25977048277854919434 0.25750839710235595703 0.25507324934005737305 0.25296553969383239746 0.25098183751106262207 0.24921095371246337891 0.24724441766738891602 0.24513153731822967529 0.24242755770683288574 0.23935675621032714844 0.23575368523597717285 0.23231455683708190918 0.22897878289222717285 0.2264083176851272583 0.22461593151092529297 0.22382026910781860352 0.22370581328868865967 0.22402513027191162109 0.22454088926315307617 0.22495080530643463135 0.22505795955657958984 0.22472086548805236816 0.22379200160503387451 0.22226950526237487793 0.21988639235496520996 0.21680355072021484375 0.21278785169124603271 0.20843255519866943359 0.20355677604675292969 0.19883735477924346924 0.19406463205814361572 0.18974216282367706299 0.18521420657634735107 0.18053287267684936523 0.17489136755466461182 0.16843152046203613281 0.1602796018123626709 0.15128035843372344971 0.14117777347564697266 0.13133712112903594971 0.12150800228118896484 0.11298578977584838867 0.10533536225557327271 0.098835706710815429688 0.092479504644870758057 0.086272276937961578369 0.079230323433876037598 0.071502037346363067627 0.06256338953971862793 0.053440798074007034302 0.043907396495342254639 0.035047169774770736694 0.026685144752264022827 0.019574003294110298157 0.013055379502475261688 0.0044492366723716259003 0 0 0 0 0 0 0 0 0 0 0 0 0 0 0 0 0 0 0 0 0 0 0 0 0 0 0 0 0 0 0 0 0 0 0 0 0 0 0 0 0 0 0 0 0 0 
0 0 0 0 0 0 0 0 0 0 0 0 0 0 0 0 0 0 0 0 0 0 0 0 0 0 0 0 0 0 0 0 0 0 0 0 0 0 0 0 0 0 0 0 0 0.0038129114545881748199 0.045126616954803466797 0.11892217397689819336 0.19157434999942779541 0.2514667809009552002 0.2565861046314239502 0.24816431105136871338 0.22467307746410369873 0.2037630230188369751 0.1943178027868270874 0.19316078722476959229 0.20937500894069671631 0.23310215771198272705 0.26542848348617553711 0.32080173492431640625 0.39150026440620422363 0.41452574729919433594 0.38600200414657592773 0.33609607815742492676 0.31695729494094848633 0.31134450435638427734 0.30535516142845153809 0.30123487114906311035 0.30791559815406799316 0.31775656342506408691 0.32629644870758056641 0.33177924156188964844 0.32897257804870605469 0.31147667765617370605 0.30146077275276184082 0.30952921509742736816 0.31659179925918579102 0.30810078978538513184 0.29319107532501220703 0.28587490320205688477 0.27674517035484313965 0.26673647761344909668 0.25880745053291320801 0.25294864177703857422 0.24962751567363739014 0.24758377671241760254 0.24613448977470397949 0.24538619816303253174 0.24527969956398010254 0.2538445889949798584 0.26418676972389221191 0.26546502113342285156 0.26678740978240966797 0.26994124054908752441 0.26595917344093322754 0.25137993693351745605 0.23331706225872039795 0.21511371433734893799 0.19579198956489562988 0.18077412247657775879 0.18361705541610717773 0.18914459645748138428 0.19160330295562744141 0.19591416418552398682 0.200555458664894104 0.20477308332920074463 0.2089360356330871582 0.21264448761940002441 0.21628122031688690186 0.21949812769889831543 0.22263440489768981934 0.22538976371288299561 0.22809751331806182861 0.23052445054054260254 0.232976570725440979 0.23522323369979858398 0.23751565814018249512 0.23959745466709136963 0.24166481196880340576 0.2434593886137008667 0.24514584243297576904 0.2465067058801651001 0.24776706099510192871 0.24895806610584259033 0.25042232871055603027 0.25217124819755554199 0.25461935997009277344 0.25763413310050964355 0.26158955693244934082 0.26596847176551818848 0.2712485194206237793 0.27674582600593566895 0.28308501839637756348 0.28940597176551818848 0.29638940095901489258 0.30304789543151855469 0.31011661887168884277 0.31658947467803955078 0.32320308685302734375 0.32900652289390563965 0.33467882871627807617 0.33939188718795776367 0.34370237588882446289 0.34695360064506530762 0.34960123896598815918 0.35137400031089782715 0.35263335704803466797 0.35329559445381164551 0.35355538129806518555 0.35345003008842468262 0.35302084684371948242 0.3523693084716796875 0.35144588351249694824 0.35043472051620483398 0.3492380678653717041 0.34801775217056274414 0.3465315401554107666 0.34494224190711975098 0.34294137358665466309 0.34077256917953491211 0.33808523416519165039 0.33536034822463989258 0.3322868645191192627 0.32944595813751220703 0.3265081942081451416 0.32402718067169189453 0.32159200310707092285 0.31949824094772338867 0.31730324029922485352 0.31525456905364990234 0.3129240870475769043 0.31060951948165893555 0.30794727802276611328 0.30535352230072021484 0.30244174599647521973 0.29965674877166748047 0.29658794403076171875 0.29369953274726867676 0.29057300090789794922 0.28767344355583190918 0.2845853269100189209 0.2817592918872833252 0.27878138422966003418 0.27604976296424865723 0.27314341068267822266 0.27043771743774414062 0.26753100752830505371 0.26481011509895324707 0.26187682151794433594 0.25926741957664489746 0.25754651427268981934 0.25702846050262451172 0.25769218802452087402 0.25958427786827087402 0.26162853837013244629 0.26307445764541625977 0.26391828060150146484 0.26388946175575256348 0.26287302374839782715 0.26113057136535644531 0.25871080160140991211 0.25616368651390075684 0.25345084071159362793 0.25112995505332946777 0.24899232387542724609 0.24715624749660491943 0.2452179640531539917 0.24323379993438720703 0.24078673124313354492 0.23807311058044433594 0.23494374752044677734 0.23200675845146179199 0.229219779372215271 0.22714944183826446533 0.22582890093326568604 0.22541946172714233398 0.22566823661327362061 0.22631314396858215332 0.22717730700969696045 0.22794510424137115479 0.22846390306949615479 0.22851586341857910156 0.22793811559677124023 0.22664314508438110352 0.22432954609394073486 0.22110961377620697021 0.21674653887748718262 0.21192899346351623535 0.20650413632392883301 0.20126742124557495117 0.19603247940540313721 0.19138482213020324707 0.1866239011287689209 0.18178719282150268555 0.17601668834686279297 0.16943015158176422119 0.16110908985137939453 0.15190248191356658936 0.14154313504695892334 0.13142643868923187256 0.12128785252571105957 0.1124564632773399353 0.10448112338781356812 0.097674347460269927979 0.091013312339782714844 0.084534339606761932373 0.077241875231266021729 0.069311194121837615967 0.06021343916654586792 0.050996288657188415527 0.041438952088356018066 0.032639954239130020142 0.024443196132779121399 0.017592318356037139893 0.010777267627418041229 0.00095918582519516348839 0 0 0 0 0 0 0 0 0 0 0 0 0 0 0 0 0 0 0 0 0 0 0 0 0 0 0 0 0 0 0 0 0 0 0 0 0 0 0 0 0 0 0 0 0 0 
0 0 0 0 0 0 0 0 0 0 0 0 0 0 0 0 0 0 0 0 0 0 0 0 0 0 0 0 0 0 0 0 0 0 0 0 0 0 0 0 0 0 0 0 0 0.0096191596239805221558 0.062593005597591400146 0.13519170880317687988 0.20661979913711547852 0.24902157485485076904 0.25389909744262695312 0.23908412456512451172 0.2165568917989730835 0.20032480359077453613 0.19399245083332061768 0.19825415313243865967 0.21771456301212310791 0.24297499656677246094 0.28281894326210021973 0.33668431639671325684 0.40090402960777282715 0.42159408330917358398 0.38479983806610107422 0.33044934272766113281 0.31653538346290588379 0.31111741065979003906 0.30552777647972106934 0.30308949947357177734 0.31166794896125793457 0.32197690010070800781 0.33014574646949768066 0.33309769630432128906 0.32421329617500305176 0.30971246957778930664 0.30360367894172668457 0.31419208645820617676 0.31940913200378417969 0.30811655521392822266 0.29404875636100769043 0.28721004724502563477 0.27707329392433166504 0.26861688494682312012 0.25925564765930175781 0.25514966249465942383 0.25222828984260559082 0.25009778141975402832 0.24849048256874084473 0.24757355451583862305 0.24797642230987548828 0.25910434126853942871 0.26597499847412109375 0.26708555221557617188 0.26916140317916870117 0.27267441153526306152 0.27498036623001098633 0.2605418860912322998 0.23947456479072570801 0.22009964287281036377 0.2002522200345993042 0.18499244749546051025 0.18776527047157287598 0.19319622218608856201 0.1941585838794708252 0.19827365875244140625 0.20291972160339355469 0.20718750357627868652 0.21145220100879669189 0.21527123451232910156 0.21902416646480560303 0.22234000265598297119 0.22555524110794067383 0.22835707664489746094 0.23108711838722229004 0.23350784182548522949 0.23592603206634521484 0.23813049495220184326 0.24036759138107299805 0.24237431585788726807 0.24433499574661254883 0.24599944055080413818 0.24751335382461547852 0.24867542088031768799 0.24969141185283660889 0.25062739849090576172 0.25181168317794799805 0.25329706072807312012 0.25546759366989135742 0.2582301795482635498 0.26193204522132873535 0.26608824729919433594 0.27115216851234436035 0.27646672725677490234 0.28263550996780395508 0.28882750868797302246 0.29572176933288574219 0.30235525965690612793 0.30947640538215637207 0.31608688831329345703 0.32293939590454101562 0.32902440428733825684 0.33501553535461425781 0.34000790119171142578 0.34454464912414550781 0.34790110588073730469 0.35054260492324829102 0.35222360491752624512 0.35331875085830688477 0.35379296541213989258 0.35384273529052734375 0.3535550534725189209 0.35295450687408447266 0.35216993093490600586 0.35113912820816040039 0.35007143020629882812 0.34885388612747192383 0.34764757752418518066 0.34620469808578491211 0.3446744382381439209 0.34274917840957641602 0.34065404534339904785 0.3380393683910369873 0.33537134528160095215 0.33234670758247375488 0.3295357823371887207 0.32661366462707519531 0.32412615418434143066 0.32165640592575073242 0.31950369477272033691 0.31721389293670654297 0.31504738330841064453 0.31255564093589782715 0.31006655097007751465 0.30720826983451843262 0.30444407463073730469 0.30138236284255981445 0.29850947856903076172 0.29541990160942077637 0.2925777733325958252 0.28955543041229248047 0.28678745031356811523 0.28386080265045166016 0.28118786215782165527 0.27836275100708007812 0.27575355768203735352 0.27294757962226867676 0.27030166983604431152 0.26742184162139892578 0.2646777033805847168 0.26171040534973144531 0.25895532965660095215 0.25681889057159423828 0.25625905394554138184 0.25740298628807067871 0.25956508517265319824 0.26160737872123718262 0.2630221247673034668 0.26378914713859558105 0.26363638043403625488 0.26242586970329284668 0.26045575737953186035 0.25776964426040649414 0.25497213006019592285 0.25201812386512756348 0.24951547384262084961 0.24725155532360076904 0.24536946415901184082 0.24347053468227386475 0.24161536991596221924 0.2394129335880279541 0.23703216016292572021 0.23433811962604522705 0.23185651004314422607 0.22955979406833648682 0.22792701423168182373 0.22700622677803039551 0.2269096076488494873 0.22743798792362213135 0.228322640061378479 0.22943668067455291748 0.23046079277992248535 0.23127770423889160156 0.23161172866821289062 0.23128356039524078369 0.23013921082019805908 0.22784534096717834473 0.22447814047336578369 0.21979528665542602539 0.21456855535507202148 0.20866703987121582031 0.20298768579959869385 0.19736309349536895752 0.19244758784770965576 0.18750192224979400635 0.18254828453063964844 0.17668488621711730957 0.17000605165958404541 0.16155494749546051025 0.15218229591846466064 0.14161205291748046875 0.13126450777053833008 0.12086340039968490601 0.11176627129316329956 0.1035084649920463562 0.09643249213695526123 0.089502923190593719482 0.082784600555896759033 0.075272805988788604736 0.067167371511459350586 0.05793651193380355835 0.048646409064531326294 0.039082698523998260498 0.030356224626302719116 0.022326784208416938782 0.015728358179330825806 0.0076152659021317958832 0 0 0 0 0 0 0 0 0 0 0 0 0 0 0 0 0 0 0 0 0 0 0 0 0 0 0 0 0 0 0 0 0 0 0 0 0 0 0 0 0 0 0 0 0 0 0 
0 0 0 0 0 0 0 0 0 0 0 0 0 0 0 0 0 0 0 0 0 0 0 0 0 0 0 0 0 0 0 0 0 0 0 0 0 0 0 0 0 0 0 0 0.00022234550851862877607 0.019355017691850662231 0.082542836666107177734 0.1527474522590637207 0.21518483757972717285 0.24234440922737121582 0.2451076805591583252 0.22747585177421569824 0.21031051874160766602 0.19952590763568878174 0.1981499791145324707 0.20615226030349731445 0.22641554474830627441 0.25353074073791503906 0.30285447835922241211 0.37645000219345092773 0.43183180689811706543 0.42102870345115661621 0.36518055200576782227 0.32867956161499023438 0.31749546527862548828 0.31134840846061706543 0.30556064844131469727 0.30537965893745422363 0.31551730632781982422 0.32603088021278381348 0.33363109827041625977 0.33397212624549865723 0.32112842798233032227 0.30968740582466125488 0.30737838149070739746 0.31887039542198181152 0.32141548395156860352 0.30805101990699768066 0.29548081755638122559 0.28853738307952880859 0.2768967747688293457 0.26837569475173950195 0.25918021798133850098 0.25668349862098693848 0.25449398159980773926 0.25249946117401123047 0.2508156895637512207 0.2497107088565826416 0.25126129388809204102 0.26256290078163146973 0.26703688502311706543 0.26762658357620239258 0.27123433351516723633 0.27665108442306518555 0.28138187527656555176 0.26855117082595825195 0.24550744891166687012 0.22536315023899078369 0.2050679624080657959 0.18955276906490325928 0.19224908947944641113 0.19758912920951843262 0.19729994237422943115 0.20126153528690338135 0.20592321455478668213 0.21022821962833404541 0.21457435190677642822 0.21848604083061218262 0.22232778370380401611 0.22571073472499847412 0.22896762192249298096 0.23178160190582275391 0.23449824750423431396 0.23688206076622009277 0.23923470079898834229 0.24135902523994445801 0.24351212382316589355 0.24542872607707977295 0.24727611243724822998 0.24881492555141448975 0.25017416477203369141 0.25116968154907226562 0.25198715925216674805 0.25271248817443847656 0.25364902615547180176 0.25488331913948059082 0.25675860047340393066 0.25921258330345153809 0.26256665587425231934 0.26639202237129211426 0.27111831307411193848 0.27614235877990722656 0.28204685449600219727 0.28804805874824523926 0.2948119044303894043 0.30140200257301330566 0.30857577919960021973 0.31533598899841308594 0.32245078682899475098 0.32884559035301208496 0.33519256114959716797 0.34049683809280395508 0.34528854489326477051 0.34876918792724609375 0.35141825675964355469 0.35301166772842407227 0.35394141077995300293 0.35422307252883911133 0.35405638813972473145 0.3535811305046081543 0.3528042137622833252 0.35188287496566772461 0.35074779391288757324 0.34962302446365356445 0.34838283061981201172 0.34718909859657287598 0.34578856825828552246 0.34431737661361694336 0.34246915578842163086 0.34044927358627319336 0.33790913224220275879 0.33530327677726745605 0.33233484625816345215 0.32956409454345703125 0.32667049765586853027 0.32418811321258544922 0.32169926166534423828 0.31950688362121582031 0.31715127825736999512 0.31490361690521240234 0.31230396032333374023 0.30970215797424316406 0.30671814084053039551 0.30384457111358642578 0.30068555474281311035 0.29775437712669372559 0.294647216796875 0.29182893037796020508 0.28886663913726806641 0.28617757558822631836 0.28335088491439819336 0.28077593445777893066 0.27805185317993164062 0.2755247950553894043 0.27278664708137512207 0.27018857002258300781 0.26732844114303588867 0.26458305120468139648 0.26159656047821044922 0.25877407193183898926 0.25611695647239685059 0.25554484128952026367 0.25741669535636901855 0.25966024398803710938 0.26170068979263305664 0.26308068633079528809 0.26376754045486450195 0.26349118351936340332 0.26209339499473571777 0.25990787148475646973 0.25697299838066101074 0.25394409894943237305 0.2507699429988861084 0.24810436367988586426 0.24573139846324920654 0.24381503462791442871 0.24196127057075500488 0.24023261666297912598 0.23826175928115844727 0.23619069159030914307 0.23389685153961181641 0.23182916641235351562 0.22997173666954040527 0.22872339189052581787 0.22814263403415679932 0.22829863429069519043 0.22903747856616973877 0.23008897900581359863 0.23136577010154724121 0.2325522303581237793 0.2335573732852935791 0.23406614363193511963 0.23388235270977020264 0.23280575871467590332 0.23047377169132232666 0.22694019973278045654 0.22195445001125335693 0.21635966002941131592 0.21003918349742889404 0.20397494733333587646 0.19801239669322967529 0.1928631216287612915 0.1877533644437789917 0.18269239366054534912 0.17673973739147186279 0.16996991634368896484 0.16139198839664459229 0.15185965597629547119 0.14108864963054656982 0.13052308559417724609 0.11987588554620742798 0.11053153872489929199 0.1020129770040512085 0.094690807163715362549 0.087518230080604553223 0.080586425960063934326 0.072883270680904388428 0.064630344510078430176 0.055294509977102279663 0.045957937836647033691 0.036415167152881622314 0.0277852620929479599 0.019943423569202423096 0.013610803522169589996 0.0038092737086117267609 0 0 0 0 0 0 0 0 0 0 0 0 0 0 0 0 0 0 0 0 0 0 0 0 0 0 0 0 0 0 0 0 0 0 0 0 0 0 0 0 0 0 0 0 0 0 0 
0 0 0 0 0 0 0 0 0 0 0 0 0 0 0 0 0 0 0 0 0 0 0 0 0 0 0 0 0 0 0 0 0 0 0 0 0 0 0 0 0 0 0 0 0.0029553207568824291229 0.044600319117307662964 0.10329061746597290039 0.16623958945274353027 0.21698786318302154541 0.23692518472671508789 0.23668420314788818359 0.2207400202751159668 0.20785003900527954102 0.20383882522583007812 0.20684212446212768555 0.21527728438377380371 0.23315496742725372314 0.26739111542701721191 0.32911205291748046875 0.4067999422550201416 0.45202907919883728027 0.43032473325729370117 0.37143701314926147461 0.33144393563270568848 0.31760796904563903809 0.31198927760124206543 0.3073603212833404541 0.30876910686492919922 0.31913763284683227539 0.32912534475326538086 0.3363457024097442627 0.33500313758850097656 0.32101052999496459961 0.31097120046615600586 0.31328529119491577148 0.32395994663238525391 0.32269772887229919434 0.30739325284957885742 0.29717653989791870117 0.28934490680694580078 0.2771809995174407959 0.26873686909675598145 0.26059991121292114258 0.25851452350616455078 0.25660377740859985352 0.25473234057426452637 0.25300297141075134277 0.25151830911636352539 0.25371947884559631348 0.26484158635139465332 0.27231165766716003418 0.27649918198585510254 0.27965196967124938965 0.28313562273979187012 0.28555914759635925293 0.27120393514633178711 0.24994604289531707764 0.22994141280651092529 0.20951212942600250244 0.19385842978954315186 0.19649784266948699951 0.20176701247692108154 0.20064686238765716553 0.20451064407825469971 0.20919042825698852539 0.21351946890354156494 0.21790094673633575439 0.22186708450317382812 0.22575466334819793701 0.22916088998317718506 0.23241499066352844238 0.23520541191101074219 0.23787565529346466064 0.24019715189933776855 0.24246676266193389893 0.24449488520622253418 0.24654290080070495605 0.24836811423301696777 0.25011536478996276855 0.25155508518218994141 0.25280597805976867676 0.25369861721992492676 0.25440144538879394531 0.25500079989433288574 0.25577050447463989258 0.25680819153785705566 0.25842103362083435059 0.26056113839149475098 0.26352763175964355469 0.26696372032165527344 0.27127867937088012695 0.2759431004524230957 0.28152257204055786133 0.2872918546199798584 0.2938938438892364502 0.30041992664337158203 0.30762773752212524414 0.31451779603958129883 0.32186949253082275391 0.3285490572452545166 0.33522903919219970703 0.34082365036010742188 0.34585440158843994141 0.34945559501647949219 0.35211959481239318848 0.35363855957984924316 0.35442310571670532227 0.35453432798385620117 0.35417655110359191895 0.3535372316837310791 0.35260692238807678223 0.35157066583633422852 0.35035127401351928711 0.34917750954627990723 0.34791618585586547852 0.34673041105270385742 0.34536263346672058105 0.34393921494483947754 0.34215503931045532227 0.34019693732261657715 0.33772197365760803223 0.33517360687255859375 0.33226084709167480469 0.32953572273254394531 0.32667753100395202637 0.32421034574508666992 0.32171988487243652344 0.31951305270195007324 0.31713220477104187012 0.31485670804977416992 0.31222784519195556641 0.30960223078727722168 0.30659508705139160156 0.30370217561721801758 0.30052497982978820801 0.297580718994140625 0.29446244239807128906 0.29163730144500732422 0.28867262601852416992 0.28598731756210327148 0.28317204117774963379 0.28061529994010925293 0.27791681885719299316 0.27541381120681762695 0.27270424365997314453 0.2701314389705657959 0.26729223132133483887 0.26457962393760681152 0.26160535216331481934 0.25875291228294372559 0.25573441386222839355 0.25528290867805480957 0.25766760110855102539 0.2599334418773651123 0.26197090744972229004 0.26331496238708496094 0.26392737030982971191 0.26354506611824035645 0.26199549436569213867 0.25964108109474182129 0.2565155327320098877 0.25331261754035949707 0.24997597932815551758 0.24719299376010894775 0.24474473297595977783 0.24280872941017150879 0.24099348485469818115 0.23936091363430023193 0.23755984008312225342 0.23571145534515380859 0.23370100557804107666 0.23192209005355834961 0.23036538064479827881 0.22937294840812683105 0.22900758683681488037 0.22930978238582611084 0.23015286028385162354 0.23126940429210662842 0.23259270191192626953 0.2338161766529083252 0.23486053943634033203 0.23539784550666809082 0.23521825671195983887 0.2341057509183883667 0.23167683184146881104 0.22798244655132293701 0.22276189923286437988 0.21690438687801361084 0.21029557287693023682 0.20396946370601654053 0.19777424633502960205 0.19245661795139312744 0.18721839785575866699 0.1820624619722366333 0.1760212332010269165 0.16915930807590484619 0.16046105325222015381 0.15078628063201904297 0.13984374701976776123 0.12909810245037078857 0.11825376749038696289 0.10871750861406326294 0.10000276565551757812 0.092500865459442138672 0.085156604647636413574 0.078079462051391601562 0.070252060890197753906 0.061911080032587051392 0.052523624151945114136 0.04318219795823097229 0.033691067248582839966 0.025170415639877319336 0.017508788034319877625 0.011411794461309909821 0.00055029144277796149254 0 0 0 0 0 0 0 0 0 0 0 0 0 0 0 0 0 0 0 0 0 0 0 0 0 0 0 0 0 0 0 0 0 0 0 0 0 0 0 0 0 0 0 0 0 0 0 
0 0 0 0 0 0 0 0 0 0 0 0 0 0 0 0 0 0 0 0 0 0 0 0 0 0 0 0 0 0 0 0 0 0 0 0 0 0 0 0 0 0 0 0 0.012960869818925857544 0.081186950206756591797 0.13301606476306915283 0.18929715454578399658 0.22539058327674865723 0.23321191966533660889 0.22908462584018707275 0.21853236854076385498 0.20957548916339874268 0.20918729901313781738 0.21385203301906585693 0.22301578521728515625 0.24406661093235015869 0.28536310791969299316 0.35215979814529418945 0.41938751935958862305 0.4432353973388671875 0.42401793599128723145 0.38153707981109619141 0.33093333244323730469 0.31692668795585632324 0.31397598981857299805 0.31150087714195251465 0.31276661157608032227 0.32285934686660766602 0.33215042948722839355 0.33918333053588867188 0.33554723858833312988 0.32165968418121337891 0.3136469423770904541 0.32042762637138366699 0.3288917243480682373 0.32237756252288818359 0.30683720111846923828 0.29890713095664978027 0.28972166776657104492 0.27895626425743103027 0.26811581850051879883 0.26146301627159118652 0.26071223616600036621 0.25910738110542297363 0.2573350369930267334 0.25564736127853393555 0.25415337085723876953 0.25831744074821472168 0.26892703771591186523 0.27901604771614074707 0.28593295812606811523 0.28778734803199768066 0.28857263922691345215 0.28970205783843994141 0.27525168657302856445 0.2542832791805267334 0.23449683189392089844 0.21413810551166534424 0.19849537312984466553 0.20109675824642181396 0.20630159974098205566 0.20462219417095184326 0.20842526853084564209 0.21311961114406585693 0.21745891869068145752 0.22184073925018310547 0.22581583261489868164 0.22971612215042114258 0.23311057686805725098 0.23632578551769256592 0.23906050622463226318 0.24165163934230804443 0.24388226866722106934 0.24604360759258270264 0.24795746803283691406 0.24987524747848510742 0.25158822536468505859 0.25323435664176940918 0.25458586215972900391 0.2557557523250579834 0.25658780336380004883 0.25723472237586975098 0.25776761770248413086 0.25842654705047607422 0.25929903984069824219 0.26065745949745178223 0.26246279478073120117 0.26498845219612121582 0.26796513795852661133 0.27178174257278442383 0.27600356936454772949 0.28118062019348144531 0.28665822744369506836 0.29304790496826171875 0.29947611689567565918 0.30668976902961730957 0.31369039416313171387 0.32126504182815551758 0.32822600007057189941 0.33523783087730407715 0.34112212061882019043 0.34639289975166320801 0.35011869668960571289 0.35279947519302368164 0.35424473881721496582 0.35488435626029968262 0.35482478141784667969 0.35427629947662353516 0.35347315669059753418 0.35239076614379882812 0.35124751925468444824 0.34994548559188842773 0.34872108697891235352 0.34743463993072509766 0.34625145792961120605 0.34491035342216491699 0.34352976083755493164 0.34180405735969543457 0.33990424871444702148 0.33749714493751525879 0.33501192927360534668 0.33216619491577148438 0.32949686050415039062 0.32668268680572509766 0.32423713803291320801 0.32175260782241821289 0.31954273581504821777 0.31715875864028930664 0.31488946080207824707 0.31228685379028320312 0.30970415472984313965 0.30675408244132995605 0.30391365289688110352 0.30078309774398803711 0.29786154627799987793 0.29473567008972167969 0.29187619686126708984 0.2888558506965637207 0.2861111760139465332 0.28323480486869812012 0.28063282370567321777 0.27790242433547973633 0.27538692951202392578 0.2726860344409942627 0.27013027667999267578 0.26734611392021179199 0.26469540596008300781 0.26177731156349182129 0.25896537303924560547 0.25607118010520935059 0.25589150190353393555 0.25826349854469299316 0.2604878544807434082 0.26249155402183532715 0.26378181576728820801 0.2643088996410369873 0.26382035017013549805 0.2621313631534576416 0.25962978601455688477 0.25634330511093139648 0.25299698114395141602 0.24953007698059082031 0.24665677547454833984 0.24415466189384460449 0.24220956861972808838 0.24043105542659759521 0.2388782799243927002 0.23721170425415039062 0.23553457856178283691 0.2337370067834854126 0.23216950893402099609 0.23082536458969116211 0.23000402748584747314 0.22976748645305633545 0.23013716936111450195 0.23100125789642333984 0.232099875807762146 0.23337313532829284668 0.23452951014041900635 0.23549000918865203857 0.23593422770500183105 0.23563805222511291504 0.23439300060272216797 0.23179735243320465088 0.22791527211666107178 0.22247239947319030762 0.21639105677604675293 0.20954912900924682617 0.20301464200019836426 0.19662986695766448975 0.19116510450839996338 0.18580166995525360107 0.1805420219898223877 0.1743968278169631958 0.16742819547653198242 0.15860022604465484619 0.14878222346305847168 0.13767603039741516113 0.1267658919095993042 0.11574897170066833496 0.10605172067880630493 0.097180657088756561279 0.089542657136917114258 0.082075767219066619873 0.07490218430757522583 0.067001730203628540039 0.058619942516088485718 0.049226667732000350952 0.039921209216117858887 0.030517026782035827637 0.022130407392978668213 0.014660437591373920441 0.0059403418563306331635 8.3515969890868291259e-06 0 0 0 0 0 0 0 0 0 0 0 0 0 0 0 0 0 0 0 0 0 0 0 0 0 0 0 0 0 0 0 0 0 0 0 0 0 0 0 0 0 0 0 0 0 0 0 
0 0 0 0 0 0 0 0 0 0 0 0 0 0 0 0 0 0 0 0 0 0 0 0 0 0 0 0 0 0 0 0 0 0 0 0 0 0 0 0 0 0 0 0.00052619242342188954353 0.032222896814346313477 0.092116221785545349121 0.15148030221462249756 0.2057934105396270752 0.22556817531585693359 0.22811646759510040283 0.22083514928817749023 0.21264757215976715088 0.20957046747207641602 0.21297217905521392822 0.219056740403175354 0.23352608084678649902 0.26277071237564086914 0.30930566787719726562 0.37541097402572631836 0.4227599799633026123 0.42040291428565979004 0.37808427214622497559 0.35731792449951171875 0.32640156149864196777 0.31733286380767822266 0.31713002920150756836 0.316410064697265625 0.31693932414054870605 0.32656118273735046387 0.3353894352912902832 0.3418706059455871582 0.3351930081844329834 0.32220092415809631348 0.31703889369964599609 0.32666391134262084961 0.33246764540672302246 0.32126557826995849609 0.30737394094467163086 0.30050367116928100586 0.29022255539894104004 0.28079453110694885254 0.26921990513801574707 0.26479393243789672852 0.26351687312126159668 0.26181423664093017578 0.26007127761840820312 0.25854218006134033203 0.25791925191879272461 0.26492786407470703125 0.27321141958236694336 0.28235653042793273926 0.28850686550140380859 0.28886702656745910645 0.29073914885520935059 0.29385048151016235352 0.27915132045745849609 0.25807771086692810059 0.23845723271369934082 0.21832495927810668945 0.20286928117275238037 0.20546251535415649414 0.21061588823795318604 0.20868444442749023438 0.21245078742504119873 0.21714133024215698242 0.22146919369697570801 0.22582522034645080566 0.22976408898830413818 0.23363862931728363037 0.23699730634689331055 0.24015550315380096436 0.24281841516494750977 0.24531650543212890625 0.24744620919227600098 0.24949251115322113037 0.25129270553588867188 0.25308513641357421875 0.25468102097511291504 0.25622841715812683105 0.2575085759162902832 0.25862535834312438965 0.25943264365196228027 0.2600708305835723877 0.26058837771415710449 0.26119458675384521484 0.26195606589317321777 0.26310873031616210938 0.26462823152542114258 0.26676213741302490234 0.26931691169738769531 0.27266481518745422363 0.27646273374557495117 0.28124687075614929199 0.28642892837524414062 0.29259136319160461426 0.29889667034149169922 0.30607536435127258301 0.31313744187355041504 0.32087501883506774902 0.32805988192558288574 0.33533790707588195801 0.34145694971084594727 0.34692490100860595703 0.35075330734252929688 0.35344427824020385742 0.35482367873191833496 0.35533609986305236816 0.35512745380401611328 0.35441157221794128418 0.35346272587776184082 0.35224941372871398926 0.35101312398910522461 0.34963321685791015625 0.34835833311080932617 0.34704256057739257812 0.34585496783256530762 0.34453111886978149414 0.34318372607231140137 0.34150370955467224121 0.33965659141540527344 0.33731576800346374512 0.33489680290222167969 0.33212393522262573242 0.32951238751411437988 0.32674202322959899902 0.32431486248970031738 0.32183095812797546387 0.319614410400390625 0.3172289729118347168 0.31497615575790405273 0.31242173910140991211 0.30991312861442565918 0.30706053972244262695 0.30431184172630310059 0.30126339197158813477 0.29838418960571289062 0.29525265097618103027 0.29234382510185241699 0.28923836350440979004 0.28639972209930419922 0.28342273831367492676 0.28074142336845397949 0.27795273065567016602 0.27541702985763549805 0.27271792292594909668 0.27020496129989624023 0.26750290393829345703 0.26493999361991882324 0.2621332705020904541 0.25952059030532836914 0.25755023956298828125 0.25752282142639160156 0.25924333930015563965 0.26129713654518127441 0.26319867372512817383 0.2644157111644744873 0.26485165953636169434 0.26426497101783752441 0.26246061921119689941 0.25984603166580200195 0.25644204020500183105 0.25299513339996337891 0.24943992495536804199 0.24650828540325164795 0.24397581815719604492 0.24203179776668548584 0.24028570950031280518 0.23879283666610717773 0.23722095787525177002 0.23565971851348876953 0.23400101065635681152 0.23256550729274749756 0.23134557902812957764 0.23061266541481018066 0.23042377829551696777 0.23079104721546173096 0.23160748183727264404 0.23262488842010498047 0.23378036916255950928 0.23480077087879180908 0.23559975624084472656 0.23587621748447418213 0.23539061844348907471 0.23395511507987976074 0.23115070164203643799 0.22706386446952819824 0.2214040905237197876 0.2151196897029876709 0.20807473361492156982 0.20136103034019470215 0.1948102116584777832 0.18920975923538208008 0.18372382223606109619 0.17835862934589385986 0.17210794985294342041 0.16503597795963287354 0.156091347336769104 0.1461528390645980835 0.13491629064083099365 0.12388134747743606567 0.11273986101150512695 0.10293302685022354126 0.093962393701076507568 0.086244881153106689453 0.078714318573474884033 0.071499302983283996582 0.063578926026821136475 0.055202431976795196533 0.045844137668609619141 0.036605663597583770752 0.0273067522794008255 0.019056400284171104431 0.011759138666093349457 0.0021583652123808860779 0 0 0 0 0 0 0 0 0 0 0 0 0 0 0 0 0 0 0 0 0 0 0 0 0 0 0 0 0 0 0 0 0 0 0 0 0 0 0 0 0 0 0 0 0 0 0 0 
0 0 0 0 0 0 0 0 0 0 0 0 0 0 0 0 0 0 0 0 0 0 0 0 0 0 0 0 0 0 0 0 0 0 0 0 0 0 0 0 0 0 0 0.0046846452169120311737 0.070480413734912872314 0.1256430894136428833 0.17407007515430450439 0.21379321813583374023 0.22216229140758514404 0.21979045867919921875 0.21442787349224090576 0.20801718533039093018 0.21048800647258758545 0.21677143871784210205 0.22671674191951751709 0.24719786643981933594 0.28568282723426818848 0.3410567939281463623 0.40304747223854064941 0.42311316728591918945 0.39776915311813354492 0.35051423311233520508 0.33430913090705871582 0.32214090228080749512 0.31920668482780456543 0.32080405950546264648 0.32144954800605773926 0.3214435279369354248 0.33009180426597595215 0.33908817172050476074 0.34433916211128234863 0.3354009091854095459 0.32315835356712341309 0.32091987133026123047 0.33237802982330322266 0.33439895510673522949 0.31992900371551513672 0.30911353230476379395 0.30197137594223022461 0.29259735345840454102 0.2828293144702911377 0.27219313383102416992 0.26907977461814880371 0.26708775758743286133 0.26506292819976806641 0.26328650116920471191 0.26179155707359313965 0.26212924718856811523 0.27223372459411621094 0.27984091639518737793 0.28607925772666931152 0.28832983970642089844 0.28965559601783752441 0.29426455497741699219 0.29754370450973510742 0.28269326686859130859 0.26151803135871887207 0.24222099781036376953 0.22259546816349029541 0.20757555961608886719 0.21020177006721496582 0.21531273424625396729 0.21337132155895233154 0.21709898114204406738 0.22175198793411254883 0.22603838145732879639 0.23033958673477172852 0.23421204090118408203 0.23801022768020629883 0.24130906164646148682 0.24439702928066253662 0.24697230756282806396 0.24935977160930633545 0.25137194991111755371 0.25328668951988220215 0.2549597620964050293 0.25662001967430114746 0.25809207558631896973 0.25952169299125671387 0.26072597503662109375 0.26179879903793334961 0.26259770989418029785 0.26325240731239318848 0.26378476619720458984 0.26437512040138244629 0.26506352424621582031 0.2660478055477142334 0.26731559634208679199 0.26910114288330078125 0.27126708626747131348 0.27416950464248657227 0.27755463123321533203 0.2819385528564453125 0.28680074214935302734 0.29269862174987792969 0.29883289337158203125 0.30591747164726257324 0.31298297643661499023 0.32082915306091308594 0.32818672060966491699 0.33567917346954345703 0.34199240803718566895 0.34762743115425109863 0.35153794288635253906 0.35422721505165100098 0.35553649067878723145 0.35592120885848999023 0.35556435585021972656 0.35467937588691711426 0.35358279943466186523 0.35223892331123352051 0.35089963674545288086 0.34942877292633056641 0.34809088706970214844 0.34673351049423217773 0.34553214907646179199 0.34421849250793457031 0.34289681911468505859 0.34126108884811401367 0.3394730687141418457 0.33721253275871276855 0.33487921953201293945 0.33219599723815917969 0.32965248823165893555 0.32692831754684448242 0.32451099157333374023 0.32200855016708374023 0.31976348161697387695 0.31735503673553466797 0.31510433554649353027 0.31259337067604064941 0.31016677618026733398 0.30743113160133361816 0.30479696393013000488 0.30185118317604064941 0.29902532696723937988 0.29588651657104492188 0.29291483759880065918 0.28970140218734741211 0.28674390912055969238 0.28364041447639465332 0.2808628082275390625 0.27801933884620666504 0.27547004818916320801 0.27280947566032409668 0.27038604021072387695 0.2678076326847076416 0.26538965106010437012 0.26282715797424316406 0.26084113121032714844 0.2596797645092010498 0.2597249150276184082 0.26092767715454101562 0.26255312561988830566 0.26422509551048278809 0.26530849933624267578 0.26562485098838806152 0.26492699980735778809 0.26300716400146484375 0.26028984785079956055 0.25678658485412597656 0.25325974822044372559 0.24963863193988800049 0.24666690826416015625 0.24411801993846893311 0.24218332767486572266 0.24047230184078216553 0.23903517425060272217 0.23754574358463287354 0.2360811084508895874 0.23453316092491149902 0.23319661617279052734 0.2320598214864730835 0.23137159645557403564 0.23117978870868682861 0.23149351775646209717 0.23220546543598175049 0.23308573663234710693 0.23406337201595306396 0.23488922417163848877 0.2354644089937210083 0.23551349341869354248 0.23477527499198913574 0.23308853805065155029 0.23001059889793395996 0.22565658390522003174 0.21971458196640014648 0.21316650509834289551 0.20585797727108001709 0.19891165196895599365 0.1921453624963760376 0.18636932969093322754 0.18072754144668579102 0.17523314058780670166 0.16886131465435028076 0.16167992353439331055 0.1526219099760055542 0.14257471263408660889 0.13122813403606414795 0.12009441107511520386 0.10886110365390777588 0.098979994654655456543 0.089950159192085266113 0.082194030284881591797 0.074643418192863464355 0.067429162561893463135 0.059531982988119125366 0.051200579851865768433 0.041917264461517333984 0.032778639346361160278 0.023611448705196380615 0.015512636862695217133 0.0076792403124272823334 2.627266076160594821e-05 0 0 0 0 0 0 0 0 0 0 0 0 0 0 0 0 0 0 0 0 0 0 0 0 0 0 0 0 0 0 0 0 0 0 0 0 0 0 0 0 0 0 0 0 0 0 0 0 
0 0 0 0 0 0 0 0 0 0 0 0 0 0 0 0 0 0 0 0 0 0 0 0 0 0 0 0 0 0 0 0 0 0 0 0 0 0 0 0 0 0 0 0.017729531973600387573 0.10115924477577209473 0.15087673068046569824 0.19973722100257873535 0.21847783029079437256 0.21702024340629577637 0.21054431796073913574 0.20617701113224029541 0.20599907636642456055 0.21382233500480651855 0.2204958796501159668 0.2318852543830871582 0.25041660666465759277 0.29815727472305297852 0.36141377687454223633 0.40303397178649902344 0.40587779879570007324 0.38023006916046142578 0.34121698141098022461 0.32832944393157958984 0.32308658957481384277 0.32296714186668395996 0.32594117522239685059 0.32705211639404296875 0.32709535956382751465 0.33408179879188537598 0.3427887260913848877 0.34605255722999572754 0.33552479743957519531 0.32433840632438659668 0.32583522796630859375 0.33685550093650817871 0.33463630080223083496 0.31908339262008666992 0.31125536561012268066 0.30346819758415222168 0.29553374648094177246 0.28384748101234436035 0.2759113609790802002 0.27299803495407104492 0.27056244015693664551 0.26826313138008117676 0.26644319295883178711 0.26515498757362365723 0.26676091551780700684 0.27547088265419006348 0.28414976596832275391 0.28974521160125732422 0.29102525115013122559 0.29394561052322387695 0.29911437630653381348 0.30154827237129211426 0.28473713994026184082 0.2637278139591217041 0.24511432647705078125 0.22631926834583282471 0.21197940409183502197 0.21468397974967956543 0.21976988017559051514 0.21802668273448944092 0.22170065343379974365 0.22627460956573486328 0.23048940300941467285 0.2347141951322555542 0.23850780725479125977 0.24220964312553405762 0.24542558193206787109 0.24844558537006378174 0.25093883275985717773 0.25322163105010986328 0.25512233376502990723 0.25691249966621398926 0.25846594572067260742 0.2600040137767791748 0.26136735081672668457 0.26268699765205383301 0.26380887627601623535 0.26483803987503051758 0.2656313776969909668 0.26630660891532897949 0.26686444878578186035 0.26746490597724914551 0.26812523603439331055 0.26901704072952270508 0.27012771368026733398 0.27169072628021240234 0.27360039949417114258 0.27619451284408569336 0.27927756309509277344 0.28334143757820129395 0.28792300820350646973 0.29355996847152709961 0.29949387907981872559 0.30642643570899963379 0.31342589855194091797 0.32129243016242980957 0.32872766256332397461 0.3363348543643951416 0.34276223182678222656 0.34849539399147033691 0.35244667530059814453 0.35511681437492370605 0.35635855793952941895 0.35663196444511413574 0.35614717006683349609 0.35511425137519836426 0.35389131307601928711 0.35242354869842529297 0.35097864270210266113 0.34940981864929199219 0.34800010919570922852 0.34659093618392944336 0.34536695480346679688 0.34405168890953063965 0.34274604916572570801 0.34115192294120788574 0.33942550420761108398 0.33725649118423461914 0.33501857519149780273 0.33243164420127868652 0.32995763421058654785 0.32727265357971191406 0.32484835386276245117 0.32229846715927124023 0.3199920654296875 0.31752091646194458008 0.3152332603931427002 0.31272557377815246582 0.31034907698631286621 0.30770406126976013184 0.30516374111175537109 0.30230426788330078125 0.29952251911163330078 0.29637306928634643555 0.29334110021591186523 0.2900276482105255127 0.28696274757385253906 0.28375011682510375977 0.28090706467628479004 0.27804073691368103027 0.27552127838134765625 0.27295821905136108398 0.27065879106521606445 0.26824831962585449219 0.26604446768760681152 0.26395457983016967773 0.26260712742805480957 0.26181316375732421875 0.2619215846061706543 0.26295274496078491211 0.26419335603713989258 0.26549836993217468262 0.26636028289794921875 0.2665240168571472168 0.26570761203765869141 0.26367866992950439453 0.26087421178817749023 0.2572943270206451416 0.25371086597442626953 0.25004717707633972168 0.24705302715301513672 0.2444998621940612793 0.24257950484752655029 0.24090345203876495361 0.23951698839664459229 0.23809967935085296631 0.23671771585941314697 0.23526173830032348633 0.23400324583053588867 0.23292487859725952148 0.23225602507591247559 0.23203328251838684082 0.23226697742938995361 0.2328487783670425415 0.23357173800468444824 0.2343571782112121582 0.23498280346393585205 0.23533645272254943848 0.2351639866828918457 0.23417656123638153076 0.2322330474853515625 0.22885982692241668701 0.22419761121273040771 0.21791023015975952148 0.21102619171142578125 0.20337346196174621582 0.19612115621566772461 0.18907478451728820801 0.18307821452617645264 0.17725139856338500977 0.17161518335342407227 0.16512328386306762695 0.15784539282321929932 0.1486981511116027832 0.1385736614465713501 0.12715640664100646973 0.11596587300300598145 0.10468685626983642578 0.0947763100266456604 0.085732258856296539307 0.077978543937206268311 0.070447854697704315186 0.063269674777984619141 0.055428266525268554688 0.047169871628284454346 0.037983685731887817383 0.028957400470972061157 0.019924344494938850403 0.01196766924113035202 0.0036138964351266622543 0 0 0 0 0 0 0 0 0 0 0 0 0 0 0 0 0 0 0 0 0 0 0 0 0 0 0 0 0 0 0 0 0 0 0 0 0 0 0 0 0 0 0 0 0 0 0 0 0 
0 0 0 0 0 0 0 0 0 0 0 0 0 0 0 0 0 0 0 0 0 0 0 0 0 0 0 0 0 0 0 0 0 0 0 0 0 0 0 0 0 0 0.00019789839279837906361 0.043515227735042572021 0.12331474572420120239 0.17621493339538574219 0.21313303709030151367 0.21881131827831268311 0.21152222156524658203 0.20468731224536895752 0.20218035578727722168 0.20664554834365844727 0.2194207608699798584 0.2260522693395614624 0.23432263731956481934 0.25524556636810302734 0.30054846405982971191 0.36685144901275634766 0.41909056901931762695 0.41199147701263427734 0.36260589957237243652 0.33541673421859741211 0.3280970454216003418 0.32609736919403076172 0.32868564128875732422 0.33509621024131774902 0.33725270628929138184 0.33539822697639465332 0.33951321244239807129 0.34700939059257507324 0.34717988967895507812 0.33538064360618591309 0.32594811916351318359 0.33161768317222595215 0.34056311845779418945 0.33396118879318237305 0.31947973370552062988 0.31320396065711975098 0.30573320388793945312 0.29860267043113708496 0.28549802303314208984 0.28012314438819885254 0.27699401974678039551 0.27424886822700500488 0.27171313762664794922 0.26979750394821166992 0.2685763239860534668 0.27351400256156921387 0.28214767575263977051 0.28796082735061645508 0.29317861795425415039 0.29688823223114013672 0.30235508084297180176 0.30592340230941772461 0.30119299888610839844 0.28347069025039672852 0.2647107243537902832 0.24750870466232299805 0.23001049458980560303 0.21670934557914733887 0.21955360472202301025 0.22463054955005645752 0.22329021990299224854 0.2268702089786529541 0.2313003242015838623 0.23539729416370391846 0.23951356112957000732 0.24320830404758453369 0.24680233001708984375 0.24992053210735321045 0.25284880399703979492 0.25526139140129089355 0.25744017958641052246 0.2592270970344543457 0.26088845729827880859 0.26231727004051208496 0.26372733712196350098 0.26497599482536315918 0.26618617773056030273 0.26721498370170593262 0.26817408204078674316 0.26894479990005493164 0.26962792873382568359 0.27020794153213500977 0.27083238959312438965 0.27150228619575500488 0.27237710356712341309 0.27343606948852539062 0.27490350604057312012 0.27669578790664672852 0.27913117408752441406 0.28202235698699951172 0.28583723306655883789 0.29015785455703735352 0.29550537467002868652 0.3011780083179473877 0.3078715205192565918 0.31471544504165649414 0.32249313592910766602 0.32990297675132751465 0.33752462267875671387 0.34398496150970458984 0.34974396228790283203 0.35368996858596801758 0.35631379485130310059 0.35747841000556945801 0.35763955116271972656 0.35702872276306152344 0.35585582256317138672 0.35450226068496704102 0.3528912663459777832 0.3513177037239074707 0.34962421655654907227 0.34811919927597045898 0.34663754701614379883 0.34537467360496520996 0.34404212236404418945 0.34274959564208984375 0.34120362997055053711 0.33955734968185424805 0.33750736713409423828 0.33538952469825744629 0.3329213261604309082 0.33052793145179748535 0.32787725329399108887 0.32542091608047485352 0.32277649641036987305 0.32035231590270996094 0.31774750351905822754 0.31535482406616210938 0.31278228759765625 0.31040474772453308105 0.30780357122421264648 0.30532234907150268555 0.30252161622047424316 0.29976767301559448242 0.29659977555274963379 0.29350885748863220215 0.2901051938533782959 0.28695061802864074707 0.28366938233375549316 0.28080579638481140137 0.2779826819896697998 0.27557763457298278809 0.27318432927131652832 0.2710812985897064209 0.26894119381904602051 0.26713556051254272461 0.2656841278076171875 0.26471906900405883789 0.26420098543167114258 0.26437863707542419434 0.26531207561492919922 0.26643285155296325684 0.26729217171669006348 0.26779982447624206543 0.26769754290580749512 0.26672086119651794434 0.26456215977668762207 0.26166450977325439453 0.25801047682762145996 0.25437751412391662598 0.25068047642707824707 0.24767149984836578369 0.24512007832527160645 0.24321861565113067627 0.24158270657062530518 0.24025419354438781738 0.2389205247163772583 0.23763605952262878418 0.23628969490528106689 0.23512420058250427246 0.23411440849304199219 0.23346573114395141602 0.23320044577121734619 0.23333238065242767334 0.23375532031059265137 0.23429405689239501953 0.23486599326133728027 0.23528331518173217773 0.23541992902755737305 0.23503510653972625732 0.23379980027675628662 0.23158055543899536133 0.22785694897174835205 0.22279049456119537354 0.21601399779319763184 0.20863129198551177979 0.20045389235019683838 0.19273169338703155518 0.18526017665863037109 0.17894068360328674316 0.17285855114459991455 0.16704261302947998047 0.16041597723960876465 0.15304550528526306152 0.14382630586624145508 0.13364990055561065674 0.12219510972499847412 0.11098375171422958374 0.099698357284069061279 0.089795686304569244385 0.080774396657943725586 0.073056705296039581299 0.06557906419038772583 0.05846761167049407959 0.050713401287794113159 0.042558331042528152466 0.033496942371129989624 0.024605389684438705444 0.015724034979939460754 0.0079126767814159393311 0.00091956323012709617615 0 0 0 0 0 0 0 0 0 0 0 0 0 0 0 0 0 0 0 0 0 0 0 0 0 0 0 0 0 0 0 0 0 0 0 0 0 0 0 0 0 0 0 0 0 0 0 0 0 
0 0 0 0 0 0 0 0 0 0 0 0 0 0 0 0 0 0 0 0 0 0 0 0 0 0 0 0 0 0 0 0 0 0 0 0 0 0 0 0 0 0 0.0054621146991848945618 0.07362667471170425415 0.14243566989898681641 0.19535928964614868164 0.21586249768733978271 0.21670746803283691406 0.2081638723611831665 0.20491595566272735596 0.20413520932197570801 0.21174195408821105957 0.22335645556449890137 0.23031871020793914795 0.24070343375205993652 0.26582738757133483887 0.31184726953506469727 0.39364993572235107422 0.44993153214454650879 0.43114966154098510742 0.36383327841758728027 0.33518785238265991211 0.32987958192825317383 0.32978808879852294922 0.33534613251686096191 0.34369918704032897949 0.34850180149078369141 0.34517180919647216797 0.34507206082344055176 0.35070142149925231934 0.34802266955375671387 0.33573126792907714844 0.32831656932830810547 0.33678469061851501465 0.34255784749984741211 0.33195236325263977051 0.32047829031944274902 0.31448486447334289551 0.30860969424247741699 0.29983681440353393555 0.28758588433265686035 0.28367263078689575195 0.28048726916313171387 0.2775643467903137207 0.27484726905822753906 0.27271765470504760742 0.27157187461853027344 0.27962985634803771973 0.29094293713569641113 0.29572021961212158203 0.29873880743980407715 0.30164325237274169922 0.3055375218391418457 0.30693516135215759277 0.29602453112602233887 0.28100857138633728027 0.26473534107208251953 0.249248504638671875 0.23325437307357788086 0.22111812233924865723 0.22413618862628936768 0.22922167181968688965 0.22841511666774749756 0.23187395930290222168 0.23611792922019958496 0.24006949365139007568 0.24406127631664276123 0.24765086174011230469 0.25115182995796203613 0.25418716669082641602 0.25701600313186645508 0.25934198498725891113 0.26143610477447509766 0.26312866806983947754 0.26467987895011901855 0.26599943637847900391 0.26729318499565124512 0.26843526959419250488 0.26954391598701477051 0.2704887688159942627 0.2713686525821685791 0.27208814024925231934 0.27275523543357849121 0.2733446955680847168 0.27399745583534240723 0.27470850944519042969 0.27564087510108947754 0.27675843238830566406 0.2782758176326751709 0.2801024019718170166 0.28255075216293334961 0.28539335727691650391 0.28907608985900878906 0.29319658875465393066 0.29827398061752319336 0.30366915464401245117 0.31008321046829223633 0.31670275330543518066 0.32429549098014831543 0.33158230781555175781 0.33911609649658203125 0.34551700949668884277 0.35122063755989074707 0.3551101982593536377 0.35766106843948364258 0.35874420404434204102 0.35880264639854431152 0.35808950662612915039 0.35680103302001953125 0.35532432794570922852 0.35357102751731872559 0.35186517238616943359 0.35003995895385742188 0.34843179583549499512 0.34686696529388427734 0.34555029869079589844 0.34419173002243041992 0.34290841221809387207 0.34141317009925842285 0.33985313773155212402 0.33792677521705627441 0.33593323826789855957 0.33358564972877502441 0.33126950263977050781 0.32864069938659667969 0.32613134384155273438 0.32335931062698364258 0.32077634334564208984 0.31798461079597473145 0.31543263792991638184 0.3127365410327911377 0.31030070781707763672 0.30768242478370666504 0.30521026253700256348 0.30242592096328735352 0.29967540502548217773 0.29648250341415405273 0.29334369301795959473 0.28987765312194824219 0.28668141365051269531 0.28338932991027832031 0.2805678248405456543 0.27787140011787414551 0.27563378214836120605 0.2734642326831817627 0.27161929011344909668 0.26986044645309448242 0.26855364441871643066 0.26747995615005493164 0.26678043603897094727 0.26647624373435974121 0.26672011613845825195 0.26759520173072814941 0.26868203282356262207 0.26939702033996582031 0.2695020139217376709 0.26905587315559387207 0.26785621047019958496 0.26555791497230529785 0.26257249712944030762 0.25885692238807678223 0.25518789887428283691 0.25146922469139099121 0.24845083057880401611 0.24589994549751281738 0.24401156604290008545 0.24240711331367492676 0.24112878739833831787 0.23987394571304321289 0.23868712782859802246 0.23745417594909667969 0.2363865971565246582 0.23544940352439880371 0.2348213493824005127 0.23450830578804016113 0.23452943563461303711 0.2347844243049621582 0.23513567447662353516 0.23550176620483398438 0.23573446273803710938 0.23569560050964355469 0.23514702916145324707 0.23371362686157226562 0.2312542647123336792 0.2271938025951385498 0.22170455753803253174 0.21438708901405334473 0.20643489062786102295 0.19764825701713562012 0.18937782943248748779 0.18141373991966247559 0.1747280508279800415 0.16836734116077423096 0.16236704587936401367 0.15561577677726745605 0.14817316830158233643 0.13891108334064483643 0.1287148594856262207 0.11725737899541854858 0.10605701804161071777 0.094793662428855895996 0.084918916225433349609 0.075932227075099945068 0.068255670368671417236 0.060832247138023376465 0.05378765985369682312 0.046123810112476348877 0.038076639175415039062 0.029146449640393257141 0.020395211875438690186 0.011672557331621646881 0.0039716125465929508209 7.5204465247225016356e-05 0 0 0 0 0 0 0 0 0 0 0 0 0 0 0 0 0 0 0 0 0 0 0 0 0 0 0 0 0 0 0 0 0 0 0 0 0 0 0 0 0 0 0 0 0 0 0 0 0 
0 0 0 0 0 0 0 0 0 0 0 0 0 0 0 0 0 0 0 0 0 0 0 0 0 0 0 0 0 0 0 0 0 0 0 0 0 0 0 0 0 0 0.022774027660489082336 0.10572989284992218018 0.16413043439388275146 0.20905762910842895508 0.21980184316635131836 0.21716614067554473877 0.21062178909778594971 0.20857025682926177979 0.20920313894748687744 0.21646058559417724609 0.22448748350143432617 0.23530314862728118896 0.2531032562255859375 0.28383818268775939941 0.33309975266456604004 0.40733832120895385742 0.45414596796035766602 0.43592065572738647461 0.37877678871154785156 0.3404801785945892334 0.33111122250556945801 0.3346614837646484375 0.34289392828941345215 0.35126739740371704102 0.35788667201995849609 0.35507565736770629883 0.35137316584587097168 0.35413664579391479492 0.34674409031867980957 0.33524620532989501953 0.33156242966651916504 0.34231355786323547363 0.34273311495780944824 0.33013883233070373535 0.32212463021278381348 0.31557491421699523926 0.31087863445281982422 0.30032894015312194824 0.29103043675422668457 0.28742349147796630859 0.28407403826713562012 0.28101319074630737305 0.27813881635665893555 0.2756583094596862793 0.27558243274688720703 0.28538021445274353027 0.29528063535690307617 0.3003546297550201416 0.30458480119705200195 0.3074010014533996582 0.30858397483825683594 0.30428868532180786133 0.29171267151832580566 0.27858877182006835938 0.26448065042495727539 0.25087752938270568848 0.23668086528778076172 0.22592169046401977539 0.22910505533218383789 0.23421503603458404541 0.23412515223026275635 0.23744443058967590332 0.24145610630512237549 0.24522346258163452148 0.24905772507190704346 0.25252690911293029785 0.25593614578247070312 0.25888833403587341309 0.26161694526672363281 0.26383253931999206543 0.26582553982734680176 0.26743280887603759766 0.26888164877891540527 0.27009299397468566895 0.27126425504684448242 0.27229061722755432129 0.27328398823738098145 0.27413177490234375 0.27492418885231018066 0.27557215094566345215 0.27619063854217529297 0.27677625417709350586 0.27746483683586120605 0.2782490849494934082 0.27930223941802978516 0.28056839108467102051 0.28226375579833984375 0.28425350785255432129 0.28683561086654663086 0.28974232077598571777 0.29337456822395324707 0.29732441902160644531 0.30212298035621643066 0.30720990896224975586 0.31328120827674865723 0.31959185004234313965 0.32689788937568664551 0.33396476507186889648 0.3413028717041015625 0.3475488126277923584 0.35310915112495422363 0.35688006877899169922 0.35931321978569030762 0.3602892458438873291 0.36023876070976257324 0.35942801833152770996 0.35801798105239868164 0.35640797019004821777 0.35449817776679992676 0.35264500975608825684 0.35067170858383178711 0.34894406795501708984 0.34727227687835693359 0.34588661789894104004 0.34449332952499389648 0.34321945905685424805 0.34178236126899719238 0.34031605720520019531 0.3385251462459564209 0.33666756749153137207 0.33444955945014953613 0.33221137523651123047 0.32959327101707458496 0.32700681686401367188 0.32406419515609741211 0.32127094268798828125 0.31823009252548217773 0.31546378135681152344 0.31258487701416015625 0.31003797054290771484 0.30735185742378234863 0.30484893918037414551 0.30204749107360839844 0.29927948117256164551 0.2960510551929473877 0.29286772012710571289 0.28936919569969177246 0.28616899251937866211 0.28292575478553771973 0.28022536635398864746 0.2777245938777923584 0.27572280168533325195 0.27386954426765441895 0.27241066098213195801 0.2711741030216217041 0.27023169398307800293 0.2694606482982635498 0.26901927590370178223 0.26891803741455078125 0.26923957467079162598 0.27007898688316345215 0.27113857865333557129 0.2718569338321685791 0.27177074551582336426 0.2709071040153503418 0.2693926393985748291 0.26688501238822937012 0.26380482316017150879 0.26003715395927429199 0.25634557008743286133 0.25261592864990234375 0.24958865344524383545 0.24702686071395874023 0.24513316154479980469 0.24353730678558349609 0.24228917062282562256 0.24109901487827301025 0.24000577628612518311 0.23888856172561645508 0.23792171478271484375 0.23705449700355529785 0.23643384873867034912 0.2360423654317855835 0.23590895533561706543 0.23594222962856292725 0.2360560297966003418 0.23617379367351531982 0.23619984090328216553 0.23598559200763702393 0.23528774082660675049 0.23367677628993988037 0.23099163174629211426 0.22659283876419067383 0.22065494954586029053 0.21274353563785552979 0.20415276288986206055 0.19467699527740478516 0.18578475713729858398 0.17726366221904754639 0.17016868293285369873 0.16350348293781280518 0.15730962157249450684 0.15043756365776062012 0.14293643832206726074 0.13365319371223449707 0.1234612688422203064 0.1120249629020690918 0.10085301846265792847 0.089618928730487823486 0.079764537513256072998 0.070788815617561340332 0.06312068551778793335 0.055716354399919509888 0.048712499439716339111 0.041125167161226272583 0.033191733062267303467 0.02441873401403427124 0.015856623649597167969 0.0072983396239578723907 0.00094356789486482739449 0 0 0 0 0 0 0 0 0 0 0 0 0 0 0 0 0 0 0 0 0 0 0 0 0 0 0 0 0 0 0 0 0 0 0 0 0 0 0 0 0 0 0 0 0 0 0 0 0 0 
0 0 0 0 0 0 0 0 0 0 0 0 0 0 0 0 0 0 0 0 0 0 0 0 0 0 0 0 0 0 0 0 0 0 0 0 0 0 0 0 0 0.00072120042750611901283 0.044932309538125991821 0.12373843789100646973 0.1837276071310043335 0.21860940754413604736 0.22508776187896728516 0.21950772404670715332 0.21688118577003479004 0.21553137898445129395 0.21639239788055419922 0.22436831891536712646 0.233875274658203125 0.24700634181499481201 0.26845464110374450684 0.30058369040489196777 0.35319077968597412109 0.41725966334342956543 0.44656464457511901855 0.42440453171730041504 0.38122513890266418457 0.3465677797794342041 0.3330872952938079834 0.3396816253662109375 0.34830760955810546875 0.35730135440826416016 0.36485752463340759277 0.36217764019966125488 0.35626634955406188965 0.35393035411834716797 0.34445166587829589844 0.33487012982368469238 0.33586937189102172852 0.3462981879711151123 0.34150108695030212402 0.32940372824668884277 0.32318198680877685547 0.31761774420738220215 0.31155419349670410156 0.30062949657440185547 0.29447504878044128418 0.29077768325805664062 0.28726965188980102539 0.28415375947952270508 0.281230926513671875 0.27872282266616821289 0.28050324320793151855 0.29086136817932128906 0.2990862727165222168 0.30440565943717956543 0.30898782610893249512 0.31182280182838439941 0.31078493595123291016 0.30093780159950256348 0.28851273655891418457 0.27663308382034301758 0.26421985030174255371 0.25232738256454467773 0.23988878726959228516 0.23050957918167114258 0.23380090296268463135 0.23889042437076568604 0.23957449197769165039 0.24277397990226745605 0.24656417965888977051 0.25014773011207580566 0.25382012128829956055 0.25718364119529724121 0.26050788164138793945 0.26338541507720947266 0.26602959632873535156 0.26815190911293029785 0.27003663778305053711 0.27155774831771850586 0.27292770147323608398 0.2740485072135925293 0.27511000633239746094 0.27602559328079223633 0.27690267562866210938 0.27764821052551269531 0.27834823727607727051 0.27892842888832092285 0.27949339151382446289 0.28005802631378173828 0.28077998757362365723 0.28164979815483093262 0.28284862637519836426 0.28430849313735961914 0.28625696897506713867 0.28848111629486083984 0.29126787185668945312 0.2942981719970703125 0.29794636368751525879 0.3017787635326385498 0.30634891986846923828 0.31115648150444030762 0.31688666343688964844 0.32287058234214782715 0.3298543095588684082 0.33664777874946594238 0.34372159838676452637 0.34974685311317443848 0.35510072112083435059 0.35870635509490966797 0.36098769307136535645 0.36184671521186828613 0.36169317364692687988 0.36078628897666931152 0.35926079750061035156 0.35752776265144348145 0.35547545552253723145 0.35348919034004211426 0.35137996077537536621 0.34953323006629943848 0.34775575995445251465 0.34630292654037475586 0.34487700462341308594 0.34361240267753601074 0.34222355484962463379 0.34083732962608337402 0.33916389942169189453 0.33742392063140869141 0.33531534671783447266 0.33313840627670288086 0.33051705360412597656 0.32784277200698852539 0.32472014427185058594 0.32170999050140380859 0.31841838359832763672 0.31543141603469848633 0.31235367059707641602 0.30967423319816589355 0.30689319968223571777 0.30433425307273864746 0.30149215459823608398 0.29869168996810913086 0.29542657732963562012 0.29222181439399719238 0.28872123360633850098 0.28556084632873535156 0.28242436051368713379 0.27987569570541381836 0.27759981155395507812 0.27586948871612548828 0.27439859509468078613 0.27338266372680664062 0.27248373627662658691 0.27178707718849182129 0.27127942442893981934 0.27105632424354553223 0.27112802863121032715 0.27152994275093078613 0.27236214280128479004 0.27341783046722412109 0.27416491508483886719 0.27408242225646972656 0.27304786443710327148 0.2712319493293762207 0.2684796750545501709 0.26527506113052368164 0.26146942377090454102 0.25777295231819152832 0.25404390692710876465 0.2510045468807220459 0.2484112083911895752 0.24647992849349975586 0.24484995007514953613 0.24358837306499481201 0.24241884052753448486 0.24138309061527252197 0.24034863710403442383 0.23945380747318267822 0.23862622678279876709 0.23798166215419769287 0.2374737858772277832 0.23714619874954223633 0.23691622912883758545 0.2367579340934753418 0.23660077154636383057 0.23640890419483184814 0.23602752387523651123 0.2352053225040435791 0.23346099257469177246 0.23060898482799530029 0.22595128417015075684 0.21965619921684265137 0.21125826239585876465 0.20213472843170166016 0.19208090007305145264 0.18266569077968597412 0.17367690801620483398 0.16624079644680023193 0.15932586789131164551 0.15297842025756835938 0.14601784944534301758 0.13848349452018737793 0.12920229136943817139 0.11903283745050430298 0.10762832313776016235 0.09648218005895614624 0.085257135331630706787 0.075382605195045471191 0.066353417932987213135 0.05861940234899520874 0.05115507170557975769 0.044122543185949325562 0.036558069288730621338 0.028714582324028015137 0.020118981599807739258 0.011742193251848220825 0.0063796853646636009216 0.0051775895990431308746 0 0 0 0 0 0 0 0 0 0 0 0 0 0 0 0 0 0 0 0 0 0 0 0 0 0 0 0 0 0 0 0 0 0 0 0 0 0 0 0 0 0 0 0 0 0 0 0 0 0 
0 0 0 0 0 0 0 0 0 0 0 0 0 0 0 0 0 0 0 0 0 0 0 0 0 0 0 0 0 0 0 0 0 0 0 0 0 0 0 0 0 0.0078240586444735527039 0.072856225073337554932 0.14255040884017944336 0.19796203076839447021 0.22015826404094696045 0.22494199872016906738 0.22028422355651855469 0.22128349542617797852 0.22202029824256896973 0.22547683119773864746 0.23302756249904632568 0.24399355053901672363 0.26058873534202575684 0.28319194912910461426 0.31643113493919372559 0.37478566169738769531 0.43777135014533996582 0.4311790168285369873 0.38403597474098205566 0.3537286221981048584 0.33919069170951843262 0.33650624752044677734 0.34531748294830322266 0.35460695624351501465 0.36366850137710571289 0.37107154726982116699 0.36848744750022888184 0.36178070306777954102 0.35347801446914672852 0.3428014218807220459 0.3352578282356262207 0.34147381782531738281 0.34867262840270996094 0.3396949470043182373 0.32991456985473632812 0.32422792911529541016 0.32038232684135437012 0.31069204211235046387 0.30167728662490844727 0.29753062129020690918 0.2939554750919342041 0.29050675034523010254 0.28748723864555358887 0.28469139337539672852 0.28212288022041320801 0.28718528151512145996 0.29695370793342590332 0.30385217070579528809 0.30884695053100585938 0.31275230646133422852 0.31489488482475280762 0.30963882803916931152 0.29649254679679870605 0.28469407558441162109 0.2742760777473449707 0.26377904415130615234 0.25383341312408447266 0.24340862035751342773 0.23561453819274902344 0.23902633786201477051 0.24402023851871490479 0.24555131793022155762 0.24864572286605834961 0.25221139192581176758 0.25560051202774047852 0.25911706686019897461 0.26237189769744873047 0.26560121774673461914 0.2683989405632019043 0.2709611356258392334 0.2730006873607635498 0.27478802204132080078 0.2762063145637512207 0.27747642993927001953 0.27851030230522155762 0.27945870161056518555 0.28024858236312866211 0.28098592162132263184 0.28160402178764343262 0.2821864783763885498 0.28268268704414367676 0.28319507837295532227 0.28374469280242919922 0.28449591994285583496 0.28545510768890380859 0.28682854771614074707 0.28854379057884216309 0.29081401228904724121 0.29334285855293273926 0.29640784859657287598 0.29960417747497558594 0.30329725146293640137 0.30705368518829345703 0.31142443418502807617 0.31594970822334289551 0.32131502032279968262 0.32693424820899963379 0.33352932333946228027 0.33996891975402832031 0.34668365120887756348 0.35239887237548828125 0.35745579004287719727 0.36082306504249572754 0.36290061473846435547 0.36361277103424072266 0.36332291364669799805 0.36229634284973144531 0.36063987016677856445 0.35877713561058044434 0.35658156871795654297 0.35446175932884216309 0.35220658779144287109 0.35023537278175354004 0.34835085272789001465 0.34683266282081604004 0.34537521004676818848 0.34411391615867614746 0.34276416897773742676 0.34144791960716247559 0.33987966179847717285 0.33824434876441955566 0.33623036742210388184 0.33410003781318664551 0.33145537972450256348 0.32867154479026794434 0.3253459930419921875 0.3221041262149810791 0.31854224205017089844 0.31531241536140441895 0.31201028823852539062 0.30917385220527648926 0.30627164244651794434 0.30363374948501586914 0.3007297217845916748 0.29788890480995178223 0.29460120201110839844 0.29139351844787597656 0.28793582320213317871 0.28486531972885131836 0.28187510371208190918 0.27952152490615844727 0.27753558754920959473 0.27616992592811584473 0.27517169713973999023 0.2744833827018737793 0.27384227514266967773 0.27339532971382141113 0.27314764261245727539 0.27313828468322753906 0.27338552474975585938 0.27388608455657958984 0.27474892139434814453 0.27582556009292602539 0.27663654088973999023 0.27660414576530456543 0.27561545372009277344 0.27372002601623535156 0.27075636386871337891 0.26739457249641418457 0.26350808143615722656 0.2598107755184173584 0.25608542561531066895 0.25301843881607055664 0.25035196542739868164 0.24832583963871002197 0.24659022688865661621 0.24524588882923126221 0.24403113126754760742 0.24300338327884674072 0.24200928211212158203 0.24114882946014404297 0.24031579494476318359 0.23959277570247650146 0.2388915717601776123 0.23827983438968658447 0.23768280446529388428 0.23715522885322570801 0.23663263022899627686 0.23615776002407073975 0.2355718463659286499 0.23462052643299102783 0.23276682198047637939 0.22979728877544403076 0.22495962679386138916 0.21840631961822509766 0.20964010059833526611 0.20010542869567871094 0.18960233032703399658 0.17977906763553619385 0.1704254448413848877 0.1627248227596282959 0.15561953186988830566 0.14915998280048370361 0.14214277267456054688 0.13459919393062591553 0.125341072678565979 0.11520808190107345581 0.10383632779121398926 0.092698164284229278564 0.08143571019172668457 0.071463622152805328369 0.062265366315841674805 0.054334137588739395142 0.046670023351907730103 0.039490181952714920044 0.031867109239101409912 0.024112265557050704956 0.015703363344073295593 0.0075392420403659343719 0.020724499598145484924 0 0 0 0 0 0 0 0 0 0 0 0 0 0 0 0 0 0 0 0 0 0 0 0 0 0 0 0 0 0 0 0 0 0 0 0 0 0 0 0 0 0 0 0 0 0 0 0 0 0 0 
0 0 0 0 0 0 0 0 0 0 0 0 0 0 0 0 0 0 0 0 0 0 0 0 0 0 0 0 0 0 0 0 0 0 0 0 0 0 0 0 0 0.027242654934525489807 0.10030209273099899292 0.15057742595672607422 0.1991526484489440918 0.21809642016887664795 0.22191250324249267578 0.22098210453987121582 0.22239203751087188721 0.22610373795032501221 0.23266038298606872559 0.2409610748291015625 0.25422009825706481934 0.27338293194770812988 0.2985699772834777832 0.33516159653663635254 0.39033544063568115234 0.44341179728507995605 0.42375853657722473145 0.36569690704345703125 0.34453564882278442383 0.33746618032455444336 0.34127852320671081543 0.35079056024551391602 0.36044222116470336914 0.36918330192565917969 0.37672448158264160156 0.37506881356239318848 0.36647886037826538086 0.35388350486755371094 0.34271904826164245605 0.33723843097686767578 0.34679424762725830078 0.34989562630653381348 0.33912780880928039551 0.33078858256340026855 0.32628953456878662109 0.32071363925933837891 0.30977520346641540527 0.30348068475723266602 0.29989793896675109863 0.29653096199035644531 0.29328462481498718262 0.29048761725425720215 0.28798076510429382324 0.28684112429618835449 0.29454773664474487305 0.30307021737098693848 0.30906555056571960449 0.31359624862670898438 0.31706222891807556152 0.31425103545188903809 0.30164015293121337891 0.28987452387809753418 0.27971288561820983887 0.27122205495834350586 0.26291862130165100098 0.25508585572242736816 0.24674043059349060059 0.24050895869731903076 0.24404273927211761475 0.24893665313720703125 0.25122499465942382812 0.25416937470436096191 0.25753962993621826172 0.26078736782073974609 0.26419648528099060059 0.26735949516296386719 0.2705001533031463623 0.27322438359260559082 0.2757199704647064209 0.2777023017406463623 0.27942648530006408691 0.28077015280723571777 0.28194096684455871582 0.28287336230278015137 0.28371185064315795898 0.28437694907188415527 0.28496697545051574707 0.28544628620147705078 0.28589904308319091797 0.28630325198173522949 0.28676283359527587891 0.28730890154838562012 0.28809645771980285645 0.28913247585296630859 0.2906818091869354248 0.29264530539512634277 0.29522538185119628906 0.29805105924606323242 0.30138438940048217773 0.30474933981895446777 0.30850657820701599121 0.31221505999565124512 0.31643828749656677246 0.32073920965194702148 0.32579773664474487305 0.33108484745025634766 0.33729875087738037109 0.34337246417999267578 0.34970140457153320312 0.35507151484489440918 0.35979089140892028809 0.36289462447166442871 0.36474677920341491699 0.3652833104133605957 0.36483234167098999023 0.36367371678352355957 0.36188703775405883789 0.35990893840789794922 0.35759025812149047852 0.35535100102424621582 0.35297423601150512695 0.3509057164192199707 0.34894189238548278809 0.34737426042556762695 0.34588640928268432617 0.3446190953254699707 0.34328818321228027344 0.34201377630233764648 0.34051185846328735352 0.33894297480583190918 0.33698445558547973633 0.3348693549633026123 0.33217993378639221191 0.32928854227066040039 0.32578754425048828125 0.32234549522399902344 0.31854861974716186523 0.31510689854621887207 0.31160596013069152832 0.30862575769424438477 0.30560699105262756348 0.30288970470428466797 0.29993274807929992676 0.29706987738609313965 0.29378089308738708496 0.29060781002044677734 0.28722283244132995605 0.28425267338752746582 0.28142017126083374023 0.2792784571647644043 0.27761855721473693848 0.27661591768264770508 0.27590811252593994141 0.27543479204177856445 0.27501669526100158691 0.27477476000785827637 0.27473962306976318359 0.27490830421447753906 0.2753111422061920166 0.27591761946678161621 0.27685466408729553223 0.27798610925674438477 0.27887845039367675781 0.27894431352615356445 0.27807343006134033203 0.27631732821464538574 0.2734343409538269043 0.2700220644474029541 0.26606217026710510254 0.26230978965759277344 0.25856244564056396484 0.25543758273124694824 0.25264656543731689453 0.25046133995056152344 0.24854072928428649902 0.24703402817249298096 0.24569207429885864258 0.24460172653198242188 0.24358007311820983887 0.24269376695156097412 0.24179306626319885254 0.24093168973922729492 0.23997065424919128418 0.2390092015266418457 0.23797674477100372314 0.23701941967010498047 0.23607636988162994385 0.23527820408344268799 0.23446360230445861816 0.2333870232105255127 0.23146548867225646973 0.22846022248268127441 0.22358286380767822266 0.21695964038372039795 0.20807018876075744629 0.19838973879814147949 0.18772251904010772705 0.17774790525436401367 0.1682583242654800415 0.16046020388603210449 0.15328828990459442139 0.14679570496082305908 0.13977257907390594482 0.13224537670612335205 0.12302261590957641602 0.11292703449726104736 0.10157333314418792725 0.090407431125640869141 0.079041957855224609375 0.068876206874847412109 0.059377007186412811279 0.051104318350553512573 0.043088741600513458252 0.035631746053695678711 0.027879789471626281738 0.02015057392418384552 0.01189900469034910202 0.003997099120169878006 0.020075725391507148743 0 0 0 0 0 0 0 0 0 0 0 0 0 0 0 0 0 0 0 0 0 0 0 0 0 0 0 0 0 0 0 0 0 0 0 0 0 0 0 0 0 0 0 0 0 0 0 0 0 0 0 
0 0 0 0 0 0 0 0 0 0 0 0 0 0 0 0 0 0 0 0 0 0 0 0 0 0 0 0 0 0 0 0 0 0 0 0 0 0 0 0 0.00022184589761309325695 0.049033064395189285278 0.12173833698034286499 0.17822253704071044922 0.2076727747917175293 0.22027388215065002441 0.22397361695766448975 0.22558441758155822754 0.22834733128547668457 0.23556666076183319092 0.24476249516010284424 0.25260388851165771484 0.26792028546333312988 0.28833097219467163086 0.31404140591621398926 0.35957932472229003906 0.42485576868057250977 0.45257958769798278809 0.41328144073486328125 0.36121478676795959473 0.34392872452735900879 0.34011784195899963379 0.34767559170722961426 0.3568699955940246582 0.36661478877067565918 0.37530806660652160645 0.38284206390380859375 0.38215646147727966309 0.36898863315582275391 0.35358846187591552734 0.34294542670249938965 0.34164211153984069824 0.35214543342590332031 0.34977117180824279785 0.33847340941429138184 0.33219301700592041016 0.32874217629432678223 0.31953230500221252441 0.30957803130149841309 0.30547061562538146973 0.30205681920051574707 0.29894438385963439941 0.29601955413818359375 0.29355099797248840332 0.29143932461738586426 0.2922528684139251709 0.3017184138298034668 0.30886501073837280273 0.31519773602485656738 0.31903359293937683105 0.31814533472061157227 0.30330538749694824219 0.28821977972984313965 0.27891063690185546875 0.27183717489242553711 0.26634103059768676758 0.26116344332695007324 0.25619584321975708008 0.25048431754112243652 0.24598737061023712158 0.24965009093284606934 0.25443062186241149902 0.25754073262214660645 0.26027473807334899902 0.26336243748664855957 0.26649275422096252441 0.26982486248016357422 0.27291482686996459961 0.27597928047180175781 0.27863588929176330566 0.28107693791389465332 0.28302291035652160645 0.28470954298973083496 0.28600585460662841797 0.28709891438484191895 0.28791567683219909668 0.28859248757362365723 0.2890936732292175293 0.28950083255767822266 0.2898031771183013916 0.29008662700653076172 0.29037043452262878418 0.29075664281845092773 0.29128026962280273438 0.29210412502288818359 0.2932643890380859375 0.29501646757125854492 0.29722920060157775879 0.3001206517219543457 0.30323880910873413086 0.306842803955078125 0.31039962172508239746 0.31425112485885620117 0.31792399287223815918 0.32200834155082702637 0.3261172175407409668 0.33089405298233032227 0.33584573864936828613 0.34164708852767944336 0.34730279445648193359 0.35317081212997436523 0.35812044143676757812 0.36243522167205810547 0.36521306633949279785 0.36676737666130065918 0.36706900596618652344 0.3664067387580871582 0.36508402228355407715 0.36314910650253295898 0.3610445559024810791 0.3585936427116394043 0.35624408721923828125 0.35376808047294616699 0.3516273796558380127 0.3496010899543762207 0.34798645973205566406 0.34646126627922058105 0.34517326951026916504 0.34383684396743774414 0.34257468581199645996 0.34110200405120849609 0.33956125378608703613 0.33761444687843322754 0.33547866344451904297 0.33272519707679748535 0.32972669601440429688 0.32605540752410888672 0.3224220573902130127 0.31840354204177856445 0.31476217508316040039 0.31107151508331298828 0.30795049667358398438 0.30481997132301330566 0.30204039812088012695 0.29905307292938232422 0.29619625210762023926 0.29294908046722412109 0.28983649611473083496 0.28654554486274719238 0.28370299935340881348 0.2810738682746887207 0.27920809388160705566 0.27788111567497253418 0.27711319923400878906 0.27663156390190124512 0.27637332677841186523 0.27617284655570983887 0.2761103510856628418 0.27626523375511169434 0.27660131454467773438 0.27716517448425292969 0.27790561318397521973 0.27898287773132324219 0.28023508191108703613 0.28121027350425720215 0.28143751621246337891 0.2807776033878326416 0.27926331758499145508 0.27669692039489746094 0.27354332804679870605 0.26967391371726989746 0.26588803529739379883 0.26200997829437255859 0.25872659683227539062 0.25570201873779296875 0.25324130058288574219 0.25100338459014892578 0.24921025335788726807 0.24762144684791564941 0.24637283384799957275 0.24523659050464630127 0.24424728751182556152 0.24319396913051605225 0.24210268259048461914 0.24076585471630096436 0.23932762444019317627 0.23771710693836212158 0.2361968308687210083 0.23470643162727355957 0.23348741233348846436 0.2323764115571975708 0.231151580810546875 0.22919224202632904053 0.22623807191848754883 0.22147524356842041016 0.21498222649097442627 0.20623859763145446777 0.19670192897319793701 0.18618166446685791016 0.17633540928363800049 0.16695891320705413818 0.15924479067325592041 0.15214078128337860107 0.14570097625255584717 0.13872443139553070068 0.13124382495880126953 0.12207910418510437012 0.11203216016292572021 0.10068585723638534546 0.089450307190418243408 0.077892430126667022705 0.067393444478511810303 0.057391412556171417236 0.048550970852375030518 0.039966147392988204956 0.032095842063426971436 0.024070888757705688477 0.016294768080115318298 0.0082428604364395141602 0.022553641349077224731 0.0028523213695734739304 0 0 0 0 0 0 0 0 0 0 0 0 0 0 0 0 0 0 0 0 0 0 0 0 0 0 0 0 0 0 0 0 0 0 0 0 0 0 0 0 0 0 0 0 0 0 0 0 0 0 0 
0 0 0 0 0 0 0 0 0 0 0 0 0 0 0 0 0 0 0 0 0 0 0 0 0 0 0 0 0 0 0 0 0 0 0 0 0 0 0 0 0.0044655278325080871582 0.060168944299221038818 0.13415034115314483643 0.18942910432815551758 0.21289516985416412354 0.22462056577205657959 0.23080311715602874756 0.23433692753314971924 0.23745548725128173828 0.24517330527305603027 0.25637397170066833496 0.26587644219398498535 0.28118801116943359375 0.30079922080039978027 0.32692185044288635254 0.38763913512229919434 0.45162525773048400879 0.45226705074310302734 0.39984568953514099121 0.35833832621574401855 0.3465213775634765625 0.34397971630096435547 0.35259801149368286133 0.36283886432647705078 0.37254887819290161133 0.3809891045093536377 0.38828319311141967773 0.38756152987480163574 0.36967590451240539551 0.35332074761390686035 0.34379345178604125977 0.34788155555725097656 0.35539788007736206055 0.34842994809150695801 0.33791065216064453125 0.33418637514114379883 0.32853713631629943848 0.31847348809242248535 0.31010857224464416504 0.30696597695350646973 0.30375340580940246582 0.30088880658149719238 0.298282623291015625 0.29619753360748291016 0.29435914754867553711 0.29850646853446960449 0.30882254242897033691 0.31516605615615844727 0.32042405009269714355 0.31787168979644775391 0.3017406761646270752 0.28150925040245056152 0.26942026615142822266 0.26461276412010192871 0.26198923587799072266 0.2602749168872833252 0.25873270630836486816 0.2571290135383605957 0.25457093119621276855 0.251312255859375 0.25498235225677490234 0.25966307520866394043 0.26350343227386474609 0.26607927680015563965 0.26891794800758361816 0.27183821797370910645 0.27505901455879211426 0.27811846137046813965 0.28115648031234741211 0.28379142284393310547 0.28621870279312133789 0.28816127777099609375 0.28984811902046203613 0.29113337397575378418 0.29218408465385437012 0.29291239380836486816 0.29343086481094360352 0.29373440146446228027 0.29392409324645996094 0.29402998089790344238 0.29412239789962768555 0.2942574620246887207 0.29452687501907348633 0.29499757289886474609 0.29586884379386901855 0.29715001583099365234 0.29909548163414001465 0.30153110623359680176 0.30466669797897338867 0.30801573395729064941 0.31185561418533325195 0.31558519601821899414 0.31953442096710205078 0.32321125268936157227 0.32720741629600524902 0.33115276694297790527 0.3356978297233581543 0.34037506580352783203 0.34580692648887634277 0.3510615229606628418 0.35648056864738464355 0.3610216975212097168 0.36492577195167541504 0.36736065149307250977 0.36860221624374389648 0.3686612546443939209 0.36778745055198669434 0.36630451679229736328 0.36421883106231689453 0.36199209094047546387 0.35943678021430969238 0.35701534152030944824 0.3544826209545135498 0.35229736566543579102 0.35022395849227905273 0.34856495261192321777 0.34699320793151855469 0.34566557407379150391 0.34429380297660827637 0.34300798177719116211 0.34151619672775268555 0.3399544060230255127 0.33797669410705566406 0.33580470085144042969 0.33298829197883605957 0.32989555597305297852 0.32608550786972045898 0.32230138778686523438 0.31811085343360900879 0.3143145442008972168 0.31047752499580383301 0.30725756287574768066 0.30406194925308227539 0.30125778913497924805 0.29828476905822753906 0.29546749591827392578 0.29227870702743530273 0.2892392277717590332 0.28606024384498596191 0.2833703160285949707 0.2809695899486541748 0.27930983901023864746 0.27815145254135131836 0.27754601836204528809 0.27725321054458618164 0.27717536687850952148 0.27715438604354858398 0.27721112966537475586 0.27749499678611755371 0.27795714139938354492 0.27866119146347045898 0.27954649925231933594 0.28082221746444702148 0.28223463892936706543 0.28329122066497802734 0.28366434574127197266 0.28327101469039916992 0.28205507993698120117 0.27986484766006469727 0.2770970463752746582 0.27358868718147277832 0.26995107531547546387 0.26599612832069396973 0.26244017481803894043 0.25902223587036132812 0.2561753392219543457 0.25351870059967041016 0.25135347247123718262 0.24943616986274719238 0.24795894324779510498 0.24664011597633361816 0.24548904597759246826 0.24422660470008850098 0.24285762012004852295 0.2411009371280670166 0.23915015161037445068 0.2369295954704284668 0.23482109606266021729 0.23276162147521972656 0.23110558092594146729 0.22968816757202148438 0.22832004725933074951 0.22635433077812194824 0.22351863980293273926 0.218976631760597229 0.21275982260704040527 0.2043641507625579834 0.19518889486789703369 0.18505010008811950684 0.17554366588592529297 0.16646888852119445801 0.15897655487060546875 0.15204253792762756348 0.14571705460548400879 0.13882951438426971436 0.13142608106136322021 0.1223462224006652832 0.11236905306577682495 0.101041451096534729 0.089730598032474517822 0.07795012742280960083 0.067061319947242736816 0.056468572467565536499 0.046995550394058227539 0.037801150232553482056 0.029424320906400680542 0.021070269867777824402 0.013237697072327136993 0.0053910645656287670135 0.023818302899599075317 0.00056397519074380397797 0 0 0 0 0 0 0 0 0 0 0 0 0 0 0 0 0 0 0 0 0 0 0 0 0 0 0 0 0 0 0 0 0 0 0 0 0 0 0 0 0 0 0 0 0 0 0 0 0 0 0 
0 0 0 0 0 0 0 0 0 0 0 0 0 0 0 0 0 0 0 0 0 0 0 0 0 0 0 0 0 0 0 0 0 0 0 0 0 0 0 0 0.022541696205735206604 0.086656793951988220215 0.15156179666519165039 0.19390420615673065186 0.21564774215221405029 0.229128226637840271 0.23846830427646636963 0.24378716945648193359 0.2497762143611907959 0.25887730717658996582 0.27304571866989135742 0.28077071905136108398 0.29496341943740844727 0.31349733471870422363 0.34604379534721374512 0.41753995418548583984 0.47088491916656494141 0.45044726133346557617 0.39376410841941833496 0.36133050918579101562 0.35012081265449523926 0.34978240728378295898 0.36014321446418762207 0.36990842223167419434 0.37887537479400634766 0.38668408989906311035 0.39381068944931030273 0.39121258258819580078 0.36940664052963256836 0.35354542732238769531 0.3466320037841796875 0.35427442193031311035 0.35627794265747070312 0.3461201786994934082 0.3376967310905456543 0.33449018001556396484 0.32712602615356445312 0.31692728400230407715 0.3108806908130645752 0.30820143222808837891 0.30534982681274414062 0.3028157353401184082 0.30053800344467163086 0.29879778623580932617 0.29787683486938476562 0.30565413832664489746 0.3165417015552520752 0.32154372334480285645 0.32124784588813781738 0.30669826269149780273 0.28179872035980224609 0.25097969174385070801 0.24673016369342803955 0.24947954714298248291 0.25235551595687866211 0.25484946370124816895 0.25717788934707641602 0.25918233394622802734 0.26098930835723876953 0.26184043288230895996 0.2643795013427734375 0.26724958419799804688 0.27013349533081054688 0.27251508831977844238 0.27513450384140014648 0.27782180905342102051 0.28079980611801147461 0.28371647000312805176 0.28674599528312683105 0.28942891955375671387 0.29191765189170837402 0.29392522573471069336 0.29566970467567443848 0.29698452353477478027 0.29802209138870239258 0.29867523908615112305 0.29903236031532287598 0.29911187291145324707 0.29901432991027832031 0.2988344728946685791 0.29863899946212768555 0.29852643609046936035 0.29861497879028320312 0.29903578758239746094 0.29994475841522216797 0.30133166909217834473 0.30344513058662414551 0.30608043074607849121 0.3094628453254699707 0.31304672360420227051 0.31710255146026611328 0.32099643349647521973 0.32506826519966125488 0.32878875732421875 0.33274099230766296387 0.33655720949172973633 0.34087044000625610352 0.34525290131568908691 0.3503023982048034668 0.35514211654663085938 0.36007454991340637207 0.36414384841918945312 0.36756369471549987793 0.3695996403694152832 0.37048831582069396973 0.37028175592422485352 0.36917105317115783691 0.36749815940856933594 0.36525061726570129395 0.36291742324829101562 0.36028876900672912598 0.35782322287559509277 0.35525342822074890137 0.35303238034248352051 0.35090833902359008789 0.34918865561485290527 0.34754130244255065918 0.3461386263370513916 0.34468376636505126953 0.34332132339477539062 0.34175285696983337402 0.3401336669921875 0.33810472488403320312 0.33587914705276489258 0.33298563957214355469 0.3297977745532989502 0.32586050033569335938 0.32194304466247558594 0.31760567426681518555 0.31368833780288696289 0.30975395441055297852 0.3064797818660736084 0.30326899886131286621 0.30048492550849914551 0.29755762219429016113 0.29480156302452087402 0.2917016446590423584 0.28877490758895874023 0.28576543927192687988 0.28325942158699035645 0.28101292252540588379 0.2794723808765411377 0.27846309542655944824 0.27801582217216491699 0.277904510498046875 0.27799880504608154297 0.27815127372741699219 0.27829003334045410156 0.27864319086074829102 0.27919870615005493164 0.28004094958305358887 0.2811158299446105957 0.28270271420478820801 0.28429886698722839355 0.28546556830406188965 0.2859808504581451416 0.28586912155151367188 0.28504639863967895508 0.28333297371864318848 0.2810357213020324707 0.27800276875495910645 0.27472767233848571777 0.27092981338500976562 0.26720085740089416504 0.26327621936798095703 0.25977626442909240723 0.25644388794898986816 0.25372436642646789551 0.25132605433464050293 0.24950483441352844238 0.24790237843990325928 0.24650575220584869385 0.24495108425617218018 0.24322538077831268311 0.24096050858497619629 0.2384090125560760498 0.23548549413681030273 0.2327060699462890625 0.23000228404998779297 0.22785489261150360107 0.226098671555519104 0.22458599507808685303 0.22264817357063293457 0.21997782588005065918 0.21574290096759796143 0.20994496345520019531 0.20208127796649932861 0.19345955550670623779 0.18390572071075439453 0.17492088675498962402 0.16630958020687103271 0.15915785729885101318 0.15247935056686401367 0.14632503688335418701 0.13957667350769042969 0.13229598104953765869 0.1233526766300201416 0.11349326372146606445 0.10221817344427108765 0.090836763381958007812 0.078796602785587310791 0.067456267774105072021 0.056242957711219787598 0.046089556068181991577 0.036170359700918197632 0.027208510786294937134 0.018490094691514968872 0.01061412319540977478 0.010364216752350330353 0.012776001356542110443 0 0 0 0 0 0 0 0 0 0 0 0 0 0 0 0 0 0 0 0 0 0 0 0 0 0 0 0 0 0 0 0 0 0 0 0 0 0 0 0 0 0 0 0 0 0 0 0 0 0 0 0 
0 0 0 0 0 0 0 0 0 0 0 0 0 0 0 0 0 0 0 0 0 0 0 0 0 0 0 0 0 0 0 0 0 0 0 0 0 0 0 0.0011554786469787359238 0.042746093124151229858 0.11186119914054870605 0.17015191912651062012 0.19932059943675994873 0.21912303566932678223 0.23263874650001525879 0.24410329759120941162 0.25226372480392456055 0.26078599691390991211 0.27055618166923522949 0.28282895684242248535 0.29295569658279418945 0.30791425704956054688 0.32925954461097717285 0.36437216401100158691 0.43498975038528442383 0.48940616846084594727 0.46741306781768798828 0.40248191356658935547 0.36708125472068786621 0.3539034426212310791 0.3568439483642578125 0.36768606305122375488 0.37652787566184997559 0.38489988446235656738 0.39262396097183227539 0.39933723211288452148 0.39296457171440124512 0.3689740300178527832 0.35381779074668884277 0.34998556971549987793 0.3577372431755065918 0.3551623225212097168 0.34444713592529296875 0.33844217658042907715 0.33405956625938415527 0.32522702217102050781 0.31558761000633239746 0.31147590279579162598 0.30909112095832824707 0.30669105052947998047 0.30454537272453308105 0.30261892080307006836 0.30105978250503540039 0.30155712366104125977 0.31254422664642333984 0.32235452532768249512 0.32484489679336547852 0.31817016005516052246 0.29965978860855102539 0.27443131804466247559 0.24915394186973571777 0.2491610795259475708 0.25328481197357177734 0.25701886415481567383 0.26009085774421691895 0.26288563013076782227 0.26526340842247009277 0.26754280924797058105 0.26962035894393920898 0.27178549766540527344 0.27392083406448364258 0.2762266695499420166 0.27850067615509033203 0.28099927306175231934 0.28352391719818115234 0.28630748391151428223 0.28903272747993469238 0.29190400242805480957 0.29457193613052368164 0.29718697071075439453 0.29935488104820251465 0.3012440800666809082 0.30265149474143981934 0.30372011661529541016 0.3043244481086730957 0.30453690886497497559 0.30439788103103637695 0.30399921536445617676 0.30347436666488647461 0.30289110541343688965 0.30250251293182373047 0.30242958664894104004 0.30277732014656066895 0.30367368459701538086 0.30509737133979797363 0.30730420351028442383 0.31007623672485351562 0.31363174319267272949 0.31738898158073425293 0.32162746787071228027 0.32566931843757629395 0.32985600829124450684 0.33364546298980712891 0.33762222528457641602 0.3413893282413482666 0.34554997086524963379 0.34968480467796325684 0.35436642169952392578 0.35880646109580993652 0.36327958106994628906 0.36689931154251098633 0.36985853314399719238 0.37152445316314697266 0.37208595871925354004 0.3716208338737487793 0.37028402090072631836 0.36845749616622924805 0.36610263586044311523 0.36371150612831115723 0.36104848980903625488 0.35856384038925170898 0.3559735715389251709 0.35372108221054077148 0.35153800249099731445 0.34973821043968200684 0.34798184037208557129 0.34646081924438476562 0.34487044811248779297 0.34339621663093566895 0.34173503518104553223 0.34004604816436767578 0.33794647455215454102 0.33565542101860046387 0.33268594741821289062 0.32941976189613342285 0.32539251446723937988 0.32139599323272705078 0.3169880211353302002 0.31302654743194580078 0.30907157063484191895 0.30580380558967590332 0.30261915922164916992 0.29987516999244689941 0.29701113700866699219 0.29433625936508178711 0.29135721921920776367 0.28857085108757019043 0.28569516539573669434 0.28327482938766479492 0.28111943602561950684 0.27968049049377441406 0.27879762649536132812 0.27847954630851745605 0.27851304411888122559 0.27874258160591125488 0.27903360128402709961 0.27923110127449035645 0.27955901622772216797 0.28014135360717773438 0.28109502792358398438 0.28240263462066650391 0.2843710780143737793 0.28610172867774963379 0.28738704323768615723 0.28804704546928405762 0.28814944624900817871 0.28766211867332458496 0.28644275665283203125 0.28461921215057373047 0.28204759955406188965 0.2791277766227722168 0.27557510137557983398 0.27188652753829956055 0.26771247386932373047 0.2636934816837310791 0.25956994295120239258 0.25607225298881530762 0.25300702452659606934 0.25072333216667175293 0.24874401092529296875 0.24703696370124816895 0.24514456093311309814 0.24304220080375671387 0.24027533829212188721 0.23715281486511230469 0.23357588052749633789 0.23018282651901245117 0.22689908742904663086 0.2243194580078125 0.2222814708948135376 0.22067268192768096924 0.21877376735210418701 0.21625594794750213623 0.2123267054557800293 0.20696552097797393799 0.19968135654926300049 0.1916577070951461792 0.18272876739501953125 0.17429728806018829346 0.16617545485496520996 0.1593809276819229126 0.15296256542205810547 0.14698749780654907227 0.14039117097854614258 0.13324913382530212402 0.12445980310440063477 0.11473303288221359253 0.10351841896772384644 0.092076249420642852783 0.079871073365211486816 0.068253852427005767822 0.056560266762971878052 0.045823041349649429321 0.035290826112031936646 0.025835843756794929504 0.016816446557641029358 0.0089299231767654418945 0.0033432941418141126633 0.0025383566971868276596 0 0 0 0 0 0 0 0 0 0 0 0 0 0 0 0 0 0 0 0 0 0 0 0 0 0 0 0 0 0 0 0 0 0 0 0 0 0 0 0 0 0 0 0 0 0 0 0 0 0 0 0 
0 0 0 0 0 0 0 0 0 0 0 0 0 0 0 0 0 0 0 0 0 0 0 0 0 0 0 0 0 0 0 0 0 0 0 0 0 0 0 0.0057387766428291797638 0.062509097158908843994 0.12393070012331008911 0.17750585079193115234 0.21050919592380523682 0.22757637500762939453 0.24293808639049530029 0.25602769851684570312 0.26369246840476989746 0.27375242114067077637 0.2851327061653137207 0.29772785305976867676 0.30944594740867614746 0.3258056938648223877 0.34835052490234375 0.38447397947311401367 0.45264458656311035156 0.49595201015472412109 0.46566626429557800293 0.41047364473342895508 0.37374246120452880859 0.35992935299873352051 0.36514115333557128906 0.37548580765724182129 0.38387987017631530762 0.3919639289379119873 0.39908865094184875488 0.40464174747467041016 0.3924083709716796875 0.36783626675605773926 0.35439476370811462402 0.35402351617813110352 0.35948270559310913086 0.35270154476165771484 0.34298461675643920898 0.33949223160743713379 0.33264172077178955078 0.32293301820755004883 0.31426271796226501465 0.31176742911338806152 0.31000593304634094238 0.3081620335578918457 0.30648687481880187988 0.3049564361572265625 0.30378103256225585938 0.30814686417579650879 0.32033273577690124512 0.32615253329277038574 0.32666981220245361328 0.31472316384315490723 0.2963237762451171875 0.27432763576507568359 0.2550913691520690918 0.25644624233245849609 0.26074677705764770508 0.26459893584251403809 0.26770257949829101562 0.27042314410209655762 0.27261567115783691406 0.27458855509757995605 0.27634057402610778809 0.27823475003242492676 0.28018388152122497559 0.28241047263145446777 0.28469589352607727051 0.28721436858177185059 0.2897167205810546875 0.29242160916328430176 0.29503494501113891602 0.29777738451957702637 0.30033636093139648438 0.30291658639907836914 0.30520394444465637207 0.30733123421669006348 0.30895313620567321777 0.31014958024024963379 0.31074681878089904785 0.31079885363578796387 0.31035691499710083008 0.30950435996055603027 0.30853289365768432617 0.30759280920028686523 0.30695965886116027832 0.30668860673904418945 0.30689457058906555176 0.30768567323684692383 0.30905860662460327148 0.31125691533088684082 0.31405845284461975098 0.31768167018890380859 0.32152912020683288574 0.32588651776313781738 0.33006840944290161133 0.3344363868236541748 0.33839571475982666016 0.34250748157501220703 0.34633332490921020508 0.35044679045677185059 0.35438433289527893066 0.35866606235504150391 0.36259725689888000488 0.3664824068546295166 0.36959081888198852539 0.37205666303634643555 0.37331190705299377441 0.3735122978687286377 0.37279769778251647949 0.37128227949142456055 0.36935570836067199707 0.36694410443305969238 0.36453104019165039062 0.36186102032661437988 0.35937064886093139648 0.35675826668739318848 0.35445493459701538086 0.35216769576072692871 0.35022282600402832031 0.34827682375907897949 0.34657707810401916504 0.34481507539749145508 0.34320229291915893555 0.34141048789024353027 0.33961588144302368164 0.33741611242294311523 0.33504474163055419922 0.3320039212703704834 0.32869115471839904785 0.3246377110481262207 0.32063725590705871582 0.31624308228492736816 0.31230899691581726074 0.30839249491691589355 0.30516663193702697754 0.30203893780708312988 0.29936417937278747559 0.29660105705261230469 0.29404535889625549316 0.29119497537612915039 0.28849947452545166016 0.28570950031280517578 0.28337779641151428223 0.28132972121238708496 0.28000018000602722168 0.27924263477325439453 0.27904525399208068848 0.27920857071876525879 0.27955576777458190918 0.27996531128883361816 0.2802416682243347168 0.28045699000358581543 0.28095135092735290527 0.28200471401214599609 0.28372097015380859375 0.28608688712120056152 0.28792783617973327637 0.28935086727142333984 0.29017481207847595215 0.29050225019454956055 0.29029092192649841309 0.28950807452201843262 0.28821805119514465332 0.28617748618125915527 0.28364807367324829102 0.28035718202590942383 0.2767365574836730957 0.2724335789680480957 0.26810809969902038574 0.26347047090530395508 0.25927764177322387695 0.25527474284172058105 0.25211498141288757324 0.24938251078128814697 0.24712023138999938965 0.24471454322338104248 0.24212177097797393799 0.23877479135990142822 0.23503959178924560547 0.23079472780227661133 0.22680027782917022705 0.22297778725624084473 0.220033302903175354 0.21778826415538787842 0.2160930633544921875 0.21421775221824645996 0.21186275780200958252 0.20825706422328948975 0.20334540307521820068 0.19667701423168182373 0.18933975696563720703 0.18112939596176147461 0.17331513762474060059 0.16572558879852294922 0.15930262207984924316 0.15313485264778137207 0.1473226696252822876 0.140851631760597229 0.13381110131740570068 0.12512138485908508301 0.11548846215009689331 0.10440088808536529541 0.09311857074499130249 0.080989271402359008789 0.069253131747245788574 0.057218719273805618286 0.046023510396480560303 0.034987699240446090698 0.025124670937657356262 0.015872610732913017273 0.0080241402611136436462 0.0092637715861201286316 0 0 0 0 0 0 0 0 0 0 0 0 0 0 0 0 0 0 0 0 0 0 0 0 0 0 0 0 0 0 0 0 0 0 0 0 0 0 0 0 0 0 0 0 0 0 0 0 0 0 0 0 0 
0 0 0 0 0 0 0 0 0 0 0 0 0 0 0 0 0 0 0 0 0 0 0 0 0 0 0 0 0 0 0 0 0 0 0 0 0 0 0 0.019874954596161842346 0.076737612485885620117 0.13387443125247955322 0.18307496607303619385 0.22236205637454986572 0.24146547913551330566 0.25706490874290466309 0.27183696627616882324 0.27731925249099731445 0.28802096843719482422 0.3007939457893371582 0.31472867727279663086 0.32705897092819213867 0.34204256534576416016 0.36234670877456665039 0.40507498383522033691 0.46616917848587036133 0.49465388059616088867 0.45669913291931152344 0.40234422683715820312 0.3782653510570526123 0.36732137203216552734 0.37347200512886047363 0.38327562808990478516 0.39097735285758972168 0.39858981966972351074 0.40529274940490722656 0.40861019492149353027 0.39018598198890686035 0.36712464690208435059 0.35487806797027587891 0.35737875103950500488 0.35971602797508239746 0.34978818893432617188 0.34247130155563354492 0.33841875195503234863 0.33047747611999511719 0.32041510939598083496 0.31387871503829956055 0.31234228610992431641 0.31103214621543884277 0.30963540077209472656 0.30839866399765014648 0.30742081999778747559 0.30662694573402404785 0.31563153862953186035 0.32570815086364746094 0.32798406481742858887 0.32425123453140258789 0.31132021546363830566 0.29549780488014221191 0.27676120400428771973 0.26109349727630615234 0.26324164867401123047 0.26770201325416564941 0.27161857485771179199 0.27467399835586547852 0.2772095799446105957 0.27915602922439575195 0.2809435725212097168 0.2825756371021270752 0.28429707884788513184 0.28602054715156555176 0.28796985745429992676 0.29002714157104492188 0.29244464635848999023 0.29500541090965270996 0.29786485433578491211 0.30062660574913024902 0.3034801781177520752 0.30610373616218566895 0.30871626734733581543 0.31100434064865112305 0.31314304471015930176 0.31483387947082519531 0.3161277472972869873 0.31671679019927978516 0.3165232241153717041 0.31570938229560852051 0.3145180046558380127 0.31331083178520202637 0.31214615702629089355 0.31131431460380554199 0.31085285544395446777 0.31089755892753601074 0.31152606010437011719 0.31273719668388366699 0.31474468111991882324 0.31735688447952270508 0.32081994414329528809 0.32460483908653259277 0.32900264859199523926 0.33331900835037231445 0.33792084455490112305 0.34215906262397766113 0.34656783938407897949 0.35060298442840576172 0.35479813814163208008 0.35863149166107177734 0.36258837580680847168 0.36604043841361999512 0.36927944421768188477 0.3717295527458190918 0.37357276678085327148 0.3744354546070098877 0.37441179156303405762 0.37358996272087097168 0.37201637029647827148 0.37007462978363037109 0.36767080426216125488 0.36527079343795776367 0.36260509490966796875 0.36009478569030761719 0.35741642117500305176 0.35500395298004150391 0.3525581657886505127 0.35044777393341064453 0.34832149744033813477 0.34645280241966247559 0.34450712800025939941 0.34273281693458557129 0.34078758955001831055 0.3388754427433013916 0.33658063411712646484 0.33415615558624267578 0.33109724521636962891 0.32780462503433227539 0.32380393147468566895 0.31986984610557556152 0.31555223464965820312 0.31168866157531738281 0.30784848332405090332 0.30469408631324768066 0.30165135860443115234 0.29906317591667175293 0.29638782143592834473 0.29389744997024536133 0.29111436009407043457 0.28849592804908752441 0.28580316901206970215 0.28357046842575073242 0.28163293004035949707 0.28040558099746704102 0.27975347638130187988 0.27964898943901062012 0.27990525960922241211 0.28033205866813659668 0.28081834316253662109 0.28115820884704589844 0.28131479024887084961 0.28154024481773376465 0.28267759084701538086 0.28497946262359619141 0.28755047917366027832 0.28949022293090820312 0.29104322195053100586 0.29201725125312805176 0.29254105687141418457 0.29255318641662597656 0.29205122590065002441 0.29108959436416625977 0.28950524330139160156 0.28739345073699951172 0.2843799591064453125 0.28082907199859619141 0.27639731764793395996 0.27183991670608520508 0.26692062616348266602 0.2624104619026184082 0.25798538327217102051 0.25425037741661071777 0.25063568353652954102 0.24736776947975158691 0.2439317852258682251 0.24053663015365600586 0.23648887872695922852 0.2321624755859375 0.2273791879415512085 0.22298935055732727051 0.21890304982662200928 0.21578232944011688232 0.21337714791297912598 0.21160429716110229492 0.20976470410823822021 0.2075557410717010498 0.20422202348709106445 0.1996787339448928833 0.19349567592144012451 0.18670576810836791992 0.17916411161422729492 0.17197895050048828125 0.1648804396390914917 0.15871740877628326416 0.15262803435325622559 0.14676828682422637939 0.14013659954071044922 0.13297170400619506836 0.12435235083103179932 0.11501392722129821777 0.10435033589601516724 0.093449443578720092773 0.081613227725028991699 0.0699976310133934021 0.057896200567483901978 0.046508211642503738403 0.035222377628087997437 0.02515310235321521759 0.015813510864973068237 0.0080727236345410346985 0.00093321414897218346596 0 0 0 0 0 0 0 0 0 0 0 0 0 0 0 0 0 0 0 0 0 0 0 0 0 0 0 0 0 0 0 0 0 0 0 0 0 0 0 0 0 0 0 0 0 0 0 0 0 0 0 0 0 
0 0 0 0 0 0 0 0 0 0 0 0 0 0 0 0 0 0 0 0 0 0 0 0 0 0 0 0 0 0 0 0 0 0 0 0 0 0 0.0009698944631963968277 0.040185619145631790161 0.092342875897884368896 0.14644925296306610107 0.19662211835384368896 0.23548108339309692383 0.25417670607566833496 0.26907366514205932617 0.28295761346817016602 0.29018917679786682129 0.30362173914909362793 0.31888297200202941895 0.33394867181777954102 0.34734752774238586426 0.36264550685882568359 0.3819160759449005127 0.42727720737457275391 0.48693791031837463379 0.5047524571418762207 0.46726021170616149902 0.40864312648773193359 0.38587048649787902832 0.37656190991401672363 0.38387185335159301758 0.39270541071891784668 0.39974305033683776855 0.40646210312843322754 0.41191121935844421387 0.41029685735702514648 0.38561049103736877441 0.36551877856254577637 0.35461926460266113281 0.36044824123382568359 0.35881355404853820801 0.34797930717468261719 0.34180364012718200684 0.33553615212440490723 0.32689261436462402344 0.31740614771842956543 0.314052581787109375 0.31324544548988342285 0.3123340308666229248 0.31138473749160766602 0.3106384575366973877 0.31026351451873779297 0.31193470954895019531 0.32301405072212219238 0.32897323369979858398 0.32913857698440551758 0.32147097587585449219 0.30920714139938354492 0.29553174972534179688 0.27992084622383117676 0.26743993163108825684 0.2706108391284942627 0.27525287866592407227 0.27893367409706115723 0.28163754940032958984 0.28393614292144775391 0.2858403325080871582 0.28761401772499084473 0.28917047381401062012 0.29073008894920349121 0.2922306060791015625 0.29389783740043640137 0.29566565155982971191 0.29778882861137390137 0.30013328790664672852 0.30291917920112609863 0.30583748221397399902 0.30907738208770751953 0.31219813227653503418 0.31535667181015014648 0.31809917092323303223 0.32050359249114990234 0.3219102323055267334 0.32237970829010009766 0.32213008403778076172 0.32147479057312011719 0.32064461708068847656 0.3196309208869934082 0.31858944892883300781 0.3175157010555267334 0.31656220555305480957 0.31577795743942260742 0.31544631719589233398 0.31563681364059448242 0.31645688414573669434 0.31811794638633728027 0.32049927115440368652 0.32378664612770080566 0.32744541764259338379 0.33178341388702392578 0.33615100383758544922 0.34095931053161621094 0.34556847810745239258 0.35046556591987609863 0.35491007566452026367 0.35937318205833435059 0.36319455504417419434 0.36678767204284667969 0.36963760852813720703 0.37208354473114013672 0.37375977635383605957 0.37484961748123168945 0.37516930699348449707 0.37481161952018737793 0.37393590807914733887 0.37250778079032897949 0.37075626850128173828 0.36842608451843261719 0.36596980690956115723 0.3632125556468963623 0.36061871051788330078 0.35786825418472290039 0.35539567470550537109 0.35285690426826477051 0.35061851143836975098 0.34831598401069641113 0.34626373648643493652 0.34411868453025817871 0.34217840433120727539 0.34008762240409851074 0.33807492256164550781 0.33570683002471923828 0.33324408531188964844 0.3301741480827331543 0.32689639925956726074 0.32294061779975891113 0.31907761096954345703 0.3148612678050994873 0.31110471487045288086 0.30738359689712524414 0.30432528257369995117 0.30135864019393920898 0.29881879687309265137 0.29619103670120239258 0.29375916719436645508 0.29106527566909790039 0.28855159878730773926 0.28598627448081970215 0.2838770747184753418 0.2820682525634765625 0.280948638916015625 0.2803942263126373291 0.28036472201347351074 0.28068676590919494629 0.28116333484649658203 0.28169304132461547852 0.28206685185432434082 0.28224229812622070312 0.28217586874961853027 0.28343942761421203613 0.28628385066986083984 0.28895539045333862305 0.29100471735000610352 0.29270231723785400391 0.29383772611618041992 0.29456114768981933594 0.29478627443313598633 0.29453393816947937012 0.29381060600280761719 0.29247915744781494141 0.29066416621208190918 0.28805363178253173828 0.28470030426979064941 0.28008618950843811035 0.2752946019172668457 0.27008357644081115723 0.26527208089828491211 0.26053124666213989258 0.25650748610496520996 0.25254607200622558594 0.24878340959548950195 0.24445019662380218506 0.23972637951374053955 0.23398879170417785645 0.22825482487678527832 0.22299540042877197266 0.21861949563026428223 0.21442964673042297363 0.21110664308071136475 0.20850805938243865967 0.20660905539989471436 0.20470738410949707031 0.20251841843128204346 0.19930657744407653809 0.19498997926712036133 0.18916594982147216797 0.18281947076320648193 0.17582808434963226318 0.16931173205375671387 0.16301095485687255859 0.15695041418075561523 0.15031407773494720459 0.14393085241317749023 0.13710869848728179932 0.13008521497249603271 0.12187527120113372803 0.11308375000953674316 0.10306151211261749268 0.09276866912841796875 0.081478767096996307373 0.070233926177024841309 0.058322358876466751099 0.046973958611488342285 0.035650108009576797485 0.025538500398397445679 0.01622791774570941925 0.0082086957991123199463 0.00026528068701736629009 0 0 0 0 0 0 0 0 0 0 0 0 0 0 0 0 0 0 0 0 0 0 0 0 0 0 0 0 0 0 0 0 0 0 0 0 0 0 0 0 0 0 0 0 0 0 0 0 0 0 0 0 0 
0 0 0 0 0 0 0 0 0 0 0 0 0 0 0 0 0 0 0 0 0 0 0 0 0 0 0 0 0 0 0 0 0 0 0 0 0 0 0.0054062651470303535461 0.051933221518993377686 0.10763046145439147949 0.1600093543529510498 0.20920088887214660645 0.23993057012557983398 0.257625579833984375 0.27339956164360046387 0.28527739644050598145 0.29787787795066833496 0.3128738701343536377 0.3296254575252532959 0.34668248891830444336 0.36076897382736206055 0.37454026937484741211 0.39684692025184631348 0.44501271843910217285 0.50134521722793579102 0.50173729658126831055 0.45460361242294311523 0.40457445383071899414 0.38730648159980773926 0.38248601555824279785 0.38913521170616149902 0.39647197723388671875 0.4023965299129486084 0.40798902511596679688 0.4120693206787109375 0.40290841460227966309 0.37570711970329284668 0.35938844084739685059 0.35345655679702758789 0.35944107174873352051 0.35374349355697631836 0.3441893458366394043 0.33926633000373840332 0.33130910992622375488 0.32261583209037780762 0.31513163447380065918 0.31377688050270080566 0.31320071220397949219 0.3125235438346862793 0.31187745928764343262 0.31147003173828125 0.31132081151008605957 0.31510931253433227539 0.32621178030967712402 0.33029258251190185547 0.32886818051338195801 0.31904679536819458008 0.30732992291450500488 0.29494306445121765137 0.28109538555145263672 0.27027520537376403809 0.2738818824291229248 0.27853590250015258789 0.2821190953254699707 0.28485760092735290527 0.28716558218002319336 0.28902289271354675293 0.29070603847503662109 0.29212370514869689941 0.29348218441009521484 0.2947578728199005127 0.29618179798126220703 0.29772856831550598145 0.29965379834175109863 0.30185997486114501953 0.30455181002616882324 0.30738723278045654297 0.31052932143211364746 0.31360673904418945312 0.31679713726043701172 0.31959459185600280762 0.32206276059150695801 0.32360631227493286133 0.32434010505676269531 0.32438760995864868164 0.32395628094673156738 0.32316568493843078613 0.32215821743011474609 0.32116603851318359375 0.32013538479804992676 0.31920355558395385742 0.31842473149299621582 0.31808543205261230469 0.31826230883598327637 0.31907835602760314941 0.32075956463813781738 0.32315328717231750488 0.32647469639778137207 0.33021199703216552734 0.33467727899551391602 0.33920469880104064941 0.34425121545791625977 0.34913906455039978027 0.35431805253028869629 0.35894864797592163086 0.36346700787544250488 0.36713784933090209961 0.37034469842910766602 0.37264904379844665527 0.37439820170402526855 0.37540134787559509277 0.37584188580513000488 0.37570080161094665527 0.37503030896186828613 0.37400346994400024414 0.37255638837814331055 0.37089008092880249023 0.36868700385093688965 0.3663444817066192627 0.36368444561958312988 0.36115422844886779785 0.35842612385749816895 0.35593473911285400391 0.35332253575325012207 0.35096859931945800781 0.34850618243217468262 0.34628942608833312988 0.34396794438362121582 0.34187939763069152832 0.33965852856636047363 0.33755609393119812012 0.33512473106384277344 0.33263608813285827637 0.32957538962364196777 0.3263416290283203125 0.32246285676956176758 0.31867820024490356445 0.3145351707935333252 0.31080394983291625977 0.30708041787147521973 0.30401757359504699707 0.30107298493385314941 0.29857409000396728516 0.29600051045417785645 0.29363679885864257812 0.29104331135749816895 0.28864425420761108398 0.28621375560760498047 0.28422957658767700195 0.28254249691963195801 0.28151381015777587891 0.28102743625640869141 0.28103715181350708008 0.28138130903244018555 0.28186538815498352051 0.2823950648307800293 0.28276687860488891602 0.28294458985328674316 0.28298145532608032227 0.28442531824111938477 0.28728848695755004883 0.29004555940628051758 0.2922051548957824707 0.29404848814010620117 0.2953414618968963623 0.29624986648559570312 0.29665920138359069824 0.29660695791244506836 0.2960630953311920166 0.29489603638648986816 0.29316443204879760742 0.29046803712844848633 0.28697642683982849121 0.28230422735214233398 0.2773990333080291748 0.27201116085052490234 0.26699656248092651367 0.26201719045639038086 0.25776219367980957031 0.25356200337409973145 0.24957692623138427734 0.24506206810474395752 0.24034571647644042969 0.23477140069007873535 0.22906216979026794434 0.22304953634738922119 0.21763928234577178955 0.21251703798770904541 0.20844848453998565674 0.20515440404415130615 0.20267225801944732666 0.20023213326930999756 0.19759121537208557129 0.19395658373832702637 0.18927198648452758789 0.18307587504386901855 0.17636628448963165283 0.16898323595523834229 0.16205364465713500977 0.15541644394397735596 0.14979611337184906006 0.14407935738563537598 0.13848012685775756836 0.13221111893653869629 0.12560918927192687988 0.11793179810047149658 0.10976964980363845825 0.10047129541635513306 0.090874098241329193115 0.080239690840244293213 0.069493696093559265137 0.057925626635551452637 0.046761140227317810059 0.035507239401340484619 0.025353776291012763977 0.015893964096903800964 0.0049191089347004890442 0 0 0 0 0 0 0 0 0 0 0 0 0 0 0 0 0 0 0 0 0 0 0 0 0 0 0 0 0 0 0 0 0 0 0 0 0 0 0 0 0 0 0 0 0 0 0 0 0 0 0 0 0 0 
0 0 0 0 0 0 0 0 0 0 0 0 0 0 0 0 0 0 0 0 0 0 0 0 0 0 0 0 0 0 0 0 0 0 0 0 0 0 0.011321492493152618408 0.066302433609962463379 0.12459061294794082642 0.17036476731300354004 0.20614230632781982422 0.23189121484756469727 0.25406861305236816406 0.27304372191429138184 0.28388145565986633301 0.29700580239295959473 0.31113073229789733887 0.3309058845043182373 0.34301578998565673828 0.35177183151245117188 0.37041270732879638672 0.3987045586109161377 0.45472902059555053711 0.50560837984085083008 0.4939397275447845459 0.42764362692832946777 0.38632851839065551758 0.37580928206443786621 0.37240305542945861816 0.38033628463745117188 0.38814693689346313477 0.39448258280754089355 0.40042600035667419434 0.4034264981746673584 0.38516622781753540039 0.36120590567588806152 0.3511486351490020752 0.35423600673675537109 0.35472464561462402344 0.34500208497047424316 0.3369643092155456543 0.33249503374099731445 0.32425186038017272949 0.31595367193222045898 0.31162631511688232422 0.31087499856948852539 0.31042870879173278809 0.31021857261657714844 0.31018412113189697266 0.31041258573532104492 0.31093576550483703613 0.31711208820343017578 0.32611194252967834473 0.32964864373207092285 0.32526788115501403809 0.31495249271392822266 0.30294474959373474121 0.29052659869194030762 0.27695316076278686523 0.26638501882553100586 0.26931163668632507324 0.27390089631080627441 0.27812156081199645996 0.28160884976387023926 0.28469419479370117188 0.28712436556816101074 0.28916180133819580078 0.29071661829948425293 0.29205334186553955078 0.29319483041763305664 0.2943935394287109375 0.29564335942268371582 0.29717710614204406738 0.29892051219940185547 0.30102005600929260254 0.30322003364562988281 0.30566364526748657227 0.30804416537284851074 0.31053885817527770996 0.31283295154571533203 0.31508600711822509766 0.31698435544967651367 0.31863293051719665527 0.31976541876792907715 0.32044565677642822266 0.32063961029052734375 0.32045218348503112793 0.31999552249908447266 0.31939199566841125488 0.3188476860523223877 0.31850400567054748535 0.31854498386383056641 0.31913647055625915527 0.3203360140323638916 0.3224156796932220459 0.32520815730094909668 0.32897242903709411621 0.33313900232315063477 0.33807000517845153809 0.34305232763290405273 0.34855765104293823242 0.35376301407814025879 0.35913205146789550781 0.36380758881568908691 0.36818510293960571289 0.37151628732681274414 0.37411284446716308594 0.37569865584373474121 0.37663376331329345703 0.37690490484237670898 0.37668001651763916016 0.37609124183654785156 0.37513002753257751465 0.37393277883529663086 0.37233486771583557129 0.37060126662254333496 0.3685474395751953125 0.36650121212005615234 0.36418527364730834961 0.36193132400512695312 0.35940873622894287109 0.35697847604751586914 0.35430288314819335938 0.35180270671844482422 0.34913435578346252441 0.34671226143836975098 0.34417483210563659668 0.3419074714183807373 0.33952954411506652832 0.33731874823570251465 0.33481103181838989258 0.33228978514671325684 0.32923242449760437012 0.32603111863136291504 0.32220569252967834473 0.31847357749938964844 0.31437677145004272461 0.3106924891471862793 0.30699610710144042969 0.30391353368759155273 0.30089786648750305176 0.29834151268005371094 0.29578301310539245605 0.29349875450134277344 0.2910308837890625 0.28877088427543640137 0.28649833798408508301 0.28465387225151062012 0.28309264779090881348 0.28214433789253234863 0.2816981971263885498 0.2817096412181854248 0.2820282280445098877 0.28247305750846862793 0.28295528888702392578 0.28328737616539001465 0.28349196910858154297 0.28399208188056945801 0.28550606966018676758 0.28807899355888366699 0.29093217849731445312 0.29322710633277893066 0.29524892568588256836 0.29673063755035400391 0.29785177111625671387 0.29846107959747314453 0.29861015081405639648 0.29821193218231201172 0.2970536351203918457 0.29515573382377624512 0.29222899675369262695 0.28859552741050720215 0.28388831019401550293 0.27889358997344970703 0.2733631432056427002 0.26822924613952636719 0.26316839456558227539 0.25890019536018371582 0.25481137633323669434 0.25114193558692932129 0.24716299772262573242 0.24290934205055236816 0.23752336204051971436 0.23158960044384002686 0.22484508156776428223 0.21842379868030548096 0.21211160719394683838 0.20698423683643341064 0.20271351933479309082 0.19937326014041900635 0.19607804715633392334 0.19267195463180541992 0.18828907608985900879 0.18294829130172729492 0.17611801624298095703 0.16884300112724304199 0.16089250147342681885 0.15344390273094177246 0.14626595377922058105 0.14023029804229736328 0.13453160226345062256 0.12934070825576782227 0.1238489300012588501 0.11819402128458023071 0.1114876866340637207 0.10419211536645889282 0.095756702125072479248 0.086964853107929229736 0.077091835439205169678 0.06693563610315322876 0.055787410587072372437 0.044850237667560577393 0.033689446747303009033 0.02356525324285030365 0.013879287056624889374 0.0019829035736620426178 0 0 0 0 0 0 0 0 0 0 0 0 0 0 0 0 0 0 0 0 0 0 0 0 0 0 0 0 0 0 0 0 0 0 0 0 0 0 0 0 0 0 0 0 0 0 0 0 0 0 0 0 0 0 
0 0 0 0 0 0 0 0 0 0 0 0 0 0 0 0 0 0 0 0 0 0 0 0 0 0 0 0 0 0 0 0 0 0 0 0 0 0.00047970708692446351051 0.026707429438829421997 0.085512034595012664795 0.13616588711738586426 0.17653498053550720215 0.20505304634571075439 0.22974400222301483154 0.25270149111747741699 0.26954370737075805664 0.27876937389373779297 0.28616353869438171387 0.2964503169059753418 0.32165566086769104004 0.33641865849494934082 0.34436690807342529297 0.36499959230422973633 0.40319219231605529785 0.46057564020156860352 0.5025691986083984375 0.47729453444480895996 0.40953400731086730957 0.37642973661422729492 0.36368355154991149902 0.36233767867088317871 0.37122860550880432129 0.3795554041862487793 0.38678777217864990234 0.39341816306114196777 0.39297389984130859375 0.36773374676704406738 0.34983372688293457031 0.34687015414237976074 0.35298261046409606934 0.34810733795166015625 0.33775722980499267578 0.33143377304077148438 0.32555446028709411621 0.3173878788948059082 0.31029120087623596191 0.30821731686592102051 0.30779242515563964844 0.30753493309020996094 0.30749157071113586426 0.30774211883544921875 0.30840694904327392578 0.31012079119682312012 0.31783920526504516602 0.32397410273551940918 0.32647857069969177246 0.3207206428050994873 0.30932387709617614746 0.29695141315460205078 0.2847614288330078125 0.27186033129692077637 0.26199874281883239746 0.26489314436912536621 0.26940524578094482422 0.27364760637283325195 0.2772484123706817627 0.28053650259971618652 0.28323817253112792969 0.28559553623199462891 0.28738987445831298828 0.28882196545600891113 0.28987470269203186035 0.29081141948699951172 0.29172316193580627441 0.29288679361343383789 0.29432177543640136719 0.29616954922676086426 0.29819270968437194824 0.30051466822624206543 0.30282288789749145508 0.30524474382400512695 0.30745136737823486328 0.30960702896118164062 0.31144401431083679199 0.3131129145622253418 0.3143933713436126709 0.31539905071258544922 0.31606715917587280273 0.31656321883201599121 0.31691372394561767578 0.31724306941032409668 0.31758838891983032227 0.31807661056518554688 0.31876519322395324707 0.31987488269805908203 0.32144373655319213867 0.32384887337684631348 0.32692509889602661133 0.33099719882011413574 0.33548092842102050781 0.34078907966613769531 0.34614419937133789062 0.35205549001693725586 0.35760962963104248047 0.36326289176940917969 0.36807557940483093262 0.37242540717124938965 0.37553367018699645996 0.3776690065860748291 0.37865349650382995605 0.37884369492530822754 0.37841385602951049805 0.37752804160118103027 0.37646690011024475098 0.37515920400619506836 0.37378475069999694824 0.37214943766593933105 0.37047871947288513184 0.36854600906372070312 0.36662808060646057129 0.36444991827011108398 0.36231940984725952148 0.3599223792552947998 0.35759982466697692871 0.35500243306159973145 0.35251384973526000977 0.34977456927299499512 0.34721744060516357422 0.34449842572212219238 0.34206911921501159668 0.3395417630672454834 0.3372192680835723877 0.33462023735046386719 0.33204227685928344727 0.32895544171333312988 0.32575815916061401367 0.32196515798568725586 0.31828010082244873047 0.31424790620803833008 0.31063020229339599609 0.30698996782302856445 0.30393949151039123535 0.30094388127326965332 0.29837632179260253906 0.29575505852699279785 0.29342621564865112305 0.29102292656898498535 0.28889825940132141113 0.28677979111671447754 0.28506442904472351074 0.28360852599143981934 0.28271150588989257812 0.28226417303085327148 0.28223219513893127441 0.28247407078742980957 0.282833099365234375 0.28322333097457885742 0.28348746895790100098 0.28385525941848754883 0.28467038273811340332 0.28621909022331237793 0.28852248191833496094 0.29143542051315307617 0.29387828707695007324 0.29609438776969909668 0.29777860641479492188 0.29912230372428894043 0.29993027448654174805 0.30020818114280700684 0.29978859424591064453 0.29854243993759155273 0.29658305644989013672 0.29360032081604003906 0.28990882635116577148 0.28517273068428039551 0.28022074699401855469 0.2747605741024017334 0.26970651745796203613 0.26481658220291137695 0.26085302233695983887 0.25714984536170959473 0.25373145937919616699 0.24978947639465332031 0.24538877606391906738 0.23968927562236785889 0.2333310544490814209 0.22602193057537078857 0.21896657347679138184 0.21188749372959136963 0.20594286918640136719 0.20077268779277801514 0.19663020968437194824 0.19255931675434112549 0.1884527355432510376 0.18338133394718170166 0.17744190990924835205 0.17004470527172088623 0.16227820515632629395 0.15385560691356658936 0.14598916471004486084 0.13839645683765411377 0.13199600577354431152 0.12601853907108306885 0.12069146335124969482 0.11523211747407913208 0.10982582718133926392 0.10370714962482452393 0.097230590879917144775 0.089721657335758209229 0.081717461347579956055 0.072528637945652008057 0.062941871583461761475 0.052279174327850341797 0.041725851595401763916 0.030903210863471031189 0.021060399711132049561 0.010772777721285820007 0 0 0 0 0 0 0 0 0 0 0 0 0 0 0 0 0 0 0 0 0 0 0 0 0 0 0 0 0 0 0 0 0 0 0 0 0 0 0 0 0 0 0 0 0 0 0 0 0 0 0 0 0 0 0 
0 0 0 0 0 0 0 0 0 0 0 0 0 0 0 0 0 0 0 0 0 0 0 0 0 0 0 0 0 0 0 0 0 0 0 0 0 0.0020406316034495830536 0.041718855500221252441 0.095864638686180114746 0.1398932039737701416 0.17741253972053527832 0.20508986711502075195 0.22844591736793518066 0.24763059616088867188 0.26031535863876342773 0.26776909828186035156 0.27463367581367492676 0.28715032339096069336 0.31712561845779418945 0.33256009221076965332 0.34250074625015258789 0.36627826094627380371 0.41169050335884094238 0.46137025952339172363 0.48416492342948913574 0.45046383142471313477 0.39713642001152038574 0.36618545651435852051 0.35218802094459533691 0.35445946455001831055 0.36411228775978088379 0.37341600656509399414 0.38140773773193359375 0.38773038983345031738 0.37912967801094055176 0.35275763273239135742 0.34131765365600585938 0.34466409683227539062 0.34850001335144042969 0.33977970480918884277 0.32989901304244995117 0.32464778423309326172 0.31837999820709228516 0.31031125783920288086 0.30487042665481567383 0.30446279048919677734 0.30448982119560241699 0.3045895993709564209 0.30475157499313354492 0.30500227212905883789 0.30536940693855285645 0.30750378966331481934 0.31523331999778747559 0.31980881094932556152 0.3226400911808013916 0.31546607613563537598 0.30286821722984313965 0.29041892290115356445 0.27869272232055664062 0.26658716797828674316 0.25747609138488769531 0.26035812497138977051 0.26476848125457763672 0.26895430684089660645 0.27253517508506774902 0.27581122517585754395 0.27848654985427856445 0.28080397844314575195 0.28256812691688537598 0.28400191664695739746 0.28509676456451416016 0.28610616922378540039 0.28707489371299743652 0.28824412822723388672 0.28963896632194519043 0.29142102599143981934 0.29335886240005493164 0.29554879665374755859 0.29770126938819885254 0.29996815323829650879 0.30207079648971557617 0.3041852116584777832 0.30605745315551757812 0.30784517526626586914 0.30932101607322692871 0.31062185764312744141 0.31164720654487609863 0.31258940696716308594 0.31341782212257385254 0.31430265307426452637 0.31521651148796081543 0.31636077165603637695 0.31772479414939880371 0.31959965825080871582 0.32189378142356872559 0.32500442862510681152 0.3286622166633605957 0.33325862884521484375 0.33813694119453430176 0.34376895427703857422 0.34937000274658203125 0.35551679134368896484 0.36127951741218566895 0.36711814999580383301 0.37203285098075866699 0.3763650357723236084 0.3792928159236907959 0.38104012608528137207 0.38152587413787841797 0.38111415505409240723 0.38011199235916137695 0.37864729762077331543 0.37713786959648132324 0.37549942731857299805 0.37394836544990539551 0.37224289774894714355 0.37059140205383300781 0.36871889233589172363 0.36685648560523986816 0.3647219538688659668 0.36261537671089172363 0.3602263033390045166 0.35789546370506286621 0.3552748560905456543 0.35275870561599731445 0.34999382495880126953 0.34741309285163879395 0.34464609622955322266 0.34213006496429443359 0.33948510885238647461 0.33706212043762207031 0.33438101410865783691 0.33175447583198547363 0.32864683866500854492 0.32546064257621765137 0.32170784473419189453 0.31807854771614074707 0.31412342190742492676 0.3105792999267578125 0.30700737237930297852 0.30400666594505310059 0.30105572938919067383 0.29852795600891113281 0.29595336318016052246 0.29364693164825439453 0.29121041297912597656 0.28908574581146240234 0.28708022832870483398 0.28549379110336303711 0.28413105010986328125 0.28325662016868591309 0.28275847434997558594 0.28262445330619812012 0.28272029757499694824 0.28292915225028991699 0.28316602110862731934 0.28337347507476806641 0.28392100334167480469 0.28488546609878540039 0.28647845983505249023 0.2886358797550201416 0.29157713055610656738 0.29420900344848632812 0.29667258262634277344 0.29861295223236083984 0.30022266507148742676 0.30118224024772644043 0.30150055885314941406 0.30110526084899902344 0.29988759756088256836 0.29794508218765258789 0.2950083613395690918 0.29143801331520080566 0.28687754273414611816 0.28208151459693908691 0.27681195735931396484 0.27202489972114562988 0.26743587851524353027 0.26365125179290771484 0.2599887549877166748 0.2564925849437713623 0.25236612558364868164 0.2477054595947265625 0.2416461259126663208 0.23486961424350738525 0.22703880071640014648 0.21941317617893218994 0.21165105700492858887 0.20497795939445495605 0.19895774126052856445 0.19395239651203155518 0.18898953497409820557 0.18410545587539672852 0.17828710377216339111 0.17171214520931243896 0.16373245418071746826 0.15547785162925720215 0.14659839868545532227 0.13833282887935638428 0.13034680485725402832 0.12359540164470672607 0.11731956899166107178 0.11179884523153305054 0.1062585785984992981 0.10091619938611984253 0.095038145780563354492 0.088953293859958648682 0.082021147012710571289 0.074722185730934143066 0.066326484084129333496 0.057374764233827590942 0.047240894287824630737 0.037131853401660919189 0.026728808879852294922 0.017263745889067649841 0.0049462397582828998566 0 0 0 0 0 0 0 0 0 0 0 0 0 0 0 0 0 0 0 0 0 0 0 0 0 0 0 0 0 0 0 0 0 0 0 0 0 0 0 0 0 0 0 0 0 0 0 0 0 0 0 0 0 0 0 
0 0 0 0 0 0 0 0 0 0 0 0 0 0 0 0 0 0 0 0 0 0 0 0 0 0 0 0 0 0 0 0 0 0 0 0 0 0.0069557330571115016937 0.053233649581670761108 0.10446303337812423706 0.14715442061424255371 0.17951275408267974854 0.20509672164916992188 0.22481000423431396484 0.2413463592529296875 0.25211441516876220703 0.25897383689880371094 0.26704454421997070312 0.28294977545738220215 0.30795332789421081543 0.32535842061042785645 0.34129962325096130371 0.36445140838623046875 0.41680356860160827637 0.45852905511856079102 0.45558324456214904785 0.41949936747550964355 0.38153252005577087402 0.35456526279449462891 0.34415540099143981934 0.34921705722808837891 0.35954269766807556152 0.36930432915687561035 0.37740999460220336914 0.38203993439674377441 0.36403155326843261719 0.3419990837574005127 0.33656281232833862305 0.34266421198844909668 0.34176930785179138184 0.33172786235809326172 0.32251131534576416016 0.31886395812034606934 0.31176468729972839355 0.30374765396118164062 0.30031165480613708496 0.30088666081428527832 0.30120542645454406738 0.30134016275405883789 0.30141693353652954102 0.30152207612991333008 0.30150899291038513184 0.30406436324119567871 0.3119583427906036377 0.31618127226829528809 0.31828588247299194336 0.3086096644401550293 0.2958990633487701416 0.2839368283748626709 0.2729282081127166748 0.26171481609344482422 0.25336557626724243164 0.25623521208763122559 0.26049396395683288574 0.26450616121292114258 0.26791611313819885254 0.27103483676910400391 0.27360376715660095215 0.27586668729782104492 0.27763441205024719238 0.27912694215774536133 0.28032270073890686035 0.28147396445274353027 0.28260192275047302246 0.28393229842185974121 0.28541737794876098633 0.2871869504451751709 0.28902634978294372559 0.29108592867851257324 0.29313817620277404785 0.29534047842025756836 0.29742616415023803711 0.29957279562950134277 0.30152672529220581055 0.30345773696899414062 0.30512851476669311523 0.30669936537742614746 0.30803480744361877441 0.30934810638427734375 0.31055569648742675781 0.31185346841812133789 0.31315883994102478027 0.31472295522689819336 0.31650221347808837891 0.31885138154029846191 0.32164028286933898926 0.32534226775169372559 0.32960683107376098633 0.33484861254692077637 0.34028798341751098633 0.34642839431762695312 0.35239976644515991211 0.35880061984062194824 0.36465424299240112305 0.37045383453369140625 0.3752472996711730957 0.37939462065696716309 0.38210031390190124512 0.38356065750122070312 0.38373526930809020996 0.38294827938079833984 0.38157236576080322266 0.37974259257316589355 0.37797233462333679199 0.37614917755126953125 0.37449166178703308105 0.37271210551261901855 0.37100690603256225586 0.36908078193664550781 0.36716765165328979492 0.36497917771339416504 0.36281856894493103027 0.36036208271980285645 0.35796341300010681152 0.35527074337005615234 0.35269361734390258789 0.3498744964599609375 0.34725865721702575684 0.34447652101516723633 0.34197053313255310059 0.33933854103088378906 0.33690056204795837402 0.33417689800262451172 0.33151644468307495117 0.3283945918083190918 0.32521700859069824219 0.32149475812911987305 0.31790947914123535156 0.31401619315147399902 0.31053265929222106934 0.30702367424964904785 0.30407696962356567383 0.3011837005615234375 0.29871329665184020996 0.29620942473411560059 0.29398006200790405273 0.29163187742233276367 0.28952765464782714844 0.28745695948600769043 0.28586408495903015137 0.28454896807670593262 0.28366294503211975098 0.2830708920955657959 0.28279152512550354004 0.28269490599632263184 0.2827135622501373291 0.28276553750038146973 0.28293791413307189941 0.28354853391647338867 0.28456884622573852539 0.2862059473991394043 0.28834685683250427246 0.2913233339786529541 0.29415684938430786133 0.29688462615013122559 0.29908519983291625977 0.30088451504707336426 0.30195829272270202637 0.30240151286125183105 0.30211335420608520508 0.30102458596229553223 0.29929322004318237305 0.29663518071174621582 0.29327598214149475098 0.28889510035514831543 0.2843151092529296875 0.27929660677909851074 0.27465680241584777832 0.27010926604270935059 0.26628717780113220215 0.2625217139720916748 0.25887662172317504883 0.25454223155975341797 0.2496388554573059082 0.2432737499475479126 0.23615735769271850586 0.22790707647800445557 0.21981860697269439697 0.21149024367332458496 0.20419715344905853271 0.19743674993515014648 0.19166749715805053711 0.18587079644203186035 0.18021468818187713623 0.17367759346961975098 0.16651713848114013672 0.15802115201950073242 0.14935031533241271973 0.14009377360343933105 0.13150469958782196045 0.12319770455360412598 0.11614782363176345825 0.10958917438983917236 0.10385467857122421265 0.098173096776008605957 0.092791996896266937256 0.086992114782333374023 0.081088714301586151123 0.07443167269229888916 0.067447878420352935791 0.059418313205242156982 0.050896324217319488525 0.041249990463256835938 0.031572483479976654053 0.021587524563074111938 0.01250281650573015213 0.0011366324033588171005 0 0 0 0 0 0 0 0 0 0 0 0 0 0 0 0 0 0 0 0 0 0 0 0 0 0 0 0 0 0 0 0 0 0 0 0 0 0 0 0 0 0 0 0 0 0 0 0 0 0 0 0 0 0 0 
0 0 0 0 0 0 0 0 0 0 0 0 0 0 0 0 0 0 0 0 0 0 0 0 0 0 0 0 0 0 0 0 0 0 0 0 0 0.018738141283392906189 0.068373218178749084473 0.11532393842935562134 0.15133552253246307373 0.18035742640495300293 0.20406191051006317139 0.2233861386775970459 0.23658676445484161377 0.24601691961288452148 0.25314217805862426758 0.26162493228912353516 0.28234532475471496582 0.30497419834136962891 0.32068932056427001953 0.3372504115104675293 0.36275893449783325195 0.42013001441955566406 0.45807322859764099121 0.44084447622299194336 0.3872756659984588623 0.36372548341751098633 0.34373152256011962891 0.33730855584144592285 0.3449262082576751709 0.35572522878646850586 0.36556017398834228516 0.37331458926200866699 0.37133562564849853516 0.34745365381240844727 0.33329010009765625 0.33376669883728027344 0.33848893642425537109 0.3337389826774597168 0.32323801517486572266 0.31627830862998962402 0.31217473745346069336 0.30433928966522216797 0.29708430171012878418 0.29607164859771728516 0.2966817319393157959 0.29691156744956970215 0.29698696732521057129 0.29706090688705444336 0.2972418367862701416 0.29755437374114990234 0.30213326215744018555 0.30901685357093811035 0.31258243322372436523 0.30900037288665771484 0.29787585139274597168 0.28704407811164855957 0.27631089091300964355 0.2663854062557220459 0.25630724430084228516 0.24886110424995422363 0.25168469548225402832 0.25572058558464050293 0.25950458645820617676 0.26272612810134887695 0.26569306850433349609 0.26817023754119873047 0.27040332555770874023 0.27221530675888061523 0.27382749319076538086 0.27518573403358459473 0.27651500701904296875 0.27777698636054992676 0.27919730544090270996 0.28073289990425109863 0.28254207968711853027 0.28441393375396728516 0.28648582100868225098 0.28851675987243652344 0.2906939387321472168 0.29278898239135742188 0.29499447345733642578 0.2970549464225769043 0.29915571212768554688 0.30104660987854003906 0.30291280150413513184 0.30457895994186401367 0.30627560615539550781 0.3078626096248626709 0.3095722496509552002 0.31127050518989562988 0.31325027346611022949 0.31542614102363586426 0.31820729374885559082 0.32142239809036254883 0.3256047666072845459 0.33035364747047424316 0.33613562583923339844 0.34209090471267700195 0.34874963760375976562 0.35512557625770568848 0.36181458830833435059 0.36780369281768798828 0.37361633777618408203 0.37828543782234191895 0.38216149806976318359 0.38454622030258178711 0.38566154241561889648 0.3855343163013458252 0.38446167111396789551 0.38286796212196350098 0.38085591793060302734 0.37895375490188598633 0.37702128291130065918 0.37528562545776367188 0.37343946099281311035 0.37167254090309143066 0.3696594536304473877 0.36763423681259155273 0.3653011322021484375 0.36300301551818847656 0.36041498184204101562 0.35791125893592834473 0.35512310266494750977 0.35247510671615600586 0.34959942102432250977 0.3469498753547668457 0.34415221214294433594 0.34165149927139282227 0.33904749155044555664 0.3366565406322479248 0.33398613333702087402 0.33134451508522033691 0.32821622490882873535 0.32503718137741088867 0.32132875919342041016 0.31776994466781616211 0.31391865015029907227 0.31048175692558288574 0.30702981352806091309 0.30414155125617980957 0.30131930112838745117 0.29892408847808837891 0.29651337862014770508 0.2943827211856842041 0.29215127229690551758 0.29014739394187927246 0.28811287879943847656 0.28640225529670715332 0.28491672873497009277 0.2839418947696685791 0.2832120358943939209 0.2827409207820892334 0.28239956498146057129 0.28218126296997070312 0.28201782703399658203 0.28212437033653259277 0.28271779417991638184 0.28375455737113952637 0.28544256091117858887 0.28763982653617858887 0.29070031642913818359 0.29375767707824707031 0.29676762223243713379 0.29917475581169128418 0.30116075277328491211 0.30242767930030822754 0.30308485031127929688 0.30308371782302856445 0.30242192745208740234 0.30105915665626525879 0.2986965477466583252 0.29559016227722167969 0.29148507118225097656 0.28709545731544494629 0.28216576576232910156 0.27752387523651123047 0.27290794253349304199 0.26897922158241271973 0.2650648653507232666 0.26124674081802368164 0.25669473409652709961 0.25155150890350341797 0.24489387869834899902 0.23745632171630859375 0.2288074791431427002 0.22027207911014556885 0.21138498187065124512 0.20346605777740478516 0.19594435393810272217 0.18938378989696502686 0.18272669613361358643 0.1762660294771194458 0.16895465552806854248 0.16118586063385009766 0.15218056738376617432 0.14311242103576660156 0.13350144028663635254 0.12460411339998245239 0.1159755513072013855 0.10860516875982284546 0.10171359032392501831 0.095690511167049407959 0.089766643941402435303 0.08423528820276260376 0.078387081623077392578 0.072540156543254852295 0.066034309566020965576 0.05926589667797088623 0.051511358469724655151 0.043267644941806793213 0.033902358263731002808 0.024547355249524116516 0.015003958716988563538 0.0052362498827278614044 0 0 0 0 0 0 0 0 0 0 0 0 0 0 0 0 0 0 0 0 0 0 0 0 0 0 0 0 0 0 0 0 0 0 0 0 0 0 0 0 0 0 0 0 0 0 0 0 0 0 0 0 0 0 0 0 
0 0 0 0 0 0 0 0 0 0 0 0 0 0 0 0 0 0 0 0 0 0 0 0 0 0 0 0 0 0 0 0 0 0 0 0 0.006651585455983877182 0.035856768488883972168 0.080504208803176879883 0.1212323307991027832 0.15608125925064086914 0.18404546380043029785 0.20790490508079528809 0.22495163977146148682 0.23813165724277496338 0.24388611316680908203 0.24895919859409332275 0.26010936498641967773 0.27899336814880371094 0.29835802316665649414 0.31733724474906921387 0.33463740348815917969 0.36896932125091552734 0.42745012044906616211 0.45100867748260498047 0.42943528294563293457 0.37240692973136901855 0.35300019383430480957 0.33464595675468444824 0.33276119828224182129 0.34200188517570495605 0.35270810127258300781 0.36242434382438659668 0.36907708644866943359 0.35610428452491760254 0.33495172858238220215 0.32700178027153015137 0.33089733123779296875 0.33384147286415100098 0.32593506574630737305 0.31550440192222595215 0.31089842319488525391 0.3054707646369934082 0.29734811186790466309 0.29226863384246826172 0.29211959242820739746 0.29228511452674865723 0.29231351613998413086 0.2923132479190826416 0.29245606064796447754 0.29292747378349304199 0.2943477332592010498 0.30119803547859191895 0.30565953254699707031 0.30401715636253356934 0.2963409423828125 0.2870979607105255127 0.2779490053653717041 0.26859322190284729004 0.25983947515487670898 0.25092944502830505371 0.24440678954124450684 0.24721261858940124512 0.25108620524406433105 0.25470793247222900391 0.2577820122241973877 0.26062470674514770508 0.2630322873592376709 0.26525744795799255371 0.26713460683822631836 0.26887184381484985352 0.27036488056182861328 0.27183398604393005371 0.2732276618480682373 0.27476856112480163574 0.27638265490531921387 0.27823975682258605957 0.28014111518859863281 0.28224748373031616211 0.28432774543762207031 0.28656420111656188965 0.28871208429336547852 0.29098820686340332031 0.29315704107284545898 0.29542443156242370605 0.29752671718597412109 0.29966896772384643555 0.30163425207138061523 0.30367815494537353516 0.30561929941177368164 0.30771967768669128418 0.30979225039482116699 0.31216722726821899414 0.31471526622772216797 0.31789103150367736816 0.32148003578186035156 0.32606270909309387207 0.33119031786918640137 0.33736115694046020508 0.34365120530128479004 0.350612640380859375 0.35720542073249816895 0.36403298377990722656 0.37004691362380981445 0.37577998638153076172 0.3803106844425201416 0.38402161002159118652 0.38623908162117004395 0.38714054226875305176 0.38679409027099609375 0.38552135229110717773 0.38379833102226257324 0.38170301914215087891 0.37976336479187011719 0.37781381607055664062 0.37606054544448852539 0.3741741478443145752 0.3723469078540802002 0.3702456355094909668 0.36811298131942749023 0.36564263701438903809 0.36320501565933227539 0.36046606302261352539 0.35783931612968444824 0.35495451092720031738 0.3522485196590423584 0.34933292865753173828 0.34666374325752258301 0.34386169910430908203 0.34137070178985595703 0.3387908935546875 0.33643421530723571777 0.33381366729736328125 0.33123075962066650391 0.32815477252006530762 0.32498577237129211426 0.32126533985137939453 0.31770160794258117676 0.31385657191276550293 0.31043726205825805664 0.30701997876167297363 0.3041795194149017334 0.30142492055892944336 0.29910585284233093262 0.29678994417190551758 0.29475706815719604492 0.29263651371002197266 0.29072669148445129395 0.28875938057899475098 0.28704228997230529785 0.2853679955005645752 0.28409394621849060059 0.28313368558883666992 0.28246825933456420898 0.28188666701316833496 0.28143921494483947754 0.28107440471649169922 0.28108158707618713379 0.28161519765853881836 0.28264692425727844238 0.28438678383827209473 0.28667432069778442383 0.2898597419261932373 0.29310873150825500488 0.29629892110824584961 0.29886090755462646484 0.3010514676570892334 0.30256173014640808105 0.30365425348281860352 0.30413535237312316895 0.30389082431793212891 0.30284669995307922363 0.30081257224082946777 0.29797780513763427734 0.29404884576797485352 0.28972703218460083008 0.28479188680648803711 0.28009292483329772949 0.27537956833839416504 0.27133738994598388672 0.26728361845016479492 0.26331359148025512695 0.25857612490653991699 0.25323048233985900879 0.24632567167282104492 0.23861475288867950439 0.22962325811386108398 0.22069989144802093506 0.2113234400749206543 0.2028522789478302002 0.19465599954128265381 0.18739524483680725098 0.17998290061950683594 0.17282660305500030518 0.16485287249088287354 0.15655988454818725586 0.14713738858699798584 0.13775599002838134766 0.12786248326301574707 0.11870366334915161133 0.10977302491664886475 0.10206934064626693726 0.094801492989063262939 0.088422626256942749023 0.082165531814098358154 0.0763815268874168396 0.070369631052017211914 0.064470089972019195557 0.058011189103126525879 0.051375474780797958374 0.043841436505317687988 0.03587652742862701416 0.026851885020732879639 0.017816139385104179382 0.0085309855639934539795 0.0012277844361960887909 0 0 0 0 0 0 0 0 0 0 0 0 0 0 0 0 0 0 0 0 0 0 0 0 0 0 0 0 0 0 0 0 0 0 0 0 0 0 0 0 0 0 0 0 0 0 0 0 0 0 0 0 0 0 0 0 
0 0 0 0 0 0 0 0 0 0 0 0 0 0 0 0 0 0 0 0 0 0 0 0 0 0 0 0 0 0 0 0 0 0 0 0 0.0068164570257067680359 0.046249613165855407715 0.08736219257116317749 0.12345284968614578247 0.15991899371147155762 0.18676874041557312012 0.20621548593044281006 0.21823604404926300049 0.23216100037097930908 0.23867224156856536865 0.24478164315223693848 0.25624668598175048828 0.27086949348449707031 0.29039403796195983887 0.31328624486923217773 0.33267822861671447754 0.37533906102180480957 0.4322859644889831543 0.44048076868057250977 0.39585977792739868164 0.35054877400398254395 0.33835193514823913574 0.32640287280082702637 0.32896080613136291504 0.33937156200408935547 0.35006326436996459961 0.35956779122352600098 0.36080208420753479004 0.33948424458503723145 0.32547426223754882812 0.32198864221572875977 0.32822719216346740723 0.32834270596504211426 0.31758221983909606934 0.30838847160339355469 0.3051948249340057373 0.29790231585502624512 0.29009911417961120605 0.28744593262672424316 0.28720855712890625 0.28697216510772705078 0.28680852055549621582 0.28678238391876220703 0.28702396154403686523 0.28787350654602050781 0.29277119040489196777 0.29776239395141601562 0.29556742310523986816 0.28999289870262145996 0.28311067819595336914 0.27531829476356506348 0.26764091849327087402 0.25974416732788085938 0.25234147906303405762 0.24483765661716461182 0.23945334553718566895 0.24226696789264678955 0.24597381055355072021 0.24944613873958587646 0.25240665674209594727 0.25516164302825927734 0.25752297043800354004 0.25975048542022705078 0.26167410612106323242 0.26351284980773925781 0.26515552401542663574 0.26681548357009887695 0.26839476823806762695 0.27010133862495422363 0.27182146906852722168 0.27373921871185302734 0.27566981315612792969 0.27779936790466308594 0.27991524338722229004 0.28222495317459106445 0.2844848334789276123 0.28690356016159057617 0.28921672701835632324 0.29166799783706665039 0.29398959875106811523 0.29641371965408325195 0.29869616031646728516 0.30111983418464660645 0.30345198512077331543 0.30598613619804382324 0.30847707390785217285 0.31129497289657592773 0.3142579495906829834 0.31786653399467468262 0.32185414433479309082 0.32684591412544250488 0.3323389887809753418 0.33885648846626281738 0.34540981054306030273 0.35255834460258483887 0.35921618342399597168 0.3659756779670715332 0.37181288003921508789 0.37729564309120178223 0.38157558441162109375 0.38502916693687438965 0.38705399632453918457 0.38786691427230834961 0.38752764463424682617 0.38626825809478759766 0.38452199101448059082 0.38239273428916931152 0.38043433427810668945 0.37847700715065002441 0.3767223060131072998 0.37483033537864685059 0.37297680974006652832 0.37080755829811096191 0.36858040094375610352 0.36599230766296386719 0.36344012618064880371 0.36058029532432556152 0.35785010457038879395 0.35487216711044311523 0.35210558772087097168 0.34915822744369506836 0.34648233652114868164 0.34368720650672912598 0.34121280908584594727 0.33865988254547119141 0.33633443713188171387 0.33375275135040283203 0.33120751380920410156 0.32817214727401733398 0.32503649592399597168 0.32131946086883544922 0.31772118806838989258 0.3138370215892791748 0.3103993535041809082 0.30698981881141662598 0.30418536067008972168 0.30149668455123901367 0.29925805330276489258 0.29704335331916809082 0.29511165618896484375 0.29309958219528198242 0.29127660393714904785 0.28936758637428283691 0.2876516878604888916 0.2858842313289642334 0.28433996438980102539 0.28291302919387817383 0.28193196654319763184 0.2811018526554107666 0.28042614459991455078 0.27985724806785583496 0.27973422408103942871 0.28018394112586975098 0.28120264410972595215 0.28300440311431884766 0.28541156649589538574 0.2887547612190246582 0.29212859272956848145 0.29543283581733703613 0.2981528937816619873 0.30064406991004943848 0.30267643928527832031 0.30434998869895935059 0.30527800321578979492 0.30545520782470703125 0.30480027198791503906 0.30311453342437744141 0.30049687623977661133 0.2966874241828918457 0.29239630699157714844 0.28742936253547668457 0.28265863656997680664 0.27784314751625061035 0.2736918330192565918 0.26950931549072265625 0.26539951562881469727 0.26048809289932250977 0.25494664907455444336 0.24779400229454040527 0.23980219662189483643 0.23045586049556732178 0.22113220393657684326 0.21125626564025878906 0.20222932100296020508 0.19336418807506561279 0.18541938066482543945 0.17728117108345031738 0.16946946084499359131 0.16088938713073730469 0.15213166177272796631 0.14234328269958496094 0.13269725441932678223 0.12255401909351348877 0.11313375085592269897 0.10385458916425704956 0.095724500715732574463 0.087942503392696380615 0.081053398549556732178 0.074293412268161773682 0.068103149533271789551 0.061790842562913894653 0.055737286806106567383 0.049254681915044784546 0.042718347162008285522 0.03540864214301109314 0.027766438201069831848 0.019179107621312141418 0.010629444383084774017 0.010362545028328895569 0 0 0 0 0 0 0 0 0 0 0 0 0 0 0 0 0 0 0 0 0 0 0 0 0 0 0 0 0 0 0 0 0 0 0 0 0 0 0 0 0 0 0 0 0 0 0 0 0 0 0 0 0 0 0 0 0 
0 0 0 0 0 0 0 0 0 0 0 0 0 0 0 0 0 0 0 0 0 0 0 0 0 0 0 0 0 0 0 0 0 0 0 0.00028689368627965450287 0.020067749544978141785 0.062368262559175491333 0.095619440078735351562 0.1262079775333404541 0.16201438009738922119 0.1863025277853012085 0.20133903622627258301 0.21312481164932250977 0.22220863401889801025 0.23244947195053100586 0.24253334105014801025 0.25279432535171508789 0.26871788501739501953 0.29184803366661071777 0.30964618921279907227 0.3292045891284942627 0.37943994998931884766 0.4388669133186340332 0.44106143712997436523 0.38498446345329284668 0.33965021371841430664 0.32588857412338256836 0.32092866301536560059 0.32641288638114929199 0.33752113580703735352 0.34793731570243835449 0.35624253749847412109 0.34709924459457397461 0.32734981179237365723 0.31833428144454956055 0.31966444849967956543 0.32621267437934875488 0.32090035080909729004 0.30968439579010009766 0.30221736431121826172 0.29880949854850769043 0.29042521119117736816 0.28392231464385986328 0.28248640894889831543 0.28186681866645812988 0.28136870265007019043 0.28110563755035400391 0.28113162517547607422 0.28145468235015869141 0.28359645605087280273 0.2893314361572265625 0.28954818844795227051 0.28399187326431274414 0.2774098813533782959 0.27076613903045654297 0.26387092471122741699 0.25739806890487670898 0.25090521574020385742 0.244903564453125 0.23887617886066436768 0.23468518257141113281 0.23751874268054962158 0.2410707622766494751 0.24441580474376678467 0.24729509651660919189 0.25000715255737304688 0.25234866142272949219 0.254573822021484375 0.25654762983322143555 0.25850877165794372559 0.26031544804573059082 0.26216977834701538086 0.2639319002628326416 0.26580080389976501465 0.26762866973876953125 0.26961296796798706055 0.27157771587371826172 0.27373206615447998047 0.27587926387786865234 0.27824860811233520508 0.28060364723205566406 0.2831700444221496582 0.28566265106201171875 0.28831514716148376465 0.29084274172782897949 0.29353246092796325684 0.29611703753471374512 0.2989025115966796875 0.30160814523696899414 0.30456006526947021484 0.30745878815650939941 0.31071200966835021973 0.31408146023750305176 0.31810787320137023926 0.32247078418731689453 0.3278332054615020752 0.33363932371139526367 0.34043020009994506836 0.34716203808784484863 0.35439190268516540527 0.36100080609321594238 0.36755615472793579102 0.37307617068290710449 0.3781509697437286377 0.38204389810562133789 0.38514524698257446289 0.38695421814918518066 0.38767781853675842285 0.38736900687217712402 0.38625124096870422363 0.38469582796096801758 0.38273024559020996094 0.38083037734031677246 0.37886929512023925781 0.37710022926330566406 0.37519273161888122559 0.37332695722579956055 0.37114620208740234375 0.36889898777008056641 0.36627027392387390137 0.36367064714431762695 0.36076238751411437988 0.35799247026443481445 0.35497841238975524902 0.35218456387519836426 0.34921541810035705566 0.34653291106224060059 0.34374880790710449219 0.3412939906120300293 0.33876582980155944824 0.33646419644355773926 0.33390483260154724121 0.33137330412864685059 0.32834067940711975098 0.32519197463989257812 0.32145231962203979492 0.31782460212707519531 0.31387811899185180664 0.31038063764572143555 0.30694222450256347656 0.30415031313896179199 0.30151018500328063965 0.29933941364288330078 0.29721155762672424316 0.29536327719688415527 0.29343277215957641602 0.29166755080223083496 0.28978914022445678711 0.28806021809577941895 0.28621789813041687012 0.28452461957931518555 0.28276330232620239258 0.28131645917892456055 0.28016304969787597656 0.27930998802185058594 0.27857622504234313965 0.27832952141761779785 0.27869892120361328125 0.27970740199089050293 0.28157588839530944824 0.28410875797271728516 0.28757444024085998535 0.29097121953964233398 0.29433971643447875977 0.29728260636329650879 0.30029588937759399414 0.30280706286430358887 0.30490815639495849609 0.30622023344039916992 0.30681204795837402344 0.3064988255500793457 0.3050874173641204834 0.30264160037040710449 0.29892867803573608398 0.29466402530670166016 0.2896747887134552002 0.2848517298698425293 0.27996355295181274414 0.27573749423027038574 0.27146619558334350586 0.26725447177886962891 0.26220566034317016602 0.25649681687355041504 0.24911767244338989258 0.24085922539234161377 0.23117500543594360352 0.22147731482982635498 0.21114949882030487061 0.20163874328136444092 0.19221277534961700439 0.18371130526065826416 0.17499865591526031494 0.16668497025966644287 0.15766203403472900391 0.14858989417552947998 0.13857161998748779297 0.12875881791114807129 0.1184399724006652832 0.10879014432430267334 0.099146343767642974854 0.09052597731351852417 0.082123495638370513916 0.074600517749786376953 0.067203126847743988037 0.060488287359476089478 0.053779158741235733032 0.047508563846349716187 0.040963627398014068604 0.034513283520936965942 0.027434149757027626038 0.020136196166276931763 0.011990737169981002808 0.011212805286049842834 0.0011383993551135063171 0 0 0 0 0 0 0 0 0 0 0 0 0 0 0 0 0 0 0 0 0 0 0 0 0 0 0 0 0 0 0 0 0 0 0 0 0 0 0 0 0 0 0 0 0 0 0 0 0 0 0 0 0 0 0 0 0 
0 0 0 0 0 0 0 0 0 0 0 0 0 0 0 0 0 0 0 0 0 0 0 0 0 0 0 0 0 0 0 0 0 0 0 0.0020240645390003919601 0.035376425832509994507 0.075057044625282287598 0.10786778479814529419 0.13540533185005187988 0.16278587281703948975 0.18175901472568511963 0.19358889758586883545 0.20420248806476593018 0.21477770805358886719 0.23126786947250366211 0.24123007059097290039 0.25136923789978027344 0.2669671475887298584 0.28780907392501831055 0.30725264549255371094 0.33020243048667907715 0.39155328273773193359 0.44649776816368103027 0.42190724611282348633 0.36785671114921569824 0.33349597454071044922 0.31784102320671081543 0.31666797399520874023 0.32431387901306152344 0.33577480912208557129 0.34630769491195678711 0.34928172826766967773 0.33198535442352294922 0.31823125481605529785 0.31268450617790222168 0.31896188855171203613 0.32138285040855407715 0.31111726164817810059 0.3014068603515625 0.29483240842819213867 0.29072037339210510254 0.28228455781936645508 0.27746236324310302734 0.27644133567810058594 0.27538880705833435059 0.27458238601684570312 0.27424204349517822266 0.27450728416442871094 0.27518382668495178223 0.27810177206993103027 0.28268885612487792969 0.27973103523254394531 0.27182233333587646484 0.26352581381797790527 0.25669327378273010254 0.2506605684757232666 0.24555058777332305908 0.24071794748306274414 0.23641404509544372559 0.23220233619213104248 0.22947563230991363525 0.23233485221862792969 0.23572041094303131104 0.23894920945167541504 0.24175874888896942139 0.24442788958549499512 0.24677459895610809326 0.24906449019908905029 0.25114667415618896484 0.2532590031623840332 0.25523999333381652832 0.25728908181190490723 0.25922960042953491211 0.26125854253768920898 0.26319837570190429688 0.26526105403900146484 0.26727664470672607422 0.2694746851921081543 0.27166837453842163086 0.27410840988159179688 0.27656319737434387207 0.279270172119140625 0.28193295001983642578 0.28481793403625488281 0.28761282563209533691 0.29061353206634521484 0.2935257256031036377 0.29670095443725585938 0.29981112480163574219 0.30321830511093139648 0.30656453967094421387 0.31029886007308959961 0.31411761045455932617 0.31860077381134033203 0.32336378097534179688 0.32910513877868652344 0.33521202206611633301 0.34224134683609008789 0.34909862279891967773 0.35633233189582824707 0.36280009150505065918 0.36903348565101623535 0.37410998344421386719 0.37863087654113769531 0.38199177384376525879 0.38459691405296325684 0.38608175516128540039 0.38666141033172607422 0.38638642430305480957 0.38541638851165771484 0.38406160473823547363 0.3823585808277130127 0.3807016909122467041 0.37890973687171936035 0.3771800994873046875 0.37525847554206848145 0.37338408827781677246 0.37121883034706115723 0.36901369690895080566 0.36645147204399108887 0.36391422152519226074 0.36105674505233764648 0.3583221137523651123 0.35533577203750610352 0.3525575101375579834 0.34959670901298522949 0.3469168245792388916 0.3441359102725982666 0.341693878173828125 0.33918935060501098633 0.33690649271011352539 0.3343556523323059082 0.33181518316268920898 0.32874673604965209961 0.32553690671920776367 0.32170793414115905762 0.31799221038818359375 0.31396195292472839355 0.3103873133659362793 0.30688005685806274414 0.30407351255416870117 0.30146548151969909668 0.29935333132743835449 0.29730275273323059082 0.29552379250526428223 0.2936496734619140625 0.29191195964813232422 0.29003125429153442383 0.28826597332954406738 0.28634065389633178711 0.28452071547508239746 0.28255128860473632812 0.28076034784317016602 0.27909180521965026855 0.27798369526863098145 0.27711814641952514648 0.27675458788871765137 0.27704662084579467773 0.27805230021476745605 0.28000590205192565918 0.28267809748649597168 0.28619408607482910156 0.28954997658729553223 0.29308459162712097168 0.29648795723915100098 0.29994374513626098633 0.30280193686485290527 0.30528697371482849121 0.30699241161346435547 0.30798098444938659668 0.30798888206481933594 0.3068516850471496582 0.3045902550220489502 0.30099415779113769531 0.29677978157997131348 0.29179751873016357422 0.286952972412109375 0.28202804923057556152 0.27776354551315307617 0.27344033122062683105 0.26915529370307922363 0.26398742198944091797 0.25811240077018737793 0.2504863440990447998 0.24192509055137634277 0.23185811936855316162 0.22174791991710662842 0.21094301342964172363 0.20094949007034301758 0.19100020825862884521 0.18201111257076263428 0.17282530665397644043 0.16412529349327087402 0.15479306876659393311 0.1455370485782623291 0.13541617989540100098 0.12552690505981445312 0.11508227884769439697 0.10519718378782272339 0.095109067857265472412 0.085849463939666748047 0.076616182923316955566 0.06823419034481048584 0.059968728572130203247 0.052541434764862060547 0.045300252735614776611 0.038747731596231460571 0.03213222697377204895 0.02580512315034866333 0.019033538177609443665 0.0121112065389752388 0.013298796489834785461 0.015604721382260322571 0 0 0 0 0 0 0 0 0 0 0 0 0 0 0 0 0 0 0 0 0 0 0 0 0 0 0 0 0 0 0 0 0 0 0 0 0 0 0 0 0 0 0 0 0 0 0 0 0 0 0 0 0 0 0 0 0 0 
0 0 0 0 0 0 0 0 0 0 0 0 0 0 0 0 0 0 0 0 0 0 0 0 0 0 0 0 0 0 0 0 0 0 0 0.0081461891531944274902 0.04453347623348236084 0.079580605030059814453 0.11156044900417327881 0.14149369299411773682 0.16423165798187255859 0.17898644506931304932 0.18976165354251861572 0.19767111539840698242 0.21139644086360931396 0.22908551990985870361 0.24166993796825408936 0.25231152772903442383 0.27271705865859985352 0.28889372944831848145 0.3104019463062286377 0.33520239591598510742 0.40143620967864990234 0.43983566761016845703 0.39651525020599365234 0.34967681765556335449 0.32892897725105285645 0.31348463892936706543 0.31382516026496887207 0.32243490219116210938 0.3342368006706237793 0.34411796927452087402 0.33769595623016357422 0.32057330012321472168 0.31111839413642883301 0.30871689319610595703 0.31740617752075195312 0.31339904665946960449 0.30176380276679992676 0.29315236210823059082 0.28828197717666625977 0.28314232826232910156 0.27503475546836853027 0.27184885740280151367 0.27007648348808288574 0.26849588751792907715 0.26720350980758666992 0.26660105586051940918 0.26730942726135253906 0.26939621567726135254 0.27404370903968811035 0.27732959389686584473 0.27365359663963317871 0.25940862298011779785 0.2482891380786895752 0.24141038954257965088 0.23658230900764465332 0.2331135869026184082 0.23016303777694702148 0.22773607075214385986 0.22554126381874084473 0.22448517382144927979 0.22740799188613891602 0.23062863945960998535 0.23374171555042266846 0.23649373650550842285 0.23916451632976531982 0.24156846106052398682 0.24396495521068572998 0.24618424475193023682 0.2484579235315322876 0.25059282779693603516 0.25280153751373291016 0.25488615036010742188 0.25704547762870788574 0.25908294320106506348 0.26122397184371948242 0.26329988241195678711 0.26555666327476501465 0.26781123876571655273 0.27032905817031860352 0.27287328243255615234 0.27569937705993652344 0.27851441502571105957 0.28161001205444335938 0.28465950489044189453 0.28798699378967285156 0.29124099016189575195 0.29479566216468811035 0.29829227924346923828 0.30213525891304016113 0.30591124296188354492 0.31010651588439941406 0.3143520653247833252 0.31926274299621582031 0.32439017295837402344 0.33046054840087890625 0.33680742979049682617 0.34400039911270141602 0.35090854763984680176 0.35806894302368164062 0.3643302619457244873 0.37018489837646484375 0.37477633357048034668 0.37870228290557861328 0.38149991631507873535 0.38357573747634887695 0.38469651341438293457 0.38507601618766784668 0.38477885723114013672 0.38392364978790283203 0.38276079297065734863 0.38128924369812011719 0.37984237074851989746 0.37827739119529724121 0.37675231695175170898 0.37497472763061523438 0.37315055727958679199 0.37103110551834106445 0.36890879273414611816 0.36647334694862365723 0.36407616734504699707 0.36137285828590393066 0.35875803232192993164 0.35585948824882507324 0.35313314199447631836 0.35020688176155090332 0.34754475951194763184 0.34477388858795166016 0.34233823418617248535 0.33984383940696716309 0.33757203817367553711 0.33501994609832763672 0.33245459198951721191 0.32932570576667785645 0.3260237276554107666 0.3220659792423248291 0.31822341680526733398 0.3140653073787689209 0.31040537357330322266 0.30684310197830200195 0.30400943756103515625 0.30141362547874450684 0.29934227466583251953 0.29734665155410766602 0.29561081528663635254 0.29375737905502319336 0.29201039671897888184 0.29009175300598144531 0.28826811909675598145 0.28625726699829101562 0.28433704376220703125 0.28223454952239990234 0.28027877211570739746 0.27827611565589904785 0.27674391865730285645 0.27570483088493347168 0.27524366974830627441 0.27546316385269165039 0.27647012472152709961 0.27852076292037963867 0.28130728006362915039 0.28480389714241027832 0.28821706771850585938 0.29214772582054138184 0.29584097862243652344 0.29952338337898254395 0.30261194705963134766 0.30540251731872558594 0.3074162900447845459 0.3087241053581237793 0.30901077389717102051 0.30812981724739074707 0.30605626106262207031 0.30259802937507629395 0.29846581816673278809 0.29353350400924682617 0.28871294856071472168 0.28380125761032104492 0.27954465150833129883 0.27521499991416931152 0.27089378237724304199 0.2656370997428894043 0.25961405038833618164 0.25174742937088012695 0.24287934601306915283 0.23242227733135223389 0.22190049290657043457 0.21064245700836181641 0.20022276043891906738 0.1898507922887802124 0.18050079047679901123 0.17099541425704956055 0.16206273436546325684 0.15257726609706878662 0.14326950907707214355 0.13316023349761962891 0.12327702343463897705 0.11275777220726013184 0.10265602916479110718 0.092106960713863372803 0.082158602774143218994 0.072017140686511993408 0.062692001461982727051 0.053474999964237213135 0.045272540301084518433 0.037465471774339675903 0.030629999935626983643 0.023968359455466270447 0.017803704366087913513 0.011274500750005245209 0.012228986248373985291 0.030689157545566558838 0.0022612712346017360687 0 0 0 0 0 0 0 0 0 0 0 0 0 0 0 0 0 0 0 0 0 0 0 0 0 0 0 0 0 0 0 0 0 0 0 0 0 0 0 0 0 0 0 0 0 0 0 0 0 0 0 0 0 0 0 0 0 0 
0 0 0 0 0 0 0 0 0 0 0 0 0 0 0 0 0 0 0 0 0 0 0 0 0 0 0 0 0 0 0 0 0 0 0 0.018544016405940055847 0.052309188991785049438 0.088774517178535461426 0.12147437781095504761 0.14649689197540283203 0.16164875030517578125 0.17311237752437591553 0.18454575538635253906 0.19621416926383972168 0.21228185296058654785 0.23030510544776916504 0.24234978854656219482 0.25445607304573059082 0.27711597084999084473 0.29094919562339782715 0.30940398573875427246 0.34003883600234985352 0.40919056534767150879 0.42905774712562561035 0.37299010157585144043 0.33537465333938598633 0.31878125667572021484 0.31038165092468261719 0.31236636638641357422 0.32126602530479431152 0.33315673470497131348 0.3383343815803527832 0.32312825322151184082 0.31061753630638122559 0.30393257737159729004 0.30618506669998168945 0.31286588311195373535 0.30306446552276611328 0.29235225915908813477 0.28475189208984375 0.28072696924209594727 0.27449730038642883301 0.26801723241806030273 0.26541480422019958496 0.26257690787315368652 0.26018133759498596191 0.25799700617790222168 0.25624638795852661133 0.25669977068901062012 0.2633965909481048584 0.27061825990676879883 0.27374342083930969238 0.26567351818084716797 0.23989303410053253174 0.22652730345726013184 0.22125650942325592041 0.21891002357006072998 0.21792711317539215088 0.21750822663307189941 0.21745567023754119873 0.21775425970554351807 0.21892479062080383301 0.22201511263847351074 0.22512891888618469238 0.22820606827735900879 0.23097397387027740479 0.23361624777317047119 0.23610766232013702393 0.23864848911762237549 0.24102537333965301514 0.24347157776355743408 0.24576796591281890869 0.24812710285186767578 0.25033977627754211426 0.2526187896728515625 0.25475275516510009766 0.25697997212409973145 0.25913032889366149902 0.26146447658538818359 0.26379671692848205566 0.26639971137046813965 0.26903781294822692871 0.27199313044548034668 0.27497044205665588379 0.27828812599182128906 0.28160613775253295898 0.28528431057929992676 0.28892990946769714355 0.29293704032897949219 0.2968724668025970459 0.30119377374649047852 0.3054364621639251709 0.3101272881031036377 0.31482383608818054199 0.32017377018928527832 0.32566094398498535156 0.332035064697265625 0.33857673406600952148 0.34586483240127563477 0.35274484753608703613 0.35973882675170898438 0.36570310592651367188 0.37108460068702697754 0.37510323524475097656 0.37834972143173217773 0.38051584362983703613 0.3819980621337890625 0.38270291686058044434 0.3828347623348236084 0.38247594237327575684 0.3816967010498046875 0.38070091605186462402 0.37946632504463195801 0.3782456517219543457 0.37689736485481262207 0.3755766451358795166 0.37405252456665039062 0.37247943878173828125 0.37057295441627502441 0.36860254406929016113 0.36634713411331176758 0.36414313316345214844 0.36165568232536315918 0.35922968387603759766 0.35649406909942626953 0.35386493802070617676 0.35099893808364868164 0.34836924076080322266 0.34561893343925476074 0.34319657087326049805 0.34071370959281921387 0.3384450376033782959 0.3358834683895111084 0.33328676223754882812 0.3300825953483581543 0.32666760683059692383 0.32255262136459350586 0.31855437159538269043 0.31424096226692199707 0.31046915054321289062 0.30684745311737060547 0.30401432514190673828 0.30143344402313232422 0.29939162731170654297 0.29743552207946777344 0.29572179913520812988 0.29385647177696228027 0.29206368327140808105 0.29006773233413696289 0.28815528750419616699 0.28604051470756530762 0.28402301669120788574 0.28181728720664978027 0.27975800633430480957 0.27759245038032531738 0.27571973204612731934 0.27423462271690368652 0.2736174166202545166 0.27373597025871276855 0.27473711967468261719 0.27691233158111572266 0.27979359030723571777 0.28335690498352050781 0.2871399223804473877 0.29133120179176330566 0.29514259099960327148 0.29894933104515075684 0.30221080780029296875 0.30524283647537231445 0.30751749873161315918 0.30912262201309204102 0.30968961119651794434 0.30908593535423278809 0.30723503232002258301 0.30396381020545959473 0.29996785521507263184 0.29514685273170471191 0.29040822386741638184 0.28556770086288452148 0.28136748075485229492 0.27707257866859436035 0.27274200320243835449 0.26740905642509460449 0.26123031973838806152 0.25308904051780700684 0.24386176466941833496 0.23295404016971588135 0.22197008132934570312 0.21022263169288635254 0.19936785101890563965 0.1885973811149597168 0.17893648147583007812 0.16918250918388366699 0.16009360551834106445 0.15053728222846984863 0.14125172793865203857 0.13121947646141052246 0.12138590961694717407 0.11080716550350189209 0.10046767443418502808 0.089393757283687591553 0.078655004501342773438 0.067471474409103393555 0.057066787034273147583 0.046767354011535644531 0.037694420665502548218 0.029270535334944725037 0.022151712328195571899 0.015479240566492080688 0.0093584842979907989502 0.012207113206386566162 0.045434098690748214722 0.01010409276932477951 0 0 0 0 0 0 0 0 0 0 0 0 0 0 0 0 0 0 0 0 0 0 0 0 0 0 0 0 0 0 0 0 0 0 0 0 0 0 0 0 0 0 0 0 0 0 0 0 0 0 0 0 0 0 0 0 0 0 0 
0 0 0 0 0 0 0 0 0 0 0 0 0 0 0 0 0 0 0 0 0 0 0 0 0 0 0 0 0 0 0 0 0 0 0.0060598584823310375214 0.024942874908447265625 0.057173002511262893677 0.09219630807638168335 0.12536540627479553223 0.14555169641971588135 0.15718106925487518311 0.16877406835556030273 0.18141594529151916504 0.19493126869201660156 0.20975629985332489014 0.23013664782047271729 0.24103233218193054199 0.25704681873321533203 0.27201864123344421387 0.28564235568046569824 0.30956149101257324219 0.35263168811798095703 0.41482681035995483398 0.42121857404708862305 0.36204949021339416504 0.33038380742073059082 0.31014779210090637207 0.30842807888984680176 0.31188362836837768555 0.32101270556449890137 0.33188158273696899414 0.32845163345336914062 0.3117294609546661377 0.30273282527923583984 0.30029860138893127441 0.30627328157424926758 0.3055514991283416748 0.29356676340103149414 0.28505912423133850098 0.27770572900772094727 0.27439734339714050293 0.26665693521499633789 0.26170641183853149414 0.25833433866500854492 0.25468808412551879883 0.25143980979919433594 0.24828612804412841797 0.24467954039573669434 0.2359946519136428833 0.25394010543823242188 0.2669557034969329834 0.27026310563087463379 0.2391347736120223999 0.20525209605693817139 0.19833756983280181885 0.19813500344753265381 0.19973586499691009521 0.20188178122043609619 0.20434242486953735352 0.20681673288345336914 0.209522247314453125 0.21243010461330413818 0.21587392687797546387 0.21926929056644439697 0.22271975874900817871 0.22586432099342346191 0.22858449816703796387 0.23110271990299224854 0.2337971031665802002 0.23632404208183288574 0.23892031610012054443 0.24135135114192962646 0.24384008347988128662 0.24615678191184997559 0.24853049218654632568 0.25074797868728637695 0.25305756926536560059 0.25528472661972045898 0.25770005583763122559 0.26010650396347045898 0.26279231905937194824 0.26552498340606689453 0.26860603690147399902 0.27173772454261779785 0.2752666473388671875 0.27884206175804138184 0.28285875916481018066 0.28688412904739379883 0.29134202003479003906 0.29573404788970947266 0.30053749680519104004 0.30522766709327697754 0.31038120388984680176 0.31548732519149780273 0.32122129201889038086 0.3270035088062286377 0.33359941840171813965 0.34024795889854431152 0.34753319621086120605 0.35429656505584716797 0.36104238033294677734 0.36665323376655578613 0.37152934074401855469 0.3749733269214630127 0.37756508588790893555 0.37913361191749572754 0.38005876541137695312 0.38037240505218505859 0.38026455044746398926 0.37983536720275878906 0.37910687923431396484 0.37824144959449768066 0.37719559669494628906 0.37616634368896484375 0.37502574920654296875 0.37389719486236572266 0.37259078025817871094 0.37126535177230834961 0.36969465017318725586 0.36805507540702819824 0.36608082056045532227 0.36408734321594238281 0.3618227839469909668 0.35959091782569885254 0.35703161358833312988 0.35452961921691894531 0.35175538063049316406 0.34917175769805908203 0.34645041823387145996 0.34404796361923217773 0.34158310294151306152 0.33932244777679443359 0.33675122261047363281 0.33412373065948486328 0.33085542917251586914 0.32734149694442749023 0.3230864107608795166 0.31894934177398681641 0.3144969642162322998 0.31062737107276916504 0.30695235729217529297 0.30412536859512329102 0.30159008502960205078 0.29957890510559082031 0.29764139652252197266 0.29592525959014892578 0.29401740431785583496 0.29214912652969360352 0.29004693031311035156 0.28802573680877685547 0.28579771518707275391 0.2836901247501373291 0.2814089655876159668 0.27929109334945678711 0.27705606818199157715 0.27504894137382507324 0.27315706014633178711 0.27212041616439819336 0.27207288146018981934 0.27304872870445251465 0.27536523342132568359 0.27839267253875732422 0.2823657691478729248 0.28637713193893432617 0.29061612486839294434 0.29443505406379699707 0.2982839047908782959 0.30163300037384033203 0.30481514334678649902 0.30728182196617126465 0.30912977457046508789 0.30994451045989990234 0.30960550904273986816 0.3079878687858581543 0.30493715405464172363 0.30112397670745849609 0.29647243022918701172 0.2918720245361328125 0.28715756535530090332 0.28305596113204956055 0.27882978320121765137 0.27451181411743164062 0.26911216974258422852 0.26277601718902587891 0.25435507297515869141 0.24476580321788787842 0.23340786993503570557 0.22196900844573974609 0.20975194871425628662 0.19849526882171630859 0.18737690150737762451 0.17746299505233764648 0.16752552986145019531 0.15833966434001922607 0.14876244962215423584 0.13952694833278656006 0.12957999110221862793 0.11979194730520248413 0.10914602875709533691 0.098564811050891876221 0.086977601051330566406 0.075479470193386077881 0.063304953277111053467 0.051883101463317871094 0.040575601160526275635 0.030707357451319694519 0.021744366735219955444 0.014402587898075580597 0.0077130789868533611298 0.025170776993036270142 0.046076882630586624146 0.02714373171329498291 0.00044900650391355156898 0 0 0 0 0 0 0 0 0 0 0 0 0 0 0 0 0 0 0 0 0 0 0 0 0 0 0 0 0 0 0 0 0 0 0 0 0 0 0 0 0 0 0 0 0 0 0 0 0 0 0 0 0 0 0 0 0 0 0 
0 0 0 0 0 0 0 0 0 0 0 0 0 0 0 0 0 0 0 0 0 0 0 0 0 0 0 0 0 0 0 0 0 0 0.0073670172132551670074 0.031907379627227783203 0.069582872092723846436 0.097954228520393371582 0.1210652962327003479 0.13979031145572662354 0.15107972919940948486 0.16374796628952026367 0.18137563765048980713 0.19884786009788513184 0.2037458270788192749 0.21524071693420410156 0.23039445281028747559 0.24850156903266906738 0.26321774721145629883 0.28696975111961364746 0.32209300994873046875 0.37992048263549804688 0.42375722527503967285 0.39662209153175354004 0.34427946805953979492 0.31845417618751525879 0.30553394556045532227 0.30735421180725097656 0.31198030710220336914 0.32158142328262329102 0.32774436473846435547 0.31541401147842407227 0.30217319726943969727 0.29535585641860961914 0.2995853722095489502 0.30684581398963928223 0.29635673761367797852 0.28476247191429138184 0.27745160460472106934 0.27127832174301147461 0.2664826810359954834 0.25856494903564453125 0.2545687556266784668 0.25009238719940185547 0.24546544253826141357 0.24116039276123046875 0.23718154430389404297 0.23430310189723968506 0.23178471624851226807 0.24948625266551971436 0.26352760195732116699 0.26379677653312683105 0.17790994048118591309 0.17241643369197845459 0.17716521024703979492 0.18163499236106872559 0.18616956472396850586 0.19043138623237609863 0.19475679099559783936 0.19881081581115722656 0.20291081070899963379 0.20673541724681854248 0.21061500906944274902 0.21424758434295654297 0.21795530617237091064 0.22144214808940887451 0.22390955686569213867 0.22596210241317749023 0.22882284224033355713 0.23150300979614257812 0.23424135148525238037 0.23679196834564208984 0.23939430713653564453 0.24181045591831207275 0.24427399039268493652 0.24657145142555236816 0.24896828830242156982 0.25128000974655151367 0.25377979874610900879 0.25626838207244873047 0.25904899835586547852 0.26188549399375915527 0.26510292291641235352 0.26840281486511230469 0.27216351032257080078 0.27602475881576538086 0.28042161464691162109 0.28487423062324523926 0.28983598947525024414 0.29473802447319030762 0.30009365081787109375 0.30528476834297180176 0.31092342734336853027 0.3164380192756652832 0.32253277301788330078 0.32856577634811401367 0.33530986309051513672 0.34197059273719787598 0.34913429617881774902 0.35566216707229614258 0.36203697323799133301 0.36719033122062683105 0.37147027254104614258 0.3742840886116027832 0.37618544697761535645 0.37713950872421264648 0.37750127911567687988 0.37742319703102111816 0.3770777583122253418 0.3765805661678314209 0.37590417265892028809 0.37516814470291137695 0.37430641055107116699 0.37345972657203674316 0.37251707911491394043 0.37159052491188049316 0.37052759528160095215 0.36945575475692749023 0.36821481585502624512 0.36695775389671325684 0.36544430255889892578 0.36382606625556945801 0.36184194684028625488 0.35981407761573791504 0.35743924975395202637 0.35507383942604064941 0.35241639614105224609 0.34991353750228881836 0.3472449183464050293 0.34487390518188476562 0.34243789315223693848 0.34019571542739868164 0.33762785792350769043 0.33498120307922363281 0.33166214823722839355 0.32807236909866333008 0.32370749115943908691 0.31945937871932983398 0.31489834189414978027 0.31095436215400695801 0.30724793672561645508 0.3044395744800567627 0.30195659399032592773 0.30000206828117370605 0.29808112978935241699 0.29633706808090209961 0.29435169696807861328 0.29237073659896850586 0.29012188315391540527 0.28795832395553588867 0.28559032082557678223 0.28338098526000976562 0.28102821111679077148 0.27886930108070373535 0.27659943699836730957 0.27454039454460144043 0.27243882417678833008 0.27081477642059326172 0.27027371525764465332 0.27118149399757385254 0.27374467253684997559 0.27731075882911682129 0.28163114190101623535 0.28566712141036987305 0.28984418511390686035 0.2936070859432220459 0.29743185639381408691 0.30080318450927734375 0.30407932400703430176 0.30669945478439331055 0.30876636505126953125 0.30982485413551330566 0.30976912379264831543 0.30842614173889160156 0.30566322803497314453 0.30211094021797180176 0.29771780967712402344 0.29333704710006713867 0.28882437944412231445 0.28487569093704223633 0.28075134754180908203 0.27645266056060791016 0.27097612619400024414 0.26446142792701721191 0.25572413206100463867 0.24572718143463134766 0.23386582732200622559 0.22192181646823883057 0.2091874927282333374 0.19749571382999420166 0.18601363897323608398 0.17584712803363800049 0.16573424637317657471 0.15645776689052581787 0.14685650169849395752 0.13765242695808410645 0.12775467336177825928 0.11796781420707702637 0.1072042509913444519 0.096334271132946014404 0.084193177521228790283 0.071910560131072998047 0.058735184371471405029 0.046303756535053253174 0.034014929085969924927 0.023396341130137443542 0.013929175212979316711 0.010110434144735336304 0.025903262197971343994 0.050000000745058059692 0.040809690952301025391 0.0046970201656222343445 0 0 0 0 0 0 0 0 0 0 0 0 0 0 0 0 0 0 0 0 0 0 0 0 0 0 0 0 0 0 0 0 0 0 0 0 0 0 0 0 0 0 0 0 0 0 0 0 0 0 0 0 0 0 0 0 0 0 0 0 
0 0 0 0 0 0 0 0 0 0 0 0 0 0 0 0 0 0 0 0 0 0 0 0 0 0 0 0 0 0 0 0 0 0 0.0087819388136267662048 0.039483919739723205566 0.075264193117618560791 0.10484275966882705688 0.12241244316101074219 0.13790622353553771973 0.15210571885108947754 0.1652355194091796875 0.18422655761241912842 0.19606482982635498047 0.20186437666416168213 0.21314412355422973633 0.22957675158977508545 0.24531260132789611816 0.26341137290000915527 0.29322615265846252441 0.32835462689399719238 0.38732638955116271973 0.43155696988105773926 0.3902435004711151123 0.34315609931945800781 0.31332531571388244629 0.30398866534233093262 0.30656284093856811523 0.31226065754890441895 0.32136526703834533691 0.31860336661338806152 0.30417588353157043457 0.29396218061447143555 0.28957274556159973145 0.29898178577423095703 0.30252084136009216309 0.28659415245056152344 0.27675870060920715332 0.27017104625701904297 0.26452010869979858398 0.25891524553298950195 0.2517560124397277832 0.24723258614540100098 0.24186331033706665039 0.23608489334583282471 0.230390205979347229 0.22493091225624084473 0.22217442095279693604 0.23330038785934448242 0.25523546338081359863 0.2572943568229675293 0.23480133712291717529 0.17095480859279632568 0.16976761817932128906 0.17448896169662475586 0.17893306910991668701 0.18344104290008544922 0.18767666816711425781 0.19196812808513641357 0.19597078859806060791 0.20000869035720825195 0.20377495884895324707 0.20759567618370056152 0.21117374300956726074 0.21482664346694946289 0.21826276183128356934 0.21988697350025177002 0.2213245779275894165 0.22433678805828094482 0.22714810073375701904 0.23000058531761169434 0.23264196515083312988 0.2353274226188659668 0.23781803250312805176 0.24036005139350891113 0.24272987246513366699 0.24520421028137207031 0.24758999049663543701 0.25016996264457702637 0.25274035334587097168 0.25561290979385375977 0.2585474848747253418 0.26189389824867248535 0.2653560936450958252 0.26934546232223510742 0.27349311113357543945 0.27827546000480651855 0.28316232562065124512 0.2886320948600769043 0.2940400242805480957 0.2999331355094909668 0.3056119084358215332 0.31170880794525146484 0.31757512688636779785 0.32394957542419433594 0.33014181256294250488 0.33692353963851928711 0.3434823155403137207 0.35040101408958435059 0.35658687353134155273 0.36249998211860656738 0.36714038252830505371 0.37081268429756164551 0.37302815914154052734 0.3743038475513458252 0.37472003698348999023 0.37460172176361083984 0.37419849634170532227 0.37366467714309692383 0.37312471866607666016 0.37250980734825134277 0.37190008163452148438 0.37121126055717468262 0.37053292989730834961 0.36976906657218933105 0.36901992559432983398 0.36817541718482971191 0.36734530329704284668 0.36640265583992004395 0.36546429991722106934 0.36434465646743774414 0.36313146352767944336 0.36156007647514343262 0.35979214310646057129 0.35758489370346069336 0.35533931851387023926 0.35278910398483276367 0.35037109255790710449 0.34778141975402832031 0.34546488523483276367 0.34306982159614562988 0.34085756540298461914 0.33831164240837097168 0.33567199110984802246 0.33234190940856933594 0.32872316241264343262 0.32431566715240478516 0.32002520561218261719 0.31542488932609558105 0.31146213412284851074 0.30776479840278625488 0.30499535799026489258 0.30257007479667663574 0.30066370964050292969 0.29877078533172607422 0.29698875546455383301 0.29490047693252563477 0.29278492927551269531 0.2903684079647064209 0.28804644942283630371 0.28552621603012084961 0.28320974111557006836 0.28078669309616088867 0.27859428524971008301 0.27630597352981567383 0.27422684431076049805 0.2720521092414855957 0.27011477947235107422 0.26868554949760437012 0.26937597990036010742 0.27263423800468444824 0.27670499682426452637 0.281063079833984375 0.2850131988525390625 0.28907400369644165039 0.29274097084999084473 0.29648840427398681641 0.29983049631118774414 0.30314218997955322266 0.30586010217666625977 0.30809289216995239258 0.30935776233673095703 0.30956700444221496582 0.30850803852081298828 0.30607137084007263184 0.30283463001251220703 0.29876655340194702148 0.29466888308525085449 0.29041248559951782227 0.28664419054985046387 0.28263103961944580078 0.27835488319396972656 0.27280083298683166504 0.26610541343688964844 0.25705328583717346191 0.24665395915508270264 0.23429624736309051514 0.22185429930686950684 0.20861303806304931641 0.19649878144264221191 0.18466572463512420654 0.1742524951696395874 0.16395783424377441406 0.15456798672676086426 0.14489582180976867676 0.1356537938117980957 0.12571492791175842285 0.11584397405385971069 0.10489596426486968994 0.093713723123073577881 0.081055939197540283203 0.068092577159404754639 0.054082885384559631348 0.040834803134202957153 0.027779351919889450073 0.016561178490519523621 0.010242730379104614258 0.040081020444631576538 0.050000000745058059692 0.049532428383827209473 0.013888257555663585663 0 0 0 0 0 0 0 0 0 0 0 0 0 0 0 0 0 0 0 0 0 0 0 0 0 0 0 0 0 0 0 0 0 0 0 0 0 0 0 0 0 0 0 0 0 0 0 0 0 0 0 0 0 0 0 0 0 0 0 0 0 
0 0 0 0 0 0 0 0 0 0 0 0 0 0 0 0 0 0 0 0 0 0 0 0 0 0 0 0 0 0 0 0 0 0.00099223316647112369537 0.010257569141685962677 0.037109155207872390747 0.077278748154640197754 0.1067346036434173584 0.12129664421081542969 0.1363938748836517334 0.15615345537662506104 0.16791898012161254883 0.17709821462631225586 0.18697543442249298096 0.20028817653656005859 0.21440547704696655273 0.230371817946434021 0.24639184772968292236 0.26753717660903930664 0.30554839968681335449 0.35364323854446411133 0.40350899100303649902 0.42171469330787658691 0.37514501810073852539 0.33949518203735351562 0.31293854117393493652 0.30341824889183044434 0.30526170134544372559 0.31202772259712219238 0.31685465574264526367 0.30672404170036315918 0.29424399137496948242 0.28746452927589416504 0.28804352879524230957 0.29721525311470031738 0.29214754700660705566 0.27625504136085510254 0.26877579092979431152 0.26283499598503112793 0.25853660702705383301 0.25100383162498474121 0.24507455527782440186 0.23937690258026123047 0.2329203188419342041 0.22568175196647644043 0.2180264592170715332 0.20949721336364746094 0.20058606564998626709 0.18664953112602233887 0.1888389885425567627 0.18065614998340606689 0.15899875760078430176 0.16230863332748413086 0.16693967580795288086 0.171636238694190979 0.17605708539485931396 0.18054041266441345215 0.18474473059177398682 0.18898524343967437744 0.19293308258056640625 0.19691509008407592773 0.20062887668609619141 0.2043962627649307251 0.20792450010776519775 0.21152658760547637939 0.21491543948650360107 0.21576099097728729248 0.21663618087768554688 0.21979230642318725586 0.22272473573684692383 0.22567775845527648926 0.22839534282684326172 0.23114854097366333008 0.23370063304901123047 0.23631279170513153076 0.23875875771045684814 0.24130906164646148682 0.2437690049409866333 0.24643631279468536377 0.24909575283527374268 0.25206616520881652832 0.25510454177856445312 0.25858905911445617676 0.26222851872444152832 0.26647299528121948242 0.27094593644142150879 0.2761694490909576416 0.28155285120010375977 0.28759810328483581543 0.29356911778450012207 0.30004423856735229492 0.30623087286949157715 0.31279242038726806641 0.31899744272232055664 0.325595855712890625 0.33186399936676025391 0.33856731653213500977 0.34489196538925170898 0.35141187906265258789 0.35710978507995605469 0.36241835355758666992 0.36643707752227783203 0.3694298863410949707 0.37102040648460388184 0.37167528271675109863 0.37157967686653137207 0.3710212409496307373 0.3703333735466003418 0.36964887380599975586 0.36909478902816772461 0.36856657266616821289 0.36810275912284851074 0.36760511994361877441 0.36711075901985168457 0.36653953790664672852 0.36597529053688049316 0.36534774303436279297 0.36474958062171936035 0.36410009860992431641 0.36347216367721557617 0.36270892620086669922 0.36185270547866821289 0.36069241166114807129 0.35930842161178588867 0.3574098050594329834 0.35531365871429443359 0.35287454724311828613 0.35054895281791687012 0.34805250167846679688 0.34581825137138366699 0.34349897503852844238 0.34133753180503845215 0.33883705735206604004 0.33623450994491577148 0.3329391777515411377 0.32934755086898803711 0.32496699690818786621 0.32070565223693847656 0.3161436915397644043 0.31222334504127502441 0.30858352780342102051 0.30587714910507202148 0.30351987481117248535 0.30166020989418029785 0.29978087544441223145 0.29796487092971801758 0.29575315117835998535 0.29347276687622070312 0.29085749387741088867 0.28835079073905944824 0.28565466403961181641 0.28321501612663269043 0.28071159124374389648 0.27848184108734130859 0.2761764228343963623 0.27408578991889953613 0.27187913656234741211 0.26982176303863525391 0.26768359541893005371 0.26797062158584594727 0.2721646726131439209 0.27628862857818603516 0.28052386641502380371 0.2843195796012878418 0.28821563720703125 0.29173919558525085449 0.2953592836856842041 0.298625946044921875 0.30192273855209350586 0.30469375848770141602 0.30705559253692626953 0.30850970745086669922 0.30899268388748168945 0.30825829505920410156 0.30622392892837524414 0.303394317626953125 0.29975748062133789062 0.29603525996208190918 0.29210707545280456543 0.28856500983238220215 0.2846914827823638916 0.28044569492340087891 0.27480813860893249512 0.26791715621948242188 0.25852721929550170898 0.24769850075244903564 0.23481318354606628418 0.22184288501739501953 0.20805960893630981445 0.19548398256301879883 0.1832510828971862793 0.17253547906875610352 0.16198867559432983398 0.15240518748760223389 0.14256137609481811523 0.13316921889781951904 0.12306161224842071533 0.11299050599336624146 0.10175832360982894897 0.090204954147338867188 0.077022336423397064209 0.063429392874240875244 0.048691909760236740112 0.034764513373374938965 0.021010419353842735291 0.008928666822612285614 0.032946862280368804932 0.050000000745058059692 0.050000000745058059692 0.027897780761122703552 0 0 0 0 0 0 0 0 0 0 0 0 0 0 0 0 0 0 0 0 0 0 0 0 0 0 0 0 0 0 0 0 0 0 0 0 0 0 0 0 0 0 0 0 0 0 0 0 0 0 0 0 0 0 0 0 0 0 0 0 0 0 
0 0 0 0 0 0 0 0 0 0 0 0 0 0 0 0 0 0 0 0 0 0 0 0 0 0 0 0 0 0 0 0 0 0.004357057623565196991 0.02363053150475025177 0.038778524845838546753 0.074037112295627593994 0.099656894803047180176 0.11375012993812561035 0.13477368652820587158 0.15647013485431671143 0.16720350086688995361 0.17385081946849822998 0.18593470752239227295 0.20031377673149108887 0.21554239094257354736 0.23225525021553039551 0.24894647300243377686 0.27304029464721679688 0.31773585081100463867 0.38723912835121154785 0.41514161229133605957 0.40082192420959472656 0.3507201075553894043 0.32175832986831665039 0.31027451157569885254 0.30307376384735107422 0.30439406633377075195 0.30992180109024047852 0.30805617570877075195 0.29655355215072631836 0.28644570708274841309 0.28553205728530883789 0.28911098837852478027 0.29205077886581420898 0.28112554550170898438 0.26813849806785583496 0.26241421699523925781 0.25632640719413757324 0.25227451324462890625 0.24460490047931671143 0.23905365169048309326 0.23208370804786682129 0.22455377876758575439 0.21593356132507324219 0.20644740760326385498 0.19507722556591033936 0.18128059804439544678 0.15935409069061279297 0.14548952877521514893 0.14993897080421447754 0.15475775301456451416 0.15964461863040924072 0.16425457596778869629 0.1689303666353225708 0.17333143949508666992 0.17778694629669189453 0.18194934725761413574 0.18614298105239868164 0.19004663825035095215 0.19398343563079833984 0.19765463471412658691 0.20137837529182434082 0.20486524701118469238 0.20842503011226654053 0.21177445352077484131 0.21199081838130950928 0.2124163508415222168 0.21568872034549713135 0.21871796250343322754 0.22175058722496032715 0.22452713549137115479 0.22733256220817565918 0.22993308305740356445 0.23260216414928436279 0.23510985076427459717 0.2377325892448425293 0.24026420712471008301 0.24301351606845855713 0.24575796723365783691 0.24882259964942932129 0.25196132063865661621 0.2555809319019317627 0.25939553976058959961 0.26389372348785400391 0.26869195699691772461 0.27435761690139770508 0.28023537993431091309 0.28684645891189575195 0.29336059093475341797 0.30038076639175415039 0.3070214688777923584 0.31397140026092529297 0.32043877243995666504 0.32717993855476379395 0.33343136310577392578 0.3399530947208404541 0.3459497988224029541 0.35198202729225158691 0.35712543129920959473 0.36178109049797058105 0.36516526341438293457 0.36750456690788269043 0.36852860450744628906 0.36864939332008361816 0.36813318729400634766 0.36722925305366516113 0.36633160710334777832 0.36555209755897521973 0.36501431465148925781 0.36458736658096313477 0.36427143216133117676 0.36396026611328125 0.36364334821701049805 0.36325600743293762207 0.36286345124244689941 0.36242875456809997559 0.3620268404483795166 0.36161467432975769043 0.36123883724212646484 0.36077353358268737793 0.3602034151554107666 0.35936370491981506348 0.3582973778247833252 0.35675883293151855469 0.35495656728744506836 0.35269489884376525879 0.35046616196632385254 0.34806668758392333984 0.34591892361640930176 0.34369030594825744629 0.3416061103343963623 0.3391730189323425293 0.33662885427474975586 0.33340236544609069824 0.32988205552101135254 0.32558676600456237793 0.32140928506851196289 0.31694245338439941406 0.31310987472534179688 0.30955740809440612793 0.30692148208618164062 0.30462336540222167969 0.3027966916561126709 0.30091696977615356445 0.29905670881271362305 0.29674419760704040527 0.2943089902400970459 0.29150596261024475098 0.28882816433906555176 0.28597098588943481445 0.28341954946517944336 0.28084418177604675293 0.27858218550682067871 0.27626463770866394043 0.27417087554931640625 0.27195721864700317383 0.26988351345062255859 0.2677370607852935791 0.26812261343002319336 0.27214103937149047852 0.27608284354209899902 0.28011563420295715332 0.28371912240982055664 0.28741547465324401855 0.29075980186462402344 0.29421332478523254395 0.29736214876174926758 0.30059021711349487305 0.3033593595027923584 0.30579409003257751465 0.30739381909370422363 0.30812203884124755859 0.30770796537399291992 0.30609554052352905273 0.30370736122131347656 0.30054014921188354492 0.29722446203231811523 0.29365712404251098633 0.29036256670951843262 0.28664216399192810059 0.2824389338493347168 0.2767359614372253418 0.26967716217041015625 0.25999927520751953125 0.24880948662757873535 0.23547875881195068359 0.22205293178558349609 0.20778417587280273438 0.19476966559886932373 0.18211920559406280518 0.17104890942573547363 0.16016554832458496094 0.15028841793537139893 0.14015565812587738037 0.13049837946891784668 0.12011017650365829468 0.10975454002618789673 0.098189212381839752197 0.086269520223140716553 0.072636917233467102051 0.058555878698825836182 0.043291289359331130981 0.028783977031707763672 0.014153902418911457062 0.02583351917564868927 0.049608446657657623291 0.050000000745058059692 0.046166058629751205444 0.0071068336255848407745 0 0 0 0 0 0 0 0 0 0 0 0 0 0 0 0 0 0 0 0 0 0 0 0 0 0 0 0 0 0 0 0 0 0 0 0 0 0 0 0 0 0 0 0 0 0 0 0 0 0 0 0 0 0 0 0 0 0 0 0 0 0 
0 0 0 0 0 0 0 0 0 0 0 0 0 0 0 0 0 0 0 0 0 0 0 0 0 0 0 0 0 0 0 0 0 0.0065934369340538978577 0.022014429792761802673 0.047953113913536071777 0.075753994286060333252 0.094272509217262268066 0.11148013174533843994 0.1350418776273727417 0.15294218063354492188 0.16037957370281219482 0.1714442819356918335 0.18612210452556610107 0.20080444216728210449 0.21976667642593383789 0.23590859770774841309 0.2533251345157623291 0.27704522013664245605 0.3144804835319519043 0.3714148402214050293 0.41174650192260742188 0.37662032246589660645 0.32973024249076843262 0.31326374411582946777 0.30717945098876953125 0.3021380305290222168 0.30305087566375732422 0.30393078923225402832 0.29773870110511779785 0.28718405961990356445 0.2816028892993927002 0.28639760613441467285 0.28986087441444396973 0.2857576906681060791 0.27148455381393432617 0.26154854893684387207 0.25668641924858093262 0.25011846423149108887 0.24545633792877197266 0.23909647762775421143 0.23272365331649780273 0.22456522285938262939 0.21605783700942993164 0.20627680420875549316 0.19545832276344299316 0.18259170651435852051 0.16807599365711212158 0.15038093924522399902 0.1424808800220489502 0.14714586734771728516 0.15194061398506164551 0.15680465102195739746 0.16139405965805053711 0.1660490185022354126 0.17042376101016998291 0.17483772337436676025 0.17895774543285369873 0.18310853838920593262 0.18697161972522735596 0.19086664915084838867 0.19449815154075622559 0.19818082451820373535 0.2016286700963973999 0.20514856278896331787 0.20846059918403625488 0.20811000466346740723 0.20813381671905517578 0.21151153743267059326 0.21462586522102355957 0.21773202717304229736 0.22056540846824645996 0.22342313826084136963 0.22607290744781494141 0.22879581153392791748 0.23136140406131744385 0.23405894637107849121 0.23667117953300476074 0.23950703442096710205 0.24234113097190856934 0.24550910294055938721 0.24876049160957336426 0.25253275036811828613 0.25654458999633789062 0.26132643222808837891 0.2664851844310760498 0.27263724803924560547 0.27905371785163879395 0.28627130389213562012 0.29335460066795349121 0.30092716217041015625 0.3080031275749206543 0.3152923285961151123 0.32195189595222473145 0.3287505805492401123 0.33489921689033508301 0.34112781286239624023 0.34668418765068054199 0.35211223363876342773 0.35660076141357421875 0.36051568388938903809 0.3632093966007232666 0.36486864089965820312 0.36533299088478088379 0.36495202779769897461 0.36406046152114868164 0.36286580562591552734 0.36180645227432250977 0.36097329854965209961 0.36048084497451782227 0.3601779937744140625 0.36002552509307861328 0.3599135279655456543 0.35978388786315917969 0.35958877205848693848 0.35937175154685974121 0.35912755131721496582 0.35891145467758178711 0.35871434211730957031 0.35855874419212341309 0.35835492610931396484 0.3580506742000579834 0.35750839114189147949 0.35673081874847412109 0.35553058981895446777 0.35407033562660217285 0.35217130184173583984 0.35016480088233947754 0.34789606928825378418 0.3458500206470489502 0.34372505545616149902 0.3417351841926574707 0.33940392732620239258 0.33694708347320556641 0.33382019400596618652 0.33040878176689147949 0.32624745368957519531 0.32220083475112915039 0.31787395477294921875 0.3141619265079498291 0.31071883440017700195 0.30815541744232177734 0.30590415000915527344 0.30409166216850280762 0.30219548940658569336 0.30028349161148071289 0.29787424206733703613 0.29531425237655639648 0.29233989119529724121 0.28950771689414978027 0.28650867938995361328 0.28386139869689941406 0.28122723102569580078 0.27894258499145507812 0.27662235498428344727 0.27453681826591491699 0.27233955264091491699 0.27029258012771606445 0.26849585771560668945 0.26910090446472167969 0.27243256568908691406 0.27610725164413452148 0.2798665463924407959 0.2832196652889251709 0.2866490781307220459 0.28975099325180053711 0.29297015070915222168 0.2959365546703338623 0.29902726411819458008 0.30173447728157043457 0.30419018864631652832 0.30590450763702392578 0.30687054991722106934 0.30679941177368164062 0.30566188693046569824 0.30377587676048278809 0.30115056037902832031 0.29831615090370178223 0.29517641663551330566 0.29217484593391418457 0.28864049911499023438 0.28450292348861694336 0.27876004576683044434 0.27157220244407653809 0.26167356967926025391 0.25020506978034973145 0.236517295241355896 0.2227036207914352417 0.20798508822917938232 0.19451513886451721191 0.18136620521545410156 0.16981376707553863525 0.15842416882514953613 0.14807511866092681885 0.13746656477451324463 0.12738256156444549561 0.11657410860061645508 0.10583547502756118774 0.093877546489238739014 0.081582754850387573242 0.067547932267189025879 0.05307199433445930481 0.037234008312225341797 0.021900990977883338928 0.011744971387088298798 0.045605182647705078125 0.050000000745058059692 0.050000000745058059692 0.017804002389311790466 0 0 0 0 0 0 0 0 0 0 0 0 0 0 0 0 0 0 0 0 0 0 0 0 0 0 0 0 0 0 0 0 0 0 0 0 0 0 0 0 0 0 0 0 0 0 0 0 0 0 0 0 0 0 0 0 0 0 0 0 0 0 0 
0 0 0 0 0 0 0 0 0 0 0 0 0 0 0 0 0 0 0 0 0 0 0 0 0 0 0 0 0 0 0 0 0 0.0077248029410839080811 0.034691009670495986938 0.062312591820955276489 0.082185544073581695557 0.094239905476570129395 0.1139373779296875 0.13894499838352203369 0.15503932535648345947 0.16150535643100738525 0.16884241998195648193 0.18178862333297729492 0.20099343359470367432 0.22201433777809143066 0.23627443611621856689 0.25396656990051269531 0.27825659513473510742 0.31168764829635620117 0.36531722545623779297 0.41702353954315185547 0.37994557619094848633 0.33223861455917358398 0.31882011890411376953 0.30478200316429138184 0.30085974931716918945 0.29988560080528259277 0.29659676551818847656 0.28899657726287841797 0.28031626343727111816 0.28145653009414672852 0.28757950663566589355 0.28825446963310241699 0.27882921695709228516 0.2644055783748626709 0.25659611821174621582 0.25184726715087890625 0.24490743875503540039 0.23988655209541320801 0.23404718935489654541 0.22644285857677459717 0.21769700944423675537 0.20853914320468902588 0.19808039069175720215 0.18669827282428741455 0.17363408207893371582 0.16000030934810638428 0.14530992507934570312 0.13976016640663146973 0.14448258280754089355 0.14925552904605865479 0.15409874916076660156 0.15866920351982116699 0.16329936683177947998 0.16763857007026672363 0.17201440036296844482 0.17609922587871551514 0.18021436035633087158 0.18404363095760345459 0.18790356814861297607 0.19150128960609436035 0.19514898955821990967 0.19856379926204681396 0.20204974710941314697 0.20532964169979095459 0.20452810823917388916 0.20423242449760437012 0.20769239962100982666 0.21087434887886047363 0.21404416859149932861 0.21693344414234161377 0.21984621882438659668 0.2225462496280670166 0.22532001137733459473 0.2279405444860458374 0.23070542514324188232 0.23339182138442993164 0.23631204664707183838 0.2392307668924331665 0.24250043928623199463 0.24586811661720275879 0.24979826807975769043 0.25401127338409423828 0.25907680392265319824 0.26458948850631713867 0.27121117711067199707 0.27813962101936340332 0.28592291474342346191 0.29352229833602905273 0.3015746772289276123 0.30900096893310546875 0.31652510166168212891 0.32327151298522949219 0.33001786470413208008 0.3359775543212890625 0.3418483734130859375 0.34691897034645080566 0.35171863436698913574 0.3555520474910736084 0.35875242948532104492 0.36080327630043029785 0.36185398697853088379 0.3618411719799041748 0.36105483770370483398 0.35987821221351623535 0.3584804236888885498 0.3573245704174041748 0.35648277401924133301 0.35605680942535400391 0.35588353872299194336 0.35588809847831726074 0.35596117377281188965 0.35600304603576660156 0.35598197579383850098 0.3559207916259765625 0.35584110021591186523 0.35577994585037231445 0.35575562715530395508 0.35577145218849182129 0.35576856136322021484 0.35567194223403930664 0.35537999868392944336 0.35485476255416870117 0.35394689440727233887 0.35278782248497009277 0.35124513506889343262 0.34958407282829284668 0.34759470820426940918 0.34568002820014953613 0.34366071224212646484 0.3417638242244720459 0.33953681588172912598 0.33718496561050415039 0.3341763913631439209 0.3308868706226348877 0.32687619328498840332 0.3229751884937286377 0.31879949569702148438 0.3152090907096862793 0.31186527013778686523 0.30935594439506530762 0.3071238398551940918 0.30530112981796264648 0.30337005853652954102 0.30141043663024902344 0.29893091320991516113 0.29629549384117126465 0.293224334716796875 0.29029351472854614258 0.28720933198928833008 0.28450927138328552246 0.2818489372730255127 0.2795619666576385498 0.27725520730018615723 0.27519169449806213379 0.27301478385925292969 0.2709693610668182373 0.26969882845878601074 0.27035704255104064941 0.27299949526786804199 0.27640196681022644043 0.2798798680305480957 0.28295299410820007324 0.28607225418090820312 0.28888672590255737305 0.29181876778602600098 0.29454872012138366699 0.29744037985801696777 0.3000265657901763916 0.30244335532188415527 0.3042220771312713623 0.30538439750671386719 0.30562943220138549805 0.30494353175163269043 0.30355229973793029785 0.30147683620452880859 0.29913449287414550781 0.2964344024658203125 0.29373401403427124023 0.29039520025253295898 0.28634473681449890137 0.28061434626579284668 0.27338400483131408691 0.26340079307556152344 0.25181636214256286621 0.23795351386070251465 0.22390861809253692627 0.20885984599590301514 0.19497990608215332031 0.18129259347915649414 0.16915123164653778076 0.1570968925952911377 0.14610664546489715576 0.13485231995582580566 0.12421057373285293579 0.1128905564546585083 0.10172897577285766602 0.08938814699649810791 0.07677761465311050415 0.062444832175970077515 0.047511823475360870361 0.030963102355599403381 0.015209852717816829681 0.026955675333738327026 0.050000000745058059692 0.050000000745058059692 0.034724518656730651855 0.00040607774280942976475 0 0 0 0 0 0 0 0 0 0 0 0 0 0 0 0 0 0 0 0 0 0 0 0 0 0 0 0 0 0 0 0 0 0 0 0 0 0 0 0 0 0 0 0 0 0 0 0 0 0 0 0 0 0 0 0 0 0 0 0 0 0 0 
0 0 0 0 0 0 0 0 0 0 0 0 0 0 0 0 0 0 0 0 0 0 0 0 0 0 0 0 0 0 0 0 0 0.013091536238789558411 0.045149035751819610596 0.066551409661769866943 0.083330519497394561768 0.10056165605783462524 0.12035687267780303955 0.13752642273902893066 0.15252794325351715088 0.16130477190017700195 0.16766490042209625244 0.1783097684383392334 0.20063371956348419189 0.22102673351764678955 0.23660713434219360352 0.25463721156120300293 0.2809619605541229248 0.32061880826950073242 0.38124889135360717773 0.41477870941162109375 0.37518900632858276367 0.32648938894271850586 0.31009140610694885254 0.30219960212707519531 0.29919913411140441895 0.2953357994556427002 0.28951424360275268555 0.2812964320182800293 0.27654233574867248535 0.28293025493621826172 0.28758522868156433105 0.28452733159065246582 0.27108561992645263672 0.25834470987319946289 0.25135353207588195801 0.24646733701229095459 0.2390521317720413208 0.23487652838230133057 0.22832472622394561768 0.21994720399379730225 0.21077036857604980469 0.20120528340339660645 0.19042538106441497803 0.17896784842014312744 0.16629067063331604004 0.15376904606819152832 0.14113061130046844482 0.13690572977066040039 0.14164665341377258301 0.14639654755592346191 0.1512174755334854126 0.15576301515102386475 0.16035604476928710938 0.16465815901756286621 0.16899767518043518066 0.17304892838001251221 0.177130088210105896 0.18092702329158782959 0.18475316464900970459 0.18831837177276611328 0.19193246960639953613 0.19531551003456115723 0.1987686455249786377 0.20201751589775085449 0.20081914961338043213 0.20023795962333679199 0.20376503467559814453 0.20700910687446594238 0.21024608612060546875 0.21320413053035736084 0.21618895232677459717 0.21895250678062438965 0.22179090976715087891 0.2244733273983001709 0.22730623185634613037 0.23006451129913330078 0.23307187855243682861 0.23608291149139404297 0.23946572840213775635 0.24296906590461730957 0.24708516895771026611 0.25152942538261413574 0.25691184401512145996 0.26280900835990905762 0.26992842555046081543 0.27738726139068603516 0.28574222326278686523 0.29384535551071166992 0.30233937501907348633 0.31005185842514038086 0.31771528720855712891 0.32443988323211669922 0.33100977540016174316 0.33666473627090454102 0.34207433462142944336 0.34658530354499816895 0.35069176554679870605 0.35382860898971557617 0.35629487037658691406 0.35770627856254577637 0.35817554593086242676 0.3577289879322052002 0.35659551620483398438 0.35519450902938842773 0.353656768798828125 0.35245561599731445312 0.35164597630500793457 0.35131126642227172852 0.35128283500671386719 0.35145083069801330566 0.35170996189117431641 0.3519210517406463623 0.35206907987594604492 0.35215660929679870605 0.35223034024238586426 0.3523101806640625 0.35243913531303405762 0.35260421037673950195 0.35277599096298217773 0.35286274552345275879 0.35279920697212219238 0.35252276062965393066 0.35192000865936279297 0.35107055306434631348 0.34989309310913085938 0.34859699010848999023 0.34701570868492126465 0.34540864825248718262 0.34355649352073669434 0.34176075458526611328 0.33964267373085021973 0.33740186691284179688 0.33453369140625 0.33138820528984069824 0.32754373550415039062 0.32379999756813049316 0.31978166103363037109 0.31630924344062805176 0.31304588913917541504 0.31056186556816101074 0.30831307172775268555 0.30644759535789489746 0.30446100234985351562 0.3024539649486541748 0.29994088411331176758 0.29728245735168457031 0.29419860243797302246 0.29124850034713745117 0.28814873099327087402 0.28545033931732177734 0.2828064262866973877 0.28054389357566833496 0.27826559543609619141 0.27621948719024658203 0.27403920888900756836 0.2721106410026550293 0.27133482694625854492 0.27195578813552856445 0.27402627468109130859 0.27705141901969909668 0.28021600842475891113 0.282955169677734375 0.28568854928016662598 0.28813311457633972168 0.29068380594253540039 0.29308772087097167969 0.29568827152252197266 0.29807493090629577637 0.30038306117057800293 0.30217942595481872559 0.30350837111473083496 0.30405569076538085938 0.30383980274200439453 0.30298480391502380371 0.30151411890983581543 0.29971864819526672363 0.29750707745552062988 0.29513955116271972656 0.29202798008918762207 0.28811013698577880859 0.28246906399726867676 0.27530726790428161621 0.26540905237197875977 0.25390863418579101562 0.24008837342262268066 0.22598977386951446533 0.21072840690612792969 0.19644995033740997314 0.18211019039154052734 0.16917455196380615234 0.15617780387401580811 0.14426255226135253906 0.13208536803722381592 0.12067736685276031494 0.1087023615837097168 0.097049124538898468018 0.084320023655891418457 0.071422666311264038086 0.056607645004987716675 0.041071079671382904053 0.024203840643167495728 0.012534448876976966858 0.048387326300144195557 0.050000000745058059692 0.045168686658143997192 0.0045470413751900196075 0 0 0 0 0 0 0 0 0 0 0 0 0 0 0 0 0 0 0 0 0 0 0 0 0 0 0 0 0 0 0 0 0 0 0 0 0 0 0 0 0 0 0 0 0 0 0 0 0 0 0 0 0 0 0 0 0 0 0 0 0 0 0 0 
0 0 0 0 0 0 0 0 0 0 0 0 0 0 0 0 0 0 0 0 0 0 0 0 0 0 0 0 0 0 0 0 0 0.020540287718176841736 0.049403466284275054932 0.066542990505695343018 0.083682172000408172607 0.1055496707558631897 0.12557865679264068604 0.14034408330917358398 0.15366600453853607178 0.16171009838581085205 0.16614982485771179199 0.18069009482860565186 0.20512776076793670654 0.22234775125980377197 0.24033869802951812744 0.26154038310050964355 0.29371303319931030273 0.34090599417686462402 0.4032986760139465332 0.41252341866493225098 0.36081689596176147461 0.32374709844589233398 0.30438303947448730469 0.29930582642555236816 0.29643487930297851562 0.29034873843193054199 0.28297436237335205078 0.27537190914154052734 0.27572470903396606445 0.2838306725025177002 0.2862707674503326416 0.27955517172813415527 0.26402562856674194336 0.2533556520938873291 0.24690344929695129395 0.24155914783477783203 0.23321904242038726807 0.22989760339260101318 0.22275620698928833008 0.2139927297830581665 0.20456494390964508057 0.19482035934925079346 0.18399553000926971436 0.17273147404193878174 0.16060164570808410645 0.14900341629981994629 0.13766674697399139404 0.13419578969478607178 0.13893617689609527588 0.14366331696510314941 0.14845895767211914062 0.15297085046768188477 0.15752772986888885498 0.1617972254753112793 0.16610474884510040283 0.17012654244899749756 0.17417789995670318604 0.17794635891914367676 0.18174278736114501953 0.18527966737747192383 0.18886451423168182373 0.1922197192907333374 0.19564418494701385498 0.19886614382266998291 0.19736018776893615723 0.19655022025108337402 0.20012181997299194336 0.20341865718364715576 0.20672556757926940918 0.20976299047470092773 0.21283400058746337891 0.2156769484281539917 0.21859307587146759033 0.22134068608283996582 0.22423644363880157471 0.22705708444118499756 0.23014137148857116699 0.23324345052242279053 0.23674303293228149414 0.24039028584957122803 0.24470384418964385986 0.2493877410888671875 0.25508648157119750977 0.26135370135307312012 0.26893660426139831543 0.27687475085258483887 0.28572922945022583008 0.29425251483917236328 0.30308502912521362305 0.31097328662872314453 0.31865140795707702637 0.3252385258674621582 0.33152216672897338867 0.33679085969924926758 0.34168738126754760742 0.34563687443733215332 0.34908890724182128906 0.3515892326831817627 0.35340759158134460449 0.3542741239070892334 0.35426875948905944824 0.35348922014236450195 0.35210999846458435059 0.35057008266448974609 0.3489685356616973877 0.34777462482452392578 0.34703043103218078613 0.34679868817329406738 0.34691062569618225098 0.34722650051116943359 0.34764775633811950684 0.34800261259078979492 0.3482913672924041748 0.34850010275840759277 0.34869664907455444336 0.34888768196105957031 0.3491363525390625 0.34941795468330383301 0.34972846508026123047 0.34996521472930908203 0.35009497404098510742 0.35003674030303955078 0.34971851110458374023 0.34917157888412475586 0.34834197163581848145 0.34738719463348388672 0.34618812799453735352 0.34493905305862426758 0.34341225028038024902 0.34176793694496154785 0.3397496342658996582 0.33760535717010498047 0.33486092090606689453 0.33185431361198425293 0.32816839218139648438 0.32456234097480773926 0.32067438960075378418 0.31728917360305786133 0.31406617164611816406 0.31156513094902038574 0.30925777554512023926 0.30731981992721557617 0.30526024103164672852 0.30321541428565979004 0.30071145296096801758 0.29810547828674316406 0.29509845376014709473 0.29223260283470153809 0.28920677304267883301 0.28657218813896179199 0.28398725390434265137 0.28176766633987426758 0.27952077984809875488 0.2774899899959564209 0.27531579136848449707 0.27364844083786010742 0.27316465973854064941 0.27373775839805603027 0.2754288017749786377 0.2780354619026184082 0.28088343143463134766 0.2832686007022857666 0.28558117151260375977 0.28761315345764160156 0.28972899913787841797 0.29175207018852233887 0.29400166869163513184 0.29613298177719116211 0.2982756197452545166 0.30003434419631958008 0.30146172642707824707 0.30226090550422668457 0.30247327685356140137 0.3021221160888671875 0.30122879147529602051 0.2999572455883026123 0.29821193218231201172 0.2961661219596862793 0.29329127073287963867 0.28954181075096130371 0.28406694531440734863 0.27709421515464782715 0.26746809482574462891 0.25627413392066955566 0.24274484813213348389 0.2288061976432800293 0.21349605917930603027 0.1988827437162399292 0.18383987247943878174 0.16997152566909790039 0.15583038330078125 0.14278139173984527588 0.12948474287986755371 0.1171777769923210144 0.10448123514652252197 0.092336177825927734375 0.079237915575504302979 0.065853655338287353516 0.050513297319412231445 0.034805029630661010742 0.017997812479734420776 0.02193851955235004425 0.050000000745058059692 0.050000000745058059692 0.02498280256986618042 0 0 0 0 0 0 0 0 0 0 0 0 0 0 0 0 0 0 0 0 0 0 0 0 0 0 0 0 0 0 0 0 0 0 0 0 0 0 0 0 0 0 0 0 0 0 0 0 0 0 0 0 0 0 0 0 0 0 0 0 0 0 0 0 0 
0 0 0 0 0 0 0 0 0 0 0 0 0 0 0 0 0 0 0 0 0 0 0 0 0 0 0 0 0 0 0 0 0.0023674371186643838882 0.028361847624182701111 0.056466348469257354736 0.071998909115791320801 0.089576780796051025391 0.11103812605142593384 0.13068154454231262207 0.14532077312469482422 0.15513634681701660156 0.16398750245571136475 0.17011187970638275146 0.18880584836006164551 0.21155595779418945312 0.22733898460865020752 0.24552199244499206543 0.27079465985298156738 0.31238335371017456055 0.37837761640548706055 0.42142441868782043457 0.4018045961856842041 0.35328760743141174316 0.32572150230407714844 0.30300986766815185547 0.29845461249351501465 0.29231673479080200195 0.28464522957801818848 0.27653473615646362305 0.27059018611907958984 0.27548417448997497559 0.28365242481231689453 0.28326949477195739746 0.27314892411231994629 0.25745931267738342285 0.24785831570625305176 0.24212093651294708252 0.23645181953907012939 0.22913378477096557617 0.22476215660572052002 0.21683864295482635498 0.20797312259674072266 0.19840991497039794922 0.18862268328666687012 0.17790357768535614014 0.16695378720760345459 0.15540708601474761963 0.1446081697940826416 0.13425873219966888428 0.13132452964782714844 0.13605411350727081299 0.14075362682342529297 0.14551216363906860352 0.14998619258403778076 0.15450657904148101807 0.15874306857585906982 0.16301831603050231934 0.16701048612594604492 0.17103181779384613037 0.17477165162563323975 0.1785386204719543457 0.18204757571220397949 0.18560369312763214111 0.18893150985240936279 0.19232794642448425293 0.19552376866340637207 0.19376413524150848389 0.19275850057601928711 0.1963618844747543335 0.19971111416816711426 0.20310062170028686523 0.20623479783535003662 0.20941723883152008057 0.21236656606197357178 0.21538357436656951904 0.21820981800556182861 0.22117477655410766602 0.22406044602394104004 0.22722536325454711914 0.23042815923690795898 0.234068259596824646 0.23788747191429138184 0.24243254959583282471 0.24738840758800506592 0.25343114137649536133 0.26008293032646179199 0.26812785863876342773 0.27652591466903686523 0.28583994507789611816 0.29472652077674865723 0.30381721258163452148 0.31178554892539978027 0.31936025619506835938 0.32569134235382080078 0.33156654238700866699 0.33634665608406066895 0.34064570069313049316 0.34398493170738220215 0.34676906466484069824 0.34864592552185058594 0.34984645247459411621 0.35021167993545532227 0.34978970885276794434 0.34873807430267333984 0.34718078374862670898 0.34556284546852111816 0.34395501017570495605 0.3428115546703338623 0.34216400980949401855 0.34205147624015808105 0.34230983257293701172 0.34277048707008361816 0.3433443605899810791 0.34383061528205871582 0.34424504637718200684 0.34455990791320800781 0.34486269950866699219 0.34514978528022766113 0.3455028533935546875 0.34588831663131713867 0.34632647037506103516 0.34670600295066833496 0.3470255732536315918 0.34718689322471618652 0.34716019034385681152 0.34693247079849243164 0.3464800715446472168 0.34588414430618286133 0.34507605433464050293 0.34418493509292602539 0.34303531050682067871 0.34169825911521911621 0.33985319733619689941 0.33779829740524291992 0.33516493439674377441 0.33228692412376403809 0.32875964045524597168 0.32528933882713317871 0.32151505351066589355 0.31819435954093933105 0.31497812271118164062 0.31242236495018005371 0.31001526117324829102 0.30797627568244934082 0.3058274388313293457 0.30374923348426818848 0.30129146575927734375 0.29879900813102722168 0.29595980048179626465 0.29326099157333374023 0.29040205478668212891 0.28788593411445617676 0.28539732098579406738 0.28323978185653686523 0.2810344696044921875 0.27902340888977050781 0.27689725160598754883 0.27555623650550842285 0.27524918317794799805 0.27577984333038330078 0.27719280123710632324 0.27936878800392150879 0.28186905384063720703 0.28386846184730529785 0.28571289777755737305 0.2872784733772277832 0.28889572620391845703 0.29047545790672302246 0.29230770468711853027 0.294124603271484375 0.29603844881057739258 0.29769146442413330078 0.29916396737098693848 0.30018007755279541016 0.30079701542854309082 0.30093672871589660645 0.30061018466949462891 0.29985326528549194336 0.2985700070858001709 0.29684722423553466797 0.2942212224006652832 0.2906729578971862793 0.28543525934219360352 0.27876490354537963867 0.26959016919136047363 0.25891691446304321289 0.24591496586799621582 0.23233282566070556641 0.21711078286170959473 0.2021897435188293457 0.18634212017059326172 0.17134471237659454346 0.15579049289226531982 0.14133438467979431152 0.1266565173864364624 0.11326326429843902588 0.099729754030704498291 0.086999215185642242432 0.07319892197847366333 0.059265810996294021606 0.043774314224720001221 0.028197571635246276855 0.011708620935678482056 0.038551621139049530029 0.050000000745058059692 0.038769938051700592041 0.00085201108595356345177 0 0 0 0 0 0 0 0 0 0 0 0 0 0 0 0 0 0 0 0 0 0 0 0 0 0 0 0 0 0 0 0 0 0 0 0 0 0 0 0 0 0 0 0 0 0 0 0 0 0 0 0 0 0 0 0 0 0 0 0 0 0 0 0 0 
0 0 0 0 0 0 0 0 0 0 0 0 0 0 0 0 0 0 0 0 0 0 0 0 0 0 0 0 0 0 0 0 0.0044008977711200714111 0.03430858999490737915 0.062921203672885894775 0.081658497452735900879 0.098262526094913482666 0.114327259361743927 0.13393202424049377441 0.14706285297870635986 0.15771973133087158203 0.15911564230918884277 0.17174331843852996826 0.19506624341011047363 0.21343919634819030762 0.22979690134525299072 0.24917417764663696289 0.28136521577835083008 0.33228960633277893066 0.39407625794410705566 0.42354151606559753418 0.39621412754058837891 0.34666100144386291504 0.32059568166732788086 0.30237457156181335449 0.29777154326438903809 0.28839090466499328613 0.2790349125862121582 0.27057307958602905273 0.26759329438209533691 0.27518901228904724121 0.28281649947166442871 0.2792110145092010498 0.26627010107040405273 0.2513580620288848877 0.24248197674751281738 0.2377605438232421875 0.23153825104236602783 0.22480554878711700439 0.22030444443225860596 0.21151454746723175049 0.20252180099487304688 0.19292049109935760498 0.18317866325378417969 0.17263254523277282715 0.16200840473175048828 0.15096619725227355957 0.14078430831432342529 0.1311426311731338501 0.12857791781425476074 0.13328953087329864502 0.13795369863510131836 0.14267268776893615723 0.1471112370491027832 0.15159739553928375244 0.15580300986766815186 0.16004809737205505371 0.16401258111000061035 0.16800589859485626221 0.17171944677829742432 0.17545966804027557373 0.17894344031810760498 0.18247367441654205322 0.18577712774276733398 0.18914884328842163086 0.19232171773910522461 0.1933892369270324707 0.1944637596607208252 0.19785235822200775146 0.2010507434606552124 0.2043542712926864624 0.20732538402080535889 0.20664845407009124756 0.20936405658721923828 0.21249461174011230469 0.21540781855583190918 0.2184473872184753418 0.22140158712863922119 0.22465111315250396729 0.22796069085597991943 0.23175463080406188965 0.23576240241527557373 0.24055013060569763184 0.24577875435352325439 0.25214967131614685059 0.2591476738452911377 0.26758551597595214844 0.27635428309440612793 0.28601700067520141602 0.29515376687049865723 0.30438324809074401855 0.31232699751853942871 0.31970167160034179688 0.3257032930850982666 0.3311150968074798584 0.33538034558296203613 0.33908486366271972656 0.34184727072715759277 0.34402814507484436035 0.34536960721015930176 0.34605416655540466309 0.34601363539695739746 0.34527122974395751953 0.34402799606323242188 0.34236645698547363281 0.34072735905647277832 0.33915817737579345703 0.33809158205986022949 0.3375523984432220459 0.33755624294281005859 0.33794695138931274414 0.33853161334991455078 0.33923092484474182129 0.33982184529304504395 0.34033364057540893555 0.3407294154167175293 0.34111312031745910645 0.34147465229034423828 0.34191161394119262695 0.34238445758819580078 0.34293439984321594238 0.34344279766082763672 0.34393671154975891113 0.34430181980133056641 0.34454670548439025879 0.34461587667465209961 0.34451729059219360352 0.34426313638687133789 0.34381368756294250488 0.34323909878730773926 0.34241303801536560059 0.34137016534805297852 0.33981904387474060059 0.33790874481201171875 0.33536192774772644043 0.33258345723152160645 0.32918396592140197754 0.32583177089691162109 0.32215282320976257324 0.31887301802635192871 0.31563964486122131348 0.31300982832908630371 0.31048759818077087402 0.30834001302719116211 0.3061059415340423584 0.30400520563125610352 0.30161502957344055176 0.2992661595344543457 0.29663878679275512695 0.2941500246524810791 0.29150193929672241211 0.28913405537605285645 0.28675231337547302246 0.28465852141380310059 0.28249129652976989746 0.28049555420875549316 0.27847129106521606445 0.27739286422729492188 0.2771899104118347168 0.27769380807876586914 0.27892386913299560547 0.28074949979782104492 0.28292995691299438477 0.28458777070045471191 0.28601184487342834473 0.28715363144874572754 0.28831219673156738281 0.28947779536247253418 0.29091244935989379883 0.29241588711738586426 0.29406815767288208008 0.29557615518569946289 0.29703605175018310547 0.29819446802139282227 0.29911628365516662598 0.29963740706443786621 0.29975607991218566895 0.29940956830978393555 0.29849603772163391113 0.29702943563461303711 0.29460632801055908203 0.29124093055725097656 0.28624948859214782715 0.2799186408519744873 0.27126553654670715332 0.26120328903198242188 0.24883578717708587646 0.23570956289768218994 0.22066327929496765137 0.20548847317695617676 0.18885332345962524414 0.17271226644515991211 0.15570968389511108398 0.13980616629123687744 0.12371099740266799927 0.1092136576771736145 0.094770051538944244385 0.081140972673892974854 0.06665877997875213623 0.052514500916004180908 0.037129852920770645142 0.021877693012356758118 0.013506815768778324127 0.048022940754890441895 0.04663422703742980957 0.010206284001469612122 0 0 0 0 0 0 0 0 0 0 0 0 0 0 0 0 0 0 0 0 0 0 0 0 0 0 0 0 0 0 0 0 0 0 0 0 0 0 0 0 0 0 0 0 0 0 0 0 0 0 0 0 0 0 0 0 0 0 0 0 0 0 0 0 0 0 
0 0 0 0 0 0 0 0 0 0 0 0 0 0 0 0 0 0 0 0 0 0 0 0 0 0 0 0 0 0 0 0 0.0095913875848054885864 0.038981959223747253418 0.067307077348232269287 0.09042860567569732666 0.10801022499799728394 0.12228289246559143066 0.13908976316452026367 0.14528213441371917725 0.15540350973606109619 0.16081444919109344482 0.17712189257144927979 0.19824509322643280029 0.21543624997138977051 0.232677459716796875 0.25385212898254394531 0.29055801033973693848 0.34136810898780822754 0.39611405134201049805 0.41618746519088745117 0.3831062614917755127 0.33465602993965148926 0.3135776817798614502 0.301273345947265625 0.29573869705200195312 0.28293591737747192383 0.27331489324569702148 0.26533076167106628418 0.26572662591934204102 0.27475637197494506836 0.28111532330513000488 0.2744852602481842041 0.25843396782875061035 0.24484769999980926514 0.23633649945259094238 0.23338615894317626953 0.22619043290615081787 0.21936409175395965576 0.21501007676124572754 0.20606541633605957031 0.19706605374813079834 0.18748383224010467529 0.17783723771572113037 0.16750243306159973145 0.15721207857131958008 0.14663754403591156006 0.13698923587799072266 0.12792994081974029541 0.12565696239471435547 0.13034051656723022461 0.13496312499046325684 0.13964138925075531006 0.14404325187206268311 0.14849369227886199951 0.15266695618629455566 0.15688017010688781738 0.1608152538537979126 0.16477918624877929688 0.16846552491188049316 0.17217831313610076904 0.17563641071319580078 0.17914059758186340332 0.18241994082927703857 0.18576741218566894531 0.18891780078411102295 0.19215929508209228516 0.19522875547409057617 0.19841386377811431885 0.20145010948181152344 0.20462521910667419434 0.20742903649806976318 0.20393544435501098633 0.20635940134525299072 0.20962738990783691406 0.21264788508415222168 0.2157815396785736084 0.21882306039333343506 0.22217930853366851807 0.22562107443809509277 0.22960241138935089111 0.2338387221097946167 0.23890665173530578613 0.24443292617797851562 0.25114017724990844727 0.25846752524375915527 0.26724851131439208984 0.27631366252899169922 0.28622615337371826172 0.29550763964653015137 0.30476006865501403809 0.3125731050968170166 0.31964540481567382812 0.32523313164710998535 0.33010879158973693848 0.33380949497222900391 0.33689025044441223145 0.33907175064086914062 0.34066748619079589844 0.34150916337966918945 0.34173318743705749512 0.34134021401405334473 0.3403332829475402832 0.33894813060760498047 0.33723053336143493652 0.33560934662818908691 0.33411240577697753906 0.33314400911331176758 0.33272475004196166992 0.33284667134284973145 0.33336350321769714355 0.33406117558479309082 0.33487010002136230469 0.33554887771606445312 0.33614003658294677734 0.33660098910331726074 0.33705121278762817383 0.33747723698616027832 0.33799248933792114258 0.3385524451732635498 0.3392187654972076416 0.33986350893974304199 0.34054201841354370117 0.34112113714218139648 0.34164816141128540039 0.342021942138671875 0.34228140115737915039 0.34237170219421386719 0.34228545427322387695 0.34201705455780029297 0.3414897620677947998 0.34070923924446105957 0.33944734930992126465 0.33779934048652648926 0.33540987968444824219 0.33271294832229614258 0.32941931486129760742 0.32616823911666870117 0.32257917523384094238 0.3193346858024597168 0.31607124209403991699 0.31335601210594177246 0.31070882081985473633 0.30844840407371520996 0.30613186955451965332 0.30402123928070068359 0.30171716213226318359 0.29953590035438537598 0.2971509397029876709 0.29491159319877624512 0.29250308871269226074 0.29030975699424743652 0.28803846240043640137 0.28600263595581054688 0.28386315703392028809 0.28187215328216552734 0.2800000607967376709 0.27911347150802612305 0.27898675203323364258 0.27947875857353210449 0.2805798947811126709 0.28212904930114746094 0.28401556611061096191 0.28538015484809875488 0.28643980622291564941 0.28720989823341369629 0.28795999288558959961 0.2887497246265411377 0.28980979323387145996 0.29098683595657348633 0.29235151410102844238 0.29367733001708984375 0.29506418108940124512 0.29628613591194152832 0.29740354418754577637 0.2981891334056854248 0.29863077402114868164 0.29858610033988952637 0.29793968796730041504 0.2966505587100982666 0.29437020421028137207 0.29115450382232666016 0.28640159964561462402 0.28043043613433837891 0.27235069870948791504 0.26297113299369812012 0.25132346153259277344 0.23872879147529602051 0.2239166945219039917 0.20850932598114013672 0.19106376171112060547 0.17372176051139831543 0.155187264084815979 0.13774842023849487305 0.1201473623514175415 0.10437698662281036377 0.088605470955371856689 0.074061855673789978027 0.059146054089069366455 0.044962491840124130249 0.029851002618670463562 0.015097419731318950653 0.029697859659790992737 0.050000000745058059692 0.024754481390118598938 0 0 0 0 0 0 0 0 0 0 0 0 0 0 0 0 0 0 0 0 0 0 0 0 0 0 0 0 0 0 0 0 0 0 0 0 0 0 0 0 0 0 0 0 0 0 0 0 0 0 0 0 0 0 0 0 0 0 0 0 0 0 0 0 0 0 0 
0 0 0 0 0 0 0 0 0 0 0 0 0 0 0 0 0 0 0 0 0 0 0 0 0 0 0 0 0 0 0 3.3089392672991380095e-05 0.016265934333205223083 0.045916154980659484863 0.075616247951984405518 0.098870806396007537842 0.11348064988851547241 0.13128963112831115723 0.1426010429859161377 0.14661160111427307129 0.15408538281917572021 0.16381552815437316895 0.18160115182399749756 0.20018775761127471924 0.21770024299621582031 0.23625220358371734619 0.2581691443920135498 0.29328781366348266602 0.34572720527648925781 0.40189054608345031738 0.39781492948532104492 0.3526687324047088623 0.32006192207336425781 0.31002199649810791016 0.30244037508964538574 0.2899087071418762207 0.27637502551078796387 0.26784947514533996582 0.26094278693199157715 0.26413881778717041016 0.27377015352249145508 0.27827993035316467285 0.26868423819541931152 0.25157439708709716797 0.23939032852649688721 0.23247775435447692871 0.22981794178485870361 0.2213007807731628418 0.21410825848579406738 0.20989398658275604248 0.20108334720134735107 0.19211922585964202881 0.18258535861968994141 0.17305107414722442627 0.16292464733123779297 0.15293222665786743164 0.14274768531322479248 0.13352294266223907471 0.12491192668676376343 0.12285343557596206665 0.12749950587749481201 0.13208024203777313232 0.13671804964542388916 0.14108344912528991699 0.14549849927425384521 0.14963980019092559814 0.15382154285907745361 0.15772792696952819824 0.16166351735591888428 0.16532395780086517334 0.16901090741157531738 0.17244511842727661133 0.17592549324035644531 0.17918306589126586914 0.18250885605812072754 0.1856393665075302124 0.18886102735996246338 0.1919126659631729126 0.19508028030395507812 0.19810001552104949951 0.20125570893287658691 0.20405754446983337402 0.20103631913661956787 0.20365180075168609619 0.20706756412982940674 0.2102082669734954834 0.21345256268978118896 0.21659941971302032471 0.22008304297924041748 0.2236776500940322876 0.22786821424961090088 0.23235221207141876221 0.23771266639232635498 0.24352879822254180908 0.25053837895393371582 0.25813138484954833984 0.26715075969696044922 0.27638518810272216797 0.28639900684356689453 0.29568570852279663086 0.30483010411262512207 0.31241813302040100098 0.31912654638290405273 0.32427647709846496582 0.32862231135368347168 0.33179125189781188965 0.33430719375610351562 0.33598190546035766602 0.33708512783050537109 0.33752018213272094727 0.33738538622856140137 0.33673116564750671387 0.33553719520568847656 0.33406504988670349121 0.33233267068862915039 0.33075350522994995117 0.32934102416038513184 0.32847106456756591797 0.32816141843795776367 0.32838416099548339844 0.32900315523147583008 0.32978788018226623535 0.33067762851715087891 0.3314177095890045166 0.3320617973804473877 0.33256623148918151855 0.33306387066841125488 0.33354127407073974609 0.33412635326385498047 0.33477112650871276855 0.33555462956428527832 0.33633691072463989258 0.33719864487648010254 0.33798518776893615723 0.33877852559089660645 0.33943325281143188477 0.3400160372257232666 0.34041061997413635254 0.34064096212387084961 0.34063729643821716309 0.3403517603874206543 0.33977261185646057129 0.33872756361961364746 0.33729857206344604492 0.33515965938568115234 0.33259555697441101074 0.32937765121459960938 0.32619884610176086426 0.32267722487449645996 0.31946673989295959473 0.3161799013614654541 0.31339055299758911133 0.31063768267631530762 0.30828434228897094727 0.30590531229972839355 0.3037980496883392334 0.30158382654190063477 0.29955890774726867676 0.29739710688591003418 0.2953859865665435791 0.29320299625396728516 0.29116365313529968262 0.28898456692695617676 0.28698176145553588867 0.28484645485877990723 0.2828496098518371582 0.28112313151359558105 0.28034770488739013672 0.28027352690696716309 0.28076973557472229004 0.28180283308029174805 0.28318414092063903809 0.28487181663513183594 0.28605806827545166016 0.28689426183700561523 0.28743210434913635254 0.28791940212249755859 0.2884559929370880127 0.28922945261001586914 0.2901363074779510498 0.29124680161476135254 0.29238268733024597168 0.29363936185836791992 0.29481557011604309082 0.29596224427223205566 0.29683101177215576172 0.29739218950271606445 0.29746097326278686523 0.29690474271774291992 0.29565954208374023438 0.29341366887092590332 0.29026773571968078613 0.28568273782730102539 0.2800083458423614502 0.2724310457706451416 0.26366424560546875 0.2526715397834777832 0.240567818284034729 0.22598272562026977539 0.21038170158863067627 0.19222094118595123291 0.17380848526954650879 0.15390259027481079102 0.13508377969264984131 0.11599332839250564575 0.098729178309440612793 0.081792101263999938965 0.06661786884069442749 0.051436040550470352173 0.037317506968975067139 0.022575348615646362305 0.009150960482656955719 0.044871713966131210327 0.04219989478588104248 0.0012720091035589575768 0 0 0 0 0 0 0 0 0 0 0 0 0 0 0 0 0 0 0 0 0 0 0 0 0 0 0 0 0 0 0 0 0 0 0 0 0 0 0 0 0 0 0 0 0 0 0 0 0 0 0 0 0 0 0 0 0 0 0 0 0 0 0 0 0 0 0 
0 0 0 0 0 0 0 0 0 0 0 0 0 0 0 0 0 0 0 0 0 0 0 0 0 0 0 0 0 0 0 0.00062831520335748791695 0.01970141194760799408 0.052975282073020935059 0.085608169436454772949 0.10879008471965789795 0.1183408200740814209 0.13114722073078155518 0.1400798112154006958 0.14698989689350128174 0.15266516804695129395 0.16669784486293792725 0.18664307892322540283 0.20481306314468383789 0.22369271516799926758 0.24170213937759399414 0.26505127549171447754 0.30659258365631103516 0.37078407406806945801 0.41508388519287109375 0.38399150967597961426 0.32832062244415283203 0.30727997422218322754 0.30516481399536132812 0.29994624853134155273 0.2833385467529296875 0.27014166116714477539 0.26233920454978942871 0.25692361593246459961 0.26293724775314331055 0.27288511395454406738 0.27441069483757019043 0.26142007112503051758 0.24521373212337493896 0.23515088856220245361 0.22966714203357696533 0.22587798535823822021 0.2164370119571685791 0.20985765755176544189 0.20495110750198364258 0.19613853096961975098 0.18715502321720123291 0.17766998708248138428 0.16826356947422027588 0.15835587680339813232 0.14865510165691375732 0.13883328437805175781 0.12998819351196289062 0.12176812440156936646 0.11988516896963119507 0.12448719888925552368 0.12902213633060455322 0.13361559808254241943 0.13794107735157012939 0.14231745898723602295 0.14642380177974700928 0.15057127177715301514 0.15444672107696533203 0.15835213661193847656 0.16198520362377166748 0.16564510762691497803 0.16905477643013000488 0.17251105606555938721 0.17574685811996459961 0.17905123531818389893 0.18216228485107421875 0.18536493182182312012 0.18839962780475616455 0.19155070185661315918 0.19455352425575256348 0.1976909637451171875 0.20049868524074554443 0.19812865555286407471 0.20097373425960540771 0.20456147193908691406 0.20784963667392730713 0.21123772859573364258 0.21452565491199493408 0.21817827224731445312 0.2219689488410949707 0.22641745209693908691 0.23119468986988067627 0.23688830435276031494 0.24301238358020782471 0.25031167268753051758 0.25811952352523803711 0.26727750897407531738 0.27655020356178283691 0.28650593757629394531 0.29564291238784790039 0.30452880263328552246 0.31177717447280883789 0.31803756952285766602 0.32270374894142150879 0.32650130987167358398 0.32914566993713378906 0.33112618327140808105 0.33233809471130371094 0.33300763368606567383 0.33309733867645263672 0.33266943693161010742 0.33181557059288024902 0.33048859238624572754 0.32896521687507629395 0.32724386453628540039 0.32572054862976074219 0.32439774274826049805 0.32362380623817443848 0.32341420650482177734 0.32372343540191650391 0.32442545890808105469 0.32527709007263183594 0.32622489333152770996 0.32700559496879577637 0.3276818692684173584 0.32821363210678100586 0.32874670624732971191 0.32927089929580688477 0.32992979884147644043 0.33067151904106140137 0.33159202337265014648 0.33253324031829833984 0.33360072970390319824 0.33461198210716247559 0.33568292856216430664 0.33662083745002746582 0.33752018213272094727 0.33820402622222900391 0.33872553706169128418 0.33895826339721679688 0.33888202905654907227 0.33846223354339599609 0.33758178353309631348 0.33632034063339233398 0.33440378308296203613 0.33207392692565917969 0.32899418473243713379 0.3258692324161529541 0.32240015268325805664 0.31922137737274169922 0.31593081355094909668 0.31308966875076293945 0.31025689840316772461 0.30783516168594360352 0.30541566014289855957 0.30332493782043457031 0.30120387673377990723 0.2993240058422088623 0.29736000299453735352 0.29554918408393859863 0.29356715083122253418 0.29165598750114440918 0.28954344987869262695 0.28754159808158874512 0.28537708520889282227 0.28336504101753234863 0.28174641728401184082 0.28103241324424743652 0.28099706768989562988 0.28151252865791320801 0.28252992033958435059 0.28384050726890563965 0.28543680906295776367 0.28657582402229309082 0.28735220432281494141 0.28782072663307189941 0.28821545839309692383 0.28862714767456054688 0.28921365737915039062 0.28992226719856262207 0.29081225395202636719 0.29174435138702392578 0.29279476404190063477 0.29379490017890930176 0.2947845757007598877 0.29552900791168212891 0.29597267508506774902 0.29593452811241149902 0.29525905847549438477 0.29389595985412597656 0.29154959321022033691 0.28837096691131591797 0.28386199474334716797 0.27840375900268554688 0.27124160528182983398 0.26300328969955444336 0.2525851130485534668 0.24091461300849914551 0.2265271991491317749 0.21074469387531280518 0.19192898273468017578 0.17253774404525756836 0.15137000381946563721 0.13112416863441467285 0.11029803752899169922 0.091693200170993804932 0.073824860155582427979 0.058134648948907852173 0.042765233665704727173 0.028784679248929023743 0.014512612484395503998 0.025207456201314926147 0.048125699162483215332 0.016480987891554832458 0 0 0 0 0 0 0 0 0 0 0 0 0 0 0 0 0 0 0 0 0 0 0 0 0 0 0 0 0 0 0 0 0 0 0 0 0 0 0 0 0 0 0 0 0 0 0 0 0 0 0 0 0 0 0 0 0 0 0 0 0 0 0 0 0 0 0 0 
0 0 0 0 0 0 0 0 0 0 0 0 0 0 0 0 0 0 0 0 0 0 0 0 0 0 0 0 0 0 0 0.0016331009101122617722 0.029704481363296508789 0.066144905984401702881 0.093468949198722839355 0.10959374904632568359 0.11943630874156951904 0.1313826441764831543 0.13752993941307067871 0.14727552235126495361 0.15637484192848205566 0.17487728595733642578 0.19341777265071868896 0.20817776024341583252 0.22983686625957489014 0.25122368335723876953 0.28230872750282287598 0.33522194623947143555 0.40379735827445983887 0.42122980952262878418 0.37676349282264709473 0.32376089692115783691 0.30670624971389770508 0.30703568458557128906 0.29328188300132751465 0.2747370302677154541 0.2649040520191192627 0.25738677382469177246 0.25372895598411560059 0.26185634732246398926 0.27211868762969970703 0.26975902915000915527 0.2541504204273223877 0.23969148099422454834 0.23131892085075378418 0.22636167705059051514 0.22230225801467895508 0.2121648937463760376 0.20756314694881439209 0.20095132291316986084 0.19163659214973449707 0.18256780505180358887 0.17313149571418762207 0.16385926306247711182 0.15416221320629119873 0.14472408592700958252 0.13521398603916168213 0.1266841590404510498 0.11877742409706115723 0.11702936887741088867 0.12158730626106262207 0.12607729434967041016 0.13062715530395507812 0.13491329550743103027 0.13925148546695709229 0.14332321286201477051 0.14743700623512268066 0.15128222107887268066 0.1551583409309387207 0.15876506268978118896 0.1623992919921875 0.16578598320484161377 0.16922004520893096924 0.17243605852127075195 0.17572109401226043701 0.17881494760513305664 0.18200105428695678711 0.18502119183540344238 0.18815767765045166016 0.19114516675472259521 0.19426770508289337158 0.197088584303855896 0.19549065828323364258 0.1985794752836227417 0.20234459638595581055 0.20579282939434051514 0.20934508740901947021 0.21279826760292053223 0.2166477888822555542 0.22066131234169006348 0.22539344429969787598 0.23048196732997894287 0.23651525378227233887 0.24293567240238189697 0.25048238039016723633 0.25843119621276855469 0.26761162281036376953 0.27678531408309936523 0.28652712702751159668 0.29537355899810791016 0.30387717485427856445 0.31070876121520996094 0.31648820638656616211 0.32068049907684326172 0.32397487759590148926 0.32616195082664489746 0.32769614458084106445 0.32853871583938598633 0.32887738943099975586 0.32871544361114501953 0.32808464765548706055 0.32710218429565429688 0.32570180296897888184 0.32415947318077087402 0.32246306538581848145 0.3209940791130065918 0.3197479248046875 0.31905075907707214355 0.3189169466495513916 0.31928753852844238281 0.32004457712173461914 0.32093727588653564453 0.32191711664199829102 0.32271653413772583008 0.32340544462203979492 0.32394987344741821289 0.32450744509696960449 0.32507339119911193848 0.32580679655075073242 0.32665139436721801758 0.32771793007850646973 0.3288256227970123291 0.33010217547416687012 0.331333160400390625 0.33266440033912658691 0.33385777473449707031 0.335033416748046875 0.33596169948577880859 0.33671998977661132812 0.33713519573211669922 0.33721262216567993164 0.33690404891967773438 0.33612784743309020996 0.33497357368469238281 0.33320912718772888184 0.33107161521911621094 0.32822722196578979492 0.32520416378974914551 0.32177221775054931641 0.31862032413482666016 0.31534138321876525879 0.31248721480369567871 0.30961775779724121094 0.30716490745544433594 0.30473503470420837402 0.30267187952995300293 0.30063202977180480957 0.29886654019355773926 0.29704576730728149414 0.29537513852119445801 0.29352959990501403809 0.29170551896095275879 0.28961417078971862793 0.28758099675178527832 0.28535121679306030273 0.28330871462821960449 0.28173610568046569824 0.28103843331336975098 0.28102466464042663574 0.28156960010528564453 0.28261986374855041504 0.28395187854766845703 0.2855790257453918457 0.2868060767650604248 0.28769284486770629883 0.28826451301574707031 0.28874027729034423828 0.28916218876838684082 0.28970044851303100586 0.29031133651733398438 0.29104822874069213867 0.29178982973098754883 0.29258945584297180176 0.29332020878791809082 0.29399931430816650391 0.29443687200546264648 0.29455032944679260254 0.2942059934139251709 0.29322287440299987793 0.29159781336784362793 0.28902852535247802734 0.28571546077728271484 0.28117418289184570312 0.27581429481506347656 0.26891344785690307617 0.26103600859642028809 0.25101923942565917969 0.23964875936508178711 0.2253818511962890625 0.20943114161491394043 0.1900812685489654541 0.16990135610103607178 0.14754381775856018066 0.12584142386913299561 0.10368715971708297729 0.084128871560096740723 0.065571159124374389648 0.049504574388265609741 0.034037042409181594849 0.020249865949153900146 0.011031473055481910706 0.043403752148151397705 0.032520659267902374268 0 0 0 0 0 0 0 0 0 0 0 0 0 0 0 0 0 0 0 0 0 0 0 0 0 0 0 0 0 0 0 0 0 0 0 0 0 0 0 0 0 0 0 0 0 0 0 0 0 0 0 0 0 0 0 0 0 0 0 0 0 0 0 0 0 0 0 0 0 
0 0 0 0 0 0 0 0 0 0 0 0 0 0 0 0 0 0 0 0 0 0 0 0 0 0 0 0 0 0 4.0588100091554224491e-05 0.012570728547871112823 0.04907216876745223999 0.082786098122596740723 0.10098212212324142456 0.11299597471952438354 0.12094952911138534546 0.1307659149169921875 0.14095769822597503662 0.14906546473503112793 0.1597156226634979248 0.18037354946136474609 0.19631153345108032227 0.21351236104965209961 0.23485569655895233154 0.2592595517635345459 0.30067992210388183594 0.3687343895435333252 0.42069381475448608398 0.4167169034481048584 0.38208082318305969238 0.33391788601875305176 0.30836331844329833984 0.30675902962684631348 0.28412237763404846191 0.2672671973705291748 0.26019433140754699707 0.25300589203834533691 0.25078952312469482422 0.26055416464805603027 0.26983845233917236328 0.26358333230018615723 0.24667967855930328369 0.2343619614839553833 0.22705784440040588379 0.223168984055519104 0.21839965879917144775 0.20728382468223571777 0.20353423058986663818 0.1962709277868270874 0.18690732121467590332 0.1778154224157333374 0.1684659421443939209 0.15935796499252319336 0.1498893052339553833 0.14071626961231231689 0.13150684535503387451 0.1232695356011390686 0.11564732342958450317 0.11401856690645217896 0.11852844059467315674 0.12297006696462631226 0.12747290730476379395 0.13171659409999847412 0.13601338863372802734 0.1400476992130279541 0.14412526786327362061 0.14793813228607177734 0.15178303420543670654 0.15536189079284667969 0.15896937251091003418 0.16233249008655548096 0.16574402153491973877 0.16894015669822692871 0.17220610380172729492 0.17528331279754638672 0.17845362424850463867 0.18146002292633056641 0.18458180129528045654 0.18755505979061126709 0.19066447019577026367 0.19351711869239807129 0.19309055805206298828 0.19638280570507049561 0.20027758181095123291 0.20386062562465667725 0.20756646990776062012 0.21121297776699066162 0.21530981361865997314 0.21958734095096588135 0.22464874386787414551 0.23009026050567626953 0.2364972531795501709 0.24323023855686187744 0.25101223587989807129 0.25905445218086242676 0.26816499233245849609 0.27711999416351318359 0.28650292754173278809 0.29491901397705078125 0.30290627479553222656 0.30922144651412963867 0.31445020437240600586 0.31813398003578186035 0.32091686129570007324 0.32266080379486083984 0.32378181815147399902 0.32429942488670349121 0.3243624567985534668 0.32400339841842651367 0.32322463393211364746 0.32215732336044311523 0.32071909308433532715 0.31917914748191833496 0.31751453876495361328 0.31609651446342468262 0.31491625308990478516 0.31428170204162597656 0.31420683860778808594 0.31462273001670837402 0.31541746854782104492 0.31633597612380981445 0.31733354926109313965 0.31814080476760864258 0.31883412599563598633 0.31938713788986206055 0.31996899843215942383 0.32058107852935791016 0.32139921188354492188 0.32236108183860778809 0.32359200716018676758 0.32488325238227844238 0.32638409733772277832 0.32784342765808105469 0.32943546772003173828 0.33087638020515441895 0.33231219649314880371 0.33346441388130187988 0.33443307876586914062 0.33500394225120544434 0.33520475029945373535 0.33498245477676391602 0.33428493142127990723 0.33320730924606323242 0.33155840635299682617 0.32957628369331359863 0.32695916295051574707 0.32415717840194702148 0.32081854343414306641 0.31769081950187683105 0.31443285942077636719 0.31159117817878723145 0.30872651934623718262 0.30627384781837463379 0.30385991930961608887 0.30183640122413635254 0.29987406730651855469 0.2982057034969329834 0.29649707674980163574 0.29492521286010742188 0.29317042231559753418 0.29139870405197143555 0.2892958223819732666 0.28720000386238098145 0.28486663103103637695 0.2827695012092590332 0.28118720650672912598 0.2804724276065826416 0.28046575188636779785 0.28104659914970397949 0.28216552734375 0.28358092904090881348 0.28532692790031433105 0.28673455119132995605 0.28784969449043273926 0.28864091634750366211 0.28929618000984191895 0.28982844948768615723 0.29041323065757751465 0.29099744558334350586 0.29162502288818359375 0.29218283295631408691 0.29270878434181213379 0.29311326146125793457 0.29338189959526062012 0.29339241981506347656 0.29303398728370666504 0.29224890470504760742 0.29082795977592468262 0.28883817791938781738 0.28595516085624694824 0.28243076801300048828 0.2777760624885559082 0.27242946624755859375 0.26568359136581420898 0.25805300474166870117 0.24831664562225341797 0.23714475333690643311 0.22292086482048034668 0.20676983892917633057 0.18689043819904327393 0.16577383875846862793 0.14202830195426940918 0.11911840736865997314 0.095916964113712310791 0.075587064027786254883 0.056483533233404159546 0.040153108537197113037 0.024691788479685783386 0.011191243305802345276 0.03378887474536895752 0.045655786991119384766 0.0016660719411447644234 0 0 0 0 0 0 0 0 0 0 0 0 0 0 0 0 0 0 0 0 0 0 0 0 0 0 0 0 0 0 0 0 0 0 0 0 0 0 0 0 0 0 0 0 0 0 0 0 0 0 0 0 0 0 0 0 0 0 0 0 0 0 0 0 0 0 0 0 0 
0 0 0 0 0 0 0 0 0 0 0 0 0 0 0 0 0 0 0 0 0 0 0 0 0 0 0 0 0 0 0.0033056344836950302124 0.027364080771803855896 0.06064786761999130249 0.091263912618160247803 0.1091082841157913208 0.11655396968126296997 0.12338515371084213257 0.13063301146030426025 0.14058220386505126953 0.14798863232135772705 0.16094091534614562988 0.18179939687252044678 0.20110177993774414062 0.2189035266637802124 0.23861764371395111084 0.26678702235221862793 0.3181101679801940918 0.38272705674171447754 0.42496338486671447754 0.40815314650535583496 0.36581939458847045898 0.32704073190689086914 0.30668753385543823242 0.29341894388198852539 0.2726230919361114502 0.26117965579032897949 0.2552089989185333252 0.24890194833278656006 0.24816748499870300293 0.25979638099670410156 0.26681667566299438477 0.25619941949844360352 0.23922196030616760254 0.22930318117141723633 0.22268597781658172607 0.21969984471797943115 0.21386764943599700928 0.2026211172342300415 0.19941166043281555176 0.19189599156379699707 0.18233044445514678955 0.17326287925243377686 0.16404572129249572754 0.15512451529502868652 0.14588537812232971191 0.13696029782295227051 0.12801934778690338135 0.12003348767757415771 0.11265503615140914917 0.11112494021654129028 0.1155872344970703125 0.11998147517442703247 0.12443815916776657104 0.12864002585411071777 0.13289597630500793457 0.1368935704231262207 0.14093565940856933594 0.14471693336963653564 0.14853151142597198486 0.15208357572555541992 0.15566566586494445801 0.15900665521621704102 0.16239732503890991211 0.16557522118091583252 0.16882403194904327393 0.17188654839992523193 0.17504316568374633789 0.17803758382797241211 0.18114605545997619629 0.18410778045654296875 0.18720684945583343506 0.19016771018505096436 0.19292812049388885498 0.19598525762557983398 0.1992994844913482666 0.20249225199222564697 0.2058970332145690918 0.20956298708915710449 0.21425138413906097412 0.21880267560482025146 0.22420231997966766357 0.23000124096870422363 0.2367788851261138916 0.24381209909915924072 0.25180336833000183105 0.25989639759063720703 0.26887315511703491211 0.27753633260726928711 0.28647863864898681641 0.29439151287078857422 0.30179938673973083496 0.30756017565727233887 0.31222438812255859375 0.31540882587432861328 0.31770911812782287598 0.31905180215835571289 0.31981456279754638672 0.3200652003288269043 0.31991615891456604004 0.31941708922386169434 0.31854337453842163086 0.31742942333221435547 0.31597760319709777832 0.31445041298866271973 0.31281414628028869629 0.31143322587013244629 0.3102982938289642334 0.30970525741577148438 0.30966827273368835449 0.31011244654655456543 0.31092998385429382324 0.3118635714054107666 0.31287166476249694824 0.31368452310562133789 0.31438374519348144531 0.31494981050491333008 0.31556200981140136719 0.31622582674026489258 0.31713345646858215332 0.31821468472480773926 0.31960839033126831055 0.3210767209529876709 0.32278838753700256348 0.32445612549781799316 0.32627856731414794922 0.3279317021369934082 0.32958543300628662109 0.33092176914215087891 0.33206084370613098145 0.3327560722827911377 0.33305373787879943848 0.33289796113967895508 0.33226415514945983887 0.33124765753746032715 0.3296858668327331543 0.32782214879989624023 0.3253815770149230957 0.32278755307197570801 0.31966516375541687012 0.31659981608390808105 0.31336644291877746582 0.31055182218551635742 0.3077227175235748291 0.30530235171318054199 0.30292615294456481934 0.30095052719116210938 0.29905661940574645996 0.29746335744857788086 0.29583460092544555664 0.29432207345962524414 0.29261085391044616699 0.29085201025009155273 0.28871786594390869141 0.28653535246849060059 0.28407645225524902344 0.28189736604690551758 0.28025728464126586914 0.27949932217597961426 0.27948459982872009277 0.28009885549545288086 0.28129941225051879883 0.28282442688941955566 0.28472423553466796875 0.28633481264114379883 0.28770822286605834961 0.28873071074485778809 0.28958898782730102539 0.29027059674263000488 0.29095119237899780273 0.29155448079109191895 0.29211527109146118164 0.29253298044204711914 0.29282996058464050293 0.2929407954216003418 0.29282280802726745605 0.29242011904716491699 0.29159784317016601562 0.29037523269653320312 0.28851759433746337891 0.28616237640380859375 0.28295886516571044922 0.27920523285865783691 0.27439931035041809082 0.26900663971900939941 0.26232263445854187012 0.25482708215713500977 0.24524441361427307129 0.23415930569171905518 0.2198877185583114624 0.20347872376441955566 0.18284918367862701416 0.16062419116497039795 0.13578544557094573975 0.11195984482765197754 0.087950415909290313721 0.067048914730548858643 0.047589484602212905884 0.031154779717326164246 0.015836937353014945984 0.019553331658244132996 0.049328438937664031982 0.014735257253050804138 0 0 0 0 0 0 0 0 0 0 0 0 0 0 0 0 0 0 0 0 0 0 0 0 0 0 0 0 0 0 0 0 0 0 0 0 0 0 0 0 0 0 0 0 0 0 0 0 0 0 0 0 0 0 0 0 0 0 0 0 0 0 0 0 0 0 0 0 0 0 
0 0 0 0 0 0 0 0 0 0 0 0 0 0 0 0 0 0 0 0 0 0 0 0 0 0 0 0 0 0.0013740818249061703682 0.016699004918336868286 0.043165780603885650635 0.071656495332717895508 0.093515567481517791748 0.10687952488660812378 0.11716185510158538818 0.12532819807529449463 0.13480490446090698242 0.14243090152740478516 0.15138642489910125732 0.1652444005012512207 0.1851762235164642334 0.20552845299243927002 0.22302705049514770508 0.24253438413143157959 0.27122202515602111816 0.32440203428268432617 0.37882202863693237305 0.41700917482376098633 0.40983122587203979492 0.35649472475051879883 0.31112277507781982422 0.29379823803901672363 0.28056383132934570312 0.26403588056564331055 0.25639945268630981445 0.25033804774284362793 0.24479420483112335205 0.24708010256290435791 0.26013538241386413574 0.26233616471290588379 0.24768811464309692383 0.2324683070182800293 0.22418588399887084961 0.21846166253089904785 0.21617479622364044189 0.20890519022941589355 0.19806681573390960693 0.19567582011222839355 0.18722447752952575684 0.17742294073104858398 0.16846099495887756348 0.15944588184356689453 0.15075166523456573486 0.14176356792449951172 0.13309340178966522217 0.12441598623991012573 0.11667297035455703735 0.10952825844287872314 0.10808955878019332886 0.11250075697898864746 0.11684438586235046387 0.12125167995691299438 0.12540864944458007812 0.1296208500862121582 0.13357916474342346191 0.13758344948291778564 0.14133112132549285889 0.14511354267597198486 0.14863756299018859863 0.15219333767890930176 0.15551167726516723633 0.15888112783432006836 0.16204084455966949463 0.16527284681797027588 0.16832120716571807861 0.1714648902416229248 0.17444750666618347168 0.17754362523555755615 0.18049529194831848145 0.18358564376831054688 0.18655213713645935059 0.18968531489372253418 0.19271263480186462402 0.195936545729637146 0.19906690716743469238 0.20242188870906829834 0.20684924721717834473 0.21333578228950500488 0.21818616986274719238 0.22395539283752441406 0.2301416248083114624 0.23731634020805358887 0.24466444551944732666 0.25286528468132019043 0.26098662614822387695 0.26977947354316711426 0.27808243036270141602 0.28649863600730895996 0.29382264614105224609 0.30056476593017578125 0.30570134520530700684 0.30974408984184265137 0.31239163875579833984 0.31418550014495849609 0.31511867046356201172 0.31552827358245849609 0.31552812457084655762 0.31519225239753723145 0.31458005309104919434 0.31363809108734130859 0.31249627470970153809 0.3110396265983581543 0.30952307581901550293 0.30790629982948303223 0.30654621124267578125 0.30543628334999084473 0.30486643314361572266 0.30485135316848754883 0.30531305074691772461 0.30614694952964782715 0.30709403753280639648 0.30811595916748046875 0.30894240736961364746 0.30966079235076904297 0.31025493144989013672 0.31091514229774475098 0.31164652109146118164 0.31265854835510253906 0.31386980414390563965 0.31543329358100891113 0.31708067655563354492 0.31899935007095336914 0.32086580991744995117 0.32290127873420715332 0.32474547624588012695 0.32659226655960083008 0.32809084653854370117 0.32938170433044433594 0.33019155263900756836 0.33058500289916992188 0.33050042390823364258 0.3299376368522644043 0.32899177074432373047 0.32751873135566711426 0.32576203346252441406 0.32347527146339416504 0.32106190919876098633 0.31817957758903503418 0.31530880928039550781 0.3121363520622253418 0.30935955047607421875 0.3065859675407409668 0.30422669649124145508 0.30191344022750854492 0.29999756813049316406 0.29817259311676025391 0.2966442108154296875 0.29507771134376525879 0.29360356926918029785 0.2919031977653503418 0.29012632369995117188 0.28793609142303466797 0.28564670681953430176 0.28303554654121398926 0.28073674440383911133 0.27899214625358581543 0.27816551923751831055 0.27812743186950683594 0.27876973152160644531 0.28005352616310119629 0.28169524669647216797 0.28374853730201721191 0.28554511070251464844 0.28714451193809509277 0.28835240006446838379 0.28939336538314819336 0.29021877050399780273 0.29100281000137329102 0.29163891077041625977 0.29216679930686950684 0.29249462485313415527 0.29262751340866088867 0.29251515865325927734 0.29209271073341369629 0.29135668277740478516 0.29015254974365234375 0.28856244683265686035 0.28632918000221252441 0.28365001082420349121 0.28015092015266418457 0.27617335319519042969 0.27120167016983032227 0.26572981476783752441 0.25905191898345947266 0.25162073969841003418 0.24210296571254730225 0.23101143538951873779 0.21656602621078491211 0.19955226778984069824 0.17784696817398071289 0.15460388362407684326 0.12875883281230926514 0.10406890511512756348 0.079325549304485321045 0.057964302599430084229 0.038309216499328613281 0.02194607071578502655 0.012239444069564342499 0.045950971543788909912 0.03722807765007019043 0 0 0 0 0 0 0 0 0 0 0 0 0 0 0 0 0 0 0 0 0 0 0 0 0 0 0 0 0 0 0 0 0 0 0 0 0 0 0 0 0 0 0 0 0 0 0 0 0 0 0 0 0 0 0 0 0 0 0 0 0 0 0 0 0 0 0 0 0 0 0 
0 0 0 0 0 0 0 0 0 0 0 0 0 0 0 0 0 0 0 0 0 0 0 0 0 0 0 0 0.00027329925796948373318 0.016064068302512168884 0.037767533212900161743 0.058998547494411468506 0.081638075411319732666 0.10000982880592346191 0.11082325875759124756 0.12258336693048477173 0.12870705127716064453 0.137310028076171875 0.14432069659233093262 0.15452077984809875488 0.1678657233715057373 0.18841545283794403076 0.20945189893245697021 0.22792413830757141113 0.24957077205181121826 0.28341880440711975098 0.33680161833763122559 0.38900041580200195312 0.41160625219345092773 0.39118123054504394531 0.33639317750930786133 0.29565483331680297852 0.2817821204662322998 0.27067625522613525391 0.25705626606941223145 0.25190567970275878906 0.24588868021965026855 0.24148273468017578125 0.24813443422317504883 0.25986921787261962891 0.25634905695915222168 0.23985451459884643555 0.2266864478588104248 0.21907806396484375 0.21508865058422088623 0.21236740052700042725 0.20402823388576507568 0.19599625468254089355 0.19186310470104217529 0.18191276490688323975 0.1724726259708404541 0.16380257904529571533 0.15505635738372802734 0.14660623669624328613 0.13786546885967254639 0.12943355739116668701 0.12099467217922210693 0.1134702339768409729 0.10653371363878250122 0.10517384111881256104 0.10953491926193237305 0.1138291582465171814 0.11818808317184448242 0.1223010718822479248 0.12647050619125366211 0.1303904801607131958 0.13435789942741394043 0.13807289302349090576 0.14182426035404205322 0.14532141387462615967 0.14885222911834716797 0.15214928984642028809 0.15549905598163604736 0.15864218771457672119 0.16185912489891052246 0.1648950725793838501 0.16802752017974853516 0.17099948227405548096 0.17408557236194610596 0.17702940106391906738 0.18011328577995300293 0.18307490646839141846 0.1862042844295501709 0.18922905623912811279 0.19245149195194244385 0.19558194279670715332 0.19893795251846313477 0.2042150348424911499 0.21260669827461242676 0.21774968504905700684 0.22388055920600891113 0.2304449230432510376 0.23800535500049591064 0.24565644562244415283 0.25405487418174743652 0.26219347119331359863 0.27079069614410400391 0.27872315049171447754 0.28660440444946289062 0.29333314299583435059 0.29940545558929443359 0.30391716957092285156 0.30734157562255859375 0.30945882201194763184 0.31075724959373474121 0.31129530072212219238 0.31137135624885559082 0.31114244461059570312 0.31064432859420776367 0.30994006991386413574 0.30894678831100463867 0.30778482556343078613 0.30631983280181884766 0.30479970574378967285 0.30318170785903930664 0.30181926488876342773 0.30070781707763671875 0.30013942718505859375 0.30012935400009155273 0.30059963464736938477 0.30144739151000976562 0.30241233110427856445 0.30345910787582397461 0.30431538820266723633 0.30507493019104003906 0.30571895837783813477 0.30644881725311279297 0.30726340413093566895 0.3083877861499786377 0.30972659587860107422 0.31144693493843078613 0.31325256824493408203 0.3153476417064666748 0.3173777163028717041 0.31958258152008056641 0.32157471776008605957 0.32356995344161987305 0.32519546151161193848 0.32661107182502746582 0.32752501964569091797 0.32801964879035949707 0.32802188396453857422 0.32755073904991149902 0.3266925811767578125 0.32532125711441040039 0.32366526126861572266 0.3215064704418182373 0.31923735141754150391 0.31654879450798034668 0.31389877200126647949 0.31091257929801940918 0.30819150805473327637 0.30548170208930969238 0.3031952977180480957 0.30096486210823059082 0.29911664128303527832 0.29735851287841796875 0.29588437080383300781 0.29436382651329040527 0.29291197657585144043 0.29120054841041564941 0.28938144445419311523 0.28711396455764770508 0.28471633791923522949 0.28194037079811096191 0.27949553728103637695 0.27761381864547729492 0.27670121192932128906 0.27662619948387145996 0.27728348970413208008 0.27862879633903503418 0.28035676479339599609 0.28250536322593688965 0.28439781069755554199 0.28608238697052001953 0.2873623967170715332 0.28848338127136230469 0.28937959671020507812 0.29021474719047546387 0.29087218642234802246 0.29140311479568481445 0.29171293973922729492 0.2917995750904083252 0.29161494970321655273 0.29108458757400512695 0.29022115468978881836 0.28885897994041442871 0.28710296750068664551 0.28468078374862670898 0.28181746602058410645 0.27812981605529785156 0.27399334311485290527 0.26888927817344665527 0.26333913207054138184 0.25663867592811584473 0.24922071397304534912 0.23969325423240661621 0.22848859429359436035 0.21350525319576263428 0.19562153518199920654 0.17294785380363464355 0.14874979853630065918 0.12191967666149139404 0.096396148204803466797 0.070993818342685699463 0.049302261322736740112 0.029639717191457748413 0.013547793962061405182 0.027330003678798675537 0.049137614667415618896 0.0050929593853652477264 0 0 0 0 0 0 0 0 0 0 0 0 0 0 0 0 0 0 0 0 0 0 0 0 0 0 0 0 0 0 0 0 0 0 0 0 0 0 0 0 0 0 0 0 0 0 0 0 0 0 0 0 0 0 0 0 0 0 0 0 0 0 0 0 0 0 0 0 0 0 0 
0 0 0 0 0 0 0 0 0 0 0 0 0 0 0 0 0 0 0 0 0 0 0 0 0 0 0 0 0.011695407330989837646 0.043413627892732620239 0.055528704077005386353 0.069882698357105255127 0.088165305554866790771 0.10403051227331161499 0.1179672926664352417 0.12988990545272827148 0.13400007784366607666 0.13634531199932098389 0.14491482079029083252 0.15827029943466186523 0.17298021912574768066 0.19178986549377441406 0.21219433844089508057 0.23354285955429077148 0.25812837481498718262 0.30046367645263671875 0.35769352316856384277 0.3981621861457824707 0.40020638704299926758 0.35765182971954345703 0.30860716104507446289 0.28175312280654907227 0.27380976080894470215 0.2609513401985168457 0.251621246337890625 0.24746477603912353516 0.2414258420467376709 0.23951902985572814941 0.24958948791027069092 0.25777512788772583008 0.24876865744590759277 0.2313346564769744873 0.22088412940502166748 0.21463568508625030518 0.21160535514354705811 0.20780792832374572754 0.19847992062568664551 0.18922697007656097412 0.18415892124176025391 0.17573375999927520752 0.16714389622211456299 0.15893383324146270752 0.15051785111427307129 0.14233447611331939697 0.13385047018527984619 0.1256570965051651001 0.11745544523000717163 0.11014673113822937012 0.10341416299343109131 0.10212941467761993408 0.10643731057643890381 0.11067924648523330688 0.11498685926198959351 0.11905320733785629272 0.123177357017993927 0.1270567774772644043 0.13098527491092681885 0.13466580212116241455 0.13838471472263336182 0.14185397326946258545 0.14535908401012420654 0.14863444864749908447 0.15196435153484344482 0.15509104728698730469 0.15829332172870635986 0.16131740808486938477 0.16443909704685211182 0.16740103065967559814 0.17047846317291259766 0.17341588437557220459 0.17649474740028381348 0.17945295572280883789 0.18258002400398254395 0.18560360372066497803 0.18882583081722259521 0.19195738434791564941 0.19531536102294921875 0.20151649415493011475 0.21197181940078735352 0.21741849184036254883 0.22392489016056060791 0.23088066279888153076 0.23883908987045288086 0.24680165946483612061 0.25540173053741455078 0.26355600357055664062 0.27194684743881225586 0.27949118614196777344 0.28681227564811706543 0.29291692376136779785 0.29828464984893798828 0.30213591456413269043 0.30490326881408691406 0.3064549565315246582 0.3072242438793182373 0.3073412775993347168 0.30706512928009033203 0.30659922957420349121 0.30593717098236083984 0.30514222383499145508 0.30409783124923706055 0.30291056632995605469 0.30142241716384887695 0.29987540841102600098 0.29822582006454467773 0.2968324124813079834 0.29568892717361450195 0.29509830474853515625 0.29507672786712646484 0.29554888606071472168 0.29641240835189819336 0.29740533232688903809 0.29849600791931152344 0.29940691590309143066 0.30023971199989318848 0.30096575617790222168 0.3017978370189666748 0.30272117257118225098 0.3039760589599609375 0.30544847249984741211 0.30732107162475585938 0.30927166342735290527 0.31152069568634033203 0.31368732452392578125 0.31602749228477478027 0.31813445687294006348 0.32024556398391723633 0.32197520136833190918 0.32350400090217590332 0.32452750205993652344 0.32514798641204833984 0.32527205348014831543 0.32493561506271362305 0.32420244812965393066 0.32296451926231384277 0.32142630219459533691 0.31939309835433959961 0.31725370883941650391 0.3147354423999786377 0.31228417158126831055 0.30956220626831054688 0.30700948834419250488 0.30437943339347839355 0.30217558145523071289 0.30004298686981201172 0.29827824234962463379 0.29659181833267211914 0.29517009854316711426 0.29368758201599121094 0.2922490537166595459 0.29051506519317626953 0.28863304853439331055 0.28626528382301330566 0.28374874591827392578 0.28079122304916381836 0.27816611528396606445 0.27610796689987182617 0.27508616447448730469 0.27495712041854858398 0.27561298012733459473 0.27699124813079833984 0.27876004576683044434 0.28092169761657714844 0.28277048468589782715 0.28436666727066040039 0.28557088971138000488 0.28663077950477600098 0.28748530149459838867 0.28828984498977661133 0.2889454960823059082 0.28950652480125427246 0.28987276554107666016 0.29004830121994018555 0.28997302055358886719 0.28957766294479370117 0.28884416818618774414 0.28760480880737304688 0.28593456745147705078 0.28355380892753601074 0.28067454695701599121 0.27692401409149169922 0.2727051079273223877 0.26751214265823364258 0.26189696788787841797 0.25516539812088012695 0.24773299694061279297 0.23810866475105285645 0.22643575072288513184 0.21063220500946044922 0.19191117584705352783 0.16820833086967468262 0.14293028414249420166 0.11497926712036132812 0.088530853390693664551 0.062452487647533416748 0.040515229105949401855 0.021033043041825294495 0.017338419333100318909 0.049315586686134338379 0.019139802083373069763 0 0 0 0 0 0 0 0 0 0 0 0 0 0 0 0 0 0 0 0 0 0 0 0 0 0 0 0 0 0 0 0 0 0 0 0 0 0 0 0 0 0 0 0 0 0 0 0 0 0 0 0 0 0 0 0 0 0 0 0 0 0 0 0 0 0 0 0 0 0 0 0 
0 0 0 0 0 0 0 0 0 0 0 0 0 0 0 0 0 0 0 0 0 0 0 0 0 0 0 0.0027776458300650119781 0.039736211299896240234 0.055820763111114501953 0.065074615180492401123 0.077747941017150878906 0.094706214964389801025 0.10956864058971405029 0.12507690489292144775 0.13810329139232635498 0.14241063594818115234 0.14110872149467468262 0.14731721580028533936 0.1602090299129486084 0.1783278733491897583 0.19569678604602813721 0.21788875758647918701 0.24064999818801879883 0.26830661296844482422 0.31611075997352600098 0.37439447641372680664 0.39448872208595275879 0.3904279172420501709 0.35215422511100769043 0.29644629359245300293 0.27423551678657531738 0.26480573415756225586 0.25164169073104858398 0.24694371223449707031 0.24287512898445129395 0.23747068643569946289 0.23887142539024353027 0.24983993172645568848 0.25421625375747680664 0.24055974185466766357 0.22432860732078552246 0.21567589044570922852 0.21044462919235229492 0.20816305279731750488 0.20278729498386383057 0.19259625673294067383 0.18298976123332977295 0.17689049243927001953 0.16996078193187713623 0.16213065385818481445 0.15434138476848602295 0.14622911810874938965 0.138291969895362854 0.13004343211650848389 0.12206773459911346436 0.11408333480358123779 0.10697115957736968994 0.10042383521795272827 0.099205605685710906982 0.10346172749996185303 0.10765284299850463867 0.11191055923700332642 0.11593160778284072876 0.1200118139386177063 0.12385191768407821655 0.12774269282817840576 0.13138997554779052734 0.13507770001888275146 0.13852037489414215088 0.14200121164321899414 0.14525620639324188232 0.1485678255558013916 0.15167957544326782227 0.1548687666654586792 0.15788251161575317383 0.16099458932876586914 0.16394825279712677002 0.16701903939247131348 0.16995184123516082764 0.17302745580673217773 0.17598386108875274658 0.17911018431186676025 0.18213398754596710205 0.18535721302032470703 0.18849071860313415527 0.19185136258602142334 0.19897614419460296631 0.2114861905574798584 0.21721948683261871338 0.22407242655754089355 0.23138242959976196289 0.23969526588916778564 0.24792982637882232666 0.25669878721237182617 0.26485332846641540527 0.27304109930992126465 0.28021764755249023438 0.28701284527778625488 0.29253304004669189453 0.2972399294376373291 0.30046892166137695312 0.30261385440826416016 0.30362758040428161621 0.30389308929443359375 0.30361026525497436523 0.30300298333168029785 0.30231916904449462891 0.30151093006134033203 0.30063751339912414551 0.29954776167869567871 0.29833179712295532227 0.29680520296096801758 0.29520696401596069336 0.29349249601364135742 0.29203584790229797363 0.29082727432250976562 0.2901872098445892334 0.29013323783874511719 0.29059588909149169922 0.29147139191627502441 0.29249602556228637695 0.29364225268363952637 0.29462474584579467773 0.29555341601371765137 0.29638364911079406738 0.29733893275260925293 0.29838442802429199219 0.29977428913116455078 0.301372528076171875 0.30337750911712646484 0.30544593930244445801 0.30781278014183044434 0.31007784605026245117 0.31251004338264465332 0.3146921694278717041 0.31688079237937927246 0.31868621706962585449 0.32030919194221496582 0.32143864035606384277 0.32219702005386352539 0.32246488332748413086 0.32229256629943847656 0.32171130180358886719 0.32062944769859313965 0.31922236084938049316 0.31731787323951721191 0.31529793143272399902 0.31292885541915893555 0.31064882874488830566 0.30816569924354553223 0.30587401986122131348 0.30340236425399780273 0.30127760767936706543 0.29923650622367858887 0.29755413532257080078 0.29593476653099060059 0.2945550084114074707 0.29309704899787902832 0.29165983200073242188 0.28989490866661071777 0.28794255852699279785 0.28546434640884399414 0.28282743692398071289 0.27970331907272338867 0.27688395977020263672 0.27462869882583618164 0.27348187565803527832 0.27328294515609741211 0.27391788363456726074 0.27529603242874145508 0.27705651521682739258 0.27914315462112426758 0.28080958127975463867 0.28218179941177368164 0.28318712115287780762 0.28406223654747009277 0.28477200865745544434 0.28547844290733337402 0.28610721230506896973 0.28671121597290039062 0.28718650341033935547 0.28755405545234680176 0.28773191571235656738 0.28766790032386779785 0.28727459907531738281 0.28638872504234313965 0.28501144051551818848 0.28286144137382507324 0.28010392189025878906 0.27639219164848327637 0.27215141057968139648 0.26690259575843811035 0.2612304985523223877 0.25445815920829772949 0.24695834517478942871 0.23691883683204650879 0.22462673485279083252 0.20817010104656219482 0.18869726359844207764 0.16399239003658294678 0.13764262199401855469 0.10858571529388427734 0.081248454749584197998 0.054568007588386535645 0.03249810636043548584 0.013346024788916110992 0.036250486969947814941 0.034269992262125015259 0.0018182874191552400589 0 0 0 0 0 0 0 0 0 0 0 0 0 0 0 0 0 0 0 0 0 0 0 0 0 0 0 0 0 0 0 0 0 0 0 0 0 0 0 0 0 0 0 0 0 0 0 0 0 0 0 0 0 0 0 0 0 0 0 0 0 0 0 0 0 0 0 0 0 0 0 0 
0 0 0 0 0 0 0 0 0 0 0 0 0 0 0 0 0 0 0 0 0 0 0 0 0 0 0 0.017120294272899627686 0.057639732956886291504 0.06393356621265411377 0.073113307356834411621 0.087619677186012268066 0.10297290980815887451 0.11676254123449325562 0.12751340866088867188 0.13988766074180603027 0.14264492690563201904 0.14421869814395904541 0.1529102325439453125 0.16690725088119506836 0.18430587649345397949 0.20228581130504608154 0.22684897482395172119 0.25398391485214233398 0.29115530848503112793 0.33973526954650878906 0.37690946459770202637 0.38064166903495788574 0.36552840471267700195 0.3296407163143157959 0.28420868515968322754 0.26794224977493286133 0.25504440069198608398 0.24544349312782287598 0.24223820865154266357 0.23782742023468017578 0.23361310362815856934 0.23841519653797149658 0.24933291971683502197 0.24889884889125823975 0.23142454028129577637 0.21773748099803924561 0.21030458807945251465 0.20674599707126617432 0.20415411889553070068 0.19668984413146972656 0.18602521717548370361 0.17792509496212005615 0.17153984308242797852 0.16471175849437713623 0.15721997618675231934 0.1497182995080947876 0.14186081290245056152 0.13415265083312988281 0.12613070011138916016 0.11836957186460494995 0.11060066521167755127 0.10368341952562332153 0.097319811582565307617 0.096166081726551055908 0.10036783665418624878 0.10450567305088043213 0.10871110856533050537 0.11268472671508789062 0.11671891063451766968 0.12051793187856674194 0.1243692934513092041 0.12798202037811279297 0.13163749873638153076 0.13505280017852783203 0.13850884139537811279 0.14174328744411468506 0.14503660798072814941 0.14813371002674102783 0.1513103097677230835 0.15431426465511322021 0.15741717815399169922 0.16036370396614074707 0.16342917084693908691 0.16635866463184356689 0.16943237185478210449 0.17238827049732208252 0.17551521956920623779 0.17854048311710357666 0.18176592886447906494 0.18490229547023773193 0.18826648592948913574 0.1963942795991897583 0.21112734079360961914 0.21714864671230316162 0.22433267533779144287 0.23196481168270111084 0.24058593809604644775 0.24904361367225646973 0.25793185830116271973 0.26604875922203063965 0.27400806546211242676 0.28080588579177856445 0.28707429766654968262 0.29201623797416687012 0.29607242345809936523 0.29868915677070617676 0.30022096633911132812 0.30070531368255615234 0.30047699809074401855 0.29980576038360595703 0.29888284206390380859 0.29799953103065490723 0.29706549644470214844 0.2961298823356628418 0.29500493407249450684 0.2937590479850769043 0.29217788577079772949 0.29049929976463317871 0.28867891430854797363 0.28711611032485961914 0.28579875826835632324 0.28507190942764282227 0.28495460748672485352 0.28538823127746582031 0.2862643897533416748 0.28731891512870788574 0.28852751851081848145 0.28959557414054870605 0.29064089059829711914 0.29159709811210632324 0.29269799590110778809 0.29388207197189331055 0.29541644454002380371 0.29713958501815795898 0.29926621913909912109 0.30143526196479797363 0.30389589071273803711 0.30623367428779602051 0.30872875452041625977 0.31095972657203674316 0.31320101022720336914 0.31506484746932983398 0.31677219271659851074 0.31800898909568786621 0.31891903281211853027 0.31935280561447143555 0.31937503814697265625 0.31897675991058349609 0.31808429956436157227 0.31683588027954101562 0.31508859992027282715 0.31320789456367492676 0.31100097298622131348 0.30889713764190673828 0.30664941668510437012 0.3046270906925201416 0.30244669318199157715 0.30044037103652954102 0.29847961664199829102 0.29686754941940307617 0.29530748724937438965 0.29395580291748046875 0.29250490665435791016 0.29105263948440551758 0.28924453258514404297 0.28721514344215393066 0.2846158444881439209 0.28185242414474487305 0.27857330441474914551 0.27554327249526977539 0.27305892109870910645 0.27175933122634887695 0.27146494388580322266 0.27205589413642883301 0.27340486645698547363 0.27511945366859436035 0.27703484892845153809 0.27841773629188537598 0.2794704139232635498 0.28019019961357116699 0.28078597784042358398 0.28128084540367126465 0.28184208273887634277 0.28242141008377075195 0.28307074308395385742 0.28368547558784484863 0.28431120514869689941 0.28483861684799194336 0.28523987531661987305 0.28532990813255310059 0.28495189547538757324 0.28400146961212158203 0.2821960747241973877 0.27963158488273620605 0.27599760890007019043 0.27174469828605651855 0.26642954349517822266 0.26067876815795898438 0.2537937462329864502 0.2459074854850769043 0.23530794680118560791 0.22255472838878631592 0.20554177463054656982 0.18536493182182312012 0.15969537198543548584 0.13231165707111358643 0.10220113396644592285 0.074042707681655883789 0.046856462955474853516 0.024772426113486289978 0.011606933549046516418 0.045808944851160049438 0.0090460237115621566772 0 0 0 0 0 0 0 0 0 0 0 0 0 0 0 0 0 0 0 0 0 0 0 0 0 0 0 0 0 0 0 0 0 0 0 0 0 0 0 0 0 0 0 0 0 0 0 0 0 0 0 0 0 0 0 0 0 0 0 0 0 0 0 0 0 0 0 0 0 0 0 0 0 
0 0 0 0 0 0 0 0 0 0 0 0 0 0 0 0 0 0 0 0 0 0 0 0 0 0 0.0047580706886947154999 0.03932024538516998291 0.065590374171733856201 0.074335075914859771729 0.086147516965866088867 0.098952725529670715332 0.1118841320276260376 0.12314484268426895142 0.12902338802814483643 0.13541701436042785645 0.13778427243232727051 0.14445596933364868164 0.15704075992107391357 0.17277725040912628174 0.19073781371116638184 0.2087173759937286377 0.2323242872953414917 0.26617908477783203125 0.30578917264938354492 0.35269704461097717285 0.37844818830490112305 0.36698114871978759766 0.33887723088264465332 0.30037733912467956543 0.27445682883262634277 0.26242607831954956055 0.24756342172622680664 0.24140305817127227783 0.23764596879482269287 0.23307521641254425049 0.23060823976993560791 0.23808364570140838623 0.24806770682334899902 0.24192219972610473633 0.2230237126350402832 0.21191465854644775391 0.20569083094596862793 0.20367580652236938477 0.19901689887046813965 0.19019387662410736084 0.18023467063903808594 0.17389878630638122559 0.16722376644611358643 0.16021455824375152588 0.15277275443077087402 0.14541885256767272949 0.1377474367618560791 0.13023132085800170898 0.12241005152463912964 0.11484470218420028687 0.10727389156818389893 0.10053635388612747192 0.09434238821268081665 0.09324696660041809082 0.097396217286586761475 0.10148262232542037964 0.10563764721155166626 0.10956554114818572998 0.11355544626712799072 0.11731489002704620361 0.12112840265035629272 0.12470807880163192749 0.12833282351493835449 0.13172224164009094238 0.13515497744083404541 0.13837027549743652344 0.14164686203002929688 0.14473071694374084473 0.1478961557149887085 0.15089155733585357666 0.15398669242858886719 0.1569277346134185791 0.15998947620391845703 0.16291710734367370605 0.16599033772945404053 0.16894701123237609863 0.17207579314708709717 0.17510354518890380859 0.17833214998245239258 0.18147203326225280762 0.18484024703502655029 0.19397820532321929932 0.21094273030757904053 0.21722739934921264648 0.22468683123588562012 0.2325604557991027832 0.24138841032981872559 0.24997130036354064941 0.25888928771018981934 0.26691097021102905273 0.27462139725685119629 0.28105714917182922363 0.28684601187705993652 0.29127433896064758301 0.29476016759872436523 0.29684379696846008301 0.29784435033798217773 0.29787304997444152832 0.29722443222999572754 0.29622891545295715332 0.29505190253257751465 0.29401999711990356445 0.29300510883331298828 0.29203915596008300781 0.2908999025821685791 0.28962978720664978027 0.28798386454582214355 0.28620114922523498535 0.28423854708671569824 0.28252962231636047363 0.28106078505516052246 0.28021001815795898438 0.27999550104141235352 0.2803751826286315918 0.28123235702514648438 0.28230452537536621094 0.28356862068176269531 0.28472125530242919922 0.28588607907295227051 0.28697228431701660156 0.2882220149040222168 0.28954419493675231934 0.29121574759483337402 0.29304978251457214355 0.29527592658996582031 0.29752051830291748047 0.30004534125328063965 0.3024279177188873291 0.30495730042457580566 0.30721309781074523926 0.30948421359062194824 0.31138855218887329102 0.31316468119621276855 0.3144982457160949707 0.3155530095100402832 0.31615102291107177734 0.31637161970138549805 0.31616568565368652344 0.31547942757606506348 0.31441140174865722656 0.31284937262535095215 0.31113612651824951172 0.30911299586296081543 0.30719351768493652344 0.30517229437828063965 0.3033917844295501709 0.30150789022445678711 0.29972103238105773926 0.29783198237419128418 0.29625976085662841797 0.29473078250885009766 0.2933864891529083252 0.29191872477531433105 0.29043316841125488281 0.28857046365737915039 0.28646677732467651367 0.28375533223152160645 0.28087702393531799316 0.27746832370758056641 0.27424538135528564453 0.27152100205421447754 0.27004954218864440918 0.26963737607002258301 0.27016294002532958984 0.27145972847938537598 0.27309855818748474121 0.27476227283477783203 0.27583205699920654297 0.27654749155044555664 0.27696004509925842285 0.27725258469581604004 0.27752092480659484863 0.27792298793792724609 0.27843818068504333496 0.27911880612373352051 0.27986368536949157715 0.28074470162391662598 0.28162771463394165039 0.28250914812088012695 0.28310024738311767578 0.28324750065803527832 0.28273421525955200195 0.28127229213714599609 0.27888545393943786621 0.27529951930046081543 0.27099794149398803711 0.26557320356369018555 0.25966322422027587891 0.25233161449432373047 0.2439607083797454834 0.23300860822200775146 0.21994213759899139404 0.20251512527465820312 0.18179726600646972656 0.15538044273853302002 0.12720151245594024658 0.096299104392528533936 0.067555598914623260498 0.040072184056043624878 0.018099704757332801819 0.027142040431499481201 0.025635132566094398499 0.00030535130645148456097 0 0 0 0 0 0 0 0 0 0 0 0 0 0 0 0 0 0 0 0 0 0 0 0 0 0 0 0 0 0 0 0 0 0 0 0 0 0 0 0 0 0 0 0 0 0 0 0 0 0 0 0 0 0 0 0 0 0 0 0 0 0 0 0 0 0 0 0 0 0 0 0 0 
0 0 0 0 0 0 0 0 0 0 0 0 0 0 0 0 0 0 0 0 0 0 0 0 0 0.00060825049877166748047 0.022746348753571510315 0.057001426815986633301 0.079301521182060241699 0.083358593285083770752 0.099699936807155609131 0.11291480064392089844 0.12043900042772293091 0.12734615802764892578 0.12818120419979095459 0.12880967557430267334 0.13015756011009216309 0.14170631766319274902 0.15772330760955810547 0.1756044924259185791 0.19454641640186309814 0.21277803182601928711 0.23137815296649932861 0.26267153024673461914 0.31007647514343261719 0.35670644044876098633 0.37056151032447814941 0.35599258542060852051 0.32296973466873168945 0.28708603978157043457 0.26814645528793334961 0.25439649820327758789 0.24018907546997070312 0.2365729212760925293 0.23258551955223083496 0.22831358015537261963 0.22845733165740966797 0.23856854438781738281 0.24522070586681365967 0.23268499970436096191 0.21529479324817657471 0.20650464296340942383 0.20207603275775909424 0.19958816468715667725 0.19246366620063781738 0.18318681418895721436 0.17720486223697662354 0.17115455865859985352 0.1631298065185546875 0.15577793121337890625 0.14830568432807922363 0.14105470478534698486 0.13354653120040893555 0.12621144950389862061 0.11858690530061721802 0.11121642589569091797 0.10384379327297210693 0.097286649048328399658 0.091262876987457275391 0.090225115418434143066 0.094319894909858703613 0.098353058099746704102 0.10245589911937713623 0.10633651167154312134 0.11028063297271728516 0.11399918794631958008 0.11777370423078536987 0.12131946533918380737 0.12491280585527420044 0.12827591598033905029 0.13168509304523468018 0.13488130271434783936 0.13814136385917663574 0.14121237397193908691 0.1443672478199005127 0.14735458791255950928 0.15044285356998443604 0.15337949991226196289 0.15643872320652008057 0.15936569869518280029 0.162439689040184021 0.16539832949638366699 0.1685301661491394043 0.17156149446964263916 0.17479430139064788818 0.17793856561183929443 0.18131153285503387451 0.19154855608940124512 0.21093444526195526123 0.21747437119483947754 0.22516055405139923096 0.233190193772315979 0.2421086430549621582 0.25069734454154968262 0.25952759385108947754 0.2673670351505279541 0.274776458740234375 0.28083726763725280762 0.2861639857292175293 0.2901172935962677002 0.29308873414993286133 0.29469916224479675293 0.29523429274559020996 0.29487031698226928711 0.29386800527572631836 0.29261001944541931152 0.29124233126640319824 0.29011818766593933105 0.2890758812427520752 0.28811958432197570801 0.28699380159378051758 0.2857080996036529541 0.28398445248603820801 0.28206548094749450684 0.27991119027137756348 0.27800089120864868164 0.27631965279579162598 0.27529233694076538086 0.27493211627006530762 0.27522146701812744141 0.27603018283843994141 0.27710080146789550781 0.27840846776962280273 0.27964216470718383789 0.28092887997627258301 0.28215044736862182617 0.28355491161346435547 0.28501838445663452148 0.28682473301887512207 0.28876054286956787109 0.29107022285461425781 0.29337146878242492676 0.29593825340270996094 0.29834541678428649902 0.30088970065116882324 0.3031552731990814209 0.3054427802562713623 0.30737739801406860352 0.30921319127082824707 0.31063643097877502441 0.31183046102523803711 0.31259164214134216309 0.31301701068878173828 0.31301873922348022461 0.31256854534149169922 0.31172233819961547852 0.31040158867835998535 0.30891260504722595215 0.30713126063346862793 0.3054358065128326416 0.30366235971450805664 0.30211982131004333496 0.30050772428512573242 0.29898414015769958496 0.29723855853080749512 0.29567092657089233398 0.29413217306137084961 0.29276663064956665039 0.29125308990478515625 0.2897109687328338623 0.28777715563774108887 0.28559774160385131836 0.28278598189353942871 0.27980324625968933105 0.27628466486930847168 0.27288827300071716309 0.26989924907684326172 0.26822066307067871094 0.26765593886375427246 0.26808959245681762695 0.26931169629096984863 0.27082273364067077637 0.27217519283294677734 0.27292209863662719727 0.27330571413040161133 0.27341446280479431152 0.27341771125793457031 0.2734692692756652832 0.27370938658714294434 0.27414596080780029297 0.27483275532722473145 0.27567791938781738281 0.27677875757217407227 0.27798283100128173828 0.27930697798728942871 0.28036081790924072266 0.28098621964454650879 0.28085675835609436035 0.27966937422752380371 0.27738237380981445312 0.27375277876853942871 0.26931321620941162109 0.26363730430603027344 0.25719350576400756836 0.2492682039737701416 0.24055601656436920166 0.22935777902603149414 0.21607805788516998291 0.19838175177574157715 0.17731843888759613037 0.1504278331995010376 0.12175711989402770996 0.090395458042621612549 0.061364695429801940918 0.033839035779237747192 0.012071092613041400909 0.03099445439875125885 0.0041652303189039230347 0 0 0 0 0 0 0 0 0 0 0 0 0 0 0 0 0 0 0 0 0 0 0 0 0 0 0 0 0 0 0 0 0 0 0 0 0 0 0 0 0 0 0 0 0 0 0 0 0 0 0 0 0 0 0 0 0 0 0 0 0 0 0 0 0 0 0 0 0 0 0 0 0 0 
0 0 0 0 0 0 0 0 0 0 0 0 0 0 0 0 0 0 0 0 0 0 0 0 0 0.0073379697278141975403 0.037196796387434005737 0.066619694232940673828 0.089475922286510467529 0.097838185727596282959 0.11132573336362838745 0.1237265467643737793 0.12760515511035919189 0.13058133423328399658 0.1301440894603729248 0.12875540554523468018 0.13259240984916687012 0.14660796523094177246 0.16269798576831817627 0.17822404205799102783 0.19593380391597747803 0.21798530220985412598 0.23730082809925079346 0.26387777924537658691 0.31224310398101806641 0.37760591506958007812 0.38392266631126403809 0.34662485122680664062 0.30733081698417663574 0.27873066067695617676 0.261257171630859375 0.24440537393093109131 0.23383501172065734863 0.23154096305370330811 0.22759656608104705811 0.22362224757671356201 0.22708429396152496338 0.23913675546646118164 0.24024352431297302246 0.22271077334880828857 0.20860244333744049072 0.20150777697563171387 0.19872383773326873779 0.1940803229808807373 0.18573762476444244385 0.17628908157348632812 0.17372995615005493164 0.1672201007604598999 0.15887227654457092285 0.15143790841102600098 0.14401671290397644043 0.13688553869724273682 0.12953674793243408203 0.12237218767404556274 0.11493276804685592651 0.10774530470371246338 0.10055875033140182495 0.09417107701301574707 0.088306903839111328125 0.08732268214225769043 0.091365262866020202637 0.095347508788108825684 0.099400475621223449707 0.10323590785264968872 0.10713633149862289429 0.11081591993570327759 0.11455333977937698364 0.11806692928075790405 0.12163062393665313721 0.12496902793645858765 0.1283562779426574707 0.1315348893404006958 0.1347799450159072876 0.13783948123455047607 0.1409851759672164917 0.14396552741527557373 0.14704836905002593994 0.14998202025890350342 0.15304005146026611328 0.15596750378608703613 0.15904338657855987549 0.16200493276119232178 0.16514068841934204102 0.16817636787891387939 0.17141406238079071045 0.1745631098747253418 0.17794111371040344238 0.18928918242454528809 0.21111732721328735352 0.21788097918033599854 0.22571417689323425293 0.23378065228462219238 0.24263744056224822998 0.25108295679092407227 0.25968652963638305664 0.26725021004676818848 0.27431738376617431641 0.28001725673675537109 0.28494083881378173828 0.28850609064102172852 0.29107579588890075684 0.2923285067081451416 0.29252168536186218262 0.29187941551208496094 0.29063934087753295898 0.28922057151794433594 0.28775906562805175781 0.28662124276161193848 0.28561979532241821289 0.28472188115119934082 0.28364357352256774902 0.28235620260238647461 0.28054955601692199707 0.27847191691398620605 0.27608811855316162109 0.27393242716789245605 0.27198779582977294922 0.27073818445205688477 0.27018773555755615234 0.27035000920295715332 0.27107635140419006348 0.27211859822273254395 0.27344605326652526855 0.27474290132522583008 0.27613615989685058594 0.27748051285743713379 0.27902659773826599121 0.28061768412590026855 0.28254121541976928711 0.28455871343612670898 0.28692796826362609863 0.28926286101341247559 0.29184821248054504395 0.29426124691963195801 0.29680532217025756836 0.29907071590423583984 0.30136594176292419434 0.30332213640213012695 0.30520489811897277832 0.30670064687728881836 0.30800953507423400879 0.308910369873046875 0.30952042341232299805 0.30972221493721008301 0.30951809883117675781 0.30892387032508850098 0.30789557099342346191 0.30668529868125915527 0.3052037358283996582 0.30377125740051269531 0.30225980281829833984 0.30093795061111450195 0.29954978823661804199 0.29823219776153564453 0.29668590426445007324 0.2951316535472869873 0.2935333549976348877 0.29210808873176574707 0.29052114486694335938 0.28890177607536315918 0.28688633441925048828 0.28463706374168395996 0.28175121545791625977 0.27869242429733276367 0.27509725093841552734 0.27157044410705566406 0.26831766963005065918 0.26640835404396057129 0.26566454768180847168 0.26598748564720153809 0.26711660623550415039 0.26844239234924316406 0.26948270201683044434 0.2699584662914276123 0.27007636427879333496 0.26995575428009033203 0.2697537839412689209 0.26964673399925231934 0.26975408196449279785 0.27010759711265563965 0.27076318860054016113 0.2716446220874786377 0.27286791801452636719 0.27427566051483154297 0.27589440345764160156 0.27725562453269958496 0.27818474173545837402 0.27827203273773193359 0.2771866917610168457 0.2748464047908782959 0.27102521061897277832 0.26627901196479797363 0.25994071364402770996 0.25282990932464599609 0.24445295333862304688 0.23548142611980438232 0.22412115335464477539 0.21075156331062316895 0.19299443066120147705 0.17187921702861785889 0.14492940902709960938 0.11622342467308044434 0.084890514612197875977 0.0559901408851146698 0.028713734820485115051 0.014572358690202236176 0.011726168915629386902 0 0 0 0 0 0 0 0 0 0 0 0 0 0 0 0 0 0 0 0 0 0 0 0 0 0 0 0 0 0 0 0 0 0 0 0 0 0 0 0 0 0 0 0 0 0 0 0 0 0 0 0 0 0 0 0 0 0 0 0 0 0 0 0 0 0 0 0 0 0 0 0 0 0 0 
0 0 0 0 0 0 0 0 0 0 0 0 0 0 0 0 0 0 0 0 0 0 0 0 0.011117458343505859375 0.019174093380570411682 0.048777818679809570312 0.078929156064987182617 0.098280087113380432129 0.11089755594730377197 0.12624056637287139893 0.13663052022457122803 0.13864421844482421875 0.13697774708271026611 0.13464443385601043701 0.13242699205875396729 0.1420755535364151001 0.15642480552196502686 0.17167745530605316162 0.18545779585838317871 0.19989481568336486816 0.22039015591144561768 0.23965482413768768311 0.27048254013061523438 0.33365580439567565918 0.39427518844604492188 0.39264342188835144043 0.34415203332901000977 0.30367881059646606445 0.27044162154197692871 0.25190773606300354004 0.2345743030309677124 0.22843542695045471191 0.22600297629833221436 0.22239962220191955566 0.21987774968147277832 0.22716058790683746338 0.23799027502536773682 0.23136687278747558594 0.21266154944896697998 0.20227509737014770508 0.19701680541038513184 0.19395980238914489746 0.18722750246524810791 0.17805160582065582275 0.16993510723114013672 0.16796810925006866455 0.161424294114112854 0.153901711106300354 0.14674754440784454346 0.13952156901359558105 0.13256810605525970459 0.12540440261363983154 0.11842246353626251221 0.11117534339427947998 0.10417535901069641113 0.097178563475608825684 0.090963065624237060547 0.085260756313800811768 0.084330528974533081055 0.088319726288318634033 0.092249952256679534912 0.096251957118511199951 0.10004128515720367432 0.10389713943004608154 0.10753704607486724854 0.11123683303594589233 0.11471784859895706177 0.11825168132781982422 0.12156531214714050293 0.12493074685335159302 0.12809206545352935791 0.1313225477933883667 0.13437119126319885254 0.13750830292701721191 0.14048236608505249023 0.14356082677841186523 0.14649249613285064697 0.14955048263072967529 0.1524794846773147583 0.15555836260318756104 0.15852384269237518311 0.16166457533836364746 0.16470552980899810791 0.16794899106025695801 0.17110353708267211914 0.17448717355728149414 0.1870269775390625 0.21146737039089202881 0.21842865645885467529 0.22633124887943267822 0.23431350290775299072 0.24295069277286529541 0.25109535455703735352 0.25932094454765319824 0.26650086045265197754 0.27316683530807495117 0.27850142121315002441 0.28306013345718383789 0.28630396723747253418 0.28856289386749267578 0.28955319523811340332 0.28950747847557067871 0.28868365287780761719 0.28730541467666625977 0.28581523895263671875 0.2843475639820098877 0.28326964378356933594 0.28237563371658325195 0.28158494830131530762 0.28058868646621704102 0.27931311726570129395 0.27741554379463195801 0.27515166997909545898 0.27249297499656677246 0.27003931999206542969 0.26777032017707824707 0.26624238491058349609 0.26544755697250366211 0.26543757319450378418 0.26603999733924865723 0.26702144742012023926 0.268341064453125 0.26968184113502502441 0.27116706967353820801 0.27262425422668457031 0.27430275082588195801 0.2760124504566192627 0.27804085612297058105 0.28012484312057495117 0.28253465890884399414 0.28488487005233764648 0.28747028112411499023 0.28987494111061096191 0.29240846633911132812 0.2946682274341583252 0.29696729779243469238 0.29894107580184936523 0.30086335539817810059 0.30241954326629638672 0.30382484197616577148 0.30484786629676818848 0.30563044548034667969 0.30603322386741638184 0.30609643459320068359 0.30579712986946105957 0.30512833595275878906 0.30426779389381408691 0.30316114425659179688 0.30205017328262329102 0.30083614587783813477 0.29973804950714111328 0.29854929447174072266 0.29739513993263244629 0.29602259397506713867 0.29456168413162231445 0.29288080334663391113 0.29135724902153015137 0.28966882824897766113 0.28795409202575683594 0.28584653139114379883 0.2835305631160736084 0.28059330582618713379 0.27748736739158630371 0.27384319901466369629 0.27022010087966918945 0.26669532060623168945 0.26451432704925537109 0.26355665922164916992 0.26374939084053039551 0.26474386453628540039 0.26580989360809326172 0.26653209328651428223 0.26677185297012329102 0.2666772305965423584 0.2664000093936920166 0.26606771349906921387 0.26585501432418823242 0.26585501432418823242 0.26611760258674621582 0.26670154929161071777 0.2675526738166809082 0.26879858970642089844 0.27029025554656982422 0.2720521390438079834 0.27356025576591491699 0.27460968494415283203 0.27473366260528564453 0.27355775237083435059 0.27098578214645385742 0.26673913002014160156 0.26123020052909851074 0.25402098894119262695 0.24630627036094665527 0.23748941719532012939 0.22826495766639709473 0.21678881347179412842 0.20343661308288574219 0.18582203984260559082 0.16495141386985778809 0.13836556673049926758 0.11009316146373748779 0.079294338822364807129 0.050950638949871063232 0.024193059653043746948 0.0041851559653878211975 0 0 0 0 0 0 0 0 0 0 0 0 0 0 0 0 0 0 0 0 0 0 0 0 0 0 0 0 0 0 0 0 0 0 0 0 0 0 0 0 0 0 0 0 0 0 0 0 0 0 0 0 0 0 0 0 0 0 0 0 0 0 0 0 0 0 0 0 0 0 0 0 0 0 0 0 
0 0 0 0 0 0 0 0 0 0 0 0 0 0 0 0 0 0 0 0 0 0 0 0.0049341362901031970978 0.02577446959912776947 0.025760220363736152649 0.061166360974311828613 0.09096793830394744873 0.10849805921316146851 0.11816127598285675049 0.13178738951683044434 0.14434279501438140869 0.14759136736392974854 0.14343357086181640625 0.13942322134971618652 0.13771805167198181152 0.14789229631423950195 0.16022548079490661621 0.17643684148788452148 0.18849463760852813721 0.2005014568567276001 0.21813270449638366699 0.23984186351299285889 0.27942919731140136719 0.34769192337989807129 0.4020518958568572998 0.39327636361122131348 0.34878078103065490723 0.29368618130683898926 0.26223340630531311035 0.24168528616428375244 0.22812151908874511719 0.22389358282089233398 0.22087773680686950684 0.21744515001773834229 0.21794633567333221436 0.22821569442749023438 0.23453168570995330811 0.22049282491207122803 0.20440116524696350098 0.1965878903865814209 0.19284534454345703125 0.18831615149974822998 0.18024118244647979736 0.17074544727802276611 0.16703844070434570312 0.16286709904670715332 0.15590839087963104248 0.14888842403888702393 0.14209130406379699707 0.13513195514678955078 0.12839150428771972656 0.12142617255449295044 0.11462891101837158203 0.10757002979516983032 0.10075072944164276123 0.093935444951057434082 0.087883777916431427002 0.082335203886032104492 0.081456243991851806641 0.085394814610481262207 0.089275747537612915039 0.093229480087757110596 0.09697522968053817749 0.10078898072242736816 0.10439144819974899292 0.10805585235357284546 0.11150636523962020874 0.11501232534646987915 0.11830296367406845093 0.12164834141731262207 0.12479393184185028076 0.128011360764503479 0.13105043768882751465 0.13418021798133850098 0.13714917004108428955 0.14022454619407653809 0.1431553959846496582 0.14621436595916748047 0.14914582669734954834 0.15222851932048797607 0.15519861876964569092 0.15834493935108184814 0.16139163076877593994 0.16464124619960784912 0.1678015589714050293 0.1711909174919128418 0.18254733085632324219 0.20555606484413146973 0.21201699972152709961 0.21920506656169891357 0.22632665932178497314 0.23596140742301940918 0.25054457783699035645 0.2584381103515625 0.26518005132675170898 0.27143707871437072754 0.27644354104995727539 0.28071197867393493652 0.28372824192047119141 0.28578841686248779297 0.28662434220314025879 0.28644874691963195801 0.28553891181945800781 0.28411415219306945801 0.28262802958488464355 0.28122115135192871094 0.2802524864673614502 0.27950492501258850098 0.27884724736213684082 0.27795019745826721191 0.27669480443000793457 0.27470856904983520508 0.27225509285926818848 0.26931279897689819336 0.26654839515686035156 0.26393681764602661133 0.26210966706275939941 0.2610454261302947998 0.26083686947822570801 0.26128557324409484863 0.26217800378799438477 0.26346024870872497559 0.26481902599334716797 0.26637062430381774902 0.26791852712631225586 0.26970699429512023926 0.27151525020599365234 0.27362751960754394531 0.27575886249542236328 0.27818971872329711914 0.28053900599479675293 0.28310975432395935059 0.28549581766128540039 0.28801205754280090332 0.29026311635971069336 0.29256370663642883301 0.29455146193504333496 0.29650515317916870117 0.29810833930969238281 0.29958838224411010742 0.30071046948432922363 0.30164200067520141602 0.30222976207733154297 0.30255430936813354492 0.30255812406539916992 0.30227056145668029785 0.30178591609001159668 0.30108204483985900879 0.30031362175941467285 0.29940634965896606445 0.29852327704429626465 0.29750865697860717773 0.29648244380950927734 0.29523679614067077637 0.29389977455139160156 0.29221874475479125977 0.29058590531349182129 0.28878799080848693848 0.28698131442070007324 0.28478762507438659668 0.28241702914237976074 0.27945193648338317871 0.27633017301559448242 0.2726637423038482666 0.26898336410522460938 0.26520502567291259766 0.26273068785667419434 0.26154971122741699219 0.26161339879035949707 0.2624123990535736084 0.26316332817077636719 0.26357576251029968262 0.26360076665878295898 0.26333957910537719727 0.26296126842498779297 0.26255199313163757324 0.26227164268493652344 0.26218575239181518555 0.26235619187355041504 0.2628421783447265625 0.26361384987831115723 0.2648029029369354248 0.2662773430347442627 0.26804965734481811523 0.26956224441528320312 0.27057042717933654785 0.27057594060897827148 0.26914986968040466309 0.26616087555885314941 0.26105567812919616699 0.25463759899139404297 0.24666093289852142334 0.23836861550807952881 0.22910639643669128418 0.21962764859199523926 0.20806561410427093506 0.19480857253074645996 0.17748996615409851074 0.15709236264228820801 0.1312007904052734375 0.10372894257307052612 0.073855161666870117188 0.046343080699443817139 0.019438732415437698364 0.0012122296029701828957 0 0 0 0 0 0 0 0 0 0 0 0 0 0 0 0 0 0 0 0 0 0 0 0 0 0 0 0 0 0 0 0 0 0 0 0 0 0 0 0 0 0 0 0 0 0 0 0 0 0 0 0 0 0 0 0 0 0 0 0 0 0 0 0 0 0 0 0 0 0 0 0 0 0 0 0 
0 0 0 0 0 0 0 0 0 0 0 0 0 0 0 0 0 0 0 0 0 0 0.0038310717791318893433 0.030361473560333251953 0.013807091861963272095 0.038329940289258956909 0.069204755127429962158 0.096614174544811248779 0.1117231324315071106 0.12122802436351776123 0.13616603612899780273 0.1458822786808013916 0.1487331390380859375 0.14152704179286956787 0.1353226006031036377 0.13733454048633575439 0.14607660472393035889 0.1583741307258605957 0.17626878619194030762 0.19082872569561004639 0.20759168267250061035 0.22328668832778930664 0.24151253700256347656 0.28917735815048217773 0.36475849151611328125 0.40108016133308410645 0.38374400138854980469 0.33648952841758728027 0.28122779726982116699 0.25199040770530700684 0.23124620318412780762 0.22240442037582397461 0.2190446704626083374 0.21557237207889556885 0.2133054584264755249 0.21768335998058319092 0.22805912792682647705 0.22682100534439086914 0.20863275229930877686 0.19712844491004943848 0.19108058512210845947 0.18794754147529602051 0.18134172260761260986 0.17233173549175262451 0.16386993229389190674 0.16192993521690368652 0.15671305358409881592 0.15033806860446929932 0.14372122287750244141 0.13726262748241424561 0.1305897831916809082 0.12408408522605895996 0.11733408272266387939 0.11073298007249832153 0.10387052595615386963 0.097237810492515563965 0.090608470141887664795 0.08472397923469543457 0.07933200150728225708 0.078505396842956542969 0.082392968237400054932 0.08622420579195022583 0.090129420161247253418 0.093831360340118408203 0.09760284423828125 0.10116782039403915405 0.10479687154293060303 0.10821706056594848633 0.11169537901878356934 0.1149633750319480896 0.11828918755054473877 0.1214195936918258667 0.12462464720010757446 0.12765485048294067383 0.13077805936336517334 0.13374274969100952148 0.13681608438491821289 0.13974706828594207764 0.14280806481838226318 0.14574290812015533447 0.148830413818359375 0.15180602669715881348 0.15495878458023071289 0.15801197290420532227 0.16126845777034759521 0.16443501412868499756 0.16783051192760467529 0.17114250361919403076 0.17471307516098022461 0.1782061457633972168 0.1819836050271987915 0.18566164374351501465 0.19893504679203033447 0.24733781814575195312 0.25698375701904296875 0.26323866844177246094 0.26907962560653686523 0.27379083633422851562 0.27783408761024475098 0.28070309758186340332 0.28265801072120666504 0.28342601656913757324 0.28320372104644775391 0.28227716684341430664 0.28086945414543151855 0.27943786978721618652 0.27813503146171569824 0.27730658650398254395 0.27672916650772094727 0.27621954679489135742 0.27543124556541442871 0.27420008182525634766 0.27212557196617126465 0.26947960257530212402 0.26624652743339538574 0.26316052675247192383 0.26018950343132019043 0.25804179906845092773 0.25668039917945861816 0.25624305009841918945 0.25650316476821899414 0.25727370381355285645 0.25848549604415893555 0.2598349153995513916 0.26142793893814086914 0.26304680109024047852 0.26492670178413391113 0.26681789755821228027 0.26899811625480651855 0.27116248011589050293 0.27359956502914428711 0.27593562006950378418 0.27848067879676818848 0.28084045648574829102 0.2833347022533416748 0.28557518124580383301 0.28787654638290405273 0.28987717628479003906 0.29185897111892700195 0.29350247979164123535 0.29504612088203430176 0.29625529050827026367 0.29732441902160644531 0.2980912625789642334 0.29867881536483764648 0.29899716377258300781 0.29911273717880249023 0.29902943968772888184 0.29875710606575012207 0.29835534095764160156 0.29777604341506958008 0.29711773991584777832 0.29627886414527893066 0.29537558555603027344 0.29424598813056945801 0.2930260002613067627 0.29146072268486022949 0.28976783156394958496 0.28786385059356689453 0.28597500920295715332 0.28370836377143859863 0.2812964022159576416 0.27832195162773132324 0.27520954608917236328 0.27154219150543212891 0.26783248782157897949 0.26381373405456542969 0.26100504398345947266 0.25959232449531555176 0.25952130556106567383 0.26003059744834899902 0.2603931725025177002 0.26046589016914367676 0.26025372743606567383 0.25982862710952758789 0.25935733318328857422 0.25888001918792724609 0.25853750109672546387 0.25836506485939025879 0.25843447446823120117 0.2588017582893371582 0.25946122407913208008 0.26054179668426513672 0.26193279027938842773 0.26362663507461547852 0.26504504680633544922 0.26589465141296386719 0.26566207408905029297 0.26379990577697753906 0.25996732711791992188 0.25381308794021606445 0.24653939902782440186 0.23777283728122711182 0.22885149717330932617 0.21908959746360778809 0.20932303369045257568 0.19767647981643676758 0.18456487357616424561 0.16766214370727539062 0.1479269564151763916 0.12301055341958999634 0.096656940877437591553 0.068023212254047393799 0.041583672165870666504 0.0081501379609107971191 0 0 0 0 0 0 0 0 0 0 0 0 0 0 0 0 0 0 0 0 0 0 0 0 0 0 0 0 0 0 0 0 0 0 0 0 0 0 0 0 0 0 0 0 0 0 0 0 0 0 0 0 0 0 0 0 0 0 0 0 0 0 0 0 0 0 0 0 0 0 0 0 0 0 0 0 0 
0 0 0 0 0 0 0 0 0 0 0 0 0 0 0 0 0 0 0 0 0 9.1602145403157919645e-05 0.013482920825481414795 0.014976629056036472321 0.027432572096586227417 0.051708701997995376587 0.078950896859169006348 0.10506572574377059937 0.11913659423589706421 0.13035760819911956787 0.14379590749740600586 0.14642202854156494141 0.14820970594882965088 0.14075787365436553955 0.13336502015590667725 0.13810931146144866943 0.14831911027431488037 0.1634352952241897583 0.18012665212154388428 0.19562453031539916992 0.2155011594295501709 0.23474510014057159424 0.25513219833374023438 0.30865958333015441895 0.37914216518402099609 0.39403590559959411621 0.36726918816566467285 0.31994086503982543945 0.26853382587432861328 0.24161075055599212646 0.2238086313009262085 0.2178242802619934082 0.21399499475955963135 0.21062980592250823975 0.21045026183128356934 0.21835343539714813232 0.22594730556011199951 0.2154274284839630127 0.19905531406402587891 0.19047774374485015869 0.18623766303062438965 0.18224239349365234375 0.17384405434131622314 0.16430872678756713867 0.15735764801502227783 0.15650632977485656738 0.15094384551048278809 0.14504764974117279053 0.13879840075969696045 0.13263423740863800049 0.12622353434562683105 0.11994139105081558228 0.11340048164129257202 0.1069901585578918457 0.10031804442405700684 0.093865014612674713135 0.087414018809795379639 0.081689439713954925537 0.076446861028671264648 0.07567049562931060791 0.07951024174690246582 0.083294942975044250488 0.087154775857925415039 0.090815812349319458008 0.094547845423221588135 0.09807796776294708252 0.1016742512583732605 0.10506639629602432251 0.10851933062076568604 0.11176665127277374268 0.11507476121187210083 0.11819164454936981201 0.12138583511114120483 0.12440849095582962036 0.12752632796764373779 0.13048793375492095947 0.13356035947799682617 0.13649241626262664795 0.1395562291145324707 0.14249515533447265625 0.14558804035186767578 0.14856962859630584717 0.15172913670539855957 0.15478906035423278809 0.15805257856845855713 0.16122540831565856934 0.16462701559066772461 0.16794408857822418213 0.17151902616024017334 0.17501498758792877197 0.17879405617713928223 0.18247233331203460693 0.19608938694000244141 0.24586334824562072754 0.25504127144813537598 0.26082363724708557129 0.26629567146301269531 0.27078187465667724609 0.27469167113304138184 0.27750790119171142578 0.27945587038993835449 0.28023919463157653809 0.2800426781177520752 0.27915269136428833008 0.27780294418334960938 0.27645024657249450684 0.27526271343231201172 0.27457267045974731445 0.27415454387664794922 0.27378001809120178223 0.27308931946754455566 0.27187955379486083984 0.26972717046737670898 0.26691097021102905273 0.26341870427131652832 0.2600428164005279541 0.25674194097518920898 0.25429186224937438965 0.25263869762420654297 0.25196546316146850586 0.2520186007022857666 0.25264301896095275879 0.2537536919116973877 0.25506359338760375977 0.25666600465774536133 0.25832715630531311035 0.26027002930641174316 0.2622204124927520752 0.26444718241691589355 0.26662895083427429199 0.26905992627143859863 0.27137467265129089355 0.27388876676559448242 0.27621981501579284668 0.27869132161140441895 0.28092181682586669922 0.28322452306747436523 0.28523749113082885742 0.28724443912506103516 0.28892230987548828125 0.29051879048347473145 0.29180118441581726074 0.29298922419548034668 0.29391458630561828613 0.29474008083343505859 0.29534748196601867676 0.29583773016929626465 0.29613041877746582031 0.29626569151878356934 0.29621335864067077637 0.29595199227333068848 0.29551774263381958008 0.29485866427421569824 0.29408538341522216797 0.29307991266250610352 0.29198208451271057129 0.29057836532592773438 0.28896725177764892578 0.28699955344200134277 0.28505483269691467285 0.28274562954902648926 0.2803134918212890625 0.27734777331352233887 0.27426311373710632324 0.27061456441879272461 0.26690050959587097168 0.26267787814140319824 0.25951808691024780273 0.25789937376976013184 0.25768458843231201172 0.25781536102294921875 0.25774997472763061523 0.25744915008544921875 0.25697365403175354004 0.25636139512062072754 0.25577321648597717285 0.25520437955856323242 0.25478327274322509766 0.25451490283012390137 0.25447961688041687012 0.2547251582145690918 0.25526586174964904785 0.25622183084487915039 0.25750118494033813477 0.25907135009765625 0.26034149527549743652 0.2609665989875793457 0.2603873908519744873 0.25772118568420410156 0.25294575095176696777 0.24588051438331604004 0.237794533371925354 0.22823497653007507324 0.21866334974765777588 0.20837275683879852295 0.19829367101192474365 0.18655060231685638428 0.17359593510627746582 0.1571553647518157959 0.13816721737384796143 0.11436016857624053955 0.089272409677505493164 0.061978828161954879761 0.027311073616147041321 0.00016513015725649893284 0 0 0 0 0 0 0 0 0 0 0 0 0 0 0 0 0 0 0 0 0 0 0 0 0 0 0 0 0 0 0 0 0 0 0 0 0 0 0 0 0 0 0 0 0 0 0 0 0 0 0 0 0 0 0 0 0 0 0 0 0 0 0 0 0 0 0 0 0 0 0 0 0 0 0 0 0 
0 0 0 0 0 0 0 0 0 0 0 0 0 0 0 0 0 0 0 0 0 0.0072455774061381816864 0.018301468342542648315 0.027277298271656036377 0.0410347767174243927 0.064646728336811065674 0.090293101966381072998 0.11447452008724212646 0.1290851980447769165 0.13855904340744018555 0.14679895341396331787 0.1438312828540802002 0.14464429020881652832 0.13925200700759887695 0.13469131290912628174 0.14412753283977508545 0.15426112711429595947 0.16694526374340057373 0.18409942090511322021 0.20188471674919128418 0.22330504655838012695 0.24181416630744934082 0.26318633556365966797 0.30738490819931030273 0.37417250871658325195 0.3919398188591003418 0.35118976235389709473 0.29817149043083190918 0.2574411928653717041 0.23220808804035186768 0.21879746019840240479 0.21321533620357513428 0.20917680859565734863 0.20637880265712738037 0.20949418842792510986 0.21897496283054351807 0.21963803470134735107 0.2033030092716217041 0.19118517637252807617 0.18455563485622406006 0.18144583702087402344 0.17527526617050170898 0.16604214906692504883 0.15677557885646820068 0.15438973903656005859 0.15083837509155273438 0.14534428715705871582 0.13976272940635681152 0.13382765650749206543 0.12793524563312530518 0.12177500873804092407 0.11571271717548370361 0.10938230901956558228 0.10316629707813262939 0.096688583493232727051 0.090419031679630279541 0.084150128066539764404 0.078588649630546569824 0.073497585952281951904 0.072772301733493804932 0.076564647257328033447 0.080303318798542022705 0.084118276834487915039 0.087738916277885437012 0.091432079672813415527 0.094927974045276641846 0.098492220044136047363 0.1018570438027381897 0.10528535395860671997 0.10851278901100158691 0.11180405318737030029 0.11490823328495025635 0.11809246242046356201 0.12110841274261474609 0.1242217719554901123 0.12718124687671661377 0.13025373220443725586 0.13318778574466705322 0.13625533878803253174 0.13919918239116668701 0.14229828119277954102 0.14528651535511016846 0.14845350384712219238 0.15152069926261901855 0.15479169785976409912 0.15797114372253417969 0.16137905418872833252 0.16470135748386383057 0.16828063130378723145 0.17177936434745788574 0.17555974423885345459 0.17923784255981445312 0.19310283660888671875 0.2438138425350189209 0.2524948418140411377 0.25782245397567749023 0.26297640800476074219 0.26731058955192565918 0.27117940783500671387 0.27403545379638671875 0.27606919407844543457 0.27694123983383178711 0.2768281102180480957 0.27601072192192077637 0.27473986148834228516 0.27347114682197570801 0.2723909914493560791 0.27182176709175109863 0.27153804898262023926 0.27127534151077270508 0.27066344022750854492 0.26946836709976196289 0.2672474980354309082 0.2642854154109954834 0.2605692446231842041 0.25693866610527038574 0.25334024429321289062 0.25060603022575378418 0.24866290390491485596 0.24774062633514404297 0.24756045639514923096 0.24800643324851989746 0.24897795915603637695 0.2502129971981048584 0.25178954005241394043 0.25346317887306213379 0.25544106960296630859 0.25742855668067932129 0.25968283414840698242 0.2618688046932220459 0.26428395509719848633 0.26657184958457946777 0.26905199885368347168 0.27135375142097473145 0.27380335330963134766 0.27602538466453552246 0.27833148837089538574 0.28035852313041687012 0.28239166736602783203 0.28410360217094421387 0.28575050830841064453 0.28710123896598815918 0.28839901089668273926 0.2894700467586517334 0.29051378369331359863 0.29138636589050292969 0.29222181439399719238 0.29286390542984008789 0.29338309168815612793 0.29366725683212280273 0.29372400045394897461 0.29353004693984985352 0.29308050870895385742 0.29247254133224487305 0.29163384437561035156 0.29069784283638000488 0.28949710726737976074 0.28809568285942077637 0.28618413209915161133 0.28421929478645324707 0.28190365433692932129 0.2794774472713470459 0.27653843164443969727 0.27349454164505004883 0.26988136768341064453 0.26617902517318725586 0.26179155707359313965 0.25824329257011413574 0.25645750761032104492 0.25605729222297668457 0.25568193197250366211 0.25513505935668945312 0.25438600778579711914 0.25358337163925170898 0.2527096867561340332 0.25193479657173156738 0.25120818614959716797 0.25066083669662475586 0.25026643276214599609 0.25011545419692993164 0.25023952126502990723 0.25066718459129333496 0.25150385499000549316 0.25267019867897033691 0.25410473346710205078 0.25520476698875427246 0.25552383065223693848 0.25426185131072998047 0.25067359209060668945 0.24506606161594390869 0.23710633814334869385 0.22817401587963104248 0.21776399016380310059 0.20748083293437957764 0.19659832119941711426 0.18615572154521942139 0.17428062856197357178 0.1614742279052734375 0.14552170038223266602 0.12734521925449371338 0.10475842654705047607 0.081022620201110839844 0.050803054124116897583 0.0035699924919754266739 0 0 0 0 0 0 0 0 0 0 0 0 0 0 0 0 0 0 0 0 0 0 0 0 0 0 0 0 0 0 0 0 0 0 0 0 0 0 0 0 0 0 0 0 0 0 0 0 0 0 0 0 0 0 0 0 0 0 0 0 0 0 0 0 0 0 0 0 0 0 0 0 0 0 0 0 0 0 
0 0 0 0 0 0 0 0 0 0 0 0 0 0 0 0 0 0 0 0 0.0089903278276324272156 0.023339122533798217773 0.029627706855535507202 0.039176270365715026855 0.055360391736030578613 0.077763818204402923584 0.099995881319046020508 0.12088764458894729614 0.13620673120021820068 0.1436792910099029541 0.14662730693817138672 0.13974872231483459473 0.13552610576152801514 0.13103471696376800537 0.1359961777925491333 0.14997199177742004395 0.16261136531829833984 0.17510215938091278076 0.19153238832950592041 0.21095983684062957764 0.22913086414337158203 0.24475142359733581543 0.26644331216812133789 0.30959868431091308594 0.37936383485794067383 0.3952541649341583252 0.34371489286422729492 0.28254619240760803223 0.24673759937286376953 0.22446939349174499512 0.21420614421367645264 0.20881438255310058594 0.20480564236640930176 0.2027155756950378418 0.20975755155086517334 0.21800982952117919922 0.20929536223411560059 0.19323091208934783936 0.1841354072093963623 0.17977666854858398438 0.17620143294334411621 0.16792070865631103516 0.15833571553230285645 0.15081664919853210449 0.14991915225982666016 0.14543482661247253418 0.14013254642486572266 0.13478863239288330078 0.12911283969879150391 0.12345775961875915527 0.11752228438854217529 0.11166176944971084595 0.1055285036563873291 0.099496595561504364014 0.093204177916049957275 0.087110415101051330566 0.081016607582569122314 0.075612381100654602051 0.070665754377841949463 0.069987885653972625732 0.073736451566219329834 0.077432639896869659424 0.081206277012825012207 0.084789760410785675049 0.08844731748104095459 0.091911993920803070068 0.095447070896625518799 0.098787143826484680176 0.10219331085681915283 0.10540299862623214722 0.10867942124605178833 0.11177261918783187866 0.11494844406843185425 0.11795901507139205933 0.12106909602880477905 0.12402753531932830811 0.12710101902484893799 0.13003781437873840332 0.13310977816581726074 0.13605898618698120117 0.13916464149951934814 0.1421597599983215332 0.14533431828022003174 0.14840881526470184326 0.15168724954128265381 0.15487313270568847656 0.15828712284564971924 0.16161434352397918701 0.16519759595394134521 0.16869871318340301514 0.17247998714447021484 0.17615747451782226562 0.19016161561012268066 0.24131976068019866943 0.24952721595764160156 0.25447130203247070312 0.25939583778381347656 0.26366877555847167969 0.26759326457977294922 0.27057516574859619141 0.27277338504791259766 0.27379137277603149414 0.27380102872848510742 0.27307423949241638184 0.27188271284103393555 0.27068233489990234375 0.26967784762382507324 0.26918792724609375 0.26898926496505737305 0.26879537105560302734 0.26822960376739501953 0.26703888177871704102 0.26476824283599853516 0.26170498132705688477 0.25783130526542663574 0.25401511788368225098 0.25018870830535888672 0.24722093343734741211 0.24501813948154449463 0.24385426938533782959 0.2434304654598236084 0.24367538094520568848 0.24447453022003173828 0.24559926986694335938 0.24711081385612487793 0.24876131117343902588 0.25073909759521484375 0.25273558497428894043 0.25499433279037475586 0.25717070698738098145 0.25956246256828308105 0.26182153820991516113 0.26426938176155090332 0.26654517650604248047 0.2689768373966217041 0.27119362354278564453 0.27350589632987976074 0.2755489647388458252 0.27760967612266540527 0.27935615181922912598 0.28105217218399047852 0.28246584534645080566 0.28385981917381286621 0.28505399823188781738 0.28627738356590270996 0.28736478090286254883 0.288478851318359375 0.28940582275390625 0.29024520516395568848 0.29082074761390686035 0.29117065668106079102 0.29122027754783630371 0.29100772738456726074 0.29060444235801696777 0.28998324275016784668 0.2892570793628692627 0.28830468654632568359 0.28716540336608886719 0.2854875028133392334 0.28356674313545227051 0.28128489851951599121 0.27889481186866760254 0.27599912881851196289 0.27300238609313964844 0.26943409442901611328 0.26574921607971191406 0.2612711489200592041 0.25732141733169555664 0.25544029474258422852 0.25476884841918945312 0.25381731986999511719 0.25276011228561401367 0.25151520967483520508 0.25032591819763183594 0.24910880625247955322 0.24806526303291320801 0.24710068106651306152 0.24636924266815185547 0.24581460654735565186 0.24553982913494110107 0.24555298686027526855 0.24588878452777862549 0.24663354456424713135 0.24771100282669067383 0.2490297853946685791 0.24993820488452911377 0.24967013299465179443 0.24768437445163726807 0.243379250168800354 0.23703764379024505615 0.22822912037372589111 0.21846686303615570068 0.20720657706260681152 0.1962000727653503418 0.18470263481140136719 0.17386682331562042236 0.16182333230972290039 0.14912883937358856201 0.13362705707550048828 0.11623049527406692505 0.094813182950019836426 0.072352722287178039551 0.025621829554438591003 0 0 0 0 0 0 0 0 0 0 0 0 0 0 0 0 0 0 0 0 0 0 0 0 0 0 0 0 0 0 0 0 0 0 0 0 0 0 0 0 0 0 0 0 0 0 0 0 0 0 0 0 0 0 0 0 0 0 0 0 0 0 0 0 0 0 0 0 0 0 0 0 0 0 0 0 0 0 0 
0 0 0 0 0 0 0 0 0 0 0 0 0 0 0 0 0 0 0 0.0043259249068796634674 0.025038015097379684448 0.033402044326066970825 0.041484240442514419556 0.052186753600835800171 0.069169603288173675537 0.090185776352882385254 0.10864745080471038818 0.12445492297410964966 0.1354503333568572998 0.14248777925968170166 0.14667247235774993896 0.14198870956897735596 0.13358928263187408447 0.13074514269828796387 0.14386162161827087402 0.15938772261142730713 0.17267751693725585938 0.19103482365608215332 0.20132465660572052002 0.21873779594898223877 0.23457314074039459229 0.24874837696552276611 0.27340808510780334473 0.33298471570014953613 0.38973534107208251953 0.38259848952293395996 0.32842135429382324219 0.26914545893669128418 0.23541449010372161865 0.21803601086139678955 0.20982417464256286621 0.20438072085380554199 0.20020191371440887451 0.20106543600559234619 0.21054434776306152344 0.21250119805335998535 0.19690972566604614258 0.18506833910942077637 0.17864240705966949463 0.1762759089469909668 0.16959695518016815186 0.15971426665782928467 0.15051421523094177246 0.1470867544412612915 0.1445808708667755127 0.13994413614273071289 0.134923592209815979 0.12981233000755310059 0.12437264621257781982 0.11893791705369949341 0.11321610212326049805 0.10755185782909393311 0.10161336511373519897 0.09576536715030670166 0.089659675955772399902 0.083744108676910400391 0.07782891392707824707 0.072587244212627410889 0.06779635697603225708 0.067171320319175720215 0.070872388780117034912 0.074523448944091796875 0.078253991901874542236 0.081799417734146118164 0.085421167314052581787 0.088854968547821044922 0.092361673712730407715 0.095678083598613739014 0.099063307046890258789 0.10225649178028106689 0.10551932454109191895 0.10860264301300048828 0.11177118867635726929 0.11477737128734588623 0.11788520961999893188 0.12084358930587768555 0.12391907721757888794 0.12685947120189666748 0.12993662059307098389 0.13289187848567962646 0.13600471615791320801 0.13900727033615112305 0.14218986034393310547 0.14527203142642974854 0.14855809509754180908 0.15175054967403411865 0.15517064929008483887 0.15850271284580230713 0.16208977997303009033 0.16559301316738128662 0.16937476396560668945 0.17305110394954681396 0.18711234629154205322 0.23834890127182006836 0.24610491096973419189 0.25072270631790161133 0.25548648834228515625 0.25976708531379699707 0.26381978392601013184 0.26699212193489074707 0.2694148719310760498 0.27062395215034484863 0.27078986167907714844 0.27017134428024291992 0.26906359195709228516 0.26792228221893310547 0.26696979999542236328 0.26652556657791137695 0.26637068390846252441 0.2662092745304107666 0.26566329598426818848 0.26447135210037231445 0.26217308640480041504 0.25905498862266540527 0.25508961081504821777 0.25115382671356201172 0.24716232717037200928 0.24400217831134796143 0.24155640602111816406 0.24014289677143096924 0.23944739997386932373 0.23945206403732299805 0.24002942442893981934 0.24099594354629516602 0.24239298701286315918 0.24397735297679901123 0.2459138035774230957 0.24788688123226165771 0.25012293457984924316 0.25227212905883789062 0.25462895631790161133 0.25685390830039978027 0.2592678368091583252 0.26151874661445617676 0.26393464207649230957 0.26614865660667419434 0.26847016811370849609 0.27053254842758178711 0.2726249992847442627 0.27441033720970153809 0.27615997195243835449 0.27763852477073669434 0.27912554144859313965 0.28043264150619506836 0.28181380033493041992 0.2830842137336730957 0.28443360328674316406 0.28560367226600646973 0.2867241203784942627 0.28756737709045410156 0.2882060706615447998 0.28851756453514099121 0.28858307003974914551 0.28843462467193603516 0.28809177875518798828 0.28763243556022644043 0.2869841158390045166 0.2861506342887878418 0.28482264280319213867 0.28307509422302246094 0.28086447715759277344 0.27853882312774658203 0.2757053077220916748 0.2727635800838470459 0.26924955844879150391 0.26558959484100341797 0.26109045743942260742 0.2567361295223236084 0.25483292341232299805 0.25370672345161437988 0.25212803483009338379 0.25050777196884155273 0.24871213734149932861 0.24706853926181793213 0.24542345106601715088 0.24402920901775360107 0.24274499714374542236 0.24176611006259918213 0.24100412428379058838 0.24057954549789428711 0.24046882987022399902 0.24071004986763000488 0.24136516451835632324 0.24235637485980987549 0.24352197349071502686 0.24395318329334259033 0.24301250278949737549 0.24046699702739715576 0.23551616072654724121 0.22845263779163360596 0.21878008544445037842 0.20815907418727874756 0.19600966572761535645 0.18423932790756225586 0.17208378016948699951 0.16081655025482177734 0.14857058227062225342 0.1359647214412689209 0.1209019199013710022 0.10428365319967269897 0.083992518484592437744 0.049966961145401000977 0.00073304848046973347664 0 0 0 0 0 0 0 0 0 0 0 0 0 0 0 0 0 0 0 0 0 0 0 0 0 0 0 0 0 0 0 0 0 0 0 0 0 0 0 0 0 0 0 0 0 0 0 0 0 0 0 0 0 0 0 0 0 0 0 0 0 0 0 0 0 0 0 0 0 0 0 0 0 0 0 0 0 0 0 
0 0 0 0 0 0 0 0 0 0 0 0 0 0 0 0 0 0 0.0037887953221797943115 0.024123093113303184509 0.037597764283418655396 0.046254925429821014404 0.053524687886238098145 0.065660990774631500244 0.081349536776542663574 0.09946832805871963501 0.1159877479076385498 0.13143368065357208252 0.13870619237422943115 0.14174836874008178711 0.14281979203224182129 0.14126573503017425537 0.13451787829399108887 0.13687829673290252686 0.14992536604404449463 0.1674944758415222168 0.18293263018131256104 0.19626733660697937012 0.20818178355693817139 0.22562441229820251465 0.23989127576351165771 0.25365474820137023926 0.28550046682357788086 0.35271430015563964844 0.38972464203834533691 0.35862675309181213379 0.3016910254955291748 0.25490832328796386719 0.22578220069408416748 0.21237178146839141846 0.20530880987644195557 0.20007964968681335449 0.19652993977069854736 0.20172411203384399414 0.20943170785903930664 0.202318534255027771 0.18701280653476715088 0.17844527959823608398 0.17435795068740844727 0.17058871686458587646 0.16188803315162658691 0.15217161178588867188 0.14489202201366424561 0.14354062080383300781 0.13940733671188354492 0.13488753139972686768 0.13003438711166381836 0.12511335313320159912 0.11987362802028656006 0.11463090777397155762 0.10910043865442276001 0.10361620783805847168 0.097859047353267669678 0.092184275388717651367 0.086255826056003570557 0.080510407686233520508 0.074766598641872406006 0.069682151079177856445 0.065047539770603179932 0.064483925700187683105 0.068136967718601226807 0.071742631494998931885 0.075430609285831451416 0.078939236700534820557 0.082527086138725280762 0.085932180285453796387 0.089413061738014221191 0.092708311975002288818 0.096075192093849182129 0.099254138767719268799 0.10250545293092727661 0.10558068752288818359 0.10874354839324951172 0.11174666136503219604 0.11485341936349868774 0.11781272292137145996 0.12089101970195770264 0.12383558601140975952 0.12691839039325714111 0.12988001108169555664 0.13300022482872009277 0.13601021468639373779 0.13920076191425323486 0.14229041337966918945 0.14558382332324981689 0.14878247678279876709 0.1522082984447479248 0.15554480254650115967 0.1591351926326751709 0.16264007985591888428 0.16642177104949951172 0.17009647190570831299 0.18415230512619018555 0.23520867526531219482 0.24258330464363098145 0.24695348739624023438 0.25162145495414733887 0.25595310330390930176 0.26016524434089660645 0.26354780793190002441 0.26621034741401672363 0.26762360334396362305 0.26795932650566101074 0.26745942234992980957 0.26644054055213928223 0.2653547823429107666 0.264438629150390625 0.2640133202075958252 0.26386734843254089355 0.26370754837989807129 0.26316109299659729004 0.26196938753128051758 0.25967487692832946777 0.25655889511108398438 0.25258031487464904785 0.24860376119613647461 0.24452376365661621094 0.2412249147891998291 0.23856522142887115479 0.23690415918827056885 0.2359180748462677002 0.23564970493316650391 0.23595982789993286133 0.23672087490558624268 0.23795172572135925293 0.23942306637763977051 0.24127171933650970459 0.24318368732929229736 0.24536494910717010498 0.2474661022424697876 0.24977405369281768799 0.25195828080177307129 0.25433588027954101562 0.25656235218048095703 0.25896403193473815918 0.26117691397666931152 0.2635097801685333252 0.2655938565731048584 0.2677211463451385498 0.26954898238182067871 0.27135610580444335938 0.27290111780166625977 0.27447783946990966797 0.27588760852813720703 0.27740496397018432617 0.2788270413875579834 0.28036832809448242188 0.28173863887786865234 0.28309762477874755859 0.28417912125587463379 0.28509181737899780273 0.28566992282867431641 0.28603509068489074707 0.28617182374000549316 0.2861436009407043457 0.28598305583000183105 0.28566604852676391602 0.28515416383743286133 0.28419804573059082031 0.28275772929191589355 0.2806701958179473877 0.27842700481414794922 0.27567127346992492676 0.2727902531623840332 0.26933467388153076172 0.26570695638656616211 0.26124799251556396484 0.25659570097923278809 0.25465700030326843262 0.25290665030479431152 0.25071170926094055176 0.24852634966373443604 0.24617797136306762695 0.24406248331069946289 0.2419592738151550293 0.24017952382564544678 0.23853549361228942871 0.23727172613143920898 0.23626543581485748291 0.23565976321697235107 0.23539525270462036133 0.23551638424396514893 0.23605701327323913574 0.23691469430923461914 0.237628936767578125 0.2374973595142364502 0.2360779494047164917 0.23306794464588165283 0.22752322256565093994 0.21977129578590393066 0.20926453173160552979 0.19781000912189483643 0.18479500710964202881 0.17227898538112640381 0.15947823226451873779 0.14778445661067962646 0.13533222675323486328 0.12280170619487762451 0.10815168172121047974 0.09223696589469909668 0.068470664322376251221 0.011452023871243000031 0 0 0 0 0 0 0 0 0 0 0 0 0 0 0 0 0 0 0 0 0 0 0 0 0 0 0 0 0 0 0 0 0 0 0 0 0 0 0 0 0 0 0 0 0 0 0 0 0 0 0 0 0 0 0 0 0 0 0 0 0 0 0 0 0 0 0 0 0 0 0 0 0 0 0 0 0 0 0 0 
0 0 0 0 0 0 0 0 0 0 0 0 0 0 0 0 0 0.00064661336364224553108 0.021608047187328338623 0.034048572182655334473 0.046497035771608352661 0.054284304380416870117 0.062887929379940032959 0.075637206435203552246 0.091619305312633514404 0.10938447713851928711 0.12857648730278015137 0.14490243792533874512 0.14926730096340179443 0.14337728917598724365 0.14010569453239440918 0.1374400705099105835 0.13602092862129211426 0.14417223632335662842 0.1565357893705368042 0.17238149046897888184 0.18796308338642120361 0.19738739728927612305 0.20956189930438995361 0.22732697427272796631 0.24301804602146148682 0.25749009847640991211 0.29924190044403076172 0.37043121457099914551 0.39039972424507141113 0.34394916892051696777 0.27930033206939697266 0.24156998097896575928 0.21719503402709960938 0.20727062225341796875 0.20089767873287200928 0.1960602104663848877 0.19400580227375030518 0.2024370729923248291 0.2040627598762512207 0.19043587148189544678 0.17914047837257385254 0.17322868108749389648 0.17013901472091674805 0.16292577981948852539 0.15365402400493621826 0.14428877830505371094 0.14048141241073608398 0.13859191536903381348 0.13429491221904754639 0.12988072633743286133 0.12517398595809936523 0.12041895091533660889 0.11535982787609100342 0.11029537767171859741 0.10494699329137802124 0.09963763505220413208 0.094059102237224578857 0.088556595146656036377 0.082805573940277099609 0.077231131494045257568 0.071659781038761138916 0.066732630133628845215 0.062246046960353851318 0.061733447015285491943 0.065346382558345794678 0.068913750350475311279 0.072565294802188873291 0.076041929423809051514 0.079599857330322265625 0.082979343831539154053 0.086436942219734191895 0.089712977409362792969 0.093063190579414367676 0.096229374408721923828 0.099470607936382293701 0.10253899544477462769 0.10569737106561660767 0.10869847238063812256 0.11180522292852401733 0.1147664189338684082 0.11784842610359191895 0.1207979544997215271 0.1238870769739151001 0.12685562670230865479 0.12998366355895996094 0.13300149142742156982 0.13620027899742126465 0.13929755985736846924 0.14259828627109527588 0.14580309391021728516 0.14923447370529174805 0.15257515013217926025 0.15616849064826965332 0.15967452526092529297 0.16345556080341339111 0.16712793707847595215 0.18114203214645385742 0.23188255727291107178 0.23894746601581573486 0.24313616752624511719 0.2477521747350692749 0.25215312838554382324 0.25652739405632019043 0.2601146399974822998 0.26301088929176330566 0.26462948322296142578 0.26514583826065063477 0.26477971673011779785 0.26386544108390808105 0.26284453272819519043 0.26196315884590148926 0.26154205203056335449 0.26138105988502502441 0.26120135188102722168 0.26064231991767883301 0.25945958495140075684 0.25720751285552978516 0.25415655970573425293 0.25024783611297607422 0.2463108748197555542 0.24221627414226531982 0.23882466554641723633 0.23596632480621337891 0.23404224216938018799 0.23272500932216644287 0.23212964832782745361 0.23210521042346954346 0.2325954437255859375 0.23359216749668121338 0.23489086329936981201 0.23659384250640869141 0.23839809000492095947 0.24048405885696411133 0.24250924587249755859 0.24474772810935974121 0.24687914550304412842 0.24921321868896484375 0.25141218304634094238 0.25379872322082519531 0.25601091980934143066 0.25835731625556945801 0.26046669483184814453 0.26263463497161865234 0.26451218128204345703 0.26638609170913696289 0.2680060267448425293 0.26967933773994445801 0.27119415998458862305 0.27284377813339233398 0.27440661191940307617 0.27612227201461791992 0.27767544984817504883 0.27925798296928405762 0.28057169914245605469 0.28176516294479370117 0.28262999653816223145 0.28332808613777160645 0.28378808498382568359 0.28411680459976196289 0.28429120779037475586 0.2843367457389831543 0.28416731953620910645 0.28359764814376831055 0.28253763914108276367 0.28068721294403076172 0.27854260802268981934 0.27588284015655517578 0.27307251095771789551 0.26968017220497131348 0.26609170436859130859 0.2617053985595703125 0.25704461336135864258 0.25474020838737487793 0.25231435894966125488 0.24948477745056152344 0.24672500789165496826 0.24381209909915924072 0.24120874702930450439 0.23862597346305847168 0.23643577098846435547 0.23439875245094299316 0.23281139135360717773 0.23151051998138427734 0.23066945374011993408 0.23018847405910491943 0.23012851178646087646 0.23046354949474334717 0.23086768388748168945 0.23096965253353118896 0.2304105907678604126 0.22856560349464416504 0.22509610652923583984 0.21894696354866027832 0.21049232780933380127 0.19913634657859802246 0.18683624267578125 0.17294618487358093262 0.1596790999174118042 0.14623138308525085449 0.13411307334899902344 0.12145984172821044922 0.1090122908353805542 0.094768606126308441162 0.079511336982250213623 0.031114840880036354065 0 0 0 0 0 0 0 0 0 0 0 0 0 0 0 0 0 0 0 0 0 0 0 0 0 0 0 0 0 0 0 0 0 0 0 0 0 0 0 0 0 0 0 0 0 0 0 0 0 0 0 0 0 0 0 0 0 0 0 0 0 0 0 0 0 0 0 0 0 0 0 0 0 0 0 0 0 0 0 0 0 
0 0 0 0 0 0 0 0 0 0 0 0 0 0 0 0 0.0004494112508837133646 0.013225149363279342651 0.029485754668712615967 0.041498906910419464111 0.053938060998916625977 0.061227723956108093262 0.072248823940753936768 0.084473751485347747803 0.10108996927738189697 0.11622133851051330566 0.13218286633491516113 0.15033040940761566162 0.15070670843124389648 0.1408030390739440918 0.13686992228031158447 0.1372330784797668457 0.14083197712898254395 0.15160258114337921143 0.16481913626194000244 0.17386761307716369629 0.18611326813697814941 0.19894292950630187988 0.21148571372032165527 0.22710342705249786377 0.24150525033473968506 0.26141250133514404297 0.30822825431823730469 0.37241482734680175781 0.38117781281471252441 0.32391718029975891113 0.26332271099090576172 0.22862932085990905762 0.21012681722640991211 0.20221829414367675781 0.19655519723892211914 0.1920604407787322998 0.19358663260936737061 0.20098055899143218994 0.19465978443622589111 0.18072947859764099121 0.1729221343994140625 0.16935181617736816406 0.16444925963878631592 0.15499316155910491943 0.14552694559097290039 0.13888815045356750488 0.13771076500415802002 0.13373254239559173584 0.12943549454212188721 0.12513405084609985352 0.12056442350149154663 0.11595638841390609741 0.11105706542730331421 0.10615247488021850586 0.10097018629312515259 0.095822855830192565918 0.090411558747291564941 0.085071586072444915771 0.079488746821880340576 0.074076838791370391846 0.068669602274894714355 0.063891895115375518799 0.059546884149312973022 0.05908627435564994812 0.062662638723850250244 0.066195063292980194092 0.069813549518585205078 0.073261335492134094238 0.076792478561401367188 0.080149196088314056396 0.083586230874061584473 0.086845517158508300781 0.090181417763233184814 0.093336835503578186035 0.096569806337356567383 0.099632889032363891602 0.10278815776109695435 0.1057883724570274353 0.10889612138271331787 0.11186000704765319824 0.11494637280702590942 0.11790130287408828735 0.12099707126617431641 0.12397268414497375488 0.1271085888147354126 0.13013412058353424072 0.13334093987941741943 0.13644553720951080322 0.13975310325622558594 0.14296361804008483887 0.14640001952648162842 0.14974428713321685791 0.15333989262580871582 0.15684640407562255859 0.16062606871128082275 0.16429536044597625732 0.1782582700252532959 0.228688850998878479 0.23555615544319152832 0.23964218795299530029 0.24423921108245849609 0.24869789183139801025 0.25319299101829528809 0.25693309307098388672 0.26001131534576416016 0.26180347800254821777 0.26249039173126220703 0.26226514577865600586 0.26147168874740600586 0.26053118705749511719 0.25969278812408447266 0.25927090644836425781 0.25908115506172180176 0.25886902213096618652 0.25829371809959411621 0.25713518261909484863 0.25497004389762878418 0.25205135345458984375 0.2482996135950088501 0.24448657035827636719 0.24045678973197937012 0.237024649977684021 0.23399171233177185059 0.23179885745048522949 0.23012073338031768799 0.22915391623973846436 0.22873617708683013916 0.22889587283134460449 0.22959378361701965332 0.23066128790378570557 0.23216028511524200439 0.23380896449089050293 0.23575775325298309326 0.23767788708209991455 0.23982535302639007568 0.2418912351131439209 0.24417388439178466797 0.2463416755199432373 0.24871122837066650391 0.25092232227325439453 0.25328314304351806641 0.25542023777961730957 0.25763329863548278809 0.25956657528877258301 0.26151552796363830566 0.26321825385093688965 0.26499521732330322266 0.26661854982376098633 0.26839914917945861816 0.27009567618370056152 0.27197301387786865234 0.27369537949562072754 0.27548784017562866211 0.2770252227783203125 0.2784976959228515625 0.2796554863452911377 0.28069895505905151367 0.28149640560150146484 0.28219613432884216309 0.28271311521530151367 0.28312066197395324707 0.28328472375869750977 0.28308388590812683105 0.28239023685455322266 0.28089389204978942871 0.27887770533561706543 0.27632358670234680176 0.27359172701835632324 0.2702623903751373291 0.26670956611633300781 0.26238813996315002441 0.25793409347534179688 0.2549832761287689209 0.25195574760437011719 0.24851793050765991211 0.24522139132022857666 0.24178110063076019287 0.2387256324291229248 0.23569896817207336426 0.23312392830848693848 0.23070608079433441162 0.22878602147102355957 0.22715428471565246582 0.22602163255214691162 0.2252477109432220459 0.22490884363651275635 0.22469633817672729492 0.22446171939373016357 0.22408559918403625488 0.22314526140689849854 0.22087804973125457764 0.21694532036781311035 0.21019594371318817139 0.20105616748332977295 0.18888375163078308105 0.17577958106994628906 0.16106551885604858398 0.14709852635860443115 0.13305653631687164307 0.12055791169404983521 0.10773973166942596436 0.095392145216464996338 0.081503219902515411377 0.057032186537981033325 0.0012381913838908076286 0 0 0 0 0 0 0 0 0 0 0 0 0 0 0 0 0 0 0 0 0 0 0 0 0 0 0 0 0 0 0 0 0 0 0 0 0 0 0 0 0 0 0 0 0 0 0 0 0 0 0 0 0 0 0 0 0 0 0 0 0 0 0 0 0 0 0 0 0 0 0 0 0 0 0 0 0 0 0 0 0 
0 0 0 0 0 0 0 0 0 0 0 0 0 0 0 0 0.013589896261692047119 0.02452906779944896698 0.034424185752868652344 0.047201287001371383667 0.057546805590391159058 0.067584335803985595703 0.080156348645687103271 0.095033675432205200195 0.10891343653202056885 0.11786381155252456665 0.1308460533618927002 0.14624425768852233887 0.14442820847034454346 0.13276025652885437012 0.13331994414329528809 0.13637875020503997803 0.14554029703140258789 0.15418286621570587158 0.16649441421031951904 0.17681966722011566162 0.19096310436725616455 0.20464490354061126709 0.21792612969875335693 0.23087006807327270508 0.24422216415405273438 0.26858580112457275391 0.32154980301856994629 0.37688520550727844238 0.36804220080375671387 0.30226054787635803223 0.2478275299072265625 0.21784356236457824707 0.20477557182312011719 0.19732975959777832031 0.19232574105262756348 0.18903939425945281982 0.19367571175098419189 0.19496002793312072754 0.18281640112400054932 0.17273259162902832031 0.16738072037696838379 0.16424590349197387695 0.15661300718784332275 0.14688815176486968994 0.1372512131929397583 0.13496255874633789062 0.13308452069759368896 0.12883523106575012207 0.12457957863807678223 0.12038793414831161499 0.1159518808126449585 0.11148445308208465576 0.1067377626895904541 0.10198669880628585815 0.096965663135051727295 0.091977052390575408936 0.086730815470218658447 0.081552080810070037842 0.07613674551248550415 0.070887170732021331787 0.065644077956676483154 0.0610161609947681427 0.056813877075910568237 0.056406803429126739502 0.059947911649942398071 0.06344674527645111084 0.067033596336841583252 0.070453964173793792725 0.073959812521934509277 0.07729520648717880249 0.080713182687759399414 0.083957105875015258789 0.087280094623565673828 0.090426005423069000244 0.093652009963989257812 0.096710927784442901611 0.09986419975757598877 0.10286448895931243896 0.10597418993711471558 0.10894162207841873169 0.11203312873840332031 0.11499411612749099731 0.11809711158275604248 0.12108026444911956787 0.12422440201044082642 0.12725789844989776611 0.13047282397747039795 0.13358470797538757324 0.13689891993999481201 0.14011491835117340088 0.14355595409870147705 0.14690332114696502686 0.15050053596496582031 0.15400679409503936768 0.1577841341495513916 0.16144931316375732422 0.17537248134613037109 0.22560161352157592773 0.23239056766033172607 0.23644590377807617188 0.2410405278205871582 0.24552316963672637939 0.2500711977481842041 0.25388810038566589355 0.25707611441612243652 0.25899907946586608887 0.25984480977058410645 0.2597732841968536377 0.25912803411483764648 0.2582963109016418457 0.25752228498458862305 0.25710493326187133789 0.25688090920448303223 0.25663033127784729004 0.25604212284088134766 0.2549298405647277832 0.25290516018867492676 0.25019574165344238281 0.24669809639453887939 0.24310053884983062744 0.23921822011470794678 0.23579522967338562012 0.23260092735290527344 0.23011769354343414307 0.22802767157554626465 0.22662310302257537842 0.22572998702526092529 0.22547931969165802002 0.22579501569271087646 0.22655783593654632568 0.22778078913688659668 0.22921505570411682129 0.23097468912601470947 0.23275274038314819336 0.23478038609027862549 0.23676231503486633301 0.23898081481456756592 0.2411101609468460083 0.24345806241035461426 0.24566593766212463379 0.2480414658784866333 0.2502091825008392334 0.25247374176979064941 0.25447186827659606934 0.25650903582572937012 0.25830885767936706543 0.26020571589469909668 0.26195222139358520508 0.26387777924537658691 0.26571834087371826172 0.26776602864265441895 0.26966512203216552734 0.27167689800262451172 0.27344942092895507812 0.2752183079719543457 0.27668976783752441406 0.27810361981391906738 0.27926123142242431641 0.2803535759449005127 0.28122618794441223145 0.28200009465217590332 0.28249335289001464844 0.28265070915222167969 0.28231054544448852539 0.28122362494468688965 0.27943056821823120117 0.27699378132820129395 0.27435144782066345215 0.27108401060104370117 0.26754930615425109863 0.26327839493751525879 0.25911200046539306641 0.25534668564796447754 0.25178617238998413086 0.24775837361812591553 0.2439470142126083374 0.24000848829746246338 0.23653829097747802734 0.23311072587966918945 0.23018419742584228516 0.22740195691585540771 0.22513630986213684082 0.22312152385711669922 0.22161592543125152588 0.22042068839073181152 0.21945422887802124023 0.21841704845428466797 0.21761339902877807617 0.21675157546997070312 0.21538084745407104492 0.21263304352760314941 0.20818883180618286133 0.20080231130123138428 0.19095881283283233643 0.17796739935874938965 0.16407085955142974854 0.14855791628360748291 0.13392454385757446289 0.11933143436908721924 0.10649744421243667603 0.093561261892318725586 0.081325732171535491943 0.065334439277648925781 0.018608201295137405396 0 0 0 0 0 0 0 0 0 0 0 0 0 0 0 0 0 0 0 0 0 0 0 0 0 0 0 0 0 0 0 0 0 0 0 0 0 0 0 0 0 0 0 0 0 0 0 0 0 0 0 0 0 0 0 0 0 0 0 0 0 0 0 0 0 0 0 0 0 0 0 0 0 0 0 0 0 0 0 0 0 0 
0 0 0 0 0 0 0 0 0 0 0 0 0 0 0 0.0063381013460457324982 0.02290865778923034668 0.028852654621005058289 0.041572254151105880737 0.053872846066951751709 0.065175123512744903564 0.07695598900318145752 0.088414326310157775879 0.10135434567928314209 0.11279870569705963135 0.12023458629846572876 0.13423064351081848145 0.14387226104736328125 0.13790851831436157227 0.12936563789844512939 0.1312153935432434082 0.13639385998249053955 0.1456279456615447998 0.15434288978576660156 0.17074188590049743652 0.1803671717643737793 0.19482639431953430176 0.20829123258590698242 0.22294440865516662598 0.23523896932601928711 0.25023210048675537109 0.28437474370002746582 0.34260126948356628418 0.37588325142860412598 0.34526574611663818359 0.2828642427921295166 0.23343162238597869873 0.21090106666088104248 0.20063553750514984131 0.19348445534706115723 0.18817445635795593262 0.18664385378360748291 0.19048506021499633789 0.1853625178337097168 0.17280736565589904785 0.16626571118831634521 0.16337829828262329102 0.1579151451587677002 0.14892120659351348877 0.13893213868141174316 0.13150291144847869873 0.1314970552921295166 0.12801332771778106689 0.12404968589544296265 0.11993797868490219116 0.11586174368858337402 0.11154909431934356689 0.10721030086278915405 0.10260389745235443115 0.097994603216648101807 0.093123577535152435303 0.088283494114875793457 0.083192490041255950928 0.078166127204895019531 0.07290960848331451416 0.067814327776432037354 0.062727607786655426025 0.058242660015821456909 0.054177027195692062378 0.053821887820959091187 0.057330530136823654175 0.060798522084951400757 0.064356535673141479492 0.067752048373222351074 0.071235135197639465332 0.074551478028297424316 0.077952653169631958008 0.081183232367038726807 0.084495179355144500732 0.087633252143859863281 0.090853780508041381836 0.093909777700901031494 0.097062155604362487793 0.10006344318389892578 0.10317589342594146729 0.10614749044179916382 0.10924462974071502686 0.11221197992563247681 0.11532238125801086426 0.11831310391426086426 0.12146538496017456055 0.12450664490461349487 0.1277293860912322998 0.13084805011749267578 0.13416838645935058594 0.13738925755023956299 0.14083424210548400879 0.14418394863605499268 0.14778193831443786621 0.1512870490550994873 0.15506105124950408936 0.15872111916542053223 0.17262798547744750977 0.22281980514526367188 0.22964356839656829834 0.23372700810432434082 0.23832000792026519775 0.24277703464031219482 0.2472934722900390625 0.25109550356864929199 0.25430610775947570801 0.25630497932434082031 0.25728785991668701172 0.25737658143043518066 0.25690361857414245605 0.25620931386947631836 0.25552511215209960938 0.25512447953224182129 0.25486963987350463867 0.25458186864852905273 0.25398796796798706055 0.25294104218482971191 0.25109794735908508301 0.24865576624870300293 0.24548538029193878174 0.24217334389686584473 0.23850458860397338867 0.23513531684875488281 0.23180159926414489746 0.22902581095695495605 0.22650262713432312012 0.22462695837020874023 0.22321298718452453613 0.22250470519065856934 0.22238601744174957275 0.22279618680477142334 0.22369483113288879395 0.22487457096576690674 0.22640949487686157227 0.22802045941352844238 0.22990904748439788818 0.23179455101490020752 0.23393931984901428223 0.23602323234081268311 0.23834230005741119385 0.24054038524627685547 0.24292418360710144043 0.24511809647083282471 0.24743178486824035645 0.24949574470520019531 0.25162565708160400391 0.25352945923805236816 0.25555536150932312012 0.25743398070335388184 0.25951358675956726074 0.26150497794151306152 0.26372873783111572266 0.26580834388732910156 0.26804256439208984375 0.2700525820255279541 0.27211999893188476562 0.27390664815902709961 0.27569061517715454102 0.27720502018928527832 0.27868187427520751953 0.27989658713340759277 0.28101399540901184082 0.28180867433547973633 0.28228935599327087402 0.2822672724723815918 0.28156620264053344727 0.2800986170768737793 0.27779969573020935059 0.27524676918983459473 0.2720266878604888916 0.26849329471588134766 0.26430544257164001465 0.26044920086860656738 0.25577649474143981934 0.25174489617347717285 0.24719837307929992676 0.24292872846126556396 0.2385562211275100708 0.23473979532718658447 0.23098552227020263672 0.22776806354522705078 0.22466470301151275635 0.22206334769725799561 0.21963493525981903076 0.21768404543399810791 0.21575562655925750732 0.21390187740325927734 0.21213081479072570801 0.21076130867004394531 0.20936122536659240723 0.20750130712985992432 0.20421957969665527344 0.1992314457893371582 0.19119964540004730225 0.18067272007465362549 0.16691043972969055176 0.15228629112243652344 0.1360569000244140625 0.12084220349788665771 0.10578846931457519531 0.092699088156223297119 0.079706579446792602539 0.067582063376903533936 0.035927094519138336182 0 0 0 0 0 0 0 0 0 0 0 0 0 0 0 0 0 0 0 0 0 0 0 0 0 0 0 0 0 0 0 0 0 0 0 0 0 0 0 0 0 0 0 0 0 0 0 0 0 0 0 0 0 0 0 0 0 0 0 0 0 0 0 0 0 0 0 0 0 0 0 0 0 0 0 0 0 0 0 0 0 0 0 
0 0 0 0 0 0 0 0 0 0 0 0 0 0 0.0063042361289262771606 0.020279712975025177002 0.026362169533967971802 0.037476282566785812378 0.048485379666090011597 0.058509483933448791504 0.070943213999271392822 0.084195874631404876709 0.098908245563507080078 0.10884130001068115234 0.11701601743698120117 0.1245789453387260437 0.13554130494594573975 0.14282171428203582764 0.13463142514228820801 0.13004890084266662598 0.13008174300193786621 0.13667470216751098633 0.14688152074813842773 0.15855166316032409668 0.17521426081657409668 0.18770663440227508545 0.19823388755321502686 0.21155183017253875732 0.22570784389972686768 0.24011686444282531738 0.2590789794921875 0.30420657992362976074 0.36368381977081298828 0.3778870999813079834 0.32398578524589538574 0.25952136516571044922 0.22114922106266021729 0.20574615895748138428 0.19666638970375061035 0.18987289071083068848 0.18435288965702056885 0.18351241946220397949 0.18430991470813751221 0.17456790804862976074 0.16524001955986022949 0.16214473545551300049 0.15803408622741699219 0.14970691502094268799 0.14048258960247039795 0.1312293708324432373 0.12834776937961578369 0.12689009308815002441 0.12307497859001159668 0.11927084624767303467 0.11529807746410369873 0.11133763939142227173 0.10714450478553771973 0.10293004661798477173 0.098459638655185699463 0.093988277018070220947 0.08926381915807723999 0.084569469094276428223 0.079631470143795013428 0.074755869805812835693 0.069656968116760253906 0.06471519172191619873 0.059784259647130966187 0.05544205009937286377 0.051513094455003738403 0.051210414618253707886 0.054687649011611938477 0.058125883340835571289 0.061656210571527481079 0.06502803415060043335 0.068489618599414825439 0.071788154542446136475 0.075173743069171905518 0.07839212566614151001 0.081694245338439941406 0.084825597703456878662 0.088041715323925018311 0.091095797717571258545 0.09424826502799987793 0.097251400351524353027 0.10036741942167282104 0.10334391891956329346 0.10644734650850296021 0.10942162573337554932 0.11253990232944488525 0.11553852260112762451 0.11869919300079345703 0.12174829095602035522 0.12497881799936294556 0.12810398638248443604 0.13143013417720794678 0.13465550541877746582 0.13810381293296813965 0.14145517349243164062 0.14505301415920257568 0.14855590462684631348 0.15232528746128082275 0.1559788435697555542 0.16558466851711273193 0.19801165163516998291 0.20408368110656738281 0.20807032287120819092 0.21241807937622070312 0.21657370030879974365 0.23395709693431854248 0.24831543862819671631 0.25147473812103271484 0.2535076141357421875 0.25461816787719726562 0.25488361716270446777 0.25461608171463012695 0.25409519672393798828 0.25353300571441650391 0.25316676497459411621 0.25288873910903930664 0.25256678462028503418 0.25197312235832214355 0.25100633502006530762 0.24937607347965240479 0.24724631011486053467 0.24446067214012145996 0.24148952960968017578 0.23808662593364715576 0.23480644822120666504 0.23135095834732055664 0.22828093171119689941 0.22530786693096160889 0.22293522953987121582 0.22096563875675201416 0.21976388990879058838 0.2191718369722366333 0.21919384598731994629 0.21973270177841186523 0.22062872350215911865 0.2219133526086807251 0.22333930432796478271 0.22507466375827789307 0.22685350477695465088 0.22891467809677124023 0.23094326257705688477 0.23322021961212158203 0.23539401590824127197 0.23776984214782714844 0.23997589945793151855 0.24232672154903411865 0.24444988369941711426 0.24667134881019592285 0.24868269264698028564 0.25084540247917175293 0.25286573171615600586 0.25511097908020019531 0.25726410746574401855 0.25967514514923095703 0.26194518804550170898 0.26441198587417602539 0.26666823029518127441 0.2690429389476776123 0.27115181088447570801 0.27331146597862243652 0.27518478035926818848 0.27704438567161560059 0.2785950005054473877 0.28004258871078491211 0.28112116456031799316 0.28190273046493530273 0.2821763157844543457 0.28183704614639282227 0.28075423836708068848 0.27866533398628234863 0.27619245648384094238 0.27300530672073364258 0.26950857043266296387 0.26540485024452209473 0.26160299777984619141 0.2562414705753326416 0.25172886252403259277 0.24671566486358642578 0.24203111231327056885 0.23727175593376159668 0.23315870761871337891 0.22913034260272979736 0.22566252946853637695 0.22226192057132720947 0.21932002902030944824 0.21642832458019256592 0.21377302706241607666 0.21081428229808807373 0.20815041661262512207 0.20563551783561706543 0.20362740755081176758 0.20159493386745452881 0.19915905594825744629 0.19526426494121551514 0.18967692553997039795 0.18096873164176940918 0.16975833475589752197 0.15525387227535247803 0.13995119929313659668 0.12307502329349517822 0.10735626518726348877 0.09192978590726852417 0.078668370842933654785 0.065662071108818054199 0.049319721758365631104 0.0013032680144533514977 0 0 0 0 0 0 0 0 0 0 0 0 0 0 0 0 0 0 0 0 0 0 0 0 0 0 0 0 0 0 0 0 0 0 0 0 0 0 0 0 0 0 0 0 0 0 0 0 0 0 0 0 0 0 0 0 0 0 0 0 0 0 0 0 0 0 0 0 0 0 0 0 0 0 0 0 0 0 0 0 0 0 0 
0 0 0 0 0 0 0 0 0 0 0 0 0 0.0013643699930980801582 0.015638427808880805969 0.022201625630259513855 0.032430596649646759033 0.044391244649887084961 0.053405523300170898438 0.065330639481544494629 0.07925023883581161499 0.092008292675018310547 0.10596010088920593262 0.11459286510944366455 0.12160599231719970703 0.12793023884296417236 0.13365387916564941406 0.13422381877899169922 0.13176669180393218994 0.13192453980445861816 0.132508888840675354 0.13974970579147338867 0.15118499100208282471 0.1616385728120803833 0.17711791396141052246 0.19093611836433410645 0.20313604176044464111 0.21826165914535522461 0.23019276559352874756 0.24363115429878234863 0.27112838625907897949 0.32545641064643859863 0.37620943784713745117 0.36403420567512512207 0.29946744441986083984 0.24158196151256561279 0.21238879859447479248 0.20125886797904968262 0.19267296791076660156 0.18633015453815460205 0.18158096075057983398 0.1804568171501159668 0.17552641034126281738 0.16581930220127105713 0.16065593063831329346 0.15856035053730010986 0.15130563080310821533 0.14135088026523590088 0.13209129869937896729 0.12515181303024291992 0.12505492568016052246 0.12201219797134399414 0.11835419386625289917 0.11469927430152893066 0.11085404455661773682 0.10700374096632003784 0.10292407125234603882 0.098826453089714050293 0.094483114778995513916 0.090140521526336669922 0.085553258657455444336 0.080995805561542510986 0.076202064752578735352 0.071469105780124664307 0.066519789397716522217 0.061723992228507995605 0.056941494345664978027 0.052735496312379837036 0.048937153071165084839 0.048685017973184585571 0.052133060991764068604 0.05554372444748878479 0.059048544615507125854 0.062398727983236312866 0.065840765833854675293 0.069123305380344390869 0.072495073080062866211 0.075702838599681854248 0.078996635973453521729 0.082122527062892913818 0.085335455834865570068 0.088388614356517791748 0.091542035341262817383 0.094547733664512634277 0.097667939960956573486 0.10064978152513504028 0.10375986248254776001 0.10674124211072921753 0.10986746102571487427 0.11287391185760498047 0.11604279279708862305 0.11909943073987960815 0.12233722954988479614 0.12546834349632263184 0.12879969179630279541 0.13202886283397674561 0.13547967374324798584 0.1388317793607711792 0.14242839813232421875 0.14592799544334411621 0.14969149231910705566 0.15333722531795501709 0.15723186731338500977 0.16096828877925872803 0.16493117809295654297 0.16869826614856719971 0.17266617715358734131 0.17640505731105804443 0.21234156191349029541 0.24555413424968719482 0.24860239028930664062 0.25063541531562805176 0.25186485052108764648 0.25231897830963134766 0.25228294730186462402 0.25196555256843566895 0.25155529379844665527 0.25124433636665344238 0.25095710158348083496 0.25060856342315673828 0.25001990795135498047 0.24913668632507324219 0.24772393703460693359 0.24591314792633056641 0.24352297186851501465 0.24090608954429626465 0.23778703808784484863 0.23461653292179107666 0.23106496036052703857 0.22772687673568725586 0.22433201968669891357 0.22148780524730682373 0.21898697316646575928 0.2173102647066116333 0.2162596583366394043 0.21590368449687957764 0.2160908132791519165 0.21670897305011749268 0.21774893999099731445 0.21899496018886566162 0.22058123350143432617 0.22225461900234222412 0.22422896325588226318 0.22619356215000152588 0.22841186821460723877 0.2305399477481842041 0.23288083076477050781 0.23507300019264221191 0.23743461072444915771 0.23959663510322570801 0.24189382791519165039 0.2440033257007598877 0.24629707634449005127 0.24845673143863677979 0.25086712837219238281 0.25318229198455810547 0.25578066706657409668 0.25823983550071716309 0.26093524694442749023 0.26343077421188354492 0.26610043644905090332 0.26851534843444824219 0.27102842926979064941 0.27323630452156066895 0.27544891834259033203 0.27730590105056762695 0.27904948592185974121 0.28037825226783752441 0.28142240643501281738 0.2819537818431854248 0.28193235397338867188 0.28120908141136169434 0.27943140268325805664 0.27702695131301879883 0.27389243245124816895 0.27044948935508728027 0.26638782024383544922 0.26230645179748535156 0.25663781166076660156 0.25166723132133483887 0.24623785912990570068 0.24120686948299407959 0.23612834513187408447 0.23177854716777801514 0.2275339961051940918 0.22386036813259124756 0.22019413113594055176 0.21691890060901641846 0.21337716281414031982 0.20977744460105895996 0.20593416690826416016 0.20251555740833282471 0.19922934472560882568 0.19652625918388366699 0.19379119575023651123 0.19071640074253082275 0.18615652620792388916 0.17994377017021179199 0.17056505382061004639 0.15871325135231018066 0.143545493483543396 0.12766295671463012695 0.11026043444871902466 0.09415836632251739502 0.078484497964382171631 0.065142877399921417236 0.051711738109588623047 0.012529458850622177124 0 0 0 0 0 0 0 0 0 0 0 0 0 0 0 0 0 0 0 0 0 0 0 0 0 0 0 0 0 0 0 0 0 0 0 0 0 0 0 0 0 0 0 0 0 0 0 0 0 0 0 0 0 0 0 0 0 0 0 0 0 0 0 0 0 0 0 0 0 0 0 0 0 0 0 0 0 0 0 0 0 0 0 0 
0 0 0 0 0 0 0 0 0 0 0 0 0.0015090241795405745506 0.013678669929504394531 0.020577764138579368591 0.027580244466662406921 0.037233736366033554077 0.047452546656131744385 0.060346577316522598267 0.075362727046012878418 0.087837241590023040771 0.099573731422424316406 0.11378186196088790894 0.12697176635265350342 0.13242322206497192383 0.13201515376567840576 0.13197238743305206299 0.13057683408260345459 0.12874892354011535645 0.13124489784240722656 0.13481323421001434326 0.14438210427761077881 0.15306292474269866943 0.16383188962936401367 0.17976947128772735596 0.19099244475364685059 0.20692870020866394043 0.22218367457389831543 0.23444415628910064697 0.2494373619556427002 0.28375828266143798828 0.34432232379913330078 0.37862426042556762695 0.34364944696426391602 0.27751004695892333984 0.22828723490238189697 0.20705972611904144287 0.19733795523643493652 0.18902954459190368652 0.1834519803524017334 0.17965304851531982422 0.17662622034549713135 0.16770324110984802246 0.16023586690425872803 0.15685059130191802979 0.15275216102600097656 0.14410877227783203125 0.13345296680927276611 0.12383466213941574097 0.12137605994939804077 0.12023493647575378418 0.11702977865934371948 0.11360251158475875854 0.1101129874587059021 0.10640261322259902954 0.10266754031181335449 0.098703667521476745605 0.094722278416156768799 0.090503565967082977295 0.086286805570125579834 0.081833705306053161621 0.077410429716110229492 0.072758555412292480469 0.068166315555572509766 0.063364937901496887207 0.058713853359222412109 0.054078791290521621704 0.050008289515972137451 0.046340014785528182983 0.046138480305671691895 0.049558073282241821289 0.052941963076591491699 0.056422177702188491821 0.059751573950052261353 0.063175037503242492676 0.0664424896240234375 0.06980142742395401001 0.072999522089958190918 0.076285935938358306885 0.079407282173633575439 0.08261791616678237915 0.085670985281467437744 0.088826201856136322021 0.091835193336009979248 0.094960264861583709717 0.097948059439659118652 0.10106532275676727295 0.10405423492193222046 0.10718872398138046265 0.11020323634147644043 0.1133804023265838623 0.11644455790519714355 0.11968936026096343994 0.12282606214284896851 0.12616214156150817871 0.12939451634883880615 0.13284702599048614502 0.13619889318943023682 0.1397930830717086792 0.14328806102275848389 0.14704404771327972412 0.15068021416664123535 0.15456242859363555908 0.15828497707843780518 0.16223126649856567383 0.16598089039325714111 0.16992877423763275146 0.1736475825309753418 0.20953640341758728027 0.24257758259773254395 0.24546647071838378906 0.24747686088085174561 0.24882806837558746338 0.24949340522289276123 0.24972541630268096924 0.24965065717697143555 0.24943059682846069336 0.24920213222503662109 0.24892450869083404541 0.24855892360210418701 0.24797865748405456543 0.24717754125595092773 0.24597764015197753906 0.24448001384735107422 0.24248036742210388184 0.24021710455417633057 0.2373873293399810791 0.23433959484100341797 0.23071560263633728027 0.22713907063007354736 0.22335898876190185547 0.22007913887500762939 0.21708489954471588135 0.21496562659740447998 0.21348659694194793701 0.21277673542499542236 0.21263432502746582031 0.21299239993095397949 0.21380420029163360596 0.21488328278064727783 0.21633037924766540527 0.21790218353271484375 0.21978624165058135986 0.22167487442493438721 0.22381068766117095947 0.225862160325050354 0.22812925279140472412 0.23026981949806213379 0.23260402679443359375 0.23477534949779510498 0.2371250838041305542 0.23931898176670074463 0.24173565208911895752 0.24403215944766998291 0.24660882353782653809 0.24908930063247680664 0.2518793940544128418 0.25453117489814758301 0.25745669007301330566 0.26018929481506347656 0.26314622163772583008 0.26585444808006286621 0.26870197057723999023 0.2712230980396270752 0.27376291155815124512 0.27590104937553405762 0.27791294455528259277 0.27946540713310241699 0.280742645263671875 0.28150293231010437012 0.28176569938659667969 0.28136682510375976562 0.27997228503227233887 0.27769696712493896484 0.27462670207023620605 0.27122300863265991211 0.26713421940803527832 0.26270338892936706543 0.2568696439266204834 0.25148314237594604492 0.24566726386547088623 0.24033226072788238525 0.23498989641666412354 0.23044867813587188721 0.22602805495262145996 0.22217583656311035156 0.21825513243675231934 0.21450288593769073486 0.21004143357276916504 0.20562882721424102783 0.20096495747566223145 0.19676387310028076172 0.19263918697834014893 0.18915934860706329346 0.18562690913677215576 0.18182733654975891113 0.17652669548988342285 0.16964139044284820557 0.15957865118980407715 0.14711295068264007568 0.13134972751140594482 0.11497972160577774048 0.09716942906379699707 0.080807454884052276611 0.065014660358428955078 0.051670316606760025024 0.029897123575210571289 0 0 0 0 0 0 0 0 0 0 0 0 0 0 0 0 0 0 0 0 0 0 0 0 0 0 0 0 0 0 0 0 0 0 0 0 0 0 0 0 0 0 0 0 0 0 0 0 0 0 0 0 0 0 0 0 0 0 0 0 0 0 0 0 0 0 0 0 0 0 0 0 0 0 0 0 0 0 0 0 0 0 0 0 0 
0 0 0 0 0 0 0 0 0 0 0 6.8962144723627716303e-05 0.0098876729607582092285 0.018700920045375823975 0.02251027524471282959 0.029859198257327079773 0.04271748661994934082 0.05584821850061416626 0.070008367300033569336 0.082699514925479888916 0.094641171395778656006 0.10669758915901184082 0.12086778134107589722 0.13331955671310424805 0.13549333810806274414 0.13235192000865936279 0.12820938229560852051 0.12775902450084686279 0.12945854663848876953 0.13175927102565765381 0.13830424845218658447 0.14748008549213409424 0.15658351778984069824 0.16963404417037963867 0.18657658994197845459 0.19778321683406829834 0.21058219671249389648 0.22399795055389404297 0.24111740291118621826 0.26196452975273132324 0.30267646908760070801 0.35401910543441772461 0.36199647188186645508 0.31183955073356628418 0.25431516766548156738 0.21575745940208435059 0.20337931811809539795 0.19364365935325622559 0.18598198890686035156 0.18100219964981079102 0.1769946366548538208 0.17062588036060333252 0.16078919172286987305 0.15538237988948822021 0.15165469050407409668 0.14516942203044891357 0.13524554669857025146 0.12402053177356719971 0.11697804927825927734 0.11696211248636245728 0.11497027426958084106 0.11219139397144317627 0.10901095718145370483 0.10568933188915252686 0.10211545974016189575 0.098496295511722564697 0.094646044075489044189 0.090775914490222930908 0.086674839258193969727 0.082576364278793334961 0.078249402344226837158 0.073952592909336090088 0.069434784352779388428 0.064975954592227935791 0.060315217822790145874 0.05580201372504234314 0.051307648420333862305 0.047366645187139511108 0.043822791427373886108 0.04366985708475112915 0.047062665224075317383 0.050421439111232757568 0.053878664970397949219 0.057188823819160461426 0.06059533730149269104 0.063849344849586486816 0.067197166383266448975 0.070387244224548339844 0.07366812974214553833 0.076787084341049194336 0.079998046159744262695 0.083053857088088989258 0.086214035749435424805 0.089229479432106018066 0.092362776398658752441 0.095359876751899719238 0.098487965762615203857 0.10148790478706359863 0.10463425517082214355 0.10766007006168365479 0.11084866523742675781 0.11392297595739364624 0.11717706173658370972 0.12032123655080795288 0.12366349250078201294 0.12689986824989318848 0.13035431504249572754 0.13370557129383087158 0.13729625940322875977 0.14078488945960998535 0.14453096687793731689 0.14815467596054077148 0.15202081203460693359 0.15572546422481536865 0.15965037047863006592 0.16337756812572479248 0.16729985177516937256 0.17099304497241973877 0.20669305324554443359 0.23941011726856231689 0.24210591614246368408 0.24407823383808135986 0.2455523759126663208 0.24644318222999572754 0.24696809053421020508 0.2471647411584854126 0.24716673791408538818 0.24704848229885101318 0.24680384993553161621 0.24643445014953613281 0.24586433172225952148 0.24513261020183563232 0.24411466717720031738 0.24288766086101531982 0.24122793972492218018 0.23927575349807739258 0.23670615255832672119 0.23377819359302520752 0.23011073470115661621 0.22634941339492797852 0.22226147353649139404 0.21862953901290893555 0.21523427963256835938 0.21275499463081359863 0.21092808246612548828 0.20993143320083618164 0.20952272415161132812 0.20967155694961547852 0.21030119061470031738 0.21124771237373352051 0.21258264780044555664 0.21406741440296173096 0.2158642113208770752 0.21766676008701324463 0.21969449520111083984 0.22163371741771697998 0.22378024458885192871 0.22582240402698516846 0.22807955741882324219 0.23021925985813140869 0.23258584737777709961 0.23483863472938537598 0.23735770583152770996 0.23977731168270111084 0.2425098419189453125 0.24514876306056976318 0.24812418222427368164 0.2509613037109375 0.25410512089729309082 0.25705796480178833008 0.26027512550354003906 0.26324266195297241211 0.26638060808181762695 0.26916992664337158203 0.27198675274848937988 0.27436059713363647461 0.27659574151039123535 0.27833265066146850586 0.27980127930641174316 0.28074982762336730957 0.28124794363975524902 0.28112503886222839355 0.2801195681095123291 0.27807703614234924316 0.27505448460578918457 0.27166607975959777832 0.26740914583206176758 0.26267221570014953613 0.25681504607200622559 0.25109705328941345215 0.2449563145637512207 0.23936542868614196777 0.23381951451301574707 0.2291364818811416626 0.22457957267761230469 0.22057469189167022705 0.21629795432090759277 0.21183134615421295166 0.20662951469421386719 0.20153248310089111328 0.1960843503475189209 0.1910966336727142334 0.18610461056232452393 0.18180318176746368408 0.17741453647613525391 0.17283572256565093994 0.16675074398517608643 0.15917685627937316895 0.14845252037048339844 0.13543805480003356934 0.11918964982032775879 0.10246457159519195557 0.08440469205379486084 0.067938074469566345215 0.052157096564769744873 0.038157250732183456421 0.0028980961069464683533 0 0 0 0 0 0 0 0 0 0 0 0 0 0 0 0 0 0 0 0 0 0 0 0 0 0 0 0 0 0 0 0 0 0 0 0 0 0 0 0 0 0 0 0 0 0 0 0 0 0 0 0 0 0 0 0 0 0 0 0 0 0 0 0 0 0 0 0 0 0 0 0 0 0 0 0 0 0 0 0 0 0 0 0 0 
0 0 0 0 0 0 0 0 0 0 0 0.0036730912979692220688 0.011155317537486553192 0.022897358983755111694 0.030913999304175376892 0.040903240442276000977 0.053132142871618270874 0.063661590218544006348 0.077209815382957458496 0.090601153671741485596 0.099569804966449737549 0.11065204441547393799 0.12412018328905105591 0.1332111656665802002 0.13352422416210174561 0.1307935863733291626 0.12929402291774749756 0.12760739028453826904 0.12628853321075439453 0.13013978302478790283 0.14211376011371612549 0.15049211680889129639 0.16374075412750244141 0.17947733402252197266 0.19483062624931335449 0.203760489821434021 0.21220330893993377686 0.22463686764240264893 0.24496108293533325195 0.27560657262802124023 0.32108977437019348145 0.3581460416316986084 0.3506456911563873291 0.29048928618431091309 0.23305790126323699951 0.20773111283779144287 0.20051498711109161377 0.19070705771446228027 0.18378756940364837646 0.17834545671939849854 0.17327043414115905762 0.16430425643920898438 0.1551090627908706665 0.15069217979907989502 0.14576870203018188477 0.13735045492649078369 0.12613828480243682861 0.11509533971548080444 0.11208641529083251953 0.11175545305013656616 0.10991842299699783325 0.10742532461881637573 0.10444814711809158325 0.10127978771924972534 0.09783805161714553833 0.094333820044994354248 0.090596154332160949707 0.086835324764251708984 0.082849189639091491699 0.078866131603717803955 0.074662372469902038574 0.070489391684532165527 0.066103272140026092529 0.061775904148817062378 0.057254102081060409546 0.052877392619848251343 0.048523001372814178467 0.044711783528327941895 0.041293609887361526489 0.041191942989826202393 0.044562816619873046875 0.047902718186378479004 0.051344808191061019897 0.054644536226987838745 0.058044545352458953857 0.061296302825212478638 0.064645633101463317871 0.067840628325939178467 0.071129821240901947021 0.074259325861930847168 0.077483505010604858398 0.080553837120532989502 0.083730667829513549805 0.086763203144073486328 0.089915156364440917969 0.092930674552917480469 0.096078030765056610107 0.099096149206161499023 0.10226088017225265503 0.1053034365177154541 0.10850834101438522339 0.11159666627645492554 0.1148634105920791626 0.11801775544881820679 0.1213683784008026123 0.12461023777723312378 0.12806755304336547852 0.13141851127147674561 0.13500538468360900879 0.13848681747913360596 0.14222134649753570557 0.14583034813404083252 0.14967735111713409424 0.15336053073406219482 0.15725950896739959717 0.16095913946628570557 0.16484953463077545166 0.16851024329662322998 0.20383842289447784424 0.23604013025760650635 0.23851233720779418945 0.2404330819845199585 0.24203120172023773193 0.24316015839576721191 0.24399967491626739502 0.2444925159215927124 0.24474348127841949463 0.24475771188735961914 0.24456298351287841797 0.24419663846492767334 0.24363066256046295166 0.24294672906398773193 0.24206791818141937256 0.24105592072010040283 0.23967088758945465088 0.23797345161437988281 0.23562182486057281494 0.2328011244535446167 0.22911180555820465088 0.22521550953388214111 0.22089591622352600098 0.21699635684490203857 0.21329538524150848389 0.21054223179817199707 0.20845231413841247559 0.20724062621593475342 0.20663365721702575684 0.2066278606653213501 0.20712365210056304932 0.20797263085842132568 0.20922133326530456543 0.21063153445720672607 0.21234109997749328613 0.2140442579984664917 0.21593488752841949463 0.2177232205867767334 0.21969953179359436035 0.22159402072429656982 0.2237224280834197998 0.2257881462574005127 0.22813485562801361084 0.23042082786560058594 0.23302212357521057129 0.23555225133895874023 0.23843218386173248291 0.24122531712055206299 0.24438294768333435059 0.24740138649940490723 0.25075477361679077148 0.25391307473182678223 0.2573643028736114502 0.26055693626403808594 0.2639401853084564209 0.26695194840431213379 0.26999589800834655762 0.2725620567798614502 0.27498006820678710938 0.27686902880668640137 0.27849656343460083008 0.27960297465324401855 0.28030619025230407715 0.28043609857559204102 0.27979543805122375488 0.27808520197868347168 0.27511733770370483398 0.27171891927719116211 0.26716285943984985352 0.26221174001693725586 0.2564150691032409668 0.25044333934783935547 0.24403461813926696777 0.23823440074920654297 0.23252207040786743164 0.22773215174674987793 0.22306406497955322266 0.21883240342140197754 0.21392560005187988281 0.20888118445873260498 0.20307113230228424072 0.19731663167476654053 0.19107438623905181885 0.18526929616928100586 0.17935891449451446533 0.17417220771312713623 0.16884945333003997803 0.16342017054557800293 0.15649172663688659668 0.14820152521133422852 0.1368296891450881958 0.12332828342914581299 0.10670564323663711548 0.089761249721050262451 0.071614876389503479004 0.055195499211549758911 0.039547137916088104248 0.011614924296736717224 0 0 0 0 0 0 0 0 0 0 0 0 0 0 0 0 0 0 0 0 0 0 0 0 0 0 0 0 0 0 0 0 0 0 0 0 0 0 0 0 0 0 0 0 0 0 0 0 0 0 0 0 0 0 0 0 0 0 0 0 0 0 0 0 0 0 0 0 0 0 0 0 0 0 0 0 0 0 0 0 0 0 0 0 0 0 
0 0 0 0 0 0 0 0 0 0 0.002967805834487080574 0.0063974317163228988647 0.02086736634373664856 0.033697437494993209839 0.040932916104793548584 0.052027113735675811768 0.062113393098115921021 0.071863308548927307129 0.085334114730358123779 0.097238101065158843994 0.10330451279878616333 0.11290065944194793701 0.12469400465488433838 0.12969268858432769775 0.13063032925128936768 0.13071432709693908691 0.13040561974048614502 0.12621849775314331055 0.12350202351808547974 0.13185100257396697998 0.14618019759654998779 0.15528610348701477051 0.16816970705986022949 0.18180440366268157959 0.19694660604000091553 0.20575635135173797607 0.21704392135143280029 0.23089526593685150146 0.25210085511207580566 0.28476607799530029297 0.32770809531211853027 0.36491718888282775879 0.34162801504135131836 0.26520463824272155762 0.21498300135135650635 0.2035335153341293335 0.19797249138355255127 0.18829618394374847412 0.181745871901512146 0.17528873682022094727 0.16848409175872802734 0.15811417996883392334 0.14970284700393676758 0.14545461535453796387 0.13909222185611724854 0.12916900217533111572 0.11771133542060852051 0.11083984375 0.10873192548751831055 0.10734245181083679199 0.10539538413286209106 0.10297322273254394531 0.10011070966720581055 0.097058370709419250488 0.093729294836521148682 0.090328790247440338135 0.086695209145545959473 0.083036489784717559814 0.079158470034599304199 0.075284786522388458252 0.071199394762516021729 0.067147545516490936279 0.062892414629459381104 0.058698486536741256714 0.054320726543664932251 0.050088196992874145508 0.045883618295192718506 0.042213048785924911499 0.038933008909225463867 0.03889786452054977417 0.042264603078365325928 0.045601394027471542358 0.049043290317058563232 0.052345540374517440796 0.055750373750925064087 0.059008717536926269531 0.06236681714653968811 0.065572045743465423584 0.068873688578605651855 0.072016790509223937988 0.075256675481796264648 0.078343287110328674316 0.081538036465644836426 0.084588408470153808594 0.087759420275688171387 0.090793550014495849609 0.093960270285606384277 0.096996612846851348877 0.10017975419759750366 0.10323899239301681519 0.10646009445190429688 0.10956220328807830811 0.11284155398607254028 0.11600597202777862549 0.11936484277248382568 0.12261205166578292847 0.12607209384441375732 0.12942254543304443359 0.13300542533397674561 0.13647942245006561279 0.14020217955112457275 0.1437962949275970459 0.14762395620346069336 0.15128545463085174561 0.15515832602977752686 0.15883028507232666016 0.16268885135650634766 0.16631710529327392578 0.2002897113561630249 0.23137591779232025146 0.23366498947143554688 0.23557133972644805908 0.23732942342758178711 0.23875115811824798584 0.2410354316234588623 0.24183960258960723877 0.24236533045768737793 0.24254645407199859619 0.24244263768196105957 0.24211333692073822021 0.24157339334487915039 0.24093580245971679688 0.2401631772518157959 0.23930756747722625732 0.23811824619770050049 0.23659832775592803955 0.23439234495162963867 0.23163506388664245605 0.22791343927383422852 0.2239033430814743042 0.21939964592456817627 0.21529395878314971924 0.21136370301246643066 0.20841071009635925293 0.20613349974155426025 0.20477205514907836914 0.20403027534484863281 0.20391979813575744629 0.20432321727275848389 0.20510128140449523926 0.20628015697002410889 0.20762130618095397949 0.2092408984899520874 0.21083576977252960205 0.2125746309757232666 0.21419489383697509766 0.21597982943058013916 0.21770544350147247314 0.21968160569667816162 0.22165189683437347412 0.2239567190408706665 0.22625693678855895996 0.22892163693904876709 0.23154649138450622559 0.23455861210823059082 0.23749350011348724365 0.2408196181058883667 0.24400365352630615234 0.2475429922342300415 0.25087586045265197754 0.25451481342315673828 0.25787740945816040039 0.2614377439022064209 0.2646058499813079834 0.26780831813812255859 0.27051085233688354492 0.27306434512138366699 0.27507233619689941406 0.27683156728744506836 0.27807849645614624023 0.27896991372108459473 0.27932658791542053223 0.2790076136589050293 0.27767172455787658691 0.27482637763023376465 0.27139553427696228027 0.26656308770179748535 0.26152700185775756836 0.25571182370185852051 0.24956202507019042969 0.24295182526111602783 0.23698927462100982666 0.23115105926990509033 0.22627776861190795898 0.22144745290279388428 0.21672956645488739014 0.21132831275463104248 0.20586322247982025146 0.19950091838836669922 0.19310879707336425781 0.18607811629772186279 0.17945134639739990234 0.17260904610157012939 0.16651634871959686279 0.1602337956428527832 0.15393610298633575439 0.1461633145809173584 0.13718335330486297607 0.12523271143436431885 0.11135250329971313477 0.094506941735744476318 0.077506385743618011475 0.059448830783367156982 0.043199416249990463257 0.020515087991952896118 0.00076695939060300588608 0 0 0 0 0 0 0 0 0 0 0 0 0 0 0 0 0 0 0 0 0 0 0 0 0 0 0 0 0 0 0 0 0 0 0 0 0 0 0 0 0 0 0 0 0 0 0 0 0 0 0 0 0 0 0 0 0 0 0 0 0 0 0 0 0 0 0 0 0 0 0 0 0 0 0 0 0 0 0 0 0 0 0 0 0 0 
0 0 0 0 0 0 0 0 0 0.00087889371206983923912 0.0040557887405157089233 0.012775096110999584198 0.030512435361742973328 0.0406838245689868927 0.04880967363715171814 0.05925863608717918396 0.069366119801998138428 0.080588549375534057617 0.094881080090999603271 0.10141580551862716675 0.10665525496006011963 0.11602233350276947021 0.12348898500204086304 0.12575441598892211914 0.12846834957599639893 0.12657494843006134033 0.12481013685464859009 0.121209755539894104 0.12225506454706192017 0.13597686588764190674 0.14991864562034606934 0.15760478377342224121 0.16964948177337646484 0.18433338403701782227 0.19894495606422424316 0.20806996524333953857 0.223291739821434021 0.23815388977527618408 0.2599957883358001709 0.28863847255706787109 0.33519160747528076172 0.36010652780532836914 0.30531087517738342285 0.23625941574573516846 0.20364437997341156006 0.20109468698501586914 0.19576953351497650146 0.1862141340970993042 0.17961110174655914307 0.1720762401819229126 0.16322083771228790283 0.15278592705726623535 0.14486975967884063721 0.13993397355079650879 0.13164511322975158691 0.12093169242143630981 0.11117102950811386108 0.10778716951608657837 0.10538899153470993042 0.10332573205232620239 0.10112011432647705078 0.098665222525596618652 0.095858238637447357178 0.092891797423362731934 0.08966004103422164917 0.086358591914176940918 0.082831509411334991455 0.079282462596893310547 0.075524903833866119385 0.071776352822780609131 0.067827150225639343262 0.063913777470588684082 0.05980725213885307312 0.055761869996786117554 0.051540751010179519653 0.047461848706007003784 0.043414361774921417236 0.039889246225357055664 0.036750242114067077637 0.036782998591661453247 0.040146544575691223145 0.043480485677719116211 0.046921834349632263184 0.050225786864757537842 0.053634639829397201538 0.056898962706327438354 0.060265354812145233154 0.063480511307716369629 0.066794365644454956055 0.069951020181179046631 0.073206663131713867188 0.076309725642204284668 0.079522661864757537842 0.082591205835342407227 0.085781611502170562744 0.088834680616855621338 0.092021197080612182617 0.095076143741607666016 0.098278045654296875 0.1013542860746383667 0.10459175705909729004 0.1077077910304069519 0.11099991202354431152 0.11417444050312042236 0.117541484534740448 0.12079384177923202515 0.12425624579191207886 0.12760570645332336426 0.13118389248847961426 0.134649619460105896 0.13835950195789337158 0.14193752408027648926 0.14574442803859710693 0.14938278496265411377 0.15322795510292053223 0.15687064826488494873 0.16069579124450683594 0.16428998112678527832 0.17449821531772613525 0.18495385348796844482 0.18823400139808654785 0.19122453033924102783 0.19426757097244262695 0.19779099524021148682 0.2343279719352722168 0.23908983170986175537 0.23991814255714416504 0.24031154811382293701 0.24036058783531188965 0.24012991786003112793 0.23967385292053222656 0.2391198575496673584 0.23846521973609924316 0.23775012791156768799 0.23672078549861907959 0.23533770442008972168 0.23323830962181091309 0.23052126169204711914 0.22676427662372589111 0.22265619039535522461 0.21799868345260620117 0.2137218862771987915 0.20960018038749694824 0.20647768676280975342 0.20403888821601867676 0.20254401862621307373 0.20167466998100280762 0.20145884156227111816 0.20176166296005249023 0.20245380699634552002 0.20354169607162475586 0.20479363203048706055 0.20630383491516113281 0.20777700841426849365 0.20935773849487304688 0.21081000566482543945 0.21240760385990142822 0.21396963298320770264 0.21579845249652862549 0.21767501533031463623 0.21993538737297058105 0.22224389016628265381 0.22496278584003448486 0.22767239809036254883 0.23080553114414215088 0.2338720858097076416 0.23735433816909790039 0.24068826436996459961 0.24438834190368652344 0.24786174297332763672 0.25163665413856506348 0.25510740280151367188 0.25876909494400024414 0.26202163100242614746 0.26531082391738891602 0.2680950164794921875 0.27074417471885681152 0.27285346388816833496 0.27474164962768554688 0.27613216638565063477 0.27721318602561950684 0.27778998017311096191 0.27777272462844848633 0.27681055665016174316 0.27422705292701721191 0.27074721455574035645 0.26571109890937805176 0.26068139076232910156 0.25474959611892700195 0.24847570061683654785 0.24171324074268341064 0.23562161624431610107 0.22968463599681854248 0.22469729185104370117 0.21942470967769622803 0.21430405974388122559 0.20856793224811553955 0.20271643996238708496 0.19579875469207763672 0.18874944746494293213 0.18089993298053741455 0.17341774702072143555 0.16560514271259307861 0.15857039391994476318 0.15129561722278594971 0.14411270618438720703 0.13550265133380889893 0.12587191164493560791 0.11342794448137283325 0.0992946624755859375 0.082395039498805999756 0.065513536334037780762 0.047709964215755462646 0.031749285757541656494 0.0039905472658574581146 0 0 0 0 0 0 0 0 0 0 0 0 0 0 0 0 0 0 0 0 0 0 0 0 0 0 0 0 0 0 0 0 0 0 0 0 0 0 0 0 0 0 0 0 0 0 0 0 0 0 0 0 0 0 0 0 0 0 0 0 0 0 0 0 0 0 0 0 0 0 0 0 0 0 0 0 0 0 0 0 0 0 0 0 0 0 0 
0 0 0 0 0 0 0 0 0.0019102152436971664429 0.0034735098015516996384 0.0093390941619873046875 0.021501621231436729431 0.034285321831703186035 0.045906327664852142334 0.05721715092658996582 0.069402448832988739014 0.074781887233257293701 0.084170609712600708008 0.096747726202011108398 0.10330715030431747437 0.11020144075155258179 0.11922500282526016235 0.12526358664035797119 0.1264206618070602417 0.12582913041114807129 0.12077470868825912476 0.11699602007865905762 0.11687264591455459595 0.12452901899814605713 0.14190383255481719971 0.15798965096473693848 0.16544769704341888428 0.17458325624465942383 0.18903021514415740967 0.20050454139709472656 0.21124638617038726807 0.22786033153533935547 0.2423254549503326416 0.2655010521411895752 0.30178618431091308594 0.34905171394348144531 0.34431734681129455566 0.26688551902770996094 0.21335309743881225586 0.19860407710075378418 0.19853743910789489746 0.19199603796005249023 0.18394285440444946289 0.17658141255378723145 0.16835692524909973145 0.15760828554630279541 0.14726668596267700195 0.14012214541435241699 0.13448821008205413818 0.12449415773153305054 0.11341387778520584106 0.10684610903263092041 0.10338982194662094116 0.10145415365695953369 0.099376417696475982666 0.097079321742057800293 0.09461177140474319458 0.091854557394981384277 0.088969439268112182617 0.085837341845035552979 0.082641363143920898438 0.079228818416595458984 0.075796470046043395996 0.072163462638854980469 0.068540558218955993652 0.06472536921501159668 0.060946434736251831055 0.056982558220624923706 0.053079146891832351685 0.049007613211870193481 0.045075327157974243164 0.041177790611982345581 0.037791706621646881104 0.034787613898515701294 0.034884840250015258789 0.038244295865297317505 0.041574638336896896362 0.045014698058366775513 0.048319756984710693359 0.051732040941715240479 0.055001843720674514771 0.058376025408506393433 0.061600696295499801636 0.064926438033580780029 0.068096376955509185791 0.071367524564266204834 0.074486836791038513184 0.077717803418636322021 0.08080437779426574707 0.084014065563678741455 0.08708591759204864502 0.090292088687419891357 0.093365497887134552002 0.09658597409725189209 0.099678955972194671631 0.10293239355087280273 0.10606209933757781982 0.10936662554740905762 0.1125508919358253479 0.11592561006546020508 0.11918257176876068115 0.12264663726091384888 0.1259943842887878418 0.12956696748733520508 0.13302344083786010742 0.13671934604644775391 0.14028012752532958984 0.14406496286392211914 0.14767892658710479736 0.15149499475955963135 0.155107155442237854 0.15889762341976165771 0.16245652735233306885 0.16616743803024291992 0.16961990296840667725 0.17319343984127044678 0.17648501694202423096 0.17986366152763366699 0.18390895426273345947 0.22962628304958343506 0.23629745841026306152 0.23743654787540435791 0.23808261752128601074 0.23835419118404388428 0.23829942941665649414 0.23800635337829589844 0.2375933229923248291 0.23708587884902954102 0.23650649189949035645 0.23560804128646850586 0.2343231886625289917 0.23228941857814788818 0.22958551347255706787 0.22578455507755279541 0.22158956527709960938 0.21680650115013122559 0.21239601075649261475 0.20813001692295074463 0.20488463342189788818 0.20233108103275299072 0.20073957741260528564 0.19977025687694549561 0.19945797324180603027 0.19964638352394104004 0.2002175748348236084 0.20116084814071655273 0.20226518809795379639 0.20360563695430755615 0.20491349697113037109 0.20631101727485656738 0.20759621262550354004 0.20902845263481140137 0.21045807003974914551 0.2121769338846206665 0.2139886021614074707 0.21622316539287567139 0.21854582428932189941 0.22131527960300445557 0.22409942746162414551 0.22733789682388305664 0.23051926493644714355 0.2341359555721282959 0.23759351670742034912 0.2414156794548034668 0.24498124420642852783 0.24882286787033081055 0.25232255458831787109 0.25599110126495361328 0.25924053788185119629 0.26253154873847961426 0.2653369605541229248 0.26804473996162414551 0.27024403214454650879 0.2722638249397277832 0.27380841970443725586 0.27508857846260070801 0.27588474750518798828 0.27615442872047424316 0.27553853392601013184 0.27334433794021606445 0.26984328031539916992 0.26472517848014831543 0.25968545675277709961 0.25361382961273193359 0.24726115167140960693 0.24038891494274139404 0.23420035839080810547 0.22814807295799255371 0.2227951735258102417 0.21713501214981079102 0.21178881824016571045 0.20576965808868408203 0.19954073429107666016 0.19206167757511138916 0.18434357643127441406 0.1756620258092880249 0.1673151850700378418 0.15852926671504974365 0.15055918693542480469 0.14231403172016143799 0.13428561389446258545 0.12490693479776382446 0.11472046375274658203 0.10192213207483291626 0.087703488767147064209 0.070950627326965332031 0.054376572370529174805 0.036970980465412139893 0.012685879133641719818 8.2990787632297724485e-05 0 0 0 0 0 0 0 0 0 0 0 0 0 0 0 0 0 0 0 0 0 0 0 0 0 0 0 0 0 0 0 0 0 0 0 0 0 0 0 0 0 0 0 0 0 0 0 0 0 0 0 0 0 0 0 0 0 0 0 0 0 0 0 0 0 0 0 0 0 0 0 0 0 0 0 0 0 0 0 0 0 0 0 0 0 0 0 
0 0 0 0 0 0 0 1.021780553855933249e-05 0.0076245740056037902832 0.0051613491959869861603 0.016387116163969039917 0.030431995168328285217 0.042476817965507507324 0.053998112678527832031 0.064366132020950317383 0.075065553188323974609 0.082669727504253387451 0.091504275798797607422 0.09936122596263885498 0.10464996099472045898 0.11206862330436706543 0.12239540368318557739 0.12980036437511444092 0.13055615127086639404 0.12466156482696533203 0.11624465137720108032 0.11000268161296844482 0.11442337930202484131 0.12892892956733703613 0.15060979127883911133 0.16481472551822662354 0.16740825772285461426 0.17823739349842071533 0.19345770776271820068 0.20342369377613067627 0.21545790135860443115 0.23211142420768737793 0.25170412659645080566 0.28540053963661193848 0.32868921756744384766 0.35374349355697631836 0.31299999356269836426 0.23632064461708068848 0.19959245622158050537 0.19567407667636871338 0.19385041296482086182 0.1867068558931350708 0.18134693801403045654 0.17292946577072143555 0.16372708976268768311 0.15156756341457366943 0.14225086569786071777 0.13573986291885375977 0.12790401279926300049 0.1172431260347366333 0.10886634886264801025 0.10201896727085113525 0.099140346050262451172 0.097446180880069732666 0.095455475151538848877 0.093182422220706939697 0.090745911002159118652 0.088046602904796600342 0.085237741470336914062 0.082196898758411407471 0.079098805785179138184 0.075793951749801635742 0.072472445666790008545 0.068959154188632965088 0.065457969903945922852 0.061773329973220825195 0.058125849813222885132 0.054301891475915908813 0.050538055598735809326 0.04661386832594871521 0.042826231569051742554 0.039076834917068481445 0.035828229039907455444 0.032957669347524642944 0.033118363469839096069 0.036472965031862258911 0.039799079298973083496 0.043237321078777313232 0.046543058007955551147 0.049958448857069015503 0.053233474493026733398 0.056615315377712249756 0.05984946712851524353 0.063187159597873687744 0.066370531916618347168 0.069657444953918457031 0.072793364524841308594 0.076042741537094116211 0.07914778590202331543 0.082377217710018157959 0.085468240082263946533 0.088694490492343902588 0.091786727309226989746 0.095026105642318725586 0.098135910928249359131 0.10140540450811386108 0.10454881936311721802 0.10786567628383636475 0.11105944216251373291 0.11444140225648880005 0.11770237982273101807 0.12116728723049163818 0.12451227754354476929 0.12807796895503997803 0.13152369856834411621 0.13520376384258270264 0.13874526321887969971 0.14250573515892028809 0.14609289169311523438 0.149877205491065979 0.15345625579357147217 0.15720929205417633057 0.16073010861873626709 0.16439826786518096924 0.16780813038349151611 0.17133469879627227783 0.1745802760124206543 0.17790883779525756836 0.18188147246837615967 0.22655682265758514404 0.23336331546306610107 0.23481974005699157715 0.2357664257287979126 0.23634712398052215576 0.23656728863716125488 0.23654277622699737549 0.23635366559028625488 0.23604770004749298096 0.23561894893646240234 0.23483791947364807129 0.23362086713314056396 0.23161260783672332764 0.22888691723346710205 0.22501586377620697021 0.22072079777717590332 0.2158088386058807373 0.21127049624919891357 0.20687423646450042725 0.20352463424205780029 0.20087923109531402588 0.19921135902404785156 0.19815856218338012695 0.19775630533695220947 0.19782374799251556396 0.19825389981269836426 0.1990210115909576416 0.19994749128818511963 0.20109167695045471191 0.20222136378288269043 0.20344088971614837646 0.20457807183265686035 0.20587027072906494141 0.20719173550605773926 0.20881958305835723877 0.21057567000389099121 0.21278497576713562012 0.21511501073837280273 0.21792431175708770752 0.22077041864395141602 0.22409930825233459473 0.2273797839879989624 0.2311089634895324707 0.23466230928897857666 0.23856399953365325928 0.24216747283935546875 0.24599739909172058105 0.24943615496158599854 0.25300523638725280762 0.25615507364273071289 0.25935804843902587891 0.26212346553802490234 0.26485517621040344238 0.26714059710502624512 0.26931014657020568848 0.27103537321090698242 0.2725442349910736084 0.2735805511474609375 0.27414566278457641602 0.27386978268623352051 0.27214199304580688477 0.2687244415283203125 0.2636452019214630127 0.25853052735328674316 0.25233495235443115234 0.24593253433704376221 0.2389764934778213501 0.2326933741569519043 0.22627688944339752197 0.22055265307426452637 0.21469852328300476074 0.20916914939880371094 0.2028656303882598877 0.19623890519142150879 0.18816331028938293457 0.1797364652156829834 0.17018023133277893066 0.16093420982360839844 0.15115086734294891357 0.14224010705947875977 0.13304300606250762939 0.12421377003192901611 0.11414784938097000122 0.10351890325546264648 0.090529978275299072266 0.076420053839683532715 0.060042403638362884521 0.043966088443994522095 0.022686205804347991943 0.0016383687034249305725 0 0 0 0 0 0 0 0 0 0 0 0 0 0 0 0 0 0 0 0 0 0 0 0 0 0 0 0 0 0 0 0 0 0 0 0 0 0 0 0 0 0 0 0 0 0 0 0 0 0 0 0 0 0 0 0 0 0 0 0 0 0 0 0 0 0 0 0 0 0 0 0 0 0 0 0 0 0 0 0 0 0 0 0 0 0 0 0 
0 0 0 0 0 0 0 0.00042099921847693622112 0.0035323591437190771103 0.0099059604108333587646 0.022827906534075737 0.040429733693599700928 0.05314698442816734314 0.061273373663425445557 0.071030095219612121582 0.0794736519455909729 0.089330613613128662109 0.099014163017272949219 0.10388969630002975464 0.10792830586433410645 0.1193776056170463562 0.1285676807165145874 0.13211327791213989258 0.13116674125194549561 0.12417572736740112305 0.11354929208755493164 0.10553815215826034546 0.1130487397313117981 0.13519780337810516357 0.16015154123306274414 0.1717665940523147583 0.1708030998706817627 0.18302984535694122314 0.19571915268898010254 0.20870356261730194092 0.22430554032325744629 0.23893013596534729004 0.25944423675537109375 0.30021393299102783203 0.34573501348495483398 0.33519217371940612793 0.27558499574661254883 0.21414314210414886475 0.19310924410820007324 0.1918849945068359375 0.18749982118606567383 0.18219965696334838867 0.17847903072834014893 0.16912667453289031982 0.15803813934326171875 0.14548826217651367188 0.137586250901222229 0.13110181689262390137 0.12190610170364379883 0.11159849166870117188 0.10506176203489303589 0.097377248108386993408 0.095350861549377441406 0.093717083334922790527 0.091790743172168731689 0.08955478668212890625 0.087156936526298522949 0.08451060950756072998 0.081767395138740539551 0.07880627363920211792 0.075795941054821014404 0.072589769959449768066 0.069371514022350311279 0.065970964729785919189 0.062585309147834777832 0.05902516096830368042 0.055503506213426589966 0.051813803613185882568 0.048184175044298171997 0.044401913881301879883 0.040753766894340515137 0.037147410213947296143 0.034031685441732406616 0.031290311366319656372 0.031512062996625900269 0.034861266613006591797 0.038182701915502548218 0.041618652641773223877 0.044924613088369369507 0.048342652618885040283 0.051622521132230758667 0.055011685937643051147 0.05825502052903175354 0.061604373157024383545 0.064800992608070373535 0.068103522062301635742 0.071255914866924285889 0.074523642659187316895 0.077647075057029724121 0.080896154046058654785 0.084006242454051971436 0.087252415716648101807 0.090363301336765289307 0.093621239066123962402 0.096747510135173797607 0.10003271698951721191 0.10318945348262786865 0.1065181046724319458 0.10972076654434204102 0.11310922354459762573 0.11637330055236816406 0.11983801424503326416 0.12317907810211181641 0.12673647701740264893 0.13016992807388305664 0.13383236527442932129 0.13735276460647583008 0.14108674228191375732 0.14464502036571502686 0.14839528501033782959 0.15193913877010345459 0.15565240383148193359 0.15913288295269012451 0.16275598108768463135 0.16612112522125244141 0.16959853470325469971 0.17279632389545440674 0.1760730445384979248 0.17996890842914581299 0.22347176074981689453 0.23036029934883117676 0.2321246713399887085 0.23341226577758789062 0.23438909649848937988 0.23498971760272979736 0.23535004258155822754 0.23547931015491485596 0.23544052243232727051 0.23518575727939605713 0.23451440036296844482 0.2333367466926574707 0.23131178319454193115 0.22852292656898498535 0.22454385459423065186 0.22012113034725189209 0.21505863964557647705 0.21037913858890533447 0.20584587752819061279 0.20239230990409851074 0.19965952634811401367 0.19791936874389648438 0.19678255915641784668 0.19628113508224487305 0.1962038576602935791 0.19645750522613525391 0.19700489938259124756 0.1977186352014541626 0.19864757359027862549 0.1996097862720489502 0.20070327818393707275 0.20177523791790008545 0.20303986966609954834 0.20436215400695800781 0.20600417256355285645 0.20777241885662078857 0.20998398959636688232 0.21230909228324890137 0.21511137485504150391 0.21795770525932312012 0.22130286693572998047 0.224619254469871521 0.22840358316898345947 0.2320032268762588501 0.23592850565910339355 0.23950660228729248047 0.24323870241641998291 0.24652042984962463379 0.24987807869911193848 0.25282713770866394043 0.25584682822227478027 0.25850799679756164551 0.26123052835464477539 0.26360183954238891602 0.26594284176826477051 0.26788049936294555664 0.2696546018123626709 0.27095735073089599609 0.27183008193969726562 0.27188718318939208984 0.27063649892807006836 0.26747372746467590332 0.26253843307495117188 0.25727522373199462891 0.25100424885749816895 0.24456717073917388916 0.23753021657466888428 0.23093916475772857666 0.22410950064659118652 0.21822623908519744873 0.21223714947700500488 0.20653140544891357422 0.19993229210376739502 0.19288685917854309082 0.18418546020984649658 0.17502124607563018799 0.16456560790538787842 0.15440918505191802979 0.14363643527030944824 0.13381722569465637207 0.12373334169387817383 0.11419493705034255981 0.10357225686311721802 0.092656269669532775879 0.079676173627376556396 0.06589231640100479126 0.050122059881687164307 0.033956103026866912842 0.0060246493667364120483 0 0 0 0 0 0 0 0 0 0 0 0 0 0 0 0 0 0 0 0 0 0 0 0 0 0 0 0 0 0 0 0 0 0 0 0 0 0 0 0 0 0 0 0 0 0 0 0 0 0 0 0 0 0 0 0 0 0 0 0 0 0 0 0 0 0 0 0 0 0 0 0 0 0 0 0 0 0 0 0 0 0 0 0 0 0 0 0 0 
0 0 0 0 0 0 3.9766971895005553961e-05 0.0021858338732272386551 0.0070953532122075557709 0.018896117806434631348 0.030114745721220970154 0.047122426331043243408 0.060716994106769561768 0.068713180720806121826 0.076725430786609649658 0.0842153206467628479 0.094547495245933532715 0.1029483601450920105 0.10714192688465118408 0.11287284642457962036 0.1223253980278968811 0.13323262333869934082 0.13307049870491027832 0.12618188560009002686 0.12038822472095489502 0.11272265762090682983 0.10545446723699569702 0.11679081618785858154 0.14459884166717529297 0.16493810713291168213 0.17287424206733703613 0.1739803701639175415 0.18672139942646026611 0.19729071855545043945 0.21078111231327056885 0.22933226823806762695 0.24305137991905212402 0.2627277076244354248 0.30640888214111328125 0.3475545346736907959 0.3133125007152557373 0.24463550746440887451 0.19848805665969848633 0.18891340494155883789 0.18613478541374206543 0.18074473738670349121 0.17874765396118164062 0.17537415027618408203 0.16492579877376556396 0.15181076526641845703 0.1400283128023147583 0.13367006182670593262 0.12606947124004364014 0.11573418974876403809 0.10825467109680175781 0.099782884120941162109 0.093535535037517547607 0.091925732791423797607 0.09024725109338760376 0.088315136730670928955 0.086093284189701080322 0.083724863827228546143 0.081123888492584228516 0.078439034521579742432 0.075550727546215057373 0.072622410953044891357 0.069510117173194885254 0.066391333937644958496 0.063100397586822509766 0.059827778488397598267 0.056389939039945602417 0.052992284297943115234 0.049435198307037353516 0.045938353985548019409 0.042296700179576873779 0.038786921650171279907 0.035322584211826324463 0.032338932156562805176 0.029726073145866394043 0.030008241534233093262 0.033351309597492218018 0.036667417734861373901 0.040100492537021636963 0.043406181037425994873 0.04682644084095954895 0.050110824406147003174 0.053507056087255477905 0.056759398430585861206 0.060120373964309692383 0.063330262899398803711 0.066648595035076141357 0.069817677140235900879 0.073104023933410644531 0.076246194541454315186 0.079515308141708374023 0.082644723355770111084 0.085911072790622711182 0.089040815830230712891 0.092317350208759307861 0.095460116863250732422 0.098761029541492462158 0.10193090140819549561 0.10527104884386062622 0.10848205536603927612 0.11187625676393508911 0.11514255404472351074 0.11860579997301101685 0.12194151431322097778 0.12548880279064178467 0.12890797853469848633 0.13255032896995544434 0.13604696094989776611 0.13975144922733306885 0.14327774941921234131 0.14699055254459381104 0.15049599111080169678 0.15416578948497772217 0.15760236978530883789 0.16117660701274871826 0.16449345648288726807 0.16791810095310211182 0.17106463015079498291 0.17428608238697052002 0.17810085415840148926 0.22035662829875946045 0.22728295624256134033 0.22934946417808532715 0.2310167849063873291 0.23246923089027404785 0.23354521393775939941 0.23439429700374603271 0.23492586612701416016 0.23521223664283752441 0.23515142500400543213 0.23458163440227508545 0.23341631889343261719 0.2313343733549118042 0.22844229638576507568 0.22431701421737670898 0.21973694860935211182 0.21449868381023406982 0.20966018736362457275 0.20497660338878631592 0.20141163468360900879 0.19858701527118682861 0.19676998257637023926 0.19553939998149871826 0.19492125511169433594 0.19466730952262878418 0.1947021186351776123 0.19497922062873840332 0.19543863832950592041 0.19612522423267364502 0.19692145287990570068 0.19792878627777099609 0.19900639355182647705 0.20034420490264892578 0.20177170634269714355 0.20353919267654418945 0.20541016757488250732 0.20770008862018585205 0.21006873250007629395 0.21289396286010742188 0.21574549376964569092 0.21908594667911529541 0.22239331901073455811 0.22615396976470947266 0.22970689833164215088 0.23353937268257141113 0.23698389530181884766 0.24050267040729522705 0.2435242384672164917 0.24656581878662109375 0.24922823905944824219 0.25198724865913391113 0.25449365377426147461 0.25718197226524353027 0.2596416771411895752 0.26217705011367797852 0.26435896754264831543 0.26643452048301696777 0.2680308222770690918 0.26922598481178283691 0.26961296796798706055 0.26882013678550720215 0.26610878109931945801 0.26143112778663635254 0.25596350431442260742 0.24964056909084320068 0.24316492676734924316 0.2358532249927520752 0.22884130477905273438 0.22182205319404602051 0.21583516895771026611 0.20971681177616119385 0.20382365584373474121 0.19690553843975067139 0.189408913254737854 0.18003687262535095215 0.1700890660285949707 0.1586888730525970459 0.14759068191051483154 0.13581527769565582275 0.12510113418102264404 0.11417724192142486572 0.10400520265102386475 0.092939905822277069092 0.081876188516616821289 0.069087386131286621094 0.055828981101512908936 0.040859974920749664307 0.015758121386170387268 0 0 0 0 0 0 0 0 0 0 0 0 0 0 0 0 0 0 0 0 0 0 0 0 0 0 0 0 0 0 0 0 0 0 0 0 0 0 0 0 0 0 0 0 0 0 0 0 0 0 0 0 0 0 0 0 0 0 0 0 0 0 0 0 0 0 0 0 0 0 0 0 0 0 0 0 0 0 0 0 0 0 0 0 0 0 0 0 0 0 
0 0 0 0 0 0.00046891585225239396095 0.0020486146677285432816 0.0050558419898152351379 0.012446305714547634125 0.023340256884694099426 0.038453582674264907837 0.054592572152614593506 0.066534452140331268311 0.076196312904357910156 0.083458349108695983887 0.091106429696083068848 0.10042421519756317139 0.10654444247484207153 0.11013281345367431641 0.1134738624095916748 0.11950772255659103394 0.13157096505165100098 0.13168965280055999756 0.12243037670850753784 0.11445149779319763184 0.11055173724889755249 0.10917396843433380127 0.1246369779109954834 0.15284907817840576172 0.16292484104633331299 0.16554273664951324463 0.17673875391483306885 0.18920068442821502686 0.1982224583625793457 0.21249973773956298828 0.23105026781558990479 0.24638193845748901367 0.27334824204444885254 0.32578432559967041016 0.34166011214256286621 0.27974024415016174316 0.21804021298885345459 0.18830403685569763184 0.18431922793388366699 0.17907913029193878174 0.1745554804801940918 0.17593359947204589844 0.17199876904487609863 0.16002954542636871338 0.14569674432277679443 0.13580243289470672607 0.12987908720970153809 0.12023309618234634399 0.11099679023027420044 0.1042205318808555603 0.094610050320625305176 0.090419650077819824219 0.088871546089649200439 0.087069772183895111084 0.08508793264627456665 0.082855895161628723145 0.080503493547439575195 0.077938340604305267334 0.075304299592971801758 0.072481982409954071045 0.069629624485969543457 0.066605545580387115479 0.063581235706806182861 0.060395158827304840088 0.057231228798627853394 0.053911428898572921753 0.050633754581212997437 0.047205235809087753296 0.043837305158376693726 0.040332306176424026489 0.036957159638404846191 0.033631112426519393921 0.030776215717196464539 0.028288751840591430664 0.028629494830965995789 0.031965747475624084473 0.035275869071483612061 0.038705382496118545532 0.042010173201560974121 0.045432016253471374512 0.048720356076955795288 0.052123066037893295288 0.055383969098329544067 0.058756135404109954834 0.061978969722986221313 0.065312780439853668213 0.06849835813045501709 0.071803152561187744141 0.074963875114917755127 0.078252859413623809814 0.081401444971561431885 0.084687694907188415527 0.087835863232612609863 0.091130621731281280518 0.094289571046829223633 0.097605720162391662598 0.10078817605972290039 0.10413908213376998901 0.10735764354467391968 0.11075656861066818237 0.11402393877506256104 0.11748434603214263916 0.12081319093704223633 0.12434851378202438354 0.12775146961212158203 0.13137140870094299316 0.13484187424182891846 0.13851416110992431641 0.14200575649738311768 0.14567816257476806641 0.14914238452911376953 0.15276555716991424561 0.15615522861480712891 0.1596774756908416748 0.16294316947460174561 0.16631206870079040527 0.16940473020076751709 0.17256823182106018066 0.17630113661289215088 0.21736393868923187256 0.22431203722953796387 0.2266724705696105957 0.2287352830171585083 0.23070043325424194336 0.23229655623435974121 0.23368161916732788086 0.23464976251125335693 0.23527732491493225098 0.23540413379669189453 0.2349122166633605957 0.23372769355773925781 0.23155255615711212158 0.22852721810340881348 0.22423322498798370361 0.2194836735725402832 0.21406400203704833984 0.20906627178192138672 0.20423519611358642578 0.20056240260601043701 0.19764831662178039551 0.19575373828411102295 0.19442352652549743652 0.19367663562297821045 0.1932239830493927002 0.19301122426986694336 0.19298380613327026367 0.19316087663173675537 0.19358663260936737061 0.19421742856502532959 0.19516453146934509277 0.19629423320293426514 0.197771415114402771 0.19937276840209960938 0.20133879780769348145 0.20337180793285369873 0.20578981935977935791 0.20823599398136138916 0.21111133694648742676 0.21398760378360748291 0.21734209358692169189 0.22065693140029907227 0.22440978884696960449 0.22792071104049682617 0.23164531588554382324 0.23491007089614868164 0.23812891542911529541 0.24078121781349182129 0.24337711930274963379 0.24563910067081451416 0.248044624924659729 0.25034302473068237305 0.25297313928604125977 0.25551819801330566406 0.25825557112693786621 0.26069223880767822266 0.26307886838912963867 0.26497125625610351562 0.26647937297821044922 0.26717156171798706055 0.26678535342216491699 0.26466155052185058594 0.26031216979026794434 0.25469183921813964844 0.24831503629684448242 0.24164146184921264648 0.23388403654098510742 0.22667686641216278076 0.2195396721363067627 0.21345803141593933105 0.20720627903938293457 0.20111538469791412354 0.19386249780654907227 0.18589521944522857666 0.17582727968692779541 0.16507157683372497559 0.15270662307739257812 0.14065861701965332031 0.12788975238800048828 0.11631100624799728394 0.10460465401411056519 0.093874789774417877197 0.082468114793300628662 0.071369342505931854248 0.058905810117721557617 0.046296577900648117065 0.029445996508002281189 0.0032086290884763002396 0 0 0 0 0 0 0 0 0 0 0 0 0 0 0 0 0 0 0 0 0 0 0 0 0 0 0 0 0 0 0 0 0 0 0 0 0 0 0 0 0 0 0 0 0 0 0 0 0 0 0 0 0 0 0 0 0 0 0 0 0 0 0 0 0 0 0 0 0 0 0 0 0 0 0 0 0 0 0 0 0 0 0 0 0 0 0 0 0 0 
0 0 0 0 0 0.0018706182017922401428 0.0082927104085683822632 0.011189989745616912842 0.020031031221151351929 0.028518497943878173828 0.047307658940553665161 0.062777779996395111084 0.072729788720607757568 0.081886231899261474609 0.089432246983051300049 0.098200321197509765625 0.10345530509948730469 0.10744958370923995972 0.11246514320373535156 0.11682721972465515137 0.11946129053831100464 0.127552032470703125 0.13102638721466064453 0.12345261126756668091 0.11500877887010574341 0.11107243597507476807 0.11513558030128479004 0.13529792428016662598 0.15284360945224761963 0.15603809058666229248 0.16870562732219696045 0.18133650720119476318 0.189272269606590271 0.19871200621128082275 0.21474097669124603271 0.23170182108879089355 0.2555478513240814209 0.29371753334999084473 0.33590921759605407715 0.31726115942001342773 0.24709036946296691895 0.19714516401290893555 0.18232229351997375488 0.1785640716552734375 0.17168737947940826416 0.1697362363338470459 0.17356804013252258301 0.16808068752288818359 0.15379865467548370361 0.14007580280303955078 0.13213451206684112549 0.12472958117723464966 0.11461258679628372192 0.10770721733570098877 0.098505362868309020996 0.090514421463012695312 0.087763741612434387207 0.085973128676414489746 0.084041655063629150391 0.081997402012348175049 0.079743772745132446289 0.077399246394634246826 0.074863858520984649658 0.072276182472705841064 0.069516152143478393555 0.066736809909343719482 0.063798375427722930908 0.060866449028253555298 0.057783484458923339844 0.054726820439100265503 0.05152383074164390564 0.048365116119384765625 0.045064210891723632812 0.0418244190514087677 0.038455378264188766479 0.035214278846979141235 0.032026045024394989014 0.029299603775143623352 0.026937415823340415955 0.027336249127984046936 0.030664671212434768677 0.0339678935706615448 0.037392940372228622437 0.040696017444133758545 0.044118702411651611328 0.047410327941179275513 0.050818964838981628418 0.054087977856397628784 0.057470988482236862183 0.06070656701922416687 0.064055785536766052246 0.067257851362228393555 0.070581167936325073242 0.073760591447353363037 0.077069588005542755127 0.08023748546838760376 0.083543531596660614014 0.086710095405578613281 0.090023078024387359619 0.093198098242282867432 0.096529267728328704834 0.099723905324935913086 0.10308498889207839966 0.10631035268306732178 0.10971298813819885254 0.11298018693923950195 0.11643616855144500732 0.119756355881690979 0.1232775077223777771 0.12666173279285430908 0.13025632500648498535 0.13369749486446380615 0.13733394443988800049 0.14078716933727264404 0.14441531896591186523 0.14783439040184020996 0.15140655636787414551 0.15474516153335571289 0.15821097791194915771 0.16142132878303527832 0.16473019123077392578 0.16776502132415771484 0.17086657881736755371 0.17451718449592590332 0.21452373266220092773 0.22150842845439910889 0.22416512668132781982 0.22663094103336334229 0.22912049293518066406 0.23124738037586212158 0.23317497968673706055 0.23457729816436767578 0.23553059995174407959 0.23581857979297637939 0.23536884784698486328 0.23412978649139404297 0.23182764649391174316 0.22864638268947601318 0.22417266666889190674 0.21925438940525054932 0.21366235613822937012 0.20851816236972808838 0.2035541236400604248 0.19978463649749755859 0.19678853452205657959 0.19481821358203887939 0.19338430464267730713 0.19249874353408813477 0.19182984530925750732 0.19134742021560668945 0.19098924100399017334 0.19086116552352905273 0.19100798666477203369 0.19146673381328582764 0.19236133992671966553 0.19356365501880645752 0.19521233439445495605 0.19702236354351043701 0.1992251276969909668 0.20145192742347717285 0.20402547717094421387 0.2065687030553817749 0.20951060950756072998 0.21242402493953704834 0.21580478549003601074 0.21913908421993255615 0.2228994518518447876 0.22638598084449768066 0.23002755641937255859 0.23314295709133148193 0.23610009253025054932 0.23841741681098937988 0.24058949947357177734 0.24244472384452819824 0.24444730579853057861 0.24645656347274780273 0.24891994893550872803 0.25145956873893737793 0.25432765483856201172 0.25698098540306091309 0.25965774059295654297 0.26183393597602844238 0.26363345980644226074 0.26459717750549316406 0.26456108689308166504 0.26306390762329101562 0.25900134444236755371 0.25348389148712158203 0.24692943692207336426 0.23983532190322875977 0.23184156417846679688 0.22449949383735656738 0.21724495291709899902 0.21106064319610595703 0.20466397702693939209 0.19836136698722839355 0.19075402617454528809 0.18229201436042785645 0.17149572074413299561 0.15989850461483001709 0.14653548598289489746 0.1335140615701675415 0.11974107474088668823 0.10730627924203872681 0.094848267734050750732 0.083607681095600128174 0.071925222873687744141 0.06086514890193939209 0.048811770975589752197 0.036910425871610641479 0.0091874757781624794006 0 0 0 0 0 0 0 0 0 0 0 0 0 0 0 0 0 0 0 0 0 0 0 0 0 0 0 0 0 0 0 0 0 0 0 0 0 0 0 0 0 0 0 0 0 0 0 0 0 0 0 0 0 0 0 0 0 0 0 0 0 0 0 0 0 0 0 0 0 0 0 0 0 0 0 0 0 0 0 0 0 0 0 0 0 0 0 0 0 0 0 
