ncols        302
nrows        148
xllcorner    650417.000000000000
yllcorner    274952.000000000000
cellsize     5.000000000000
NODATA_value -9999
2.2050540447235107422 2.1990559101104736328 2.1891956329345703125 2.170501708984375 2.1515972614288330078 2.1381230354309082031 2.1290407180786132812 2.1142215728759765625 2.1026985645294189453 2.0941898822784423828 2.0843293666839599609 2.0763101577758789062 2.0637068748474121094 2.0495645999908447266 2.0369639396667480469 2.0158514976501464844 1.9933047294616699219 1.9850476980209350586 1.9792939424514770508 1.9697836637496948242 1.9592387676239013672 1.93892669677734375 1.911663055419921875 1.8906850814819335938 1.8720715045928955078 1.8561499118804931641 1.8554157018661499023 1.8416918516159057617 1.8254927396774291992 1.812956690788269043 1.7292802333831787109 1.6944687366485595703 1.7895467281341552734 1.9189513921737670898 1.7618161439895629883 1.5429830551147460938 1.44677734375 1.3637567758560180664 1.280783534049987793 1.2254499197006225586 1.173844456672668457 1.0953054428100585938 1.0119549036026000977 0.96787601709365844727 1.0092535018920898438 0.96810650825500488281 0.78448623418807983398 0.67357784509658813477 0.57879126071929931641 0.49611818790435791016 0.40674597024917602539 0.32301190495491027832 0.24908317625522613525 0.17951412498950958252 0.11537160724401473999 0.049966380000114440918 0.06032482534646987915 0 0 0 0 0 0 0 0 0 0 0 0 0 0 0 0 0 0 0 0 0 0 0 0.023045320063829421997 0.15729631483554840088 0.29318588972091674805 0.45556667447090148926 0.6975396275520324707 1.0240379571914672852 1.415431976318359375 1.7792956829071044922 2.0238101482391357422 2.2175204753875732422 2.4564192295074462891 2.7314193248748779297 3.0803663730621337891 3.3116755485534667969 3.4072420597076416016 3.5037009716033935547 3.5670688152313232422 3.5267016887664794922 3.5442273616790771484 3.1829283237457275391 1.8175193071365356445 1.9652379751205444336 2.263637542724609375 2.5357527732849121094 2.8080322742462158203 3.0553243160247802734 3.3018970489501953125 3.5240082740783691406 3.9851012229919433594 5.3341655731201171875 5.6380558013916015625 5.8031091690063476562 5.9548158645629882812 6.0438442230224609375 4.8529238700866699219 4.788265228271484375 4.8632497787475585938 4.9230761528015136719 4.9787936210632324219 5.0261979103088378906 5.0709223747253417969 5.1081147193908691406 5.1420850753784179688 5.1695809364318847656 5.1964139938354492188 5.2203450202941894531 5.2445316314697265625 5.266330718994140625 5.2878556251525878906 5.158966064453125 5.1100721359252929688 5.1139707565307617188 5.1141219139099121094 5.1101131439208984375 5.1004557609558105469 5.0852956771850585938 5.0615167617797851562 5.03180694580078125 4.9927740097045898438 4.9499211311340332031 4.8950281143188476562 4.8287854194641113281 4.7623057365417480469 4.7200803756713867188 4.6985535621643066406 4.6988592147827148438 4.7192392349243164062 4.7556619644165039062 4.8118538856506347656 4.8780603408813476562 4.9588060379028320312 5.0350537300109863281 5.11421966552734375 5.1824212074279785156 5.2469525337219238281 5.2986421585083007812 5.3483486175537109375 5.3916139602661132812 5.4382581710815429688 5.4839868545532226562 5.5372056961059570312 5.5880150794982910156 5.6417870521545410156 5.6876087188720703125 5.7294988632202148438 5.7583165168762207031 5.7781853675842285156 5.7871417999267578125 5.7881722450256347656 5.7825798988342285156 5.7709174156188964844 5.7557764053344726562 5.7348847389221191406 5.7112774848937988281 5.6811842918395996094 5.6491274833679199219 5.6103825569152832031 5.5714769363403320312 5.5281014442443847656 5.4879441261291503906 5.4467396736145019531 5.4118928909301757812 5.3787336349487304688 5.3505506515502929688 5.3213267326354980469 5.2933893203735351562 5.2610726356506347656 5.2276678085327148438 5.1911911964416503906 5.1608014106750488281 5.1358861923217773438 5.1222853660583496094 5.1168584823608398438 5.118011474609375 5.1234574317932128906 5.1298222541809082031 5.1349587440490722656 5.1350398063659667969 5.12746429443359375 5.1145129203796386719 5.0967030525207519531 5.0777573585510253906 5.0588278770446777344 5.045047760009765625 5.0356769561767578125 5.0301365852355957031 5.0256280899047851562 5.0212459564208984375 5.0149364471435546875 5.0062999725341796875 4.9939246177673339844 4.9791889190673828125 4.9603796005249023438 4.9396109580993652344 4.9146828651428222656 4.8890128135681152344 4.861347198486328125 4.8361301422119140625 4.8123526573181152344 4.7939434051513671875 4.7797923088073730469 4.7701420783996582031 4.7620525360107421875 4.7543511390686035156 4.7440896034240722656 4.7305278778076171875 4.7120718955993652344 4.6917433738708496094 4.6691555976867675781 4.6478371620178222656 4.6272721290588378906 4.6097407341003417969 4.5919017791748046875 4.5730047225952148438 4.5487780570983886719 4.5190038681030273438 4.478954315185546875 4.4326152801513671875 4.3787627220153808594 4.3248348236083984375 4.2695088386535644531 4.2200613021850585938 4.1736860275268554688 4.1317052841186523438 4.0873155593872070312 4.0405936241149902344 3.9843549728393554688 3.9201788902282714844 3.8436663150787353516 3.7632424831390380859 3.6762988567352294922 3.5918576717376708984 3.5069251060485839844 3.4282782077789306641 3.3486554622650146484 3.2706677913665771484 3.1862030029296875 3.0977356433868408203 2.9965872764587402344 2.8860449790954589844 2.7556927204132080078 2.6102123260498046875 2.4372029304504394531 2.2434587478637695312 2.0192267894744873047 1.7861350774765014648 1.5384155511856079102 1.296404719352722168 1.0561250448226928711 0.83626860380172729492 0.62553942203521728516 0.43049895763397216797 0.23813685774803161621 0.36743071675300598145 0.71054071187973022461 0 0 0 0 0 0 0 0 0 0 0 0 0 0 0 0 0 0 0 0 0 0 0 0 0 0 0 
2.2057957649230957031 2.2029755115509033203 2.1968858242034912109 2.1840112209320068359 2.1654856204986572266 2.1486897468566894531 2.1381623744964599609 2.1245012283325195312 2.1077730655670166016 2.0974240303039550781 2.0847303867340087891 2.0830054283142089844 2.0753676891326904297 2.0612001419067382812 2.0506381988525390625 2.0337359905242919922 2.01678466796875 2.0028367042541503906 1.9921305179595947266 1.9825443029403686523 1.967787623405456543 1.9388583898544311523 1.9169439077377319336 1.9117108583450317383 1.9042522907257080078 1.8995763063430786133 1.8874565362930297852 1.8616720438003540039 1.8314932584762573242 1.7865700721740722656 1.7448145151138305664 1.8110343217849731445 1.9870606660842895508 1.9094408750534057617 1.659022212028503418 1.5146620273590087891 1.4463709592819213867 1.3841940164566040039 1.3168946504592895508 1.262472987174987793 1.1869705915451049805 1.1079509258270263672 1.0451148748397827148 1.0883452892303466797 1.0702524185180664062 0.88902562856674194336 0.76789510250091552734 0.67481517791748046875 0.58050340414047241211 0.50083571672439575195 0.43429958820343017578 0.34894451498985290527 0.26134273409843444824 0.19019162654876708984 0.1256822049617767334 0.066479347646236419678 0.016776075586676597595 0.0026127828750759363174 0 0 0 0 0 0 0 0 0 0 0 0 0 0 0 0 0 0 0 0 0.15403155982494354248 0.55548548698425292969 0.077262632548809051514 0.21228232979774475098 0.35497364401817321777 0.53066056966781616211 0.78715616464614868164 1.1190857887268066406 1.5003576278686523438 1.8465901613235473633 2.0377085208892822266 2.2050406932830810547 2.4441080093383789062 2.7409312725067138672 3.0995872020721435547 3.2809352874755859375 3.3455386161804199219 3.4618053436279296875 3.4986536502838134766 3.48554229736328125 3.4678673744201660156 2.7708492279052734375 1.6594623327255249023 1.9549925327301025391 2.2526967525482177734 2.5244622230529785156 2.7964255809783935547 3.0434296131134033203 3.2898328304290771484 3.5119347572326660156 3.9773237705230712891 5.3403148651123046875 5.640079498291015625 5.8020849227905273438 5.9535007476806640625 5.7558221817016601562 4.7724385261535644531 4.7851114273071289062 4.8604397773742675781 4.9197225570678710938 4.9744081497192382812 5.0208077430725097656 5.0644855499267578125 5.1006989479064941406 5.1336269378662109375 5.1599516868591308594 5.1854023933410644531 5.2080883979797363281 5.2310438156127929688 5.2517614364624023438 5.2721781730651855469 5.1430449485778808594 5.0915560722351074219 5.0928874015808105469 5.0909452438354492188 5.0856032371520996094 5.0750994682312011719 5.0596032142639160156 5.0360364913940429688 5.0069713592529296875 4.9691653251647949219 4.9306492805480957031 4.8771624565124511719 4.8069009780883789062 4.7447557449340820312 4.7056798934936523438 4.6863675117492675781 4.6884694099426269531 4.7107486724853515625 4.74910736083984375 4.8076171875 4.8761210441589355469 4.9580264091491699219 5.0359621047973632812 5.1178555488586425781 5.1885690689086914062 5.255184173583984375 5.3080682754516601562 5.3583211898803710938 5.4015507698059082031 5.4477968215942382812 5.4929904937744140625 5.5456137657165527344 5.5959382057189941406 5.6492137908935546875 5.6945891380310058594 5.7361097335815429688 5.7647891044616699219 5.7847738265991210938 5.7940754890441894531 5.7957015037536621094 5.7908229827880859375 5.7800874710083007812 5.7658982276916503906 5.7460246086120605469 5.7232365608215332031 5.6937479972839355469 5.6618318557739257812 5.6227140426635742188 5.5830397605895996094 5.5385556221008300781 5.4972696304321289062 5.4548659324645996094 5.4189348220825195312 5.384822845458984375 5.3560891151428222656 5.3266363143920898438 5.2987694740295410156 5.2667946815490722656 5.2338786125183105469 5.1963167190551757812 5.1630997657775878906 5.1349039077758789062 5.1184668540954589844 5.1122503280639648438 5.1133604049682617188 5.1186461448669433594 5.1247386932373046875 5.1294307708740234375 5.1290574073791503906 5.1209769248962402344 5.1071591377258300781 5.0873317718505859375 5.0669541358947753906 5.047008514404296875 5.032459259033203125 5.0221948623657226562 5.0157237052917480469 5.0107417106628417969 5.0065164566040039062 5.0011191368103027344 4.9940423965454101562 4.9837779998779296875 4.9711008071899414062 4.9541292190551757812 4.934421539306640625 4.9095044136047363281 4.8827829360961914062 4.8532209396362304688 4.825832366943359375 4.7997727394104003906 4.779567718505859375 4.7641987800598144531 4.7540335655212402344 4.745883941650390625 4.7384061813354492188 4.7285161018371582031 4.7152996063232421875 4.6971125602722167969 4.6769275665283203125 4.6543469429016113281 4.632884979248046875 4.6119937896728515625 4.5939803123474121094 4.5754785537719726562 4.5558233261108398438 4.530704498291015625 4.50000762939453125 4.458950042724609375 4.4116373062133789062 4.3568615913391113281 4.3021993637084960938 4.2463359832763671875 4.1966519355773925781 4.1504058837890625 4.1090016365051269531 4.0657963752746582031 4.0208740234375 3.9673075675964355469 3.9065234661102294922 3.8341889381408691406 3.7579905986785888672 3.6751835346221923828 3.5941858291625976562 3.5118660926818847656 3.4348313808441162109 3.3565347194671630859 3.2802324295043945312 3.19870758056640625 3.1149985790252685547 3.0212321281433105469 2.9194796085357666016 2.7983069419860839844 2.6602926254272460938 2.4918375015258789062 2.2984635829925537109 2.0689702033996582031 1.8259321451187133789 1.5674259662628173828 1.3152637481689453125 1.0660225152969360352 0.84007310867309570312 0.62572962045669555664 0.42853876948356628418 0.23451569676399230957 0.36411917209625244141 0.44383946061134338379 0 0 0 0 0 0 0 0 0 0 0 0 0 0 0 0 0 0 0 0 0 0 0 0 0 0 0 
2.2170073986053466797 2.2067964076995849609 2.1996634006500244141 2.1908841133117675781 2.1775906085968017578 2.1637582778930664062 2.1479847431182861328 2.134319305419921875 2.1141200065612792969 2.0999577045440673828 2.0875661373138427734 2.0898334980010986328 2.0842206478118896484 2.0728411674499511719 2.0647206306457519531 2.0550277233123779297 2.0411045551300048828 2.0286884307861328125 2.0129060745239257812 1.9872064590454101562 1.9605615139007568359 1.9503687620162963867 1.9510109424591064453 1.9466021060943603516 1.938808441162109375 1.9293026924133300781 1.910094141960144043 1.8802220821380615234 1.8277939558029174805 1.7892078161239624023 1.8376141786575317383 2.0105412006378173828 2.0621185302734375 1.8006836175918579102 1.6204214096069335938 1.5378861427307128906 1.4626698493957519531 1.4154191017150878906 1.3667707443237304688 1.2880334854125976562 1.2024395465850830078 1.1301516294479370117 1.1476523876190185547 1.178982853889465332 1.0059047937393188477 0.86499571800231933594 0.77037328481674194336 0.68070268630981445312 0.59315586090087890625 0.51554453372955322266 0.44934824109077453613 0.38292548060417175293 0.2844600975513458252 0.20875969529151916504 0.14690633118152618408 0.083329610526561737061 0.059821009635925292969 0.018725320696830749512 0 0 0 0 0 0 0 0 0 0 0 0 0 0 0 0 0 0 0 0.064165890216827392578 0.77035248279571533203 0.26097291707992553711 0.16156646609306335449 0.28136384487152099609 0.42388337850570678711 0.60105305910110473633 0.86660724878311157227 1.2052538394927978516 1.5826560258865356445 1.8890345096588134766 2.0445849895477294922 2.2055656909942626953 2.4370975494384765625 2.7680923938751220703 3.1127622127532958984 3.2359569072723388672 3.2944841384887695312 3.4216885566711425781 3.4257655143737792969 3.4523403644561767578 3.3838970661163330078 2.1137182712554931641 1.6545699834823608398 1.9491666555404663086 2.2461972236633300781 2.5176539421081542969 2.7894129753112792969 3.0360743999481201172 3.2821512222290039062 3.5040616989135742188 3.9737374782562255859 5.3532166481018066406 5.6431436538696289062 5.8017687797546386719 5.9535932540893554688 5.5484170913696289062 4.68909454345703125 4.7823147773742675781 4.8578429222106933594 4.9164586067199707031 4.9701681137084960938 5.0155901908874511719 5.0582079887390136719 5.0933818817138671875 5.1251425743103027344 5.1503500938415527344 5.1745243072509765625 5.195995330810546875 5.2177667617797851562 5.2374148368835449219 5.2567205429077148438 5.1330175399780273438 5.0791835784912109375 5.0756554603576660156 5.0695757865905761719 5.0615372657775878906 5.0493569374084472656 5.0333285331726074219 5.0103559494018554688 4.9826641082763671875 4.9453940391540527344 4.902988433837890625 4.8390269279479980469 4.7717385292053222656 4.714351654052734375 4.6795139312744140625 4.6642441749572753906 4.6697583198547363281 4.6954455375671386719 4.7366800308227539062 4.79802703857421875 4.8685426712036132812 4.9517493247985839844 5.0316386222839355469 5.1160168647766113281 5.1890072822570800781 5.2577447891235351562 5.3121409416198730469 5.3634853363037109375 5.4071879386901855469 5.4532995223999023438 5.4978013038635253906 5.5492024421691894531 5.5981993675231933594 5.6500749588012695312 5.6944203376770019531 5.7353534698486328125 5.7641553878784179688 5.7849640846252441406 5.7955136299133300781 5.7988133430480957031 5.7955899238586425781 5.7865910530090332031 5.773834228515625 5.7552523612976074219 5.7333812713623046875 5.7045226097106933594 5.6727595329284667969 5.63333892822265625 5.5930380821228027344 5.5476708412170410156 5.505519866943359375 5.4623026847839355469 5.4258484840393066406 5.3913860321044921875 5.3624696731567382812 5.333065032958984375 5.3054203987121582031 5.2737383842468261719 5.2411999702453613281 5.2039670944213867188 5.1690707206726074219 5.13713836669921875 5.1171488761901855469 5.1085910797119140625 5.1093664169311523438 5.1143584251403808594 5.1201119422912597656 5.1243166923522949219 5.1233930587768554688 5.1145300865173339844 5.0988750457763671875 5.0771989822387695312 5.0556521415710449219 5.0346570014953613281 5.01914215087890625 5.0075392723083496094 4.9999661445617675781 4.9942235946655273438 4.9897408485412597656 4.9846529960632324219 4.9784259796142578125 4.9694671630859375 4.9581518173217773438 4.9424886703491210938 4.9236426353454589844 4.8989572525024414062 4.8717942237854003906 4.8412723541259765625 4.81273651123046875 4.785465240478515625 4.7643346786499023438 4.7484102249145507812 4.7381105422973632812 4.7300786972045898438 4.7228512763977050781 4.71326446533203125 4.7002806663513183594 4.6822171211242675781 4.6620173454284667969 4.6392569541931152344 4.6174483299255371094 4.5959944725036621094 4.5772585868835449219 4.5578570365905761719 4.53726959228515625 4.5111684799194335938 4.4795880317687988281 4.4377226829528808594 4.3897776603698730469 4.3345293998718261719 4.279598236083984375 4.2236614227294921875 4.1741137504577636719 4.1282925605773925781 4.0877079963684082031 4.045970916748046875 4.0032167434692382812 3.9528787136077880859 3.8962342739105224609 3.8290128707885742188 3.7580153942108154297 3.6802570819854736328 3.6033430099487304688 3.5239195823669433594 3.4483053684234619141 3.3705890178680419922 3.2946894168853759766 3.2141656875610351562 3.1326971054077148438 3.0430605411529541016 2.9465787410736083984 2.8310184478759765625 2.6974959373474121094 2.5314671993255615234 2.3373484611511230469 2.1040191650390625 1.8536028861999511719 1.5859318971633911133 1.3261864185333251953 1.0705889463424682617 0.84056466817855834961 0.62411445379257202148 0.4260228574275970459 0.23129399120807647705 0.36151987314224243164 0.44383946061134338379 0 0 0 0 0 0 0 0 0 0 0 0 0 0 0 0 0 0 0 0 0 0 0 0 0 0 0 
2.2355639934539794922 2.2196190357208251953 2.2044782638549804688 2.1913464069366455078 2.1860413551330566406 2.1756460666656494141 2.1597359180450439453 2.1489489078521728516 2.1256632804870605469 2.1046705245971679688 2.0942642688751220703 2.0968978404998779297 2.0919244289398193359 2.0836920738220214844 2.0723562240600585938 2.0597293376922607422 2.0425679683685302734 2.0320999622344970703 2.0127980709075927734 1.9897605180740356445 1.9894353151321411133 1.9915246963500976562 1.9794794321060180664 1.9555498361587524414 1.9422087669372558594 1.9448052644729614258 1.9312555789947509766 1.8822022676467895508 1.8263728618621826172 1.8593873977661132812 2.0115334987640380859 2.1632502079010009766 1.9650180339813232422 1.7432690858840942383 1.6403251886367797852 1.5613780021667480469 1.4957369565963745117 1.4483475685119628906 1.3780747652053833008 1.2937499284744262695 1.2202341556549072266 1.2168545722961425781 1.2697812318801879883 1.1189234256744384766 0.96261548995971679688 0.87057143449783325195 0.78608679771423339844 0.70279192924499511719 0.62445646524429321289 0.55239641666412353516 0.47812357544898986816 0.39848560094833374023 0.31583446264266967773 0.24800886213779449463 0.17497329413890838623 0.10370537638664245605 0.047713268548250198364 0.0062583601102232933044 0 0 0 0 0 0 0 0 0 0 0 0 0 0 0 0 0 0.014821160584688186646 0.040001437067985534668 0.12999074161052703857 0.3924617767333984375 0.150129660964012146 0.25684559345245361328 0.36864739656448364258 0.50172775983810424805 0.67865288257598876953 0.95128089189529418945 1.2954772710800170898 1.6689864397048950195 1.914567112922668457 2.0441699028015136719 2.2073082923889160156 2.4423642158508300781 2.7939326763153076172 3.0995950698852539062 3.1791708469390869141 3.2609670162200927734 3.3740084171295166016 3.3666598796844482422 3.3922684192657470703 3.2762589454650878906 1.8806827068328857422 1.6538282632827758789 1.9476809501647949219 2.2440624237060546875 2.5152542591094970703 2.7868330478668212891 3.0332157611846923828 3.2788679599761962891 3.5004439353942871094 3.9089493751525878906 5.3025922775268554688 5.6503863334655761719 5.8063955307006835938 5.9507927894592285156 5.0313038825988769531 4.6863231658935546875 4.7801723480224609375 4.8555197715759277344 4.9133424758911132812 4.966129302978515625 5.0106139183044433594 5.052165985107421875 5.0862298011779785156 5.1166634559631347656 5.1407146453857421875 5.1638350486755371094 5.1842207908630371094 5.2048792839050292969 5.2234463691711425781 5.2417116165161132812 5.1286759376525878906 5.0727777481079101562 5.0622429847717285156 5.0501198768615722656 5.0381474494934082031 5.023601531982421875 5.0066828727722167969 4.98236846923828125 4.9507236480712890625 4.9059705734252929688 4.8511013984680175781 4.7839198112487792969 4.726123809814453125 4.6776533126831054688 4.6497063636779785156 4.6404013633728027344 4.6503787040710449219 4.6798424720764160156 4.7237963676452636719 4.7873110771179199219 4.858673095703125 4.9425635337829589844 5.0234522819519042969 5.1090722084045410156 5.1832785606384277344 5.2533411979675292969 5.3089051246643066406 5.3613171577453613281 5.4057278633117675781 5.4521894454956054688 5.4965066909790039062 5.547115325927734375 5.5949645042419433594 5.645336151123046875 5.6883378028869628906 5.728404998779296875 5.7574152946472167969 5.7796006202697753906 5.7922110557556152344 5.7981953620910644531 5.7975091934204101562 5.79099273681640625 5.7800993919372558594 5.7630391120910644531 5.7421541213989257812 5.7139334678649902344 5.6823511123657226562 5.6427226066589355469 5.6019749641418457031 5.5559935569763183594 5.5132775306701660156 5.469600677490234375 5.4329700469970703125 5.3986463546752929688 5.3700089454650878906 5.3409085273742675781 5.3135838508605957031 5.2821173667907714844 5.2496533393859863281 5.212474822998046875 5.1773748397827148438 5.1424365043640136719 5.1182870864868164062 5.1060743331909179688 5.1057925224304199219 5.1103382110595703125 5.1156864166259765625 5.1193757057189941406 5.1178236007690429688 5.1073918342590332031 5.089756011962890625 5.0667185783386230469 5.0440907478332519531 5.0220098495483398438 5.0052065849304199219 4.9920086860656738281 4.9830899238586425781 4.9761643409729003906 4.9708809852600097656 4.9653639793395996094 4.9591612815856933594 4.9505963325500488281 4.9398713111877441406 4.9249439239501953125 4.9067449569702148438 4.8825449943542480469 4.8556194305419921875 4.8251771926879882812 4.7966275215148925781 4.7693285942077636719 4.7482318878173828125 4.7324833869934082031 4.7224555015563964844 4.7147388458251953125 4.7077946662902832031 4.6984372138977050781 4.6855645179748535156 4.66747283935546875 4.6470961570739746094 4.6239676475524902344 4.6016211509704589844 4.5793905258178710938 4.5597262382507324219 4.5392360687255859375 4.5175905227661132812 4.4904699325561523438 4.4580893516540527344 4.4156594276428222656 4.3674550056457519531 4.3122053146362304688 4.2574892044067382812 4.2019562721252441406 4.1529316902160644531 4.1078400611877441406 4.0683183670043945312 4.0283112525939941406 3.9880478382110595703 3.9414083957672119141 3.8895266056060791016 3.8281900882720947266 3.7631740570068359375 3.6912081241607666016 3.6188828945159912109 3.54254913330078125 3.4681255817413330078 3.3902230262756347656 3.3133938312530517578 3.2318019866943359375 3.1498138904571533203 3.0606560707092285156 2.9654345512390136719 2.8513848781585693359 2.7189114093780517578 2.5528683662414550781 2.3571071624755859375 2.1204428672790527344 1.8658688068389892578 1.5919798612594604492 1.3272333145141601562 1.0683035850524902344 0.83654129505157470703 0.61968594789505004883 0.42195409536361694336 0.22755277156829833984 0.35902726650238037109 0.10732343047857284546 0 0 0 0 0 0 0 0 0 0 0 0 0 0 0 0 0 0 0 0 0 0 0 0 0 0 0 
2.2457034587860107422 2.2305278778076171875 2.2126743793487548828 2.1969058513641357422 2.1907448768615722656 2.1835772991180419922 2.1702749729156494141 2.1613471508026123047 2.1428568363189697266 2.1174833774566650391 2.1026773452758789062 2.1012206077575683594 2.0953397750854492188 2.0856268405914306641 2.0646512508392333984 2.0462021827697753906 2.0359902381896972656 2.0296421051025390625 2.0310444831848144531 2.0391278266906738281 2.0338294506072998047 2.0079593658447265625 1.9809383153915405273 1.9623035192489624023 1.9630652666091918945 1.9645388126373291016 1.9328868389129638672 1.8675264120101928711 1.8747142553329467773 2.0103771686553955078 2.2061190605163574219 2.0951406955718994141 1.8544850349426269531 1.7279275655746459961 1.6733293533325195312 1.600922703742980957 1.5266714096069335938 1.4675651788711547852 1.3855456113815307617 1.3106025457382202148 1.2767839431762695312 1.3426744937896728516 1.2323943376541137695 1.0640891790390014648 0.97438979148864746094 0.89468860626220703125 0.81406950950622558594 0.74088329076766967773 0.66745132207870483398 0.59428775310516357422 0.50475299358367919922 0.42715910077095031738 0.36040213704109191895 0.29134675860404968262 0.20630936324596405029 0.13583011925220489502 0.070966072380542755127 0.068421833217144012451 0.27876263856887817383 0.09640397876501083374 0.12520511448383331299 0 0 0 0 0 0 0 0 0 0 0 0 0.029466509819030761719 0.52672612667083740234 0.65977585315704345703 0.66021358966827392578 0.49468046426773071289 0.15386754274368286133 0.24724031984806060791 0.3482220768928527832 0.4596665799617767334 0.58809334039688110352 0.77366775274276733398 1.0552631616592407227 1.3918818235397338867 1.7313473224639892578 1.9290395975112915039 2.0500991344451904297 2.2104578018188476562 2.4586806297302246094 2.8176372051239013672 3.0623726844787597656 3.1173539161682128906 3.2386395931243896484 3.3183851242065429688 3.3319306373596191406 3.3102045059204101562 3.0934996604919433594 1.690751194953918457 1.6567125320434570312 1.9502314329147338867 2.2460358142852783203 2.5169789791107177734 2.7883636951446533203 3.0345478057861328125 3.2797658443450927734 3.5009043216705322266 3.7200238704681396484 5.02947998046875 5.6601920127868652344 5.8130435943603515625 5.7040696144104003906 4.722461700439453125 4.6851191520690917969 4.7787694931030273438 4.853420257568359375 4.9103398323059082031 4.9622540473937988281 5.0058360099792480469 5.0462894439697265625 5.0791263580322265625 5.1080145835876464844 5.1306462287902832031 5.1463174819946289062 5.1669511795043945312 5.1866574287414550781 5.2028608322143554688 5.2178502082824707031 5.1258478164672851562 5.0693049430847167969 5.0504751205444335938 5.0312557220458984375 5.0141625404357910156 4.9939723014831542969 4.9705829620361328125 4.9396867752075195312 4.9037933349609375 4.8536500930786132812 4.7974162101745605469 4.7369937896728515625 4.6872148513793945312 4.6467623710632324219 4.6252183914184570312 4.6214299201965332031 4.6353654861450195312 4.6679158210754394531 4.7137742042541503906 4.7782769203186035156 4.8493828773498535156 4.9329385757446289062 5.0136265754699707031 5.0991892814636230469 5.173583984375 5.2442140579223632812 5.3005757331848144531 5.3539056777954101562 5.3990020751953125 5.4457859992980957031 5.4898138046264648438 5.5394454002380371094 5.5860733985900878906 5.6351723670959472656 5.6773958206176757812 5.7173514366149902344 5.747142791748046875 5.7711195945739746094 5.7861051559448242188 5.7952008247375488281 5.797504425048828125 5.7938871383666992188 5.7850909233093261719 5.7696638107299804688 5.7497911453247070312 5.7222170829772949219 5.6908802986145019531 5.6511826515197753906 5.6101965904235839844 5.5638890266418457031 5.5209069252014160156 5.4770960807800292969 5.4405670166015625 5.4066224098205566406 5.3785104751586914062 5.3499598503112792969 5.3229818344116210938 5.2916440963745117188 5.2589697837829589844 5.2213754653930664062 5.1858716011047363281 5.1497483253479003906 5.121494293212890625 5.1046934127807617188 5.1022672653198242188 5.1061911582946777344 5.111072540283203125 5.1142206192016601562 5.1116747856140136719 5.0990653038024902344 5.0800499916076660156 5.0559487342834472656 5.0323648452758789062 5.0091404914855957031 4.9907870292663574219 4.9757928848266601562 4.9651904106140136719 4.9565935134887695312 4.9499464035034179688 4.9433207511901855469 4.9364557266235351562 4.9275865554809570312 4.9169063568115234375 4.9023432731628417969 4.8847041130065917969 4.8612627983093261719 4.8351659774780273438 4.8056640625 4.7780218124389648438 4.7516484260559082031 4.7313566207885742188 4.7163634300231933594 4.7069292068481445312 4.6996874809265136719 4.6930494308471679688 4.6838564872741699219 4.6709880828857421875 4.6527352333068847656 4.6320443153381347656 4.6083984375 4.5853705406188964844 4.5622210502624511719 4.541507720947265625 4.5198373794555664062 4.49709320068359375 4.4689788818359375 4.4359049797058105469 4.3931260108947753906 4.3449554443359375 4.2900614738464355469 4.2359127998352050781 4.1811280250549316406 4.1328992843627929688 4.0887455940246582031 4.0504393577575683594 4.0123119354248046875 3.9747083187103271484 3.9320125579833984375 3.8852202892303466797 3.8301725387573242188 3.7715306282043457031 3.7057287693023681641 3.6382176876068115234 3.5650014877319335938 3.4915306568145751953 3.4128367900848388672 3.3340747356414794922 3.2498724460601806641 3.1653058528900146484 3.0738892555236816406 2.9769129753112792969 2.8612952232360839844 2.7273080348968505859 2.5594785213470458984 2.3615546226501464844 2.1222093105316162109 1.8652172088623046875 1.5885599851608276367 1.3207905292510986328 1.0608083009719848633 0.82917416095733642578 0.61325114965438842773 0.41677585244178771973 0.22340941429138183594 0.35654154419898986816 0.067590296268463134766 0 0 0 0 0 0 0 0 0 0 0 0 0 0 0 0 0 0 0 0 0 0 0 0 0 0 0 
2.2517499923706054688 2.2381381988525390625 2.2230505943298339844 2.2049403190612792969 2.196880340576171875 2.1957175731658935547 2.1845762729644775391 2.1712651252746582031 2.1534800529479980469 2.1304128170013427734 2.1116886138916015625 2.1034913063049316406 2.0994956493377685547 2.0839006900787353516 2.0606939792633056641 2.0488986968994140625 2.0529704093933105469 2.0661416053771972656 2.0778815746307373047 2.0730233192443847656 2.04306793212890625 2.0094423294067382812 1.9888454675674438477 1.9815934896469116211 1.9876631498336791992 1.9658272266387939453 1.9088605642318725586 1.8929575681686401367 2.0030448436737060547 2.2226798534393310547 2.1746063232421875 1.9518724679946899414 1.8020038604736328125 1.7320891618728637695 1.6979814767837524414 1.6379657983779907227 1.5434774160385131836 1.4826962947845458984 1.4237124919891357422 1.3803739547729492188 1.4227635860443115234 1.3502888679504394531 1.1692867279052734375 1.0776199102401733398 0.99835526943206787109 0.92666476964950561523 0.85619932413101196289 0.79051923751831054688 0.71273851394653320312 0.62643963098526000977 0.55149149894714355469 0.49135363101959228516 0.41593345999717712402 0.32513886690139770508 0.23803822696208953857 0.17138320207595825195 0.11617545783519744873 0.081215366721153259277 0.27431723475456237793 0.24231824278831481934 0.4913857877254486084 0.33616816997528076172 0.84327006340026855469 0.66771769523620605469 0.36762225627899169922 0.086200103163719177246 0 0 0 0 0 0.081289283931255340576 0.60410827398300170898 0.76198518276214599609 0.42954656481742858887 0.671047210693359375 0.79012662172317504883 0.15995544195175170898 0.2335634082555770874 0.31725323200225830078 0.4225641787052154541 0.52877712249755859375 0.66264420747756958008 0.86987155675888061523 1.1594871282577514648 1.4792625904083251953 1.7748092412948608398 1.9280017614364624023 2.048954010009765625 2.2127366065979003906 2.4835927486419677734 2.8386490345001220703 3.0251104831695556641 3.0810022354125976562 3.2195048332214355469 3.2598171234130859375 3.3009450435638427734 3.2294759750366210938 2.907604217529296875 1.637477874755859375 1.6630418300628662109 1.956566929817199707 2.25206756591796875 2.5226984024047851562 2.7939321994781494141 3.0399749279022216797 3.2848408222198486328 3.5054798126220703125 3.7240917682647705078 5.0364441871643066406 5.6709313392639160156 5.7984304428100585938 5.0885062217712402344 4.5729112625122070312 4.6857943534851074219 4.77811431884765625 4.8514766693115234375 4.9074358940124511719 4.9585781097412109375 5.0012969970703125 5.0405979156494140625 5.0720233917236328125 5.099090576171875 5.1193547248840332031 5.0860834121704101562 5.1105980873107910156 5.1305966377258300781 5.1335911750793457031 5.1228632926940917969 5.0963296890258789062 5.065349578857421875 5.0374398231506347656 5.008087158203125 4.9811911582946777344 4.95232391357421875 4.9239592552185058594 4.8906564712524414062 4.8524050712585449219 4.8018398284912109375 4.750423431396484375 4.6978292465209960938 4.655670166015625 4.6227517127990722656 4.6071524620056152344 4.6083250045776367188 4.6256103515625 4.6604714393615722656 4.7073702812194824219 4.7716741561889648438 4.8415842056274414062 4.9236669540405273438 5.0029850006103515625 5.0873060226440429688 5.1610002517700195312 5.231597900390625 5.2885370254516601562 5.3428130149841308594 5.38877105712890625 5.4361128807067871094 5.4800152778625488281 5.5287199020385742188 5.5740666389465332031 5.6217694282531738281 5.6631603240966796875 5.7032184600830078125 5.7344012260437011719 5.7610888481140136719 5.779109954833984375 5.7915272712707519531 5.7967061996459960938 5.795795440673828125 5.7889862060546875 5.7751317024230957031 5.75623321533203125 5.7293057441711425781 5.6983036994934082031 5.6587414741516113281 5.6177706718444824219 5.5714631080627441406 5.5285267829895019531 5.4848871231079101562 5.4486870765686035156 5.4152636528015136719 5.3877162933349609375 5.3597402572631835938 5.3331050872802734375 5.30176544189453125 5.2686457633972167969 5.2302331924438476562 5.1938452720642089844 5.1568531990051269531 5.1262540817260742188 5.1043152809143066406 5.0985856056213378906 5.1015849113464355469 5.1059470176696777344 5.1084561347961425781 5.104129791259765625 5.089763641357421875 5.0699129104614257812 5.0450649261474609375 5.0207543373107910156 4.9963207244873046875 4.9763250350952148438 4.959293365478515625 4.9466104507446289062 4.935810089111328125 4.9272379875183105469 4.9189004898071289062 4.9108452796936035156 4.9012064933776855469 4.8902721405029296875 4.8759136199951171875 4.8588771820068359375 4.8364896774291992188 4.8117151260375976562 4.7838230133056640625 4.7577824592590332031 4.7330379486083984375 4.7141165733337402344 4.7002940177917480469 4.6916832923889160156 4.6850233078002929688 4.6786975860595703125 4.6696071624755859375 4.6566495895385742188 4.63812255859375 4.6170063018798828125 4.5927357673645019531 4.5689439773559570312 4.5448217391967773438 4.52304840087890625 4.500225067138671875 4.4764504432678222656 4.4474534988403320312 4.4138307571411132812 4.3708949089050292969 4.3229718208312988281 4.2686643600463867188 4.2152957916259765625 4.1614489555358886719 4.114154815673828125 4.071025848388671875 4.0339684486389160156 3.9977107048034667969 3.9627280235290527344 3.9239113330841064453 3.8821322917938232422 3.8332757949829101562 3.7808899879455566406 3.7211194038391113281 3.6582665443420410156 3.5879573822021484375 3.5151629447937011719 3.4352474212646484375 3.3539214134216308594 3.2661561965942382812 3.1777353286743164062 3.082332611083984375 2.9816832542419433594 2.8625528812408447266 2.7254731655120849609 2.5548503398895263672 2.3546419143676757812 2.1134426593780517578 1.8552106618881225586 1.5783234834671020508 1.3097689151763916016 1.0501093864440917969 0.81997621059417724609 0.60591387748718261719 0.4112205803394317627 0.21922464668750762939 0.20050577819347381592 0.033954959362745285034 0 0 0 0 0 0 0 0 0 0 0 0 0 0 0 0 0 0 0 0 0 0 0 0 0 0 0 
2.2627365589141845703 2.2412073612213134766 2.2279798984527587891 2.2085194587707519531 2.2004430294036865234 2.2056918144226074219 2.2008571624755859375 2.1883337497711181641 2.1696987152099609375 2.1498746871948242188 2.1290004253387451172 2.1075301170349121094 2.0955488681793212891 2.0939378738403320312 2.0954754352569580078 2.1042363643646240234 2.1041033267974853516 2.0928151607513427734 2.0768995285034179688 2.0550067424774169922 2.0316236019134521484 2.0145971775054931641 2.0082914829254150391 2.0196325778961181641 2.0101974010467529297 1.95298004150390625 1.9211912155151367188 2.0073499679565429688 2.2303767204284667969 2.2448227405548095703 2.0361292362213134766 1.9004114866256713867 1.8171159029006958008 1.7592688798904418945 1.7179388999938964844 1.6594153642654418945 1.5867636203765869141 1.5019917488098144531 1.462830662727355957 1.5582910776138305664 1.5061185359954833984 1.2813309431076049805 1.1747629642486572266 1.0943560600280761719 1.0247275829315185547 0.96124625205993652344 0.8997287750244140625 0.83446025848388671875 0.8362439274787902832 0.79790014028549194336 0.69332551956176757812 0.66675937175750732422 0.56418067216873168945 0.47446933388710021973 0.28794455528259277344 0.21864755451679229736 0.16816973686218261719 0.14791341125965118408 0.26913425326347351074 0.32024595141410827637 0.5244312286376953125 0.3207874596118927002 0.93999999761581420898 0.93999999761581420898 0.93999999761581420898 0.92132669687271118164 0.55713474750518798828 0.28129976987838745117 0.28129976987838745117 0.26886513829231262207 0.20983396470546722412 0.70420432090759277344 1.1306740045547485352 1.1102054119110107422 0.71009546518325805664 0.31720802187919616699 0.19430187344551086426 0.15256699919700622559 0.29513910412788391113 0.38978439569473266602 0.48540732264518737793 0.57467383146286010742 0.69345319271087646484 0.92849498987197875977 1.2379999160766601562 1.5546514987945556641 1.8238794803619384766 1.940425872802734375 2.0489687919616699219 2.2157351970672607422 2.5239689350128173828 2.8535749912261962891 2.9921672344207763672 3.0649125576019287109 3.1912934780120849609 3.2179923057556152344 3.2501058578491210938 3.1548714637756347656 2.7374074459075927734 1.5873486995697021484 1.6727206707000732422 1.9663091897964477539 2.2618978023529052734 2.5322279930114746094 2.8033802509307861328 3.0493590831756591797 3.2939777374267578125 3.5141136646270751953 3.7321689128875732422 4.7397632598876953125 5.5973143577575683594 5.1491894721984863281 4.4864740371704101562 4.5700230598449707031 4.6885652542114257812 4.778209686279296875 4.8495116233825683594 4.9045653343200683594 4.9550824165344238281 4.9969730377197265625 5.0350022315979003906 5.064685821533203125 5.0896701812744140625 5.1092805862426757812 5.0988392829895019531 5.1271877288818359375 5.145263671875 5.1427001953125 5.12317657470703125 5.0936865806579589844 5.0546398162841796875 5.0144948959350585938 4.9735269546508789062 4.9389424324035644531 4.9051604270935058594 4.87470245361328125 4.8399500846862792969 4.8014211654663085938 4.7548885345458984375 4.7100038528442382812 4.6654658317565917969 4.63079833984375 4.6051526069641113281 4.5951452255249023438 4.6007785797119140625 4.620830535888671875 4.6572489738464355469 4.7043547630310058594 4.76740264892578125 4.8352565765380859375 4.9147810935974121094 4.991695404052734375 5.0737791061401367188 5.1460728645324707031 5.2162308692932128906 5.2736964225769042969 5.329135894775390625 5.3763294219970703125 5.4247279167175292969 5.4689726829528808594 5.5171856880187988281 5.5615706443786621094 5.6081147193908691406 5.6487712860107421875 5.6888966560363769531 5.7213015556335449219 5.7505393028259277344 5.7717003822326660156 5.7878322601318359375 5.7961025238037109375 5.7976427078247070312 5.7923345565795898438 5.7796177864074707031 5.7615194320678710938 5.7352294921875 5.7046656608581542969 5.6655001640319824219 5.6248407363891601562 5.5788788795471191406 5.5363016128540039062 5.4931097030639648438 5.4573979377746582031 5.4245471954345703125 5.3974938392639160156 5.3699250221252441406 5.3434696197509765625 5.3119578361511230469 5.2782230377197265625 5.2386798858642578125 5.2010374069213867188 5.1627216339111328125 5.1309523582458496094 5.1047544479370117188 5.0945773124694824219 5.09615325927734375 5.0999469757080078125 5.1013240814208984375 5.0948853492736816406 5.0795378684997558594 5.05928802490234375 5.0341215133666992188 5.0093483924865722656 4.9837431907653808594 4.9620695114135742188 4.9426980018615722656 4.9274840354919433594 4.9139056205749511719 4.9028530120849609375 4.8922886848449707031 4.8826880455017089844 4.872074127197265625 4.8608317375183105469 4.84674072265625 4.8304924964904785156 4.8094754219055175781 4.7864146232604980469 4.7606000900268554688 4.7366147041320800781 4.7139425277709960938 4.6967401504516601562 4.6843371391296386719 4.676685333251953125 4.6706652641296386719 4.6646451950073242188 4.6556019783020019531 4.6424746513366699219 4.6235804557800292969 4.6019544601440429688 4.576992034912109375 4.5524086952209472656 4.5273404121398925781 4.5045881271362304688 4.4807491302490234375 4.4561033248901367188 4.4264049530029296875 4.3924021720886230469 4.3494677543640136719 4.3019194602966308594 4.2482995986938476562 4.1957788467407226562 4.1429109573364257812 4.0965595245361328125 4.0544271469116210938 4.0185427665710449219 3.9840095043182373047 3.9514276981353759766 3.9161612987518310547 3.8789744377136230469 3.8357856273651123047 3.7891056537628173828 3.734806060791015625 3.6761293411254882812 3.6083226203918457031 3.5359103679656982422 3.4545202255249023438 3.3703703880310058594 3.2786819934844970703 3.1859302520751953125 3.0858583450317382812 2.9807629585266113281 2.8573582172393798828 2.7166302204132080078 2.54299163818359375 2.3407576084136962891 2.0984976291656494141 1.84011077880859375 1.564076542854309082 1.2969118356704711914 1.0383050441741943359 0.81042712926864624023 0.59872531890869140625 0.40599179267883300781 0.21531145274639129639 0.043211285024881362915 0 0 0 0 0 0 0 0 0 0 0 0 0 0 0 0 0 0 0 0 0 0 0 0 0 0 0 0 
2.2753021717071533203 2.249660491943359375 2.2298979759216308594 2.2122375965118408203 2.2003190517425537109 2.2054052352905273438 2.2077221870422363281 2.1982939243316650391 2.1857497692108154297 2.1641640663146972656 2.1352350711822509766 2.1259968280792236328 2.117462158203125 2.1281225681304931641 2.1456391811370849609 2.1449797153472900391 2.1118893623352050781 2.0812208652496337891 2.0552105903625488281 2.0412082672119140625 2.0355200767517089844 2.0347502231597900391 2.0460987091064453125 2.0505504608154296875 2.0081729888916015625 1.9590817689895629883 2.0154693126678466797 2.2257032394409179688 2.3018777370452880859 2.1036236286163330078 1.9756623506546020508 1.9211332798004150391 1.8555965423583984375 1.8033750057220458984 1.7678476572036743164 1.7983478307723999023 1.7738664150238037109 1.6326506137847900391 1.60323333740234375 1.617392420768737793 1.4270696640014648438 1.325415492057800293 1.2550528049468994141 1.2488671541213989258 1.2603801488876342773 1.2134429216384887695 1.3040100336074829102 1.2327215671539306641 1.1884181499481201172 1.1454597711563110352 1.0624265670776367188 0.98280537128448486328 0.89603471755981445312 0.82246404886245727539 0.70922130346298217773 0.63968145847320556641 0.59200197458267211914 0.58314108848571777344 1.1077179908752441406 1.079512476921081543 1.027889251708984375 0.90335750579833984375 1.1174061298370361328 1.0281412601470947266 0.71880662441253662109 0.5051962733268737793 0.93999999761581420898 0.93999999761581420898 0.91976433992385864258 0.68365615606307983398 0.80702036619186401367 0.96790099143981933594 1.144662022590637207 1.153839111328125 0.98383319377899169922 0.43927690386772155762 0.19369629025459289551 0.26899588108062744141 0.37175428867340087891 0.46778929233551025391 0.53401672840118408203 0.60467988252639770508 0.72140347957611083984 0.97149384021759033203 1.3028768301010131836 1.6257635354995727539 1.8757922649383544922 1.9608020782470703125 2.0567831993103027344 2.2304623126983642578 2.5729708671569824219 2.85691070556640625 2.9715213775634765625 3.0598120689392089844 3.1577634811401367188 3.1954960823059082031 3.1857626438140869141 3.0923550128936767578 2.5642654895782470703 1.5705580711364746094 1.6852988004684448242 1.9789612293243408203 2.2750370502471923828 2.5454308986663818359 2.8165879249572753906 3.0626540184020996094 3.3071665763854980469 3.5268671512603759766 3.7443752288818359375 3.9811654090881347656 4.4264202117919921875 4.327747344970703125 4.4473714828491210938 4.577632904052734375 4.6936197280883789062 4.7792177200317382812 4.8474187850952148438 4.9016556739807128906 4.9517812728881835938 4.9928741455078125 5.029388427734375 5.0567383766174316406 5.079586029052734375 5.0985326766967773438 5.110134124755859375 5.1399617195129394531 5.1544880867004394531 5.1470127105712890625 5.1196732521057128906 5.0799007415771484375 5.0291299819946289062 4.9796385765075683594 4.9313373565673828125 4.8924083709716796875 4.8564162254333496094 4.8252062797546386719 4.7902932167053222656 4.7547545433044433594 4.7142229080200195312 4.6765127182006835938 4.6400790214538574219 4.6127462387084960938 4.5940456390380859375 4.5891919136047363281 4.5986838340759277344 4.6208271980285644531 4.6579699516296386719 4.7044024467468261719 4.7652378082275390625 4.8301725387573242188 4.906131744384765625 4.9797353744506835938 5.0587582588195800781 5.1291189193725585938 5.1986026763916015625 5.2566990852355957031 5.3136987686157226562 5.3626966476440429688 5.4129085540771484375 5.4582653045654296875 5.5068182945251464844 5.55094146728515625 5.5969414710998535156 5.6372160911560058594 5.6774888038635253906 5.7108454704284667969 5.7420039176940917969 5.7655191421508789062 5.78452301025390625 5.7954697608947753906 5.7994451522827148438 5.7955756187438964844 5.7835974693298339844 5.7658457756042480469 5.7399506568908691406 5.709903717041015625 5.6714186668395996094 5.6314358711242675781 5.5862016677856445312 5.5443043708801269531 5.5018115043640136719 5.4666872024536132812 5.4343533515930175781 5.4076223373413085938 5.3801684379577636719 5.3535742759704589844 5.3215990066528320312 5.2870683670043945312 5.2462449073791503906 5.2070889472961425781 5.1670866012573242188 5.1339197158813476562 5.1054515838623046875 5.0901288986206054688 5.0895543098449707031 5.0926814079284667969 5.0919752120971679688 5.0839810371398925781 5.06829071044921875 5.0481653213500976562 5.0232410430908203125 4.9983000755310058594 4.971721649169921875 4.9483323097229003906 4.926288604736328125 4.9080462455749511719 4.8910799026489257812 4.8770012855529785156 4.8637819290161132812 4.8524613380432128906 4.8409223556518554688 4.8295464515686035156 4.8160128593444824219 4.8008761405944824219 4.7815704345703125 4.7605180740356445312 4.73705291748046875 4.715343475341796875 4.6949319839477539062 4.6795835494995117188 4.6686873435974121094 4.6620364189147949219 4.6566615104675292969 4.6509218215942382812 4.6418733596801757812 4.6285090446472167969 4.6091747283935546875 4.5869798660278320312 4.5613002777099609375 4.5359568595886230469 4.5100531578063964844 4.4865083694458007812 4.4619078636169433594 4.4366550445556640625 4.4065175056457519531 4.3723378181457519531 4.3295350074768066406 4.2824063301086425781 4.2294497489929199219 4.1777009963989257812 4.1256985664367675781 4.0801630020141601562 4.0388770103454589844 4.003971099853515625 3.9708614349365234375 3.9402551651000976562 3.9079091548919677734 3.8745017051696777344 3.8359735012054443359 3.7939565181732177734 3.7440876960754394531 3.6887354850769042969 3.6227960586547851562 3.5504388809204101562 3.467494964599609375 3.3806347846984863281 3.2852625846862792969 3.1884939670562744141 3.0841045379638671875 2.9749169349670410156 2.8476431369781494141 2.7037229537963867188 2.5276319980621337891 2.3240337371826171875 2.0815005302429199219 1.8237777948379516602 1.5492033958435058594 1.2844063043594360352 1.0276172161102294922 0.80201792716979980469 0.59276485443115234375 0.40180668234825134277 0.21201024949550628662 0.035205289721488952637 0 0 0 0 0 0 0 0 0 0 0 0 0 0 0 0 0 0 0 0 0 0 0 0 0 0 0 0 
2.2847902774810791016 2.2638635635375976562 2.2356386184692382812 2.2194294929504394531 2.2006423473358154297 2.2050712108612060547 2.2131509780883789062 2.2026691436767578125 2.1827564239501953125 2.1701028347015380859 2.1736154556274414062 2.1746106147766113281 2.1545972824096679688 2.1387226581573486328 2.1304612159729003906 2.1211323738098144531 2.1009631156921386719 2.0815041065216064453 2.0672466754913330078 2.0623333454132080078 2.0615782737731933594 2.0752849578857421875 2.0838465690612792969 2.0544180870056152344 1.9902348518371582031 2.0261847972869873047 2.2175741195678710938 2.3494541645050048828 2.1725022792816162109 2.0187458992004394531 1.9802993535995483398 1.966042637825012207 1.9042166471481323242 1.8396522998809814453 1.8911828994750976562 1.9116871356964111328 1.7756993770599365234 1.8286620378494262695 1.7905694246292114258 1.7795362472534179688 1.6589770317077636719 1.7049585580825805664 1.6584416627883911133 1.5916497707366943359 1.5165392160415649414 1.4562932252883911133 1.3838019371032714844 1.3118996620178222656 1.255702972412109375 1.1994491815567016602 1.1128664016723632812 1.0293612480163574219 0.96422541141510009766 0.89367115497589111328 0.82386159896850585938 0.75564026832580566406 0.70661997795104980469 0.67872154712677001953 0.94193375110626220703 1.7400000095367431641 1.7239133119583129883 1.5825331211090087891 1.5399999618530273438 1.5279501676559448242 1.2861437797546386719 0.84737849235534667969 0.93999999761581420898 0.92471909523010253906 0.54305177927017211914 0.98911339044570922852 1.2408140897750854492 1.1527251005172729492 1.0757999420166015625 1.1743818521499633789 1.085848689079284668 0.4690157771110534668 0.35675331950187683105 0.40284019708633422852 0.47133812308311462402 0.54546177387237548828 0.5905945897102355957 0.63956868648529052734 0.76549309492111206055 1.0173993110656738281 1.3652062416076660156 1.6932214498519897461 1.8864588737487792969 1.959134221076965332 2.0638761520385742188 2.2545087337493896484 2.6070420742034912109 2.8417873382568359375 2.9502170085906982422 3.0473630428314208984 3.1115903854370117188 3.1791853904724121094 3.1129357814788818359 3.0168132781982421875 2.3488671779632568359 1.5532073974609375 1.7017914056777954102 1.9954419136047363281 2.2917826175689697266 2.5625185966491699219 2.8337306976318359375 3.0798866748809814453 3.3243837356567382812 3.5437340736389160156 3.7607512474060058594 3.9538354873657226562 4.142078399658203125 4.3055653572082519531 4.4602627754211425781 4.5885653495788574219 4.7009496688842773438 4.7812013626098632812 4.8457727432250976562 4.8987374305725097656 4.9486608505249023438 4.9889702796936035156 5.0234150886535644531 5.0476636886596679688 5.068603515625 5.0866360664367675781 5.1109619140625 5.1383905410766601562 5.1476922035217285156 5.1335444450378417969 5.0972704887390136719 5.049560546875 4.9917492866516113281 4.9370698928833007812 4.8850460052490234375 4.8444333076477050781 4.8081512451171875 4.7770948410034179688 4.7446265220642089844 4.7138237953186035156 4.6802401542663574219 4.6499066352844238281 4.6215300559997558594 4.6013169288635253906 4.5891852378845214844 4.5890102386474609375 4.6017303466796875 4.625278472900390625 4.6623215675354003906 4.7072319984436035156 4.7649893760681152344 4.8261809349060058594 4.8976774215698242188 4.9672179222106933594 5.0425424575805664062 5.1106066703796386719 5.1793336868286132812 5.2382726669311523438 5.2973279953002929688 5.3487954139709472656 5.401706695556640625 5.4491086006164550781 5.4990568161010742188 5.5438456535339355469 5.59014892578125 5.6305489540100097656 5.6711149215698242188 5.7051019668579101562 5.7373719215393066406 5.7622079849243164062 5.7828173637390136719 5.795284271240234375 5.8007807731628417969 5.7980985641479492188 5.7870430946350097656 5.7696561813354492188 5.7439117431640625 5.7141814231872558594 5.6764912605285644531 5.6375269889831542969 5.5934133529663085938 5.5524868965148925781 5.5108995437622070312 5.4764018058776855469 5.4444518089294433594 5.4177999496459960938 5.3901276588439941406 5.3630499839782714844 5.3302779197692871094 5.2947554588317871094 5.252605438232421875 5.2119379043579101562 5.1700792312622070312 5.1351871490478515625 5.1051106452941894531 5.0855360031127929688 5.0817127227783203125 5.0835824012756347656 5.0802540779113769531 5.0713739395141601562 5.0558452606201171875 5.0364212989807128906 5.0122671127319335938 4.9874901771545410156 4.9602093696594238281 4.9351000785827636719 4.9100947380065917969 4.8883748054504394531 4.8674802780151367188 4.8499231338500976562 4.8337693214416503906 4.820735931396484375 4.8084883689880371094 4.7973198890686035156 4.7847752571105957031 4.7711453437805175781 4.7538752555847167969 4.7350215911865234375 4.7140035629272460938 4.6945910453796386719 4.6764163970947265625 4.6628794670104980469 4.6534447669982910156 4.647754669189453125 4.642986297607421875 4.6374878883361816406 4.628387451171875 4.6147351264953613281 4.5949077606201171875 4.5721125602722167969 4.5457286834716796875 4.5196995735168457031 4.4931287765502929688 4.4690423011779785156 4.4440021514892578125 4.4184694290161132812 4.3882045745849609375 4.3540792465209960938 4.3115377426147460938 4.2648448944091796875 4.2124733924865722656 4.16135406494140625 4.1100215911865234375 4.0650925636291503906 4.0244121551513671875 3.9901916980743408203 3.9580790996551513672 3.9288702011108398438 3.8986101150512695312 3.8679218292236328125 3.8327512741088867188 3.7940638065338134766 3.747303009033203125 3.6941943168640136719 3.6293392181396484375 3.5566697120666503906 3.4721791744232177734 3.3829414844512939453 3.2845065593719482422 3.1845538616180419922 3.0769164562225341797 2.9647939205169677734 2.8348917961120605469 2.6889612674713134766 2.5115358829498291016 2.3074948787689208984 2.0654280185699462891 1.8088891506195068359 1.5360931158065795898 1.2735749483108520508 1.0192580223083496094 0.79548698663711547852 0.58839577436447143555 0.39875724911689758301 0.20917303860187530518 0.027923064306378364563 0 0 0 0 0 0 0 0 0 0 0 0 0 0 0 0 0 0 0 0 0 0 0 0 0 0 0 0 
2.2904503345489501953 2.2719137668609619141 2.2463090419769287109 2.2239367961883544922 2.2075874805450439453 2.2100734710693359375 2.2096934318542480469 2.2022023200988769531 2.2061686515808105469 2.2190701961517333984 2.2145643234252929688 2.1844546794891357422 2.1492986679077148438 2.1288135051727294922 2.1194500923156738281 2.1167368888854980469 2.1112563610076904297 2.1029376983642578125 2.0986850261688232422 2.1005306243896484375 2.1111950874328613281 2.1224849224090576172 2.1010963916778564453 2.0380940437316894531 2.0438630580902099609 2.1928303241729736328 2.3620193004608154297 2.2348461151123046875 2.0662810802459716797 2.0070147514343261719 1.9926637411117553711 1.986458897590637207 1.9290720224380493164 1.9438787698745727539 2.00646209716796875 1.8025735616683959961 1.8219404220581054688 2.0130529403686523438 1.9630798101425170898 1.8877711296081542969 1.7793462276458740234 1.7260874509811401367 1.6898634433746337891 1.6400976181030273438 1.5759888887405395508 1.5038889646530151367 1.4274979829788208008 1.3728559017181396484 1.3069210052490234375 1.2349925041198730469 1.1589276790618896484 1.0961856842041015625 1.0344765186309814453 0.96980506181716918945 0.90445607900619506836 0.83978193998336791992 0.78367727994918823242 0.74663329124450683594 0.96289843320846557617 1.726525425910949707 1.7400000095367431641 1.7198978662490844727 1.5468705892562866211 1.5399999618530273438 1.5399999618530273438 1.5361424684524536133 1.3201267719268798828 0.89815324544906616211 0.83366781473159790039 1.427504420280456543 1.5920417308807373047 1.393357396125793457 1.2591083049774169922 1.4195302724838256836 1.0498420000076293945 0.50867682695388793945 0.53700280189514160156 0.53968763351440429688 0.58985948562622070312 0.62348073720932006836 0.65041524171829223633 0.69143199920654296875 0.81466692686080932617 1.0725303888320922852 1.4362288713455200195 1.7390584945678710938 1.8857367038726806641 1.9619030952453613281 2.0717334747314453125 2.2935960292816162109 2.6341598033905029297 2.8365318775177001953 2.9298434257507324219 3.0195660591125488281 3.0759189128875732422 3.1412196159362792969 3.0564260482788085938 2.9060299396514892578 2.1914334297180175781 1.5492699146270751953 1.7218656539916992188 2.0157854557037353516 2.3122522830963134766 2.5833022594451904297 2.8548521995544433594 3.1011865139007568359 3.3457293510437011719 3.5648677349090576172 3.7815301418304443359 3.9741628170013427734 4.1617183685302734375 4.3242397308349609375 4.4773511886596679688 4.603038787841796875 4.7102212905883789062 4.7841329574584960938 4.8456058502197265625 4.8970875740051269531 4.9459643363952636719 4.9851870536804199219 5.0161681175231933594 5.0370244979858398438 5.0562186241149902344 5.0730438232421875 5.1002469062805175781 5.1219921112060546875 5.1240906715393066406 5.1034297943115234375 5.061450958251953125 5.0093407630920410156 4.947826385498046875 4.8907570838928222656 4.8375105857849121094 4.79698944091796875 4.7613878250122070312 4.7321438789367675781 4.7038583755493164062 4.6786975860595703125 4.652370452880859375 4.629428863525390625 4.6089601516723632812 4.5956101417541503906 4.589679718017578125 4.5937647819519042969 4.6091933250427246094 4.6336045265197753906 4.6699137687683105469 4.7126803398132324219 4.7667422294616699219 4.8235921859741210938 4.8899798393249511719 4.9549083709716796875 5.0260629653930664062 5.0915670394897460938 5.1595005989074707031 5.21949005126953125 5.2810511589050292969 5.3355779647827148438 5.3919825553894042969 5.4422783851623535156 5.4946064949035644531 5.5409364700317382812 5.5883455276489257812 5.62935638427734375 5.6703314781188964844 5.7046046257019042969 5.7371602058410644531 5.76226806640625 5.7832059860229492188 5.7960257530212402344 5.801975250244140625 5.7997713088989257812 5.7893390655517578125 5.7726216316223144531 5.7474322319030761719 5.7180566787719726562 5.6809635162353515625 5.6429796218872070312 5.6002354621887207031 5.5605115890502929688 5.5199551582336425781 5.4860796928405761719 5.4543690681457519531 5.4275770187377929688 5.3994259834289550781 5.3716473579406738281 5.3379073143005371094 5.3013372421264648438 5.2579331398010253906 5.2159647941589355469 5.1724858283996582031 5.1357893943786621094 5.1037411689758300781 5.0813884735107421875 5.0730586051940917969 5.0723056793212890625 5.0664229393005371094 5.0569424629211425781 5.0419182777404785156 5.023540496826171875 5.0004820823669433594 4.9761614799499511719 4.9484562873840332031 4.9217205047607421875 4.8936548233032226562 4.8682456016540527344 4.8431658744812011719 4.8219523429870605469 4.8028306961059570312 4.7882061004638671875 4.7755270004272460938 4.7649183273315429688 4.7537565231323242188 4.7419614791870117188 4.7269573211669921875 4.7103924751281738281 4.6918101310729980469 4.6746129989624023438 4.658550262451171875 4.6466999053955078125 4.6386103630065917969 4.6337971687316894531 4.6295657157897949219 4.6242570877075195312 4.6150598526000976562 4.6010861396789550781 4.5807390213012695312 4.5573415756225585938 4.5302944183349609375 4.5036768913269042969 4.4766149520874023438 4.4522299766540527344 4.42706298828125 4.4015703201293945312 4.3715052604675292969 4.3377065658569335938 4.2956366539001464844 4.2495045661926269531 4.1977648735046386719 4.1472420692443847656 4.0964646339416503906 4.0519590377807617188 4.0116062164306640625 3.97769927978515625 3.9460551738739013672 3.9175670146942138672 3.8884847164154052734 3.8594276905059814453 3.8263247013092041016 3.7896716594696044922 3.7447252273559570312 3.6927804946899414062 3.6281797885894775391 3.5547351837158203125 3.4685733318328857422 3.3771576881408691406 3.2761759757995605469 3.1737928390502929688 3.0639832019805908203 2.9501495361328125 2.81896209716796875 2.6722996234893798828 2.4947206974029541016 2.2911586761474609375 2.0502140522003173828 1.7952431440353393555 1.5243774652481079102 1.2639095783233642578 1.0121133327484130859 0.78987234830856323242 0.58438712358474731445 0.39549985527992248535 0.20420034229755401611 0.02422033064067363739 0 0 0 0 0 0 0 0 0 0 0 0 0 0 0 0 0 0 0 0 0 0 0 0 0 0 0 0 
2.290279388427734375 2.2740049362182617188 2.2552349567413330078 2.2301714420318603516 2.2228043079376220703 2.2169885635375976562 2.2149715423583984375 2.2351696491241455078 2.2505240440368652344 2.2338852882385253906 2.1990377902984619141 2.1627209186553955078 2.1464171409606933594 2.1434485912322998047 2.1368567943572998047 2.1386728286743164062 2.1391706466674804688 2.1344435214996337891 2.1349246501922607422 2.1451241970062255859 2.1501479148864746094 2.1325190067291259766 2.0754129886627197266 2.0733556747436523438 2.1965572834014892578 2.3854987621307373047 2.2985703945159912109 2.1203923225402832031 2.0739459991455078125 2.0706984996795654297 2.0406782627105712891 2.0089719295501708984 2.0107314586639404297 2.0986392498016357422 1.9561262130737304688 1.8084114789962768555 2.0724780559539794922 2.0502221584320068359 1.969715118408203125 1.9652690887451171875 1.8998901844024658203 1.797120213508605957 1.7010090351104736328 1.6626577377319335938 1.6114752292633056641 1.545482635498046875 1.4893678426742553711 1.4307923316955566406 1.3487718105316162109 1.2817361354827880859 1.2215569019317626953 1.1649500131607055664 1.1154752969741821289 1.0635548830032348633 0.99774581193923950195 0.93513512611389160156 0.87332653999328613281 0.82587856054306030273 0.78764748573303222656 1.6144858598709106445 1.7243707180023193359 1.5696181058883666992 1.6790350675582885742 1.5480555295944213867 1.5399999618530273438 1.5399999618530273438 1.5399999618530273438 1.2343385219573974609 1.4130561351776123047 1.8505160808563232422 1.9459233283996582031 1.6349711418151855469 1.6695177555084228516 1.6906174421310424805 0.96273505687713623047 0.65797692537307739258 0.7029755711555480957 0.68104964494705200195 0.70512104034423828125 0.70815145969390869141 0.71942168474197387695 0.76752287149429321289 0.89974826574325561523 1.1714013814926147461 1.5243126153945922852 1.7667268514633178711 1.8802529573440551758 1.9648747444152832031 2.0930604934692382812 2.3366975784301757812 2.6570901870727539062 2.8326137065887451172 2.9127624034881591797 2.9831802845001220703 3.0600020885467529297 3.0916011333465576172 3.0224618911743164062 2.7546987533569335938 2.0893719196319580078 1.5549509525299072266 1.7454388141632080078 2.0400016307830810547 2.3368387222290039062 2.6078944206237792969 2.8796482086181640625 3.12641143798828125 3.3710815906524658203 3.5901277065277099609 3.8066568374633789062 3.9990298748016357422 4.18601226806640625 4.3475513458251953125 4.4987530708312988281 4.6207957267761230469 4.7203512191772460938 4.7880868911743164062 4.8478441238403320312 4.89885711669921875 4.9463043212890625 4.9819736480712890625 5.0064692497253417969 5.0244326591491699219 5.0416274070739746094 5.0565056800842285156 5.0808033943176269531 5.0957846641540527344 5.0909876823425292969 5.0650835037231445312 5.018909454345703125 4.964130401611328125 4.9010653495788574219 4.8436169624328613281 4.7909655570983886719 4.7516407966613769531 4.7177934646606445312 4.6917805671691894531 4.6684908866882324219 4.6491680145263671875 4.6300225257873535156 4.6142563819885253906 4.6013612747192382812 4.5944986343383789062 4.5943350791931152344 4.6022601127624511719 4.6199522018432617188 4.6448278427124023438 4.6800050735473632812 4.7202963829040527344 4.7703866958618164062 4.8226318359375 4.8836388587951660156 4.9437384605407714844 5.0105581283569335938 5.0734281539916992188 5.1405882835388183594 5.2017507553100585938 5.2660846710205078125 5.3240532875061035156 5.3844952583312988281 5.4382958412170410156 5.4937348365783691406 5.5422692298889160156 5.5913848876953125 5.63336944580078125 5.674793243408203125 5.7090063095092773438 5.7411007881164550781 5.7655491828918457031 5.7856926918029785156 5.7978487014770507812 5.8033132553100585938 5.8009667396545410156 5.7906994819641113281 5.7744455337524414062 5.7500848770141601562 5.7215714454650878906 5.6852555274963378906 5.6480188369750976562 5.6063365936279296875 5.5678281784057617188 5.5283617973327636719 5.495067596435546875 5.4634747505187988281 5.4364032745361328125 5.4076452255249023438 5.3791155815124511719 5.3444800376892089844 5.3070597648620605469 5.2627086639404296875 5.2197556495666503906 5.175052642822265625 5.1369123458862304688 5.1027731895446777344 5.078044891357421875 5.0639925003051757812 5.0590238571166992188 5.0509095191955566406 5.0408353805541992188 5.0262651443481445312 5.0089402198791503906 4.9870519638061523438 4.9633908271789550781 4.935516357421875 4.9073629379272460938 4.8764133453369140625 4.8474636077880859375 4.8183741569519042969 4.7936916351318359375 4.7718152999877929688 4.7558436393737792969 4.7430286407470703125 4.7332596778869628906 4.7237410545349121094 4.7139592170715332031 4.7013030052185058594 4.6870017051696777344 4.6707425117492675781 4.6556024551391601562 4.6414618492126464844 4.6311202049255371094 4.6242170333862304688 4.6201615333557128906 4.6163730621337890625 4.6111903190612792969 4.6018586158752441406 4.5875487327575683594 4.5666856765747070312 4.5427188873291015625 4.515079498291015625 4.4879808425903320312 4.4605894088745117188 4.4361081123352050781 4.4110670089721679688 4.3858876228332519531 4.3563294410705566406 4.323162078857421875 4.2818765640258789062 4.2365813255310058594 4.1857094764709472656 4.1359281539916992188 4.0857391357421875 4.0415463447570800781 4.0012412071228027344 3.9672198295593261719 3.9354405403137207031 3.9069490432739257812 3.8781490325927734375 3.8497364521026611328 3.8175909519195556641 3.7818899154663085938 3.7376716136932373047 3.6859469413757324219 3.6208040714263916016 3.5460288524627685547 3.4578709602355957031 3.3642113208770751953 3.2608885765075683594 3.1565146446228027344 3.0452845096588134766 2.9306988716125488281 2.7993268966674804688 2.6530048847198486328 2.4762711524963378906 2.2739579677581787109 2.0346612930297851562 1.7815190553665161133 1.5126286745071411133 1.2540521621704101562 1.0042576789855957031 0.78349548578262329102 0.57888072729110717773 0.39013704657554626465 0.18710918724536895752 0 0 0 0 0 0 0 0 0 0 0 0 0 0 0 0 0 0 0 0 0 0 0 0 0 0 0 0 0 
2.2902796268463134766 2.2778410911560058594 2.2654023170471191406 2.2439723014831542969 2.2301890850067138672 2.2204396724700927734 2.2397139072418212891 2.2667114734649658203 2.2503926753997802734 2.2117469310760498047 2.1877641677856445312 2.1821844577789306641 2.1834387779235839844 2.1801598072052001953 2.1654634475708007812 2.1668298244476318359 2.1707568168640136719 2.1776621341705322266 2.1827800273895263672 2.1722903251647949219 2.1423850059509277344 2.0891752243041992188 2.0791478157043457031 2.1947805881500244141 2.3999528884887695312 2.3767447471618652344 2.1856043338775634766 2.1249172687530517578 2.1391513347625732422 2.121654510498046875 2.0689604282379150391 2.0613105297088623047 2.1702795028686523438 2.0872936248779296875 1.85620880126953125 2.1271538734436035156 2.1592438220977783203 2.0904889106750488281 2.0226485729217529297 1.9876130819320678711 1.929022669792175293 1.867224574089050293 1.7595273256301879883 1.6789394617080688477 1.629761815071105957 1.6012504100799560547 1.5572462081909179688 1.483450770378112793 1.4074362516403198242 1.3508386611938476562 1.2960332632064819336 1.2422240972518920898 1.2042344808578491211 1.1542199850082397461 1.0955196619033813477 1.0384932756423950195 0.98078876733779907227 0.92339336872100830078 0.87574023008346557617 1.3471801280975341797 1.5854760408401489258 1.2962882518768310547 1.7029144763946533203 1.6808203458786010742 1.5470777750015258789 1.5399999618530273438 1.2794666290283203125 1.1762485504150390625 1.9008219242095947266 2.233612060546875 2.1792836189270019531 1.8213459253311157227 1.8115915060043334961 1.6795352697372436523 1.0791031122207641602 0.94139593839645385742 0.87145841121673583984 0.8111693263053894043 0.814418792724609375 0.80631285905838012695 0.80019843578338623047 0.84688562154769897461 0.98976433277130126953 1.2880502939224243164 1.6284514665603637695 1.8042982816696166992 1.8748384714126586914 1.9696919918060302734 2.1276438236236572266 2.3772537708282470703 2.6747777462005615234 2.8163523674011230469 2.8894007205963134766 2.9429063796997070312 3.0505063533782958984 3.0390677452087402344 2.9769785404205322266 2.6068921089172363281 2.0175495147705078125 1.5679024457931518555 1.7728050947189331055 2.0684814453125 2.3660845756530761719 2.6373064517974853516 2.9087719917297363281 3.1555955410003662109 3.4004979133605957031 3.6196794509887695312 3.8363759517669677734 4.0287985801696777344 4.2154378890991210938 4.3760223388671875 4.5247468948364257812 4.6410460472106933594 4.7302126884460449219 4.7938609123229980469 4.8539075851440429688 4.9059233665466308594 4.9529042243957519531 4.9808650016784667969 4.9981503486633300781 5.0115208625793457031 5.0274167060852050781 5.0414886474609375 5.0569915771484375 5.0629773139953613281 5.0508389472961425781 5.0203094482421875 4.9714388847351074219 4.915843963623046875 4.8533091545104980469 4.7973241806030273438 4.746856689453125 4.7096567153930664062 4.6788911819458007812 4.6568388938903808594 4.6387319564819335938 4.6251082420349121094 4.6128211021423339844 4.6038384437561035156 4.5980467796325683594 4.5972232818603515625 4.6023621559143066406 4.6137294769287109375 4.6333117485046386719 4.6583538055419921875 4.6921405792236328125 4.7297911643981933594 4.7758345603942871094 4.8234572410583496094 4.8791141510009765625 4.9344468116760253906 4.997013092041015625 5.0573329925537109375 5.1238298416137695312 5.1862955093383789062 5.2535719871520996094 5.3151826858520507812 5.3799638748168945312 5.4376616477966308594 5.4967341423034667969 5.5479626655578613281 5.5992188453674316406 5.6424245834350585938 5.6842751502990722656 5.7180695533752441406 5.7489933967590332031 5.771938323974609375 5.7902789115905761719 5.80086517333984375 5.8050189018249511719 5.8019695281982421875 5.7914857864379882812 5.7754611968994140625 5.7517752647399902344 5.7242488861083984375 5.689167022705078125 5.6528344154357910156 5.6118893623352050781 5.5740656852722167969 5.5354704856872558594 5.50270843505859375 5.4711670875549316406 5.4437627792358398438 5.4144077301025390625 5.3852419853210449219 5.3499908447265625 5.3121509552001953125 5.2674307823181152344 5.2240314483642578125 5.1785535812377929688 5.1392612457275390625 5.1032280921936035156 5.0758156776428222656 5.0540356636047363281 5.0442328453063964844 5.0339841842651367188 5.0228791236877441406 5.0083341598510742188 4.9918160438537597656 4.9709796905517578125 4.948070526123046875 4.9202589988708496094 4.8910212516784667969 4.8576498031616210938 4.8256592750549316406 4.7930998802185058594 4.7654280662536621094 4.7412610054016113281 4.7243175506591796875 4.7116851806640625 4.7029790878295898438 4.6952505111694335938 4.6875338554382324219 4.6771836280822753906 4.6650242805480957031 4.6508955955505371094 4.6375966072082519531 4.6251363754272460938 4.6160855293273925781 4.610172271728515625 4.6067242622375488281 4.6032609939575195312 4.5981311798095703125 4.5886297225952148438 4.5739817619323730469 4.55263519287109375 4.5281615257263183594 4.5000252723693847656 4.4725623130798339844 4.444988250732421875 4.4205727577209472656 4.3958616256713867188 4.3712329864501953125 4.3424835205078125 4.3102993965148925781 4.2702341079711914062 4.2262220382690429688 4.1766648292541503906 4.1279630661010742188 4.07855224609375 4.0346403121948242188 3.9940900802612304688 3.9594552516937255859 3.9268422126770019531 3.8975512981414794922 3.8681268692016601562 3.8394513130187988281 3.8073153495788574219 3.7716720104217529297 3.7272856235504150391 3.6749501228332519531 3.6084723472595214844 3.5316896438598632812 3.4409725666046142578 3.3447053432464599609 3.2389061450958251953 3.132671356201171875 3.0204312801361083984 2.9057927131652832031 2.7751135826110839844 2.6300246715545654297 2.4549829959869384766 2.2545683383941650391 2.0173447132110595703 1.7662115097045898438 1.4992643594741821289 1.2423453330993652344 0.99395030736923217773 0.77437502145767211914 0.56988275051116943359 0.38062015175819396973 0.17134687304496765137 0 0 0 0 0 0 0 0 0 0 0 0 0 0 0 0 0 0 0 0 0 0 0 0 0 0 0 0 0 
2.2944540977478027344 2.2818522453308105469 2.2727758884429931641 2.2521965503692626953 2.2321515083312988281 2.2394683361053466797 2.2686102390289306641 2.2601449489593505859 2.2159926891326904297 2.1918406486511230469 2.1925115585327148438 2.2070868015289306641 2.2166643142700195312 2.2154564857482910156 2.2043323516845703125 2.1993527412414550781 2.198627471923828125 2.2103118896484375 2.1988918781280517578 2.1481461524963378906 2.0971894264221191406 2.0962173938751220703 2.1825940608978271484 2.3891000747680664062 2.4338321685791015625 2.2438232898712158203 2.1511776447296142578 2.1727290153503417969 2.1701152324676513672 2.1301267147064208984 2.0991694927215576172 2.2069878578186035156 2.2133429050445556641 1.9790832996368408203 2.1319122314453125 2.2419373989105224609 2.171253204345703125 2.0966365337371826172 2.0357692241668701172 1.9869513511657714844 1.939721226692199707 1.8828556537628173828 1.5493782758712768555 1.5180056095123291016 1.6141810417175292969 1.6473474502563476562 1.6162739992141723633 1.5553805828094482422 1.4905458688735961914 1.4390225410461425781 1.3871505260467529297 1.3320537805557250977 1.2890793085098266602 1.2400494813919067383 1.1848864555358886719 1.1335263252258300781 1.0810908079147338867 1.0254396200180053711 0.96724861860275268555 1.0442147254943847656 1.4361560344696044922 1.0955779552459716797 1.6297736167907714844 1.6809906959533691406 1.6161956787109375 1.5460047721862792969 1.4903180599212646484 1.9896106719970703125 2.3259954452514648438 2.4894113540649414062 2.3890109062194824219 2.1034386157989501953 1.8284082412719726562 1.6301891803741455078 1.3947679996490478516 1.3229334354400634766 1.0641951560974121094 0.94350254535675048828 0.91774755716323852539 0.89774173498153686523 0.88214159011840820312 0.92852461338043212891 1.1013047695159912109 1.4054543972015380859 1.7067734003067016602 1.8501019477844238281 1.884373784065246582 1.9828125238418579102 2.1669147014617919922 2.4261105060577392578 2.6841840744018554688 2.7898283004760742188 2.8579380512237548828 2.91500091552734375 3.0060856342315673828 2.9756336212158203125 2.8957400321960449219 2.4807047843933105469 1.9662438631057739258 1.5863062143325805664 1.8036979436874389648 2.1010487079620361328 2.3998811244964599609 2.6715719699859619141 2.9429593086242675781 3.1892902851104736328 3.4335131645202636719 3.6528046131134033203 3.8700809478759765625 4.06299591064453125 4.2496886253356933594 4.4093785285949707031 4.5543818473815917969 4.6607065200805664062 4.7396368980407714844 4.8030462265014648438 4.8660893440246582031 4.9219236373901367188 4.9623055458068847656 4.9764571189880371094 4.9855370521545410156 4.9965190887451171875 5.0093264579772949219 5.0198969841003417969 5.0232443809509277344 5.0208721160888671875 5.0029978752136230469 4.969699859619140625 4.9202775955200195312 4.8658971786499023438 4.8059277534484863281 4.7530779838562011719 4.7060456275939941406 4.671955108642578125 4.6450777053833007812 4.6272406578063964844 4.6142506599426269531 4.6060738563537597656 4.6002402305603027344 4.5975584983825683594 4.5982871055603027344 4.6029419898986816406 4.6128296852111816406 4.6272225379943847656 4.648380279541015625 4.6734161376953125 4.7057504653930664062 4.7408237457275390625 4.7830052375793457031 4.8262419700622558594 4.8768496513366699219 4.9277186393737792969 4.9863576889038085938 5.044391632080078125 5.110408782958984375 5.1742534637451171875 5.2445068359375 5.3097891807556152344 5.3789639472961425781 5.4406614303588867188 5.5035691261291503906 5.557735443115234375 5.6113638877868652344 5.6558990478515625 5.6981096267700195312 5.7311625480651855469 5.7603182792663574219 5.78105926513671875 5.79677581787109375 5.8050522804260253906 5.8072190284729003906 5.8030099868774414062 5.7919750213623046875 5.7759885787963867188 5.7528085708618164062 5.726093292236328125 5.6921567916870117188 5.6569414138793945312 5.6167750358581542969 5.5792489051818847656 5.5407881736755371094 5.5082268714904785156 5.4766793251037597656 5.4490041732788085938 5.4192395210266113281 5.3897452354431152344 5.354389190673828125 5.3167791366577148438 5.2724895477294921875 5.2293691635131835938 5.1837215423583984375 5.1434941291809082031 5.1050429344177246094 5.0725817680358886719 5.0436267852783203125 5.029453277587890625 5.0162343978881835938 5.0032711029052734375 4.9880123138427734375 4.9717731475830078125 4.95166015625 4.9294581413269042969 4.9019250869750976562 4.8720641136169433594 4.8369908332824707031 4.8027720451354980469 4.7676563262939453125 4.7378249168395996094 4.7121100425720214844 4.6947040557861328125 4.6825852394104003906 4.6750874519348144531 4.6691555976867675781 4.66339874267578125 4.6551594734191894531 4.6448979377746582031 4.63260650634765625 4.6208515167236328125 4.6097650527954101562 4.6017355918884277344 4.5965700149536132812 4.5935454368591308594 4.5902667045593261719 4.5851087570190429688 4.575405120849609375 4.5604352951049804688 4.5386719703674316406 4.5137882232666015625 4.4852795600891113281 4.4575796127319335938 4.4299516677856445312 4.4057216644287109375 4.3814830780029296875 4.3575897216796875 4.3299260139465332031 4.2991003990173339844 4.2607827186584472656 4.2186403274536132812 4.1710181236267089844 4.1239023208618164062 4.07559967041015625 4.0320086479187011719 3.9909207820892333984 3.9551262855529785156 3.9209206104278564453 3.8899984359741210938 3.8590664863586425781 3.8293297290802001953 3.7964456081390380859 3.7601730823516845703 3.7149393558502197266 3.6613130569458007812 3.592754364013671875 3.5132114887237548828 3.4191908836364746094 3.3197038173675537109 3.2109901905059814453 3.1027324199676513672 2.9895951747894287109 2.8752915859222412109 2.7459268569946289062 2.6027405261993408203 2.4300374984741210938 2.2320082187652587891 1.9971421957015991211 1.7480833530426025391 1.4829318523406982422 1.22733306884765625 0.97975611686706542969 0.76067680120468139648 0.55565756559371948242 0.36516669392585754395 0.10699678212404251099 0 0 0 0 0 0 0 0 0 0 0 0 0 0 0 0 0 0 0 0 0 0 0 0 0 0 0 0 0 
2.2964475154876708984 2.2879152297973632812 2.2824542522430419922 2.2618732452392578125 2.2408249378204345703 2.2658526897430419922 2.2779784202575683594 2.2365822792053222656 2.1996939182281494141 2.1997780799865722656 2.2179384231567382812 2.2326681613922119141 2.2429227828979492188 2.2361874580383300781 2.2165853977203369141 2.2041921615600585938 2.2133448123931884766 2.2096738815307617188 2.1667609214782714844 2.1284949779510498047 2.1497638225555419922 2.2520956993103027344 2.4228374958038330078 2.4847500324249267578 2.3035156726837158203 2.1809473037719726562 2.1767392158508300781 2.2036981582641601562 2.1655216217041015625 2.1315553188323974609 2.2276873588562011719 2.3095555305480957031 2.0916798114776611328 2.0722599029541015625 2.2247481346130371094 2.2562015056610107422 2.1812789440155029297 2.1171464920043945312 2.0582194328308105469 2.0081205368041992188 1.9579004049301147461 1.9154767990112304688 1.8071721792221069336 1.5028264522552490234 1.5042169094085693359 1.4660700559616088867 1.4375135898590087891 1.6222020387649536133 1.406811833381652832 1.2813873291015625 1.4527807235717773438 1.4268583059310913086 1.3761538267135620117 1.3238892555236816406 1.2709143161773681641 1.2211977243423461914 1.1714624166488647461 1.1223170757293701172 1.0682275295257568359 1.0178265571594238281 1.0803488492965698242 1.2311885356903076172 1.5647408962249755859 1.6329365968704223633 1.6366907358169555664 1.4577211141586303711 2.4095215797424316406 3.069454193115234375 3.0864443778991699219 2.9175660610198974609 2.5439870357513427734 2.1561238765716552734 1.7932494878768920898 1.9024565219879150391 2.2169127464294433594 1.9362826347351074219 1.3016930818557739258 1.0854060649871826172 1.0264822244644165039 0.97486680746078491211 0.95036685466766357422 1.021729588508605957 1.2259581089019775391 1.5251256227493286133 1.7796449661254882812 1.8655949831008911133 1.9116636514663696289 2.0153126716613769531 2.2257928848266601562 2.5111551284790039062 2.683452606201171875 2.7636766433715820312 2.8263037204742431641 2.8951675891876220703 2.9426379203796386719 2.9133422374725341797 2.77142333984375 2.3721308708190917969 1.9296573400497436523 1.609355926513671875 1.8383562564849853516 2.1381089687347412109 2.4387450218200683594 2.7112565040588378906 2.9830000400543212891 3.2289960384368896484 3.4720959663391113281 3.6908199787139892578 3.9081053733825683594 4.1014552116394042969 4.2883954048156738281 4.4467043876647949219 4.5835943222045898438 4.6740956306457519531 4.7482161521911621094 4.8141932487487792969 4.8792009353637695312 4.9196500778198242188 4.9308371543884277344 4.9402446746826171875 4.9535074234008789062 4.96685791015625 4.9796609878540039062 4.9901318550109863281 4.9825124740600585938 4.9738392829895019531 4.9523787498474121094 4.9181790351867675781 4.8700671195983886719 4.8185000419616699219 4.7625622749328613281 4.7138881683349609375 4.6708631515502929688 4.6403117179870605469 4.6172928810119628906 4.6032795906066894531 4.594760894775390625 4.5913252830505371094 4.5912060737609863281 4.5942182540893554688 4.600933074951171875 4.6106724739074707031 4.6249666213989257812 4.6421189308166503906 4.6646523475646972656 4.6896142959594726562 4.7205624580383300781 4.7532529830932617188 4.7919220924377441406 4.8311934471130371094 4.8772644996643066406 4.9241542816162109375 4.9793415069580078125 5.0354413986206054688 5.1012258529663085938 5.1665496826171875 5.2397665977478027344 5.3086338043212890625 5.3821086883544921875 5.4477663040161132812 5.5145244598388671875 5.571651458740234375 5.6276617050170898438 5.6734728813171386719 5.715850830078125 5.7478013038635253906 5.7746100425720214844 5.7925229072570800781 5.8049306869506835938 5.8103199005126953125 5.8099880218505859375 5.8042664527893066406 5.7924017906188964844 5.7762618064880371094 5.7534189224243164062 5.7273201942443847656 5.6942162513732910156 5.6598291397094726562 5.6204485893249511719 5.5831618309020996094 5.5443816184997558594 5.5112786293029785156 5.4793963432312011719 5.45151519775390625 5.421611785888671875 5.3922395706176757812 5.3574781417846679688 5.3209385871887207031 5.2780704498291015625 5.236083984375 5.1908788681030273438 5.1497516632080078125 5.1078124046325683594 5.0693359375 5.0353221893310546875 5.0157361030578613281 4.9982118606567382812 4.9821615219116210938 4.9650683403015136719 4.9482793807983398438 4.9283227920532226562 4.9066185951232910156 4.8795108795166015625 4.8495435714721679688 4.8136873245239257812 4.7783298492431640625 4.7419033050537109375 4.7110309600830078125 4.6847453117370605469 4.6675028800964355469 4.6562504768371582031 4.6500554084777832031 4.6458268165588378906 4.6418147087097167969 4.6353807449340820312 4.6266922950744628906 4.6158747673034667969 4.6053185462951660156 4.5952563285827636719 4.5879454612731933594 4.5832543373107910156 4.5804452896118164062 4.5771932601928710938 4.5719175338745117188 4.5619797706604003906 4.5467257499694824219 4.5246453285217285156 4.499485015869140625 4.4707584381103515625 4.4429616928100585938 4.4153966903686523438 4.3914313316345214844 4.367755889892578125 4.3447389602661132812 4.3184232711791992188 4.289363861083984375 4.2534241676330566406 4.2138953208923339844 4.1690092086791992188 4.1241602897644042969 4.0774407386779785156 4.0342831611633300781 3.9923577308654785156 3.95479583740234375 3.9181542396545410156 3.88470458984375 3.85137176513671875 3.8198442459106445312 3.7855975627899169922 3.7481746673583984375 3.7015624046325683594 3.6460735797882080078 3.57468414306640625 3.4915080070495605469 3.3932144641876220703 3.2896142005920410156 3.1772251129150390625 3.0664694309234619141 2.9522902965545654297 2.8384270668029785156 2.7107527256011962891 2.5699594020843505859 2.4000895023345947266 2.2048091888427734375 1.97248077392578125 1.7254822254180908203 1.4619017839431762695 1.20721435546875 0.95982706546783447266 0.74032551050186157227 0.53415530920028686523 0.34165859222412109375 0.095059059560298919678 0 0 0 0 0 0 0 0 0 0 0 0 0 0 0 0 0 0 0 0 0 0 0 0 0 0 0 0 0 
2.3015332221984863281 2.2932257652282714844 2.2883651256561279297 2.2740089893341064453 2.2603003978729248047 2.2877256870269775391 2.2693212032318115234 2.2242388725280761719 2.2086329460144042969 2.2227976322174072266 2.2499544620513916016 2.2564988136291503906 2.2476689815521240234 2.235111236572265625 2.2250244617462158203 2.2155416011810302734 2.2135107517242431641 2.1748919486999511719 2.1600317955017089844 2.2292239665985107422 2.3527388572692871094 2.5006108283996582031 2.4833986759185791016 2.3423571586608886719 2.2170765399932861328 2.1808831691741943359 2.216617584228515625 2.2061905860900878906 2.1606669425964355469 2.2351880073547363281 2.3734958171844482422 2.2444748878479003906 2.0669164657592773438 2.1458253860473632812 1.9841519594192504883 2.2320110797882080078 2.2088787555694580078 2.1510500907897949219 2.0933046340942382812 2.0438566207885742188 1.9946616888046264648 1.9493086338043212891 1.9076066017150878906 1.6426404714584350586 1.495913386344909668 1.4816592931747436523 1.4091550111770629883 1.5405689477920532227 1.3240807056427001953 1.2597004175186157227 1.214080810546875 1.4344559907913208008 1.4677978754043579102 1.4125407934188842773 1.3595014810562133789 1.3136227130889892578 1.2661446332931518555 1.2175551652908325195 1.169499516487121582 1.1200251579284667969 1.2842984199523925781 1.499016880989074707 1.5624592304229736328 1.7045259475708007812 1.5001522302627563477 2.0168890953063964844 2.9380483627319335938 3.3631508350372314453 3.6031210422515869141 3.6508586406707763672 3.334590911865234375 2.6393113136291503906 2.1834037303924560547 2.2939000129699707031 2.5337815284729003906 2.1822974681854248047 1.5003653764724731445 1.2209008932113647461 1.1367838382720947266 1.0641902685165405273 1.035920262336730957 1.129820704460144043 1.3543888330459594727 1.6411319971084594727 1.8756175041198730469 1.9131238460540771484 1.9463794231414794922 2.0559413433074951172 2.2954437732696533203 2.5632526874542236328 2.6844296455383300781 2.7556059360504150391 2.7948403358459472656 2.8745398521423339844 2.8620970249176025391 2.8495659828186035156 2.6480314731597900391 2.2876946926116943359 1.9047571420669555664 1.6355990171432495117 1.8757964372634887695 2.1788027286529541016 2.4818663597106933594 2.7556104660034179688 3.0282220840454101562 3.2740111351013183594 3.5163638591766357422 3.7351901531219482422 3.9527204036712646484 4.1461844444274902344 4.3324818611145019531 4.4854626655578613281 4.6009492874145507812 4.676540374755859375 4.7478761672973632812 4.8053741455078125 4.8426585197448730469 4.863346099853515625 4.8839063644409179688 4.9024081230163574219 4.9204382896423339844 4.9353075027465820312 4.9491038322448730469 4.9601116180419921875 4.941791534423828125 4.9280800819396972656 4.9044938087463378906 4.8706917762756347656 4.8251323699951171875 4.7773728370666503906 4.7262721061706542969 4.6821765899658203125 4.6433682441711425781 4.616306304931640625 4.5966982841491699219 4.5858292579650878906 4.5808787345886230469 4.5812420845031738281 4.5857968330383300781 4.5935425758361816406 4.6053051948547363281 4.6194033622741699219 4.6375780105590820312 4.65727996826171875 4.6812000274658203125 4.7062129974365234375 4.7359981536865234375 4.7666382789611816406 4.8023252487182617188 4.8382439613342285156 4.8804965019226074219 4.9240632057189941406 4.976413726806640625 5.0310029983520507812 5.0967884063720703125 5.1636142730712890625 5.2396836280822753906 5.3119511604309082031 5.3894639015197753906 5.4588446617126464844 5.5292510986328125 5.5891809463500976562 5.6473708152770996094 5.6942234039306640625 5.7364625930786132812 5.7669587135314941406 5.790935516357421875 5.8055157661437988281 5.8140726089477539062 5.8161368370056152344 5.8129687309265136719 5.8055667877197265625 5.7927799224853515625 5.7763991355895996094 5.7537398338317871094 5.7280550003051757812 5.6954793930053710938 5.6615519523620605469 5.6225743293762207031 5.5854830741882324219 5.5463404655456542969 5.5123758316040039062 5.4794740676879882812 5.4512281417846679688 5.4214067459106445312 5.3925232887268066406 5.3589310646057128906 5.3241572380065917969 5.2835288047790527344 5.2433633804321289062 5.1990408897399902344 5.1569571495056152344 5.1113033294677734375 5.067775726318359375 5.0288910865783691406 5.0031728744506835938 4.9802870750427246094 4.9601426124572753906 4.940212249755859375 4.9220800399780273438 4.9017047882080078125 4.8802433013916015625 4.853656768798828125 4.8240714073181152344 4.7883410453796386719 4.7529397010803222656 4.7164530754089355469 4.685657501220703125 4.6597566604614257812 4.6432590484619140625 4.6331553459167480469 4.6282796859741210938 4.6255731582641601562 4.6230139732360839844 4.6180124282836914062 4.6105237007141113281 4.6007843017578125 4.5910615921020507812 4.5816636085510253906 4.5747666358947753906 4.5702795982360839844 4.5674901008605957031 4.5641293525695800781 4.5586719512939453125 4.5485143661499023438 4.5330719947814941406 4.5108466148376464844 4.4856076240539550781 4.4568734169006347656 4.4291481971740722656 4.4017534255981445312 4.3780817985534667969 4.3549656867980957031 4.3328461647033691406 4.3079900741577148438 4.280948638916015625 4.2478470802307128906 4.2115225791931152344 4.1700258255004882812 4.1280198097229003906 4.0833001136779785156 4.0406956672668457031 3.9977087974548339844 3.9578952789306640625 3.9181356430053710938 3.8814299106597900391 3.8449687957763671875 3.8110587596893310547 3.7749521732330322266 3.7359566688537597656 3.6875247955322265625 3.6297006607055664062 3.5548641681671142578 3.4673104286193847656 3.363903045654296875 3.2553904056549072266 3.138607025146484375 3.024845123291015625 2.9093625545501708984 2.7958836555480957031 2.6699404716491699219 2.5317182540893554688 2.3648748397827148438 2.1724431514739990234 1.9426170587539672852 1.6974958181381225586 1.4351583719253540039 1.1809269189834594727 0.93312746286392211914 0.71239191293716430664 0.50456041097640991211 0.30952402949333190918 0.036573149263858795166 0 0 0 0 0 0 0 0 0 0 0 0 0 0 0 0 0 0 0 0 0 0 0 0 0 0 0 0 0 
2.3056733608245849609 2.2978165149688720703 2.2936360836029052734 2.2854120731353759766 2.2966191768646240234 2.3038649559020996094 2.2558515071868896484 2.2315969467163085938 2.2344915866851806641 2.2551980018615722656 2.2772340774536132812 2.2692334651947021484 2.2463910579681396484 2.2320287227630615234 2.2234158515930175781 2.2301385402679443359 2.2146084308624267578 2.1562106609344482422 2.1927056312561035156 2.3575313091278076172 2.5324130058288574219 2.4442412853240966797 2.3083930015563964844 2.2496886253356933594 2.2511987686157226562 2.2454822063446044922 2.2157804965972900391 2.1696763038635253906 2.2159733772277832031 2.3964247703552246094 2.3159933090209960938 2.1323823928833007812 2.1755137443542480469 2.1507461071014404297 2.0110633373260498047 2.0333120822906494141 2.1998331546783447266 2.1496195793151855469 2.13580322265625 2.0882194042205810547 2.0379550457000732422 1.9885778427124023438 1.8040030002593994141 1.5625097751617431641 1.5191855430603027344 1.509517669677734375 1.4714674949645996094 1.4586319923400878906 1.4142017364501953125 1.3366926908493041992 1.2750121355056762695 1.2513653039932250977 1.5390901565551757812 1.5054941177368164062 1.4576538801193237305 1.4114364385604858398 1.3649528026580810547 1.3185919523239135742 1.2742598056793212891 1.2383868694305419922 1.4923071861267089844 1.7106261253356933594 1.6747096776962280273 1.6800096035003662109 1.9177262783050537109 2.8282642364501953125 3.3815836906433105469 3.6520254611968994141 3.8460834026336669922 3.8065807819366455078 3.4218547344207763672 2.9349796772003173828 2.9757568836212158203 3.3249409198760986328 3.3476438522338867188 2.4953806400299072266 1.7248284816741943359 1.4356588125228881836 1.2568122148513793945 1.1630038022994995117 1.1508336067199707031 1.2673265933990478516 1.4883421659469604492 1.7434175014495849609 1.9408252239227294922 1.9658205509185791016 1.9931657314300537109 2.1136162281036376953 2.3613045215606689453 2.5958583354949951172 2.6979467868804931641 2.7469816207885742188 2.7694437503814697266 2.8361270427703857422 2.7878241539001464844 2.7744412422180175781 2.5363512039184570312 2.2236440181732177734 1.8906617164611816406 1.6645596027374267578 1.9154020547866821289 2.2226564884185791016 2.5288186073303222656 2.8043928146362304688 3.0783901214599609375 3.3238577842712402344 3.5665848255157470703 3.7868094444274902344 4.0061941146850585938 4.2015175819396972656 4.3868274688720703125 4.5184221267700195312 4.6194181442260742188 4.7436084747314453125 4.7976574897766113281 4.8295946121215820312 4.8532662391662597656 4.8706908226013183594 4.8849315643310546875 4.895603179931640625 4.9046010971069335938 4.9120950698852539062 4.9196858406066894531 4.9257235527038574219 4.9024028778076171875 4.8847332000732421875 4.860202789306640625 4.8277950286865234375 4.785694122314453125 4.7424330711364746094 4.6967096328735351562 4.6574511528015136719 4.6230878829956054688 4.5994710922241210938 4.5829572677612304688 4.574718475341796875 4.5725979804992675781 4.5759329795837402344 4.5841917991638183594 4.5957555770874023438 4.6116452217102050781 4.6293268203735351562 4.6506834030151367188 4.6724801063537597656 4.6976056098937988281 4.7228245735168457031 4.7518925666809082031 4.7810130119323730469 4.8143086433410644531 4.8474645614624023438 4.8865709304809570312 4.92742919921875 4.9775261878967285156 5.0310139656066894531 5.0970411300659179688 5.1654043197631835938 5.244205474853515625 5.3196706771850585938 5.4009656906127929688 5.4738063812255859375 5.5475559234619140625 5.6100020408630371094 5.6700530052185058594 5.7176189422607421875 5.7593069076538085938 5.7879486083984375 5.8086743354797363281 5.8195271492004394531 5.8238196372985839844 5.8222193717956542969 5.8159222602844238281 5.8066549301147460938 5.7928376197814941406 5.776195526123046875 5.7537255287170410156 5.7283844947814941406 5.69611358642578125 5.6623549461364746094 5.6234354972839355469 5.5862660408020019531 5.5468115806579589844 5.5120329856872558594 5.4778456687927246094 5.4486026763916015625 5.4187512397766113281 5.3905529975891113281 5.358448028564453125 5.3258152008056640625 5.2878394126892089844 5.2498068809509277344 5.2065720558166503906 5.1637248992919921875 5.114772796630859375 5.0670251846313476562 5.0231342315673828125 4.9910321235656738281 4.9621286392211914062 4.937305450439453125 4.9139037132263183594 4.8938889503479003906 4.87268829345703125 4.8512816429138183594 4.8252882957458496094 4.7964606285095214844 4.7615652084350585938 4.7269749641418457031 4.6914038658142089844 4.6615533828735351562 4.6367707252502441406 4.6214509010314941406 4.6126856803894042969 4.6091051101684570312 4.6077365875244140625 4.6063561439514160156 4.602447509765625 4.595821380615234375 4.5868029594421386719 4.5775866508483886719 4.56853485107421875 4.5617885589599609375 4.5572834014892578125 4.5543603897094726562 4.5507974624633789062 4.5451507568359375 4.5348629951477050781 4.5194139480590820312 4.4973163604736328125 4.4722929000854492188 4.443843841552734375 4.4164090156555175781 4.3892993927001953125 4.3659038543701171875 4.3432374000549316406 4.3218889236450195312 4.2984027862548828125 4.2733974456787109375 4.2433176040649414062 4.2105107307434082031 4.1727862358093261719 4.1339740753173828125 4.0915312767028808594 4.0495715141296386719 4.0053930282592773438 3.9630191326141357422 3.9196825027465820312 3.8792011737823486328 3.8390481472015380859 3.8022351264953613281 3.7637617588043212891 3.7227175235748291016 3.6719624996185302734 3.6112914085388183594 3.5324492454528808594 3.4399199485778808594 3.3307464122772216797 3.2167139053344726562 3.0949776172637939453 2.9777753353118896484 2.8606865406036376953 2.7474205493927001953 2.6230568885803222656 2.4872367382049560547 2.3233010768890380859 2.1335623264312744141 1.9059811830520629883 1.662404179573059082 1.4008982181549072266 1.1466675996780395508 0.89795529842376708984 0.67547708749771118164 0.4655431210994720459 0.26786971092224121094 0.013579233549535274506 0 0 0 0 0 0 0 0 0 0 0 0 0 0 0 0 0 0 0 0 0 0 0 0 0 0 0 0 0 
2.3075213432312011719 2.29801177978515625 2.2912180423736572266 2.2899732589721679688 2.3176476955413818359 2.3009107112884521484 2.2522892951965332031 2.2490000724792480469 2.2623548507690429688 2.2896301746368408203 2.2964839935302734375 2.2740836143493652344 2.2510364055633544922 2.2418155670166015625 2.2373270988464355469 2.2524638175964355469 2.2246413230895996094 2.1744289398193359375 2.2695670127868652344 2.5168576240539550781 2.4714214801788330078 2.3280963897705078125 2.2520608901977539062 2.2304811477661132812 2.2623493671417236328 2.2535595893859863281 2.1946446895599365234 2.2125189304351806641 2.3833112716674804688 2.3978278636932373047 2.2143375873565673828 2.2555453777313232422 2.3009016513824462891 2.1761727333068847656 2.0633106231689453125 1.975673675537109375 1.9111475944519042969 1.8682723045349121094 1.9143816232681274414 1.8664033412933349609 1.8214125633239746094 1.7736357450485229492 1.6360192298889160156 1.6024376153945922852 1.5734918117523193359 1.5515080690383911133 1.5242412090301513672 1.5004266500473022461 1.4417574405670166016 1.4019390344619750977 1.3575422763824462891 1.3004592657089233398 1.4552308320999145508 1.588059544563293457 1.545108795166015625 1.501633763313293457 1.4538445472717285156 1.4119015932083129883 1.3778955936431884766 1.3574590682983398438 1.5090582370758056641 1.8009184598922729492 1.5709134340286254883 1.685242772102355957 2.3409633636474609375 3.368198394775390625 3.8573749065399169922 3.9904391765594482422 4.0785551071166992188 3.8966555595397949219 3.6646337509155273438 3.2613017559051513672 3.4944128990173339844 3.7844624519348144531 3.5341677665710449219 2.8273708820343017578 2.2873036861419677734 2.0834438800811767578 1.7819111347198486328 1.4772005081176757812 1.4018986225128173828 1.4108686447143554688 1.6157021522521972656 1.856515049934387207 2.0125114917755126953 2.0172986984252929688 2.0394504070281982422 2.1882710456848144531 2.4247238636016845703 2.6310799121856689453 2.6931860446929931641 2.7085063457489013672 2.7372114658355712891 2.765117645263671875 2.7257933616638183594 2.685699462890625 2.4449343681335449219 2.1773593425750732422 1.8896684646606445312 1.6998945474624633789 1.9577506780624389648 2.26743316650390625 2.5757999420166015625 2.8535368442535400391 3.1287438869476318359 3.3737776279449462891 3.6185910701751708984 3.8419713973999023438 4.0660195350646972656 4.2676458358764648438 4.4375715255737304688 4.5173397064208984375 4.6441221237182617188 4.9832739830017089844 5.025562286376953125 5.0346455574035644531 5.0301775932312011719 5.0140600204467773438 4.9886727333068847656 4.9604649543762207031 4.9309558868408203125 4.907398223876953125 4.8885602951049804688 4.874225616455078125 4.8596358299255371094 4.8431048393249511719 4.8195500373840332031 4.78987884521484375 4.7521567344665527344 4.7138476371765136719 4.6736612319946289062 4.6392626762390136719 4.6093707084655761719 4.5891098976135253906 4.5754742622375488281 4.5695409774780273438 4.5697584152221679688 4.5754442214965820312 4.5865654945373535156 4.6010227203369140625 4.6199855804443359375 4.6403293609619140625 4.6640949249267578125 4.68752288818359375 4.7136182785034179688 4.7390398979187011719 4.7676286697387695312 4.7957062721252441406 4.8273668289184570312 4.8585228919982910156 4.8952283859252929688 4.9340085983276367188 4.9824438095092773438 5.0352411270141601562 5.1017432212829589844 5.1716585159301757812 5.2530231475830078125 5.3313946723937988281 5.4160561561584472656 5.4919304847717285156 5.5685467720031738281 5.6330342292785644531 5.6944308280944824219 5.7422666549682617188 5.7829732894897460938 5.8094091415405273438 5.8265891075134277344 5.8335452079772949219 5.8334455490112304688 5.8280940055847167969 5.8186016082763671875 5.8074188232421875 5.792514801025390625 5.7755446434020996094 5.7531890869140625 5.7281546592712402344 5.6961636543273925781 5.6624608039855957031 5.623363494873046875 5.5858669281005859375 5.5459160804748535156 5.5104742050170898438 5.4750995635986328125 5.4446001052856445312 5.4139866828918457031 5.38631439208984375 5.3556690216064453125 5.3251476287841796875 5.289794921875 5.2538919448852539062 5.2118849754333496094 5.1685976982116699219 5.1168150901794433594 5.0655665397644042969 5.0169515609741210938 4.9788689613342285156 4.9439969062805175781 4.9144830703735351562 4.8874912261962890625 4.8654165267944335938 4.8432102203369140625 4.8217511177062988281 4.7963800430297851562 4.7685313224792480469 4.7349133491516113281 4.7016763687133789062 4.6676392555236816406 4.6392731666564941406 4.6160430908203125 4.6021251678466796875 4.5947427749633789062 4.5923547744750976562 4.5921025276184082031 4.5916228294372558594 4.588481903076171875 4.5824117660522460938 4.5738124847412109375 4.5648474693298339844 4.555912017822265625 4.54914093017578125 4.5444774627685546875 4.5413389205932617188 4.5375571250915527344 4.5317826271057128906 4.5215239524841308594 4.5063190460205078125 4.4846901893615722656 4.4602303504943847656 4.4323935508728027344 4.4054708480834960938 4.3787240982055664062 4.3555116653442382812 4.3330583572387695312 4.3121776580810546875 4.2897214889526367188 4.2664599418640136719 4.23918914794921875 4.2097949981689453125 4.1758084297180175781 4.1401906013488769531 4.1000614166259765625 4.0587825775146484375 4.0134215354919433594 3.9684514999389648438 3.9214391708374023438 3.8770163059234619141 3.8329074382781982422 3.7928431034088134766 3.7515611648559570312 3.7079987525939941406 3.6544272899627685547 3.5904629230499267578 3.5072259902954101562 3.40944671630859375 3.2942776679992675781 3.1745216846466064453 3.0476291179656982422 2.9267668724060058594 2.8078007698059082031 2.69443511962890625 2.5712766647338867188 2.4373891353607177734 2.2757732868194580078 2.0881886482238769531 1.8623094558715820312 1.619752049446105957 1.3585686683654785156 1.1039031744003295898 0.85391968488693237305 0.6294708251953125 0.41736564040184020996 0.20524290204048156738 0.0073405397124588489532 0 0 0 0 0 0 0 0 0 0 0 0 0 0 0 0 0 0 0 0 0 0 0 0 0 0 0 0 0 
2.3072659969329833984 2.28925323486328125 2.2722494602203369141 2.2958390712738037109 2.3256037235260009766 2.2899303436279296875 2.2571406364440917969 2.2632219791412353516 2.2831468582153320312 2.3147726058959960938 2.3090741634368896484 2.2829043865203857422 2.2613685131072998047 2.2526021003723144531 2.2632222175598144531 2.2675173282623291016 2.2203936576843261719 2.1923992633819580078 2.3395667076110839844 2.5863773822784423828 2.4169154167175292969 2.2899973392486572266 2.2615332603454589844 2.248928070068359375 2.2534682750701904297 2.2264654636383056641 2.2232403755187988281 2.3748328685760498047 2.4440665245056152344 2.2512965202331542969 2.223674774169921875 2.4494986534118652344 2.3532359600067138672 2.2296729087829589844 2.139247894287109375 2.0652294158935546875 2.0061347484588623047 1.9540090560913085938 1.8996646404266357422 1.857294917106628418 1.8184522390365600586 1.7748759984970092773 1.7345535755157470703 1.691077113151550293 1.6496946811676025391 1.614865422248840332 1.603926539421081543 1.6034363508224487305 1.5678038597106933594 1.5187640190124511719 1.4655704498291015625 1.4121929407119750977 1.3927412033081054688 1.6144530773162841797 1.6316852569580078125 1.5888670682907104492 1.5441298484802246094 1.501974940299987793 1.4757006168365478516 1.4671792984008789062 1.4424003362655639648 1.8636279106140136719 1.5887018442153930664 2.1757855415344238281 2.9144103527069091797 3.8142125606536865234 4.2026677131652832031 4.2961554527282714844 4.1940627098083496094 3.8844220638275146484 3.7999393939971923828 3.6494481563568115234 3.9556679725646972656 4.0405979156494140625 3.6082403659820556641 2.7567057609558105469 2.3635816574096679688 2.1835258007049560547 2.0466744899749755859 1.9417958259582519531 1.9296478033065795898 1.9897463321685791016 1.9753578901290893555 2.0420424938201904297 2.1151692867279052734 2.0588881969451904297 2.0966484546661376953 2.2655458450317382812 2.4855089187622070312 2.6639094352722167969 2.6771864891052246094 2.6595020294189453125 2.7105967998504638672 2.6910116672515869141 2.6691911220550537109 2.6028220653533935547 2.3770344257354736328 2.1491994857788085938 1.9032932519912719727 1.7474285364151000977 2.0118811130523681641 2.3213815689086914062 2.6270127296447753906 2.9025118350982666016 3.1726515293121337891 3.4150371551513671875 3.6603026390075683594 3.8848123550415039062 4.1075572967529296875 4.2773385047912597656 4.3694863319396972656 4.4332804679870605469 4.57027435302734375 4.9596233367919921875 5.0108728408813476562 5.024929046630859375 5.0212807655334472656 5.0021557807922363281 4.970851898193359375 4.9359755516052246094 4.8995752334594726562 4.8705525398254394531 4.8474187850952148438 4.8306202888488769531 4.8149585723876953125 4.7992796897888183594 4.7785124778747558594 4.7531123161315917969 4.7211937904357910156 4.6889791488647460938 4.6552057266235351562 4.626194000244140625 4.6010141372680664062 4.5841627120971679688 4.5733880996704101562 4.5696711540222167969 4.5720009803771972656 4.5796413421630859375 4.5929555892944335938 4.6095156669616699219 4.6306614875793457031 4.6528620719909667969 4.6782765388488769531 4.7028241157531738281 4.7296276092529296875 4.7552475929260253906 4.783550262451171875 4.8109126091003417969 4.8414492607116699219 4.8712906837463378906 4.9064440727233886719 4.9438376426696777344 4.9911799430847167969 5.0436806678771972656 5.1109037399291992188 5.1824188232421875 5.2662224769592285156 5.3472347259521484375 5.4348349571228027344 5.5132350921630859375 5.5920920372009277344 5.6580247879028320312 5.7201094627380371094 5.7676362991333007812 5.8068413734436035156 5.8307242393493652344 5.8441066741943359375 5.8470373153686523438 5.8425297737121582031 5.8334650993347167969 5.82082366943359375 5.8077545166015625 5.7917728424072265625 5.7744545936584472656 5.7521567344665527344 5.7273378372192382812 5.6955218315124511719 5.6618518829345703125 5.6225953102111816406 5.5846891403198242188 5.544055938720703125 5.5078368186950683594 5.471439361572265625 5.4396734237670898438 5.4077653884887695312 5.3797459602355957031 5.35019683837890625 5.3214707374572753906 5.2884001731872558594 5.2544221878051757812 5.2135992050170898438 5.1699643135070800781 5.1158070564270019531 5.0617885589599609375 5.009052276611328125 4.9657840728759765625 4.9255080223083496094 4.8917193412780761719 4.8613915443420410156 4.8373508453369140625 4.814151763916015625 4.7926168441772460938 4.7678790092468261719 4.7411141395568847656 4.7090020179748535156 4.6774029731750488281 4.6452202796936035156 4.6186084747314453125 4.5971288681030273438 4.5846781730651855469 4.5786271095275878906 4.57729339599609375 4.5779595375061035156 4.5781865119934082031 4.5756268501281738281 4.5699429512023925781 4.5615758895874023438 4.5526747703552246094 4.5436606407165527344 4.5366969108581542969 4.5317354202270507812 4.5283064842224121094 4.5243158340454101562 4.5185232162475585938 4.5085382461547851562 4.4939422607421875 4.4732680320739746094 4.4498586654663085938 4.4230818748474121094 4.3969578742980957031 4.37064361572265625 4.3474173545837402344 4.32474517822265625 4.3037848472595214844 4.2817387580871582031 4.2596497535705566406 4.2346653938293457031 4.2082734107971191406 4.1776971817016601562 4.145050048828125 4.1071038246154785156 4.0665097236633300781 4.02007293701171875 3.9726536273956298828 3.9220986366271972656 3.8737788200378417969 3.8256072998046875 3.7819941043853759766 3.7374174594879150391 3.6907739639282226562 3.6337912082672119141 3.5660288333892822266 3.4780290126800537109 3.3748242855072021484 3.2536301612854003906 3.1281671524047851562 2.9960856437683105469 2.8714272975921630859 2.7502710819244384766 2.6363396644592285156 2.5137708187103271484 2.3811259269714355469 2.2210047245025634766 2.0346670150756835938 1.8096343278884887695 1.5673878192901611328 1.3059206008911132812 1.0503749847412109375 0.79885655641555786133 0.57240843772888183594 0.35831293463706970215 0.13059501349925994873 0 0 0 0 0 0 0 0 0 0 0 0 0 0 0 0 0 0 0 0 0 0 0 0 0 0 0 0 0 0 
2.3078358173370361328 2.2814133167266845703 2.2606682777404785156 2.3035795688629150391 2.3336489200592041016 2.2924687862396240234 2.2694833278656005859 2.2770094871520996094 2.2991671562194824219 2.3295335769653320312 2.3152019977569580078 2.2925441265106201172 2.2773239612579345703 2.2737469673156738281 2.2863099575042724609 2.2693624496459960938 2.2049591541290283203 2.2194623947143554688 2.4105188846588134766 2.6074814796447753906 2.4074194431304931641 2.2880637645721435547 2.2977025508880615234 2.2913255691528320312 2.2513563632965087891 2.2480535507202148438 2.3557419776916503906 2.4792952537536621094 2.315704345703125 2.2289478778839111328 2.3883724212646484375 2.5477929115295410156 2.3949732780456542969 2.2955813407897949219 2.211841583251953125 2.1435399055480957031 2.0876829624176025391 2.0387725830078125 1.9937170743942260742 1.9621777534484863281 1.9271519184112548828 1.873287200927734375 1.8188358545303344727 1.7737739086151123047 1.7399349212646484375 1.7167207002639770508 1.7064555883407592773 1.7513207197189331055 1.737481236457824707 1.6849747896194458008 1.6042520999908447266 1.5301694869995117188 1.4665313959121704102 1.3970657587051391602 1.6330238580703735352 1.6787698268890380859 1.6369044780731201172 1.5987492799758911133 1.567956089973449707 1.5654844045639038086 1.5161569118499755859 2.2636678218841552734 2.749515533447265625 2.7659816741943359375 3.4616460800170898438 4.252544403076171875 4.5463781356811523438 4.5253396034240722656 4.3005456924438476562 3.9593403339385986328 3.8899221420288085938 4.1494359970092773438 4.5036706924438476562 4.1184668540954589844 3.3270499706268310547 2.7792124748229980469 2.4661684036254882812 2.2891967296600341797 2.1636748313903808594 2.0642130374908447266 2.078716278076171875 2.1827003955841064453 2.3330721855163574219 2.4827361106872558594 2.4723758697509765625 2.3318500518798828125 2.2404532432556152344 2.3557779788970947266 2.5341444015502929688 2.6669993400573730469 2.6523740291595458984 2.6173415184020996094 2.6746075153350830078 2.6246843338012695312 2.6052935123443603516 2.5149924755096435547 2.3312962055206298828 2.1402630805969238281 1.9334596395492553711 1.8094608783721923828 2.0814723968505859375 2.3906197547912597656 2.6931984424591064453 2.9622104167938232422 3.2230105400085449219 3.4620501995086669922 3.6991152763366699219 3.9034945964813232422 4.0680599212646484375 4.16951751708984375 4.2599534988403320312 4.3371615409851074219 4.4925312995910644531 4.9340486526489257812 4.9939846992492675781 5.0102672576904296875 5.0049071311950683594 4.9816803932189941406 4.9445767402648925781 4.9039554595947265625 4.8619747161865234375 4.8288645744323730469 4.8030533790588378906 4.7853140830993652344 4.77025604248046875 4.7565855979919433594 4.7393703460693359375 4.7185235023498535156 4.6923875808715820312 4.6661376953125 4.6387729644775390625 4.6155352592468261719 4.5958108901977539062 4.5831079483032226562 4.5756978988647460938 4.57436370849609375 4.5787434577941894531 4.5880403518676757812 4.6029753684997558594 4.6209402084350585938 4.6434354782104492188 4.6667218208312988281 4.6930727958679199219 4.7182536125183105469 4.7454600334167480469 4.7712101936340332031 4.7993998527526855469 4.8263874053955078125 4.8562684059143066406 4.8853421211242675781 4.9196228981018066406 4.9563593864440917969 5.0033178329467773438 5.0559420585632324219 5.1241092681884765625 5.1972393989562988281 5.2832980155944824219 5.3666090965270996094 5.4566049575805664062 5.5368781089782714844 5.6171422004699707031 5.6837029457092285156 5.7456526756286621094 5.792205810546875 5.8293614387512207031 5.8504285812377929688 5.8599796295166015625 5.8590068817138671875 5.8503208160400390625 5.8378229141235351562 5.8223118782043457031 5.8075380325317382812 5.7905917167663574219 5.7729692459106445312 5.7507262229919433594 5.7260861396789550781 5.6943802833557128906 5.6606655120849609375 5.6212167739868164062 5.5829977989196777344 5.5417647361755371094 5.5046863555908203125 5.4672021865844726562 5.4342679977416992188 5.4008603096008300781 5.3716039657592773438 5.3420057296752929688 5.3144130706787109375 5.28292083740234375 5.2502837181091308594 5.2102117538452148438 5.1661691665649414062 5.1101727485656738281 5.0542654991149902344 4.9985423088073730469 4.951416015625 4.9070119857788085938 4.8699383735656738281 4.8370223045349121094 4.8114442825317382812 4.7874798774719238281 4.7659287452697753906 4.7417960166931152344 4.7160658836364746094 4.6854181289672851562 4.6554231643676757812 4.6250505447387695312 4.6001305580139160156 4.5802960395812988281 4.5691814422607421875 4.5643343925476074219 4.5639715194702148438 4.5654683113098144531 4.566265106201171875 4.5640664100646972656 4.5585222244262695312 4.5501227378845214844 4.5410547256469726562 4.5317540168762207031 4.5244436264038085938 4.5190830230712890625 4.5153355598449707031 4.5111989974975585938 4.5055556297302246094 4.4961519241333007812 4.4825930595397949219 4.4634289741516113281 4.4416232109069824219 4.4164209365844726562 4.3914432525634765625 4.3656821250915527344 4.3422803878784179688 4.3189473152160644531 4.2972636222839355469 4.2747635841369628906 4.2529087066650390625 4.2292189598083496094 4.2049617767333984375 4.1770415306091308594 4.1468143463134765625 4.1106920242309570312 4.0707149505615234375 4.023441314697265625 3.9739873409271240234 3.9203782081604003906 3.868560791015625 3.8165280818939208984 3.7692608833312988281 3.7209992408752441406 3.6707539558410644531 3.6098113059997558594 3.53784942626953125 3.4449346065521240234 3.3364548683166503906 3.209598541259765625 3.0788547992706298828 2.9419426918029785156 2.8135912418365478516 2.6899871826171875 2.5749042034149169922 2.4520649909973144531 2.3196682929992675781 2.1599466800689697266 1.9737794399261474609 1.7484686374664306641 1.5055612325668334961 1.2430809736251831055 0.98624122142791748047 0.733081817626953125 0.50486618280410766602 0.28938594460487365723 0.076158881187438964844 0 0 0 0 0 0 0 0 0 0 0 0 0 0 0 0 0 0 0 0 0 0 0 0 0 0 0 0 0 0 
2.3084194660186767578 2.2810382843017578125 2.2703824043273925781 2.3229229450225830078 2.3386270999908447266 2.2997553348541259766 2.2838923931121826172 2.2954716682434082031 2.3178853988647460938 2.33933258056640625 2.3208761215209960938 2.3002123832702636719 2.2914655208587646484 2.2978560924530029297 2.2969005107879638672 2.2526600360870361328 2.2125983238220214844 2.2909631729125976562 2.4940297603607177734 2.5281994342803955078 2.3625292778015136719 2.2922277450561523438 2.3145048618316650391 2.3034965991973876953 2.27663421630859375 2.3496758937835693359 2.5010046958923339844 2.3764412403106689453 2.2432456016540527344 2.2933800220489501953 2.501735687255859375 2.5781848430633544922 2.4452319145202636719 2.3539407253265380859 2.2779047489166259766 2.2238156795501708984 2.1714296340942382812 2.1157929897308349609 2.0759718418121337891 2.0427870750427246094 1.9997962713241577148 1.9386801719665527344 1.8865561485290527344 1.8543709516525268555 1.8378633260726928711 1.8339828252792358398 1.8472141027450561523 1.8523896932601928711 1.8305654525756835938 1.7963137626647949219 1.7325699329376220703 1.6640294790267944336 1.6071214675903320312 1.5182919502258300781 1.5022484064102172852 1.7290825843811035156 1.736548304557800293 1.7044765949249267578 1.6717789173126220703 1.6700699329376220703 1.8094335794448852539 2.4783475399017333984 2.9616696834564208984 2.875911712646484375 4.0327267646789550781 4.6242990493774414062 4.764759063720703125 4.7119126319885253906 4.4151997566223144531 4.1630768775939941406 4.1621232032775878906 4.5199418067932128906 4.7223567962646484375 4.4059057235717773438 3.3857657909393310547 2.8538599014282226562 2.6152324676513671875 2.4452726840972900391 2.3093400001525878906 2.2127432823181152344 2.2319152355194091797 2.3363044261932373047 2.497577667236328125 2.6227176189422607422 2.5656185150146484375 2.4998772144317626953 2.530559539794921875 2.6592822074890136719 2.7661721706390380859 2.7208275794982910156 2.6315207481384277344 2.6074750423431396484 2.6218597888946533203 2.54767608642578125 2.5341796875 2.4590048789978027344 2.3079276084899902344 2.1531307697296142578 1.9857503175735473633 1.8932080268859863281 2.1741538047790527344 2.48278045654296875 2.7807509899139404297 3.0371618270874023438 3.2849700450897216797 3.4990215301513671875 3.6994028091430664062 3.85059356689453125 3.9729356765747070312 4.0760211944580078125 4.1732363700866699219 4.2554368972778320312 4.42562103271484375 4.9119963645935058594 4.975727081298828125 4.9901800155639648438 4.9811768531799316406 4.9532704353332519531 4.9110155105590820312 4.865772247314453125 4.819732666015625 4.7841000556945800781 4.7572717666625976562 4.7400441169738769531 4.7268900871276855469 4.7161412239074707031 4.7030229568481445312 4.6868033409118652344 4.6661500930786132812 4.6453599929809570312 4.6238150596618652344 4.6059393882751464844 4.5915799140930175781 4.5834612846374511719 4.5803785324096679688 4.5824007987976074219 4.5894155502319335938 4.6003947257995605469 4.616588592529296875 4.6353898048400878906 4.6585054397583007812 4.6821880340576171875 4.7088479995727539062 4.7342753410339355469 4.7617139816284179688 4.7876162528991699219 4.8158640861511230469 4.8427958488464355469 4.8724884986877441406 4.9013261795043945312 4.9353361129760742188 4.97196197509765625 5.0191407203674316406 5.0724072456359863281 5.1417970657348632812 5.2165493965148925781 5.3046708106994628906 5.3899178504943847656 5.4817223548889160156 5.5631465911865234375 5.6438765525817871094 5.71012115478515625 5.77094268798828125 5.815746307373046875 5.8502440452575683594 5.8681926727294921875 5.8738827705383300781 5.8691821098327636719 5.8566217422485351562 5.8409981727600097656 5.8229389190673828125 5.8066854476928710938 5.7889356613159179688 5.7711033821105957031 5.7489800453186035156 5.7245697975158691406 5.6930370330810546875 5.6593370437622070312 5.6197357177734375 5.5812153816223144531 5.5394797325134277344 5.5016727447509765625 5.4629831314086914062 5.4287037849426269531 5.3935794830322265625 5.3625164031982421875 5.3313131332397460938 5.3036298751831054688 5.2727222442626953125 5.2405862808227539062 5.2006387710571289062 5.1560192108154296875 5.0987019538879394531 5.0418505668640136719 4.9844431877136230469 4.9349904060363769531 4.8880171775817871094 4.8488993644714355469 4.8143768310546875 4.7878670692443847656 4.7634959220886230469 4.7420563697814941406 4.7185039520263671875 4.6936945915222167969 4.6643347740173339844 4.6357431411743164062 4.6069402694702148438 4.58348846435546875 4.565151214599609375 4.5553331375122070312 4.5516271591186523438 4.5520806312561035156 4.5541625022888183594 4.5552759170532226562 4.5531830787658691406 4.5475492477416992188 4.5388932228088378906 4.5294680595397949219 4.5197091102600097656 4.5119252204895019531 4.5060811042785644531 4.5019946098327636719 4.4977807998657226562 4.4924588203430175781 4.48395538330078125 4.4718813896179199219 4.4548096656799316406 4.4351840019226074219 4.4120860099792480469 4.3885989189147949219 4.3634867668151855469 4.3396964073181152344 4.3151946067810058594 4.2920932769775390625 4.2682623863220214844 4.2456984519958496094 4.2222385406494140625 4.1990609169006347656 4.1727795600891113281 4.14422607421875 4.1094837188720703125 4.0700240135192871094 4.0221705436706542969 3.9711654186248779297 3.9150798320770263672 3.8602411746978759766 3.8046019077301025391 3.7535774707794189453 3.7011957168579101562 3.6467592716217041016 3.5812358856201171875 3.5046181678771972656 3.4066233634948730469 3.2930507659912109375 3.1609528064727783203 3.0253968238830566406 2.8840405941009521484 2.7521207332611083984 2.6257786750793457031 2.5088701248168945312 2.3847756385803222656 2.2515189647674560547 2.0910253524780273438 1.9039794206619262695 1.6774843931198120117 1.4331763982772827148 1.1690741777420043945 0.91057771444320678711 0.65574193000793457031 0.42606648802757263184 0.20981603860855102539 0.025694131851196289062 0 0 0 0 0 0 0 0 0 0 0 0 0 0 0 0 0 0 0 0 0 0 0 0 0 0 0 0 0 0 
2.3085448741912841797 2.2789857387542724609 2.2778351306915283203 2.3349616527557373047 2.3391666412353515625 2.3012158870697021484 2.2910301685333251953 2.3117597103118896484 2.3374164104461669922 2.3483219146728515625 2.3244082927703857422 2.3073668479919433594 2.3038766384124755859 2.3075010776519775391 2.2833340167999267578 2.237255096435546875 2.2876324653625488281 2.4589288234710693359 2.5463552474975585938 2.4113757610321044922 2.3019587993621826172 2.2652130126953125 2.2607107162475585938 2.2861499786376953125 2.3486049175262451172 2.5142314434051513672 2.4471216201782226562 2.2758276462554931641 2.2987465858459472656 2.3725097179412841797 2.5616114139556884766 2.6006143093109130859 2.4970698356628417969 2.4054563045501708984 2.3372519016265869141 2.2972996234893798828 2.2513597011566162109 2.1956121921539306641 2.1585874557495117188 2.1182270050048828125 2.0558903217315673828 1.9978747367858886719 1.9545971155166625977 1.9381248950958251953 1.9320218563079833984 1.9685409069061279297 1.9854680299758911133 1.9526087045669555664 1.9204473495483398438 1.8889744281768798828 1.8321951627731323242 1.7727518081665039062 1.7269444465637207031 1.6565662622451782227 1.5449135303497314453 1.6525089740753173828 1.7550731897354125977 1.813832402229309082 1.9482423067092895508 2.164043426513671875 2.3781638145446777344 2.7193484306335449219 2.9499955177307128906 3.3797066211700439453 4.5297861099243164062 4.8813066482543945312 4.9355020523071289062 4.8295483589172363281 4.4963326454162597656 4.3465085029602050781 4.4101500511169433594 4.8186726570129394531 4.7159671783447265625 4.3531136512756347656 3.4229831695556640625 2.9752440452575683594 2.7639973163604736328 2.5986652374267578125 2.469402313232421875 2.3866255283355712891 2.411190032958984375 2.5210616588592529297 2.6832838058471679688 2.7475430965423583984 2.6448149681091308594 2.5861661434173583984 2.6617841720581054688 2.8056058883666992188 2.8654570579528808594 2.7945096492767333984 2.6845798492431640625 2.6458077430725097656 2.5650877952575683594 2.4713048934936523438 2.4795684814453125 2.4247710704803466797 2.306758880615234375 2.1903553009033203125 2.0647420883178710938 2.0044939517974853516 2.2954065799713134766 2.6009514331817626953 2.8701519966125488281 3.0886027812957763672 3.2940771579742431641 3.4737398624420166016 3.6331739425659179688 3.7610428333282470703 3.8840105533599853516 3.9904527664184570312 4.09137725830078125 4.1784152984619140625 4.3617334365844726562 4.8860607147216796875 4.9501161575317382812 4.961528778076171875 4.9485635757446289062 4.9169392585754394531 4.8711428642272949219 4.8231654167175292969 4.7751822471618652344 4.7389025688171386719 4.7127561569213867188 4.6973161697387695312 4.6870646476745605469 4.679828643798828125 4.6710109710693359375 4.6591830253601074219 4.6434221267700195312 4.6273670196533203125 4.6108832359313964844 4.5977678298950195312 4.5883502960205078125 4.5846428871154785156 4.5858716964721679688 4.5914907455444335938 4.6017727851867675781 4.6150360107421875 4.632579803466796875 4.651836395263671875 4.675022125244140625 4.6986002922058105469 4.7251491546630859375 4.7506175041198730469 4.7782979011535644531 4.8045477867126464844 4.8332123756408691406 4.860500335693359375 4.8904929161071777344 4.9196219444274902344 4.9539699554443359375 4.990993499755859375 5.0388207435607910156 5.0930166244506835938 5.16382598876953125 5.2401118278503417969 5.3298974037170410156 5.4165291786193847656 5.5093841552734375 5.5911288261413574219 5.6713361740112304688 5.7363338470458984375 5.79509735107421875 5.837444305419921875 5.8687977790832519531 5.8834848403930664062 5.8854360580444335938 5.8773202896118164062 5.8613409996032714844 5.8430218696594238281 5.8227953910827636719 5.8053278923034667969 5.7869749069213867188 5.7690725326538085938 5.7472167015075683594 5.723209381103515625 5.6921067237854003906 5.6587047576904296875 5.6192421913146972656 5.5806217193603515625 5.5384640693664550781 5.4999208450317382812 5.4600267410278320312 5.4241428375244140625 5.3869099617004394531 5.3535113334655761719 5.3196587562561035156 5.2901048660278320312 5.2586255073547363281 5.2261838912963867188 5.1857819557189941406 5.1404390335083007812 5.0822625160217285156 5.02533721923828125 4.9674038887023925781 4.9170184135437011719 4.8689332008361816406 4.8289384841918945312 4.7937612533569335938 4.7669310569763183594 4.7425384521484375 4.7213640213012695312 4.698383331298828125 4.6743669509887695312 4.6460723876953125 4.6186242103576660156 4.5911860466003417969 4.5691270828247070312 4.5521707534790039062 4.5434126853942871094 4.540554046630859375 4.5415658950805664062 4.5439953804016113281 4.5452213287353515625 4.5430364608764648438 4.5371417999267578125 4.5280675888061523438 4.518146514892578125 4.5078015327453613281 4.4994373321533203125 4.4930219650268554688 4.4885406494140625 4.4842352867126464844 4.4792804718017578125 4.4718022346496582031 4.4614148139953613281 4.4467120170593261719 4.4295401573181152344 4.4087872505187988281 4.3869242668151855469 4.3624434471130371094 4.3380703926086425781 4.3120169639587402344 4.2869896888732910156 4.2611722946166992188 4.2371859550476074219 4.2131590843200683594 4.1903018951416015625 4.1649031639099121094 4.1373419761657714844 4.1034340858459472656 4.0642986297607421875 4.0160198211669921875 3.9638381004333496094 3.9057669639587402344 3.8483431339263916016 3.7893815040588378906 3.7346189022064208984 3.6778950691223144531 3.6189358234405517578 3.5484948158264160156 3.4670200347900390625 3.363986968994140625 3.2456367015838623047 3.1087994575500488281 2.9689457416534423828 2.8235535621643066406 2.688205718994140625 2.55890655517578125 2.4396519660949707031 2.3135752677917480469 2.1787073612213134766 2.0167720317840576172 1.8284385204315185547 1.6006667613983154297 1.3551437854766845703 1.0898184776306152344 0.83014947175979614258 0.57413899898529052734 0.34347212314605712891 0.12706607580184936523 0.0035858517512679100037 0 0 0 0 0 0 0 0 0 0 0 0 0 0 0 0 0 0 0 0 0 0 0 0 0 0 0 0 0 0 
2.3099577426910400391 2.29553985595703125 2.2897698879241943359 2.3397498130798339844 2.3321313858032226562 2.3006596565246582031 2.3020627498626708984 2.3259577751159667969 2.3520829677581787109 2.3521211147308349609 2.3288061618804931641 2.3199009895324707031 2.3124237060546875 2.2896530628204345703 2.2521309852600097656 2.3006110191345214844 2.4782621860504150391 2.6107261180877685547 2.4498305320739746094 2.3171031475067138672 2.2772855758666992188 2.2646687030792236328 2.2665319442749023438 2.3262436389923095703 2.5023169517517089844 2.5081870555877685547 2.3161921501159667969 2.3109314441680908203 2.3414278030395507812 2.4263849258422851562 2.5958859920501708984 2.6216883659362792969 2.5420742034912109375 2.4631869792938232422 2.4025588035583496094 2.3644258975982666016 2.3275127410888671875 2.2711725234985351562 2.2275304794311523438 2.1860115528106689453 2.1323213577270507812 2.0959279537200927734 2.0513064861297607422 1.9935225248336791992 2.0396184921264648438 2.1201827526092529297 2.1012830734252929688 2.0629074573516845703 2.0282433032989501953 1.9899532794952392578 1.9485459327697753906 1.8941229581832885742 1.8330751657485961914 1.7804204225540161133 1.7096691131591796875 1.624590754508972168 1.6171252727508544922 2.2374868392944335938 2.5197980403900146484 2.5681200027465820312 2.5377888679504394531 2.8038401603698730469 3.0626196861267089844 3.7461373805999755859 4.8172097206115722656 5.0450806617736816406 5.072216033935546875 4.8496408462524414062 4.5461101531982421875 4.4474663734436035156 4.644283294677734375 5.1431665420532226562 4.8494505882263183594 4.2420849800109863281 3.4374790191650390625 3.1180021762847900391 2.9248704910278320312 2.7666621208190917969 2.6369898319244384766 2.5852591991424560547 2.6407067775726318359 2.7364068031311035156 2.8360533714294433594 2.8418111801147460938 2.7464115619659423828 2.6967384815216064453 2.8076937198638916016 2.9270713329315185547 2.8935782909393310547 2.8236870765686035156 2.7170996665954589844 2.6874363422393798828 2.5491313934326171875 2.4566843509674072266 2.4524374008178710938 2.3870377540588378906 2.3137643337249755859 2.2493910789489746094 2.1753003597259521484 2.1576509475708007812 2.4349536895751953125 2.6568880081176757812 2.8485314846038818359 3.0289037227630615234 3.2164428234100341797 3.3775179386138916016 3.5277905464172363281 3.8075826168060302734 4.215595245361328125 4.3276629447937011719 4.4326715469360351562 4.5203828811645507812 4.6330976486206054688 4.8687062263488769531 4.9159331321716308594 4.9239053726196289062 4.9073276519775390625 4.8728308677673339844 4.8247036933898925781 4.7753973007202148438 4.7271566390991210938 4.6919116973876953125 4.6681637763977050781 4.6559586524963378906 4.6497941017150878906 4.6467332839965820312 4.6424498558044433594 4.6348743438720703125 4.6235947608947753906 4.611724853515625 4.5996880531311035156 4.5908255577087402344 4.5859923362731933594 4.5865116119384765625 4.5919933319091796875 4.6012330055236816406 4.6148123741149902344 4.6304836273193359375 4.6497483253479003906 4.6697525978088378906 4.6928958892822265625 4.7161121368408203125 4.7423806190490722656 4.7679142951965332031 4.7960734367370605469 4.8230586051940917969 4.8526926040649414062 4.8809375762939453125 4.9118895530700683594 4.9418511390686035156 4.9771442413330078125 5.0150723457336425781 5.063938140869140625 5.1192226409912109375 5.1913914680480957031 5.269012451171875 5.3599939346313476562 5.4473137855529785156 5.5403165817260742188 5.62145233154296875 5.7000842094421386719 5.7628798484802246094 5.8186478614807128906 5.85782623291015625 5.8855123519897460938 5.8967547416687011719 5.8950557708740234375 5.8837695121765136719 5.864749908447265625 5.8441114425659179688 5.8220529556274414062 5.8035855293273925781 5.7848253250122070312 5.7670340538024902344 5.7456955909729003906 5.7224249839782714844 5.6922588348388671875 5.6597127914428710938 5.6209802627563476562 5.582698822021484375 5.5403599739074707031 5.5009908676147460938 5.4594874382019042969 5.4215879440307617188 5.3816041946411132812 5.3451466560363769531 5.3076605796813964844 5.2747607231140136719 5.2410125732421875 5.20754241943359375 5.166202545166015625 5.1200156211853027344 5.0614185333251953125 5.0050368309020996094 4.94745635986328125 4.8972148895263671875 4.8491454124450683594 4.8091897964477539062 4.7741336822509765625 4.7475161552429199219 4.7234730720520019531 4.7027502059936523438 4.6803922653198242188 4.6571035385131835938 4.6297845840454101562 4.603519439697265625 4.5774440765380859375 4.5565667152404785156 4.540668487548828125 4.53269195556640625 4.5304198265075683594 4.531772613525390625 4.5343542098999023438 4.5355420112609863281 4.5331339836120605469 4.5268754959106445312 4.5172839164733886719 4.5067753791809082031 4.4957375526428222656 4.4866771697998046875 4.4795498847961425781 4.4745321273803710938 4.4699878692626953125 4.4652800559997558594 4.4587388038635253906 4.4500021934509277344 4.4376730918884277344 4.4229798316955566406 4.4045858383178710938 4.3843202590942382812 4.3603663444519042969 4.3352203369140625 4.3073272705078125 4.280029296875 4.2518057823181152344 4.2259516716003417969 4.2008619308471679688 4.1778469085693359375 4.1528797149658203125 4.1259713172912597656 4.0926303863525390625 4.0535993576049804688 4.0047845840454101562 3.9514968395233154297 3.8916156291961669922 3.8317699432373046875 3.7695577144622802734 3.7109780311584472656 3.6496927738189697266 3.5859355926513671875 3.5103080272674560547 3.4237964153289794922 3.3157014846801757812 3.1927232742309570312 3.0514032840728759766 2.9075016975402832031 2.7582299709320068359 2.6194121837615966797 2.4868423938751220703 2.3647515773773193359 2.2361614704132080078 2.0993039608001708984 1.9358541965484619141 1.7466084957122802734 1.5184408426284790039 1.2728824615478515625 1.0076826810836791992 0.74810397624969482422 0.49197381734848022461 0.26107093691825866699 0.056158281862735748291 0 0 0 0 0 0 0 0 0 0 0 0 0 0 0 0 0 0 0 0 0 0 0 0 0 0 0 0 0 0 0 
2.3176748752593994141 2.3046541213989257812 2.2993454933166503906 2.3484692573547363281 2.3375325202941894531 2.3073856830596923828 2.3079588413238525391 2.3299779891967773438 2.3595743179321289062 2.3568747043609619141 2.3399398326873779297 2.3300762176513671875 2.3073697090148925781 2.2660868167877197266 2.2947359085083007812 2.4677374362945556641 2.6396954059600830078 2.5134108066558837891 2.3492386341094970703 2.3013167381286621094 2.2870554924011230469 2.2823426723480224609 2.3123400211334228516 2.4774456024169921875 2.5526549816131591797 2.3734087944030761719 2.3278393745422363281 2.3683741092681884766 2.3630049228668212891 2.490413665771484375 2.6184332370758056641 2.6383223533630371094 2.5890223979949951172 2.5290954113006591797 2.4760766029357910156 2.4367954730987548828 2.3962373733520507812 2.3353381156921386719 2.2819981575012207031 2.2374668121337890625 2.2086935043334960938 2.203716278076171875 2.1800701618194580078 2.0904490947723388672 2.1639940738677978516 2.2137281894683837891 2.1825819015502929688 2.1575312614440917969 2.1262316703796386719 2.0871675014495849609 2.0519480705261230469 2.0129787921905517578 1.9567619562149047852 1.9229865074157714844 1.8647283315658569336 1.7783073186874389648 1.97113800048828125 2.2147901058197021484 2.2062013149261474609 2.4290003776550292969 2.6433863639831542969 2.8993999958038330078 3.3451635837554931641 4.4078187942504882812 5.0364623069763183594 5.1685504913330078125 5.101512908935546875 4.8537750244140625 4.599346160888671875 4.5482888221740722656 4.8287382125854492188 5.3202619552612304688 5.0767931938171386719 4.2342367172241210938 3.4945745468139648438 3.2435784339904785156 3.0874874591827392578 2.9459977149963378906 2.8033754825592041016 2.7855384349822998047 2.8584775924682617188 2.93244171142578125 2.9906055927276611328 2.9531767368316650391 2.8552997112274169922 2.8079173564910888672 2.9385163784027099609 3.0031263828277587891 2.9075334072113037109 2.8498783111572265625 2.7336678504943847656 2.6890509128570556641 2.5327749252319335938 2.4809968471527099609 2.450702667236328125 2.3726961612701416016 2.3016316890716552734 2.2642006874084472656 2.229572296142578125 2.1846327781677246094 2.3277978897094726562 2.5098934173583984375 2.7139639854431152344 2.9093084335327148438 3.0976262092590332031 3.2595191001892089844 3.4176239967346191406 3.7870204448699951172 4.3988494873046875 4.5182423591613769531 4.6278829574584960938 4.7163395881652832031 4.7915835380554199219 4.842601776123046875 4.8729839324951171875 4.8780617713928222656 4.8592724800109863281 4.8235602378845214844 4.7750082015991210938 4.7260580062866210938 4.6790304183959960938 4.6458315849304199219 4.6252408027648925781 4.6168236732482910156 4.6152553558349609375 4.6168079376220703125 4.6173520088195800781 4.6139788627624511719 4.6067872047424316406 4.5985660552978515625 4.5903859138488769531 4.5852150917053222656 4.5843844413757324219 4.5887193679809570312 4.598175048828125 4.6108503341674804688 4.6275510787963867188 4.6454491615295410156 4.6662569046020507812 4.6870846748352050781 4.7106442451477050781 4.7338209152221679688 4.7599616050720214844 4.7858061790466308594 4.8148770332336425781 4.8431310653686523438 4.8744020462036132812 4.9042844772338867188 4.9369463920593261719 4.9683637619018554688 5.0051531791687011719 5.0443997383117675781 5.0945882797241210938 5.1509890556335449219 5.2242331504821777344 5.3026628494262695312 5.3941469192504882812 5.4813599586486816406 5.5734720230102539062 5.653011322021484375 5.7290515899658203125 5.7887949943542480469 5.8407983779907226562 5.8762798309326171875 5.8999719619750976562 5.9077296257019042969 5.9026079177856445312 5.8885221481323242188 5.8669300079345703125 5.8444089889526367188 5.8209095001220703125 5.8016843795776367188 5.782718658447265625 5.765254974365234375 5.7447566986083984375 5.7226705551147460938 5.6941318511962890625 5.6632184982299804688 5.6260504722595214844 5.5887517929077148438 5.5466299057006835938 5.5064072608947753906 5.4627861976623535156 5.4220776557922363281 5.3785452842712402344 5.3383321762084960938 5.2963590621948242188 5.2592606544494628906 5.2215604782104492188 5.1861972808837890625 5.1435875892639160156 5.0965209007263183594 5.037960052490234375 4.9824147224426269531 4.925785064697265625 4.8764390945434570312 4.8291683197021484375 4.7899069786071777344 4.7555599212646484375 4.7295904159545898438 4.7062315940856933594 4.6861524581909179688 4.6645083427429199219 4.6420826911926269531 4.6159358024597167969 4.5907621383666992188 4.565708160400390625 4.5456461906433105469 4.5304360389709472656 4.5229473114013671875 4.5210289955139160156 4.5225729942321777344 4.5252051353454589844 4.52629852294921875 4.5236392021179199219 4.5170083045959472656 4.5068922042846679688 4.4957756996154785156 4.4839944839477539062 4.4741444587707519531 4.4661502838134765625 4.4604005813598632812 4.4553551673889160156 4.4505972862243652344 4.4446382522583007812 4.4371795654296875 4.4268145561218261719 4.414211273193359375 4.3978023529052734375 4.3788323402404785156 4.3551778793334960938 4.3291296958923339844 4.2993297576904296875 4.26972198486328125 4.2390489578247070312 4.2112593650817871094 4.1849865913391113281 4.1616530418395996094 4.1369218826293945312 4.1104784011840820312 4.0775442123413085938 4.0385289192199707031 3.9890844821929931641 3.9345188140869140625 3.8727006912231445312 3.8104245662689208984 3.7449963092803955078 3.6826369762420654297 3.6168305873870849609 3.5483305454254150391 3.4676055908203125 3.3761849403381347656 3.2632241249084472656 3.1358599662780761719 2.9903202056884765625 2.8425846099853515625 2.6895577907562255859 2.5472469329833984375 2.4112074375152587891 2.2860133647918701172 2.154735565185546875 2.0159893035888671875 1.8515897989273071289 1.6625925302505493164 1.4358420372009277344 1.1923691034317016602 0.9295151829719543457 0.67193543910980224609 0.41713529825210571289 0.18680053949356079102 0.015747645869851112366 0 0 0 0 0 0 0 0 0 0 0 0 0 0 0 0 0 0 0 0 0 0 0 0 0 0 0 0 0 0 0 
2.3265764713287353516 2.3139264583587646484 2.3035056591033935547 2.3511843681335449219 2.34313201904296875 2.3158550262451171875 2.3181879520416259766 2.3356242179870605469 2.3660326004028320312 2.3695495128631591797 2.3556778430938720703 2.3322167396545410156 2.2852945327758789062 2.3001356124877929688 2.4483203887939453125 2.6395008563995361328 2.5457246303558349609 2.3785405158996582031 2.3283538818359375 2.3127090930938720703 2.3044834136962890625 2.3169612884521484375 2.4551837444305419922 2.5899245738983154297 2.4375398159027099609 2.3416883945465087891 2.3795621395111083984 2.3705620765686035156 2.4023671150207519531 2.5378377437591552734 2.6411876678466796875 2.6596705913543701172 2.6328217983245849609 2.5913293361663818359 2.5493731498718261719 2.5067322254180908203 2.4609544277191162109 2.406627655029296875 2.3564212322235107422 2.3062026500701904297 2.2781388759613037109 2.2800562381744384766 2.2195506095886230469 2.1242589950561523438 2.2618913650512695312 2.2686581611633300781 2.2575106620788574219 2.2447896003723144531 2.2203729152679443359 2.1853280067443847656 2.1548798084259033203 2.1277527809143066406 2.0929579734802246094 2.0627186298370361328 1.9919905662536621094 1.9875829219818115234 2.2755239009857177734 2.1758565902709960938 2.0569117069244384766 2.5391943454742431641 2.722316741943359375 3.2721445560455322266 3.8787813186645507812 4.9745545387268066406 5.3089799880981445312 5.2843632698059082031 5.1506910324096679688 4.9454164505004882812 4.8288087844848632812 4.8145031929016113281 4.8874940872192382812 5.1480851173400878906 4.6913123130798339844 3.9930272102355957031 3.5784676074981689453 3.3760926723480224609 3.2518584728240966797 3.1220259666442871094 2.9637782573699951172 2.9864680767059326172 3.0618748664855957031 3.1117327213287353516 3.1369531154632568359 3.0534892082214355469 2.9513926506042480469 2.9215662479400634766 3.0526576042175292969 3.0571143627166748047 2.9639010429382324219 2.8812489509582519531 2.7873983383178710938 2.6909563541412353516 2.5409901142120361328 2.5042068958282470703 2.4340035915374755859 2.3614790439605712891 2.2989473342895507812 2.2286121845245361328 2.1046428680419921875 1.9600816965103149414 2.1369185447692871094 2.3607678413391113281 2.5889348983764648438 2.7896728515625 2.9803254604339599609 3.1488878726959228516 3.3138921260833740234 3.7000510692596435547 4.3429255485534667969 4.4679360389709472656 4.5816822052001953125 4.6719598770141601562 4.7463541030883789062 4.7949337959289550781 4.8222489356994628906 4.82489013671875 4.8046746253967285156 4.76876068115234375 4.7211089134216308594 4.673999786376953125 4.6298470497131347656 4.6001024246215820312 4.5836844444274902344 4.5794625282287597656 4.5825295448303222656 4.5885648727416992188 4.5937962532043457031 4.59461212158203125 4.5915622711181640625 4.5869159698486328125 4.5822930335998535156 4.5804190635681152344 4.5832204818725585938 4.5910658836364746094 4.6041879653930664062 4.6200647354125976562 4.639713287353515625 4.6597170829772949219 4.6819701194763183594 4.7035851478576660156 4.7277169227600097656 4.7514495849609375 4.7782931327819824219 4.8050465583801269531 4.8357243537902832031 4.866008758544921875 4.8998126983642578125 4.9321970939636230469 4.9674839973449707031 5.0011353492736816406 5.0400791168212890625 5.0810856819152832031 5.1328182220458984375 5.190288543701171875 5.2641949653625488281 5.3427262306213378906 5.4337029457092285156 5.5198040008544921875 5.6098613739013671875 5.6866598129272460938 5.7589578628540039062 5.8147139549255371094 5.8621168136596679688 5.8933234214782714844 5.9126453399658203125 5.9168233871459960938 5.9084200859069824219 5.8918437957763671875 5.868091583251953125 5.8440675735473632812 5.8194732666015625 5.7997255325317382812 5.7807645797729492188 5.7638902664184570312 5.7446827888488769531 5.724422454833984375 5.6984972953796386719 5.6703166961669921875 5.635898590087890625 5.6004977226257324219 5.5591664314270019531 5.5180659294128417969 5.4716444015502929688 5.4270167350769042969 5.3784747123718261719 5.3333587646484375 5.2860202789306640625 5.2438478469848632812 5.2011055946350097656 5.1624293327331542969 5.1182203292846679688 5.0703797340393066406 5.01213836669921875 4.95754241943359375 4.9022336006164550781 4.8542737960815429688 4.8082795143127441406 4.7701435089111328125 4.7369484901428222656 4.7120079994201660156 4.6896739006042480469 4.6705293655395507812 4.6500873565673828125 4.6288723945617675781 4.603801727294921875 4.5794215202331542969 4.5550103187561035156 4.5354208946228027344 4.5206089019775390625 4.5134129524230957031 4.511714935302734375 4.5133767127990722656 4.5160298347473144531 4.5170369148254394531 4.5141668319702148438 4.5072131156921386719 4.496616363525390625 4.4849033355712890625 4.4723334312438964844 4.4615750312805175781 4.4524912834167480469 4.445709228515625 4.4397521018981933594 4.4344654083251953125 4.4285020828247070312 4.4216923713684082031 4.4125871658325195312 4.4014086723327636719 4.3863458633422851562 4.3681688308715820312 4.3444509506225585938 4.3173389434814453125 4.2856340408325195312 4.2538433074951171875 4.2209286689758300781 4.191417694091796875 4.1641569137573242188 4.1406455039978027344 4.1162433624267578125 4.0902886390686035156 4.0577068328857421875 4.0185728073120117188 3.9682936668395996094 3.9122087955474853516 3.8480579853057861328 3.7829258441925048828 3.7140209674835205078 3.6477849483489990234 3.5774743556976318359 3.5043244361877441406 3.4186382293701171875 3.3224444389343261719 3.2047324180603027344 3.0730473995208740234 2.9232933521270751953 2.7716612815856933594 2.6147358417510986328 2.4687082767486572266 2.3289003372192382812 2.2003731727600097656 2.0664403438568115234 1.9262977838516235352 1.7621514797210693359 1.5754113197326660156 1.3529834747314453125 1.1148508787155151367 0.85768079757690429688 0.60493665933609008789 0.35346001386642456055 0.1236807703971862793 0.0027297886554151773453 0 0 0 0 0 0 0 0 0 0 0 0 0 0 0 0 0 0 0 0 0 0 0 0 0 0 0 0 0 0 0 
2.3341133594512939453 2.3175156116485595703 2.3116784095764160156 2.3544247150421142578 2.3451564311981201172 2.3272883892059326172 2.3338930606842041016 2.350238800048828125 2.3797698020935058594 2.3850667476654052734 2.3615963459014892578 2.3147332668304443359 2.3009500503540039062 2.4092197418212890625 2.6389727592468261719 2.5854296684265136719 2.3991398811340332031 2.3438506126403808594 2.3433973789215087891 2.3452985286712646484 2.3367969989776611328 2.43145751953125 2.6053068637847900391 2.4946734905242919922 2.3773844242095947266 2.39958953857421875 2.3915441036224365234 2.3644385337829589844 2.4408552646636962891 2.5651431083679199219 2.6471810340881347656 2.6892828941345214844 2.6841232776641845703 2.6506817340850830078 2.6137189865112304688 2.5815517902374267578 2.5413563251495361328 2.495677947998046875 2.445098876953125 2.3858494758605957031 2.36479949951171875 2.3496799468994140625 2.212215423583984375 2.2201230525970458984 2.3571856021881103516 2.3275716304779052734 2.3268082141876220703 2.3312594890594482422 2.3135116100311279297 2.2898066043853759766 2.2627215385437011719 2.2472021579742431641 2.2305729389190673828 2.22557830810546875 2.2154514789581298828 2.4295499324798583984 2.3871557712554931641 2.1512098312377929688 2.0329453945159912109 2.5678777694702148438 2.8111963272094726562 3.4196457862854003906 4.4423623085021972656 5.2006959915161132812 5.3925404548645019531 5.3804507255554199219 5.1796083450317382812 4.9245047569274902344 4.9296216964721679688 5.3014497756958007812 5.2249932289123535156 4.9867353439331054688 4.4189639091491699219 3.9674823284149169922 3.7011907100677490234 3.5173180103302001953 3.3948187828063964844 3.2587466239929199219 3.1358180046081542969 3.1882014274597167969 3.2568604946136474609 3.3059270381927490234 3.30612945556640625 3.1698822975158691406 3.0471491813659667969 3.0318925380706787109 3.1387121677398681641 3.1176812648773193359 3.0320653915405273438 2.9188992977142333984 2.8473117351531982422 2.6915121078491210938 2.5502083301544189453 2.4865927696228027344 2.4082789421081542969 2.3794944286346435547 2.3217351436614990234 2.1902008056640625 1.9659547805786132812 1.8262466192245483398 2.0238089561462402344 2.259723663330078125 2.4891717433929443359 2.6882083415985107422 2.8817937374114990234 3.0545058250427246094 3.2225775718688964844 3.6219630241394042969 4.28924560546875 4.417682647705078125 4.5337119102478027344 4.624401092529296875 4.696979522705078125 4.7432808876037597656 4.7681427001953125 4.769275665283203125 4.7486538887023925781 4.7134776115417480469 4.6676297187805175781 4.6230716705322265625 4.5823607444763183594 4.5564551353454589844 4.5445675849914550781 4.544872283935546875 4.5526728630065917969 4.5628829002380371094 4.5722332000732421875 4.5767121315002441406 4.5773820877075195312 4.5761218070983886719 4.5749526023864746094 4.576160430908203125 4.5821943283081054688 4.5931239128112792969 4.6094603538513183594 4.628124237060546875 4.6503405570983886719 4.6722364425659179688 4.6958713531494140625 4.7183508872985839844 4.7432770729064941406 4.7679347991943359375 4.7962846755981445312 4.82503509521484375 4.8582811355590820312 4.89141845703125 4.9286675453186035156 4.9644021987915039062 5.0031800270080566406 5.0397906303405761719 5.0814738273620605469 5.1245946884155273438 5.1779732704162597656 5.2362895011901855469 5.3102822303771972656 5.388065338134765625 5.47737884521484375 5.5611848831176757812 5.6479907035827636719 5.7210144996643066406 5.7885642051696777344 5.8395876884460449219 5.8817982673645019531 5.9083890914916992188 5.9232015609741210938 5.9238858222961425781 5.9124875068664550781 5.8938055038452148438 5.8683876991271972656 5.8432893753051757812 5.817974090576171875 5.7979593276977539062 5.7792448997497558594 5.7632260322570800781 5.7457733154296875 5.7280101776123046875 5.7057342529296875 5.6814479827880859375 5.6510348320007324219 5.6185131072998046875 5.5786085128784179688 5.536651611328125 5.4867806434631347656 5.4371585845947265625 5.3821673393249511719 5.3307681083679199219 5.2771778106689453125 5.2296037673950195312 5.1814069747924804688 5.1383519172668457031 5.0920119285583496094 5.0436906814575195312 4.98578643798828125 4.9320878982543945312 4.8781976699829101562 4.8317923545837402344 4.7872128486633300781 4.7503609657287597656 4.7185564041137695312 4.6949024200439453125 4.6739754676818847656 4.6564044952392578125 4.6375536918640136719 4.6174573898315429688 4.5931806564331054688 4.5692892074584960938 4.5452170372009277344 4.525836944580078125 4.5111851692199707031 4.5041208267211914062 4.5025439262390136719 4.5042896270751953125 4.5069828033447265625 4.5079693794250488281 4.5049958229064941406 4.4978418350219726562 4.4868860244750976562 4.4746556282043457031 4.4613108634948730469 4.449565887451171875 4.43918609619140625 4.4310507774353027344 4.4237127304077148438 4.4173097610473632812 4.4105734825134277344 4.4035425186157226562 4.3946866989135742188 4.38396453857421875 4.3693265914916992188 4.3512439727783203125 4.32701873779296875 4.2987380027770996094 4.2653055191040039062 4.2316975593566894531 4.1970524787902832031 4.1663579940795898438 4.1386327743530273438 4.1153483390808105469 4.0915694236755371094 4.0662569999694824219 4.0340337753295898438 3.9946229457855224609 3.9431862831115722656 3.8851947784423828125 3.8183355331420898438 3.7499861717224121094 3.6772556304931640625 3.6071174144744873047 3.5325603485107421875 3.4551565647125244141 3.3649768829345703125 3.2644383907318115234 3.1423060894012451172 3.0064690113067626953 2.8525364398956298828 2.6969420909881591797 2.5359790325164794922 2.3860666751861572266 2.242340087890625 2.1104886531829833984 1.9742692708969116211 1.8336182832717895508 1.6714017391204833984 1.489451289176940918 1.2748318910598754883 1.0458692312240600586 0.79824841022491455078 0.5534903407096862793 0.30733942985534667969 0.080671049654483795166 0 0 0 0 0 0 0 0 0 0 0 0 0 0 0 0 0 0 0 0 0 0 0 0 0 0 0 0 0 0 0 0 
2.3408782482147216797 2.3162367343902587891 2.3237869739532470703 2.3612112998962402344 2.3495230674743652344 2.344196319580078125 2.3543131351470947266 2.3733067512512207031 2.3957026004791259766 2.3847167491912841797 2.340419769287109375 2.3088855743408203125 2.3938698768615722656 2.6059672832489013672 2.6337842941284179688 2.4251239299774169922 2.3474795818328857422 2.3501462936401367188 2.3839337825775146484 2.3894102573394775391 2.4328019618988037109 2.6059942245483398438 2.5384106636047363281 2.3695037364959716797 2.40433502197265625 2.4179639816284179688 2.3847711086273193359 2.3710348606109619141 2.4821758270263671875 2.5917139053344726562 2.6820116043090820312 2.7286241054534912109 2.7300751209259033203 2.7031216621398925781 2.6729822158813476562 2.6505188941955566406 2.6127181053161621094 2.5649602413177490234 2.5241501331329345703 2.4839642047882080078 2.4663066864013671875 2.3856017589569091797 2.266387939453125 2.4003243446350097656 2.4465095996856689453 2.4028341770172119141 2.3990283012390136719 2.4082133769989013672 2.4056563377380371094 2.3972952365875244141 2.3662929534912109375 2.3572390079498291016 2.3578257560729980469 2.4179682731628417969 2.5179903507232666016 2.6464314460754394531 2.5130670070648193359 2.7437236309051513672 2.7744479179382324219 2.7411053180694580078 2.9041597843170166016 3.4061250686645507812 4.708209991455078125 5.3063464164733886719 5.4640789031982421875 5.4235363006591796875 5.163715362548828125 4.8164820671081542969 5.0110297203063964844 5.6337447166442871094 5.6153931617736816406 5.3540167808532714844 4.5629277229309082031 4.0635905265808105469 3.8464198112487792969 3.6757638454437255859 3.5555694103240966797 3.4258179664611816406 3.348300933837890625 3.3933413028717041016 3.4511609077453613281 3.494281768798828125 3.4470956325531005859 3.2940127849578857422 3.1622478961944580078 3.1910550594329833984 3.246593475341796875 3.2108211517333984375 3.1094901561737060547 2.9731817245483398438 2.8825588226318359375 2.6995785236358642578 2.5550670623779296875 2.5206632614135742188 2.5230724811553955078 2.4869694709777832031 2.3721797466278076172 2.1774945259094238281 1.9138140678405761719 1.7505376338958740234 1.9479360580444335938 2.1811954975128173828 2.4049637317657470703 2.6030063629150390625 2.7979907989501953125 2.9715692996978759766 3.1410248279571533203 3.5504045486450195312 4.23671722412109375 4.3664746284484863281 4.4831686019897460938 4.5728793144226074219 4.643512725830078125 4.6877641677856445312 4.7109918594360351562 4.7115335464477539062 4.6915121078491210938 4.6579937934875488281 4.6147861480712890625 4.5733628273010253906 4.5364508628845214844 4.5144429206848144531 4.5068717002868652344 4.5113658905029296875 4.5236611366271972656 4.5380525588989257812 4.5515241622924804688 4.5594477653503417969 4.56351470947265625 4.5653476715087890625 4.5674471855163574219 4.5717673301696777344 4.581066131591796875 4.594890594482421875 4.6141381263732910156 4.6353325843811035156 4.6599068641662597656 4.6835789680480957031 4.7086472511291503906 4.7322230339050292969 4.7583460807800292969 4.7844347953796386719 4.8149724006652832031 4.8466382026672363281 4.8838114738464355469 4.9208798408508300781 4.9625673294067382812 5.00254058837890625 5.0456871986389160156 5.0859627723693847656 5.1309556961059570312 5.1764540672302246094 5.2315244674682617188 5.2903904914855957031 5.3637604713439941406 5.4398570060729980469 5.5262637138366699219 5.6065049171447753906 5.6886959075927734375 5.7568621635437011719 5.8186392784118652344 5.8641295433044433594 5.9005002975463867188 5.9220819473266601562 5.9321894645690917969 5.9294080734252929688 5.9152379035949707031 5.8947787284851074219 5.8681316375732421875 5.8423852920532226562 5.8167405128479003906 5.7967538833618164062 5.7785959243774414062 5.7637691497802734375 5.7485709190368652344 5.7339868545532226562 5.7163624763488769531 5.6970582008361816406 5.6718010902404785156 5.6430277824401855469 5.6050710678100585938 5.5621852874755859375 5.5081410408020019531 5.4524021148681640625 5.3895001411437988281 5.330413818359375 5.2692990303039550781 5.2160153388977050781 5.1623058319091796875 5.1144528388977050781 5.0650010108947753906 5.0163526535034179688 4.9587292671203613281 4.905879974365234375 4.8535065650939941406 4.8087825775146484375 4.7656698226928710938 4.7302002906799316406 4.69997406005859375 4.6779875755310058594 4.6592683792114257812 4.6436338424682617188 4.6263284683227539062 4.6072282791137695312 4.5836019515991210938 4.5600290298461914062 4.5360770225524902344 4.5166897773742675781 4.5019931793212890625 4.4949145317077636719 4.4933629035949707031 4.4951562881469726562 4.4979081153869628906 4.4989423751831054688 4.4959893226623535156 4.4887843132019042969 4.4776234626770019531 4.464984893798828125 4.4509029388427734375 4.438098907470703125 4.4262051582336425781 4.4163680076599121094 4.4071431159973144531 4.3990101814270019531 4.3907113075256347656 4.3825840950012207031 4.3729801177978515625 4.3617687225341796875 4.3466649055480957031 4.3280048370361328125 4.3028483390808105469 4.2733020782470703125 4.2383174896240234375 4.2032427787780761719 4.1673445701599121094 4.1359529495239257812 4.1082305908203125 4.0855426788330078125 4.0626459121704101562 4.0380640029907226562 4.0061092376708984375 3.9661488533020019531 3.9130873680114746094 3.8526380062103271484 3.78249359130859375 3.7104833126068115234 3.6336164474487304688 3.5593588352203369141 3.4806461334228515625 3.3992965221405029297 3.3049824237823486328 3.2003958225250244141 3.0740056037902832031 2.9339897632598876953 2.7756893634796142578 2.6158487796783447266 2.4505035877227783203 2.2963769435882568359 2.1484706401824951172 2.0132482051849365234 1.8750885725021362305 1.7348293066024780273 1.5762425661087036133 1.4016348123550415039 1.1983063220977783203 0.98230463266372680664 0.74802768230438232422 0.51435869932174682617 0.27549970149993896484 0.041073452681303024292 0 0 0 0 0 0 0 0 0 0 0 0 0 0 0 0 0 0 0 0 0 0 0 0 0 0 0 0 0 0 0 0 
2.3441374301910400391 2.3250277042388916016 2.3387567996978759766 2.367053985595703125 2.3557553291320800781 2.3576076030731201172 2.3699018955230712891 2.3910925388336181641 2.3963959217071533203 2.3638017177581787109 2.3102140426635742188 2.3672060966491699219 2.5728285312652587891 2.6837105751037597656 2.4836611747741699219 2.3636379241943359375 2.3707942962646484375 2.3917477130889892578 2.4071433544158935547 2.4194562435150146484 2.5820438861846923828 2.5847477912902832031 2.3978121280670166016 2.3935055732727050781 2.4337589740753173828 2.4119782447814941406 2.388286590576171875 2.4156315326690673828 2.5240116119384765625 2.6215913295745849609 2.7179923057556152344 2.7680101394653320312 2.7748401165008544922 2.7586562633514404297 2.7352359294891357422 2.7089140415191650391 2.6657183170318603516 2.6175937652587890625 2.5776932239532470703 2.5654473304748535156 2.5443019866943359375 2.3685679435729980469 2.3792588710784912109 2.4959638118743896484 2.4894258975982666016 2.4884390830993652344 2.4785835742950439453 2.4895913600921630859 2.4910492897033691406 2.4816162586212158203 2.4616608619689941406 2.4550271034240722656 2.4751935005187988281 2.5592305660247802734 2.7643573284149169922 3.0823512077331542969 3.2737145423889160156 3.1937336921691894531 2.9783911705017089844 2.7790904045104980469 2.9639747142791748047 3.5571508407592773438 4.6560702323913574219 5.2465114593505859375 5.4852628707885742188 5.3983016014099121094 5.1238889694213867188 4.9399409294128417969 5.3407931327819824219 5.924510955810546875 5.6285977363586425781 5.1285109519958496094 4.55709075927734375 4.19625091552734375 4.0430841445922851562 3.8543214797973632812 3.712215423583984375 3.6162402629852294922 3.579608917236328125 3.5964663028717041016 3.6298954486846923828 3.6402335166931152344 3.5634760856628417969 3.4024469852447509766 3.2950856685638427734 3.3824603557586669922 3.4120466709136962891 3.3248543739318847656 3.1951038837432861328 3.0595335960388183594 2.9407842159271240234 2.751911163330078125 2.6836807727813720703 2.6892492771148681641 2.6655147075653076172 2.5941822528839111328 2.4470705986022949219 2.2394888401031494141 1.9412578344345092773 1.7195012569427490234 1.9021401405334472656 2.1997292041778564453 2.3435535430908203125 2.5390512943267822266 2.7321195602416992188 2.9041552543640136719 3.07306671142578125 3.4893114566802978516 4.1897082328796386719 4.319095611572265625 4.4348649978637695312 4.522495269775390625 4.5909256935119628906 4.6333250999450683594 4.6555314064025878906 4.6561269760131835938 4.637310028076171875 4.6059098243713378906 4.5657181739807128906 4.5276560783386230469 4.494556427001953125 4.4761810302734375 4.4723935127258300781 4.4804248809814453125 4.4964480400085449219 4.51435089111328125 4.531551361083984375 4.5429263114929199219 4.5503292083740234375 4.5549917221069335938 4.5600781440734863281 4.5672593116760253906 4.579647064208984375 4.5963234901428222656 4.618328094482421875 4.6418213844299316406 4.6685886383056640625 4.6940107345581054688 4.7206220626831054688 4.7455453872680664062 4.7732973098754882812 4.8013138771057128906 4.8346281051635742188 4.8697824478149414062 4.9116234779357910156 4.9535737037658691406 5.0004563331604003906 5.0451598167419433594 5.0931077003479003906 5.1373448371887207031 5.185825347900390625 5.2336783409118652344 5.290187835693359375 5.3492078781127929688 5.421253204345703125 5.4948172569274902344 5.5773196220397949219 5.6530413627624511719 5.7296414375305175781 5.7921915054321289062 5.8476605415344238281 5.8872551918029785156 5.9175553321838378906 5.9340767860412597656 5.9395833015441894531 5.9335665702819824219 5.9169878959655761719 5.8951621055603027344 5.8677668571472167969 5.8418340682983398438 5.8163232803344726562 5.7967324256896972656 5.7794842720031738281 5.7661547660827636719 5.7535233497619628906 5.7424302101135253906 5.7298336029052734375 5.7158651351928710938 5.6960935592651367188 5.6712741851806640625 5.6353158950805664062 5.5913457870483398438 5.5327324867248535156 5.4703593254089355469 5.3989191055297851562 5.3315730094909667969 5.2624235153198242188 5.2032251358032226562 5.1446433067321777344 5.092510223388671875 5.0393662452697753906 4.9900155067443847656 4.9326410293579101562 4.880611419677734375 4.8298778533935546875 4.7869210243225097656 4.745258331298828125 4.7112088203430175781 4.6828188896179199219 4.6631512641906738281 4.6467661857604980469 4.6328721046447753906 4.6169981956481933594 4.5988306999206542969 4.5757527351379394531 4.5523667335510253906 4.5283703804016113281 4.5088114738464355469 4.4938998222351074219 4.4866619110107421875 4.4850134849548339844 4.4867773056030273438 4.4895596504211425781 4.490673065185546875 4.4878449440002441406 4.4807419776916503906 4.4695630073547363281 4.4566817283630371094 4.4419870376586914062 4.42816162109375 4.4146780967712402344 4.4029550552368164062 4.3915314674377441406 4.3812723159790039062 4.3708777427673339844 4.3610439300537109375 4.3499879837036132812 4.3376240730285644531 4.3214387893676757812 4.3017621040344238281 4.2754449844360351562 4.2446599006652832031 4.208354949951171875 4.1721491813659667969 4.1353764533996582031 4.1035952568054199219 4.0760588645935058594 4.0539917945861816406 4.0318727493286132812 4.0078182220458984375 3.9758048057556152344 3.9348936080932617188 3.8797438144683837891 3.8163998126983642578 3.7425832748413085938 3.6666626930236816406 3.5856130123138427734 3.5074069499969482422 3.4247357845306396484 3.3397891521453857422 3.2418272495269775391 3.1336050033569335938 3.0032341480255126953 2.8591282367706298828 2.6964058876037597656 2.5321829319000244141 2.3622877597808837891 2.2038135528564453125 2.0516810417175292969 1.9131904840469360352 1.7734254598617553711 1.6341536045074462891 1.4801622629165649414 1.3142296075820922852 1.1239289045333862305 0.9227765202522277832 0.70377200841903686523 0.48284375667572021484 0.24075739085674285889 0.009676781482994556427 0 0 0 0 0 0 0 0 0 0 0 0 0 0 0 0 0 0 0 0 0 0 0 0 0 0 0 0 0 0 0 0 
2.3580613136291503906 2.3475296497344970703 2.36266326904296875 2.3729217052459716797 2.3564200401306152344 2.3634178638458251953 2.3811745643615722656 2.3940577507019042969 2.3770761489868164062 2.3269240856170654297 2.3560302257537841797 2.5203039646148681641 2.6997799873352050781 2.5615453720092773438 2.4094440937042236328 2.4010181427001953125 2.4113345146179199219 2.4215898513793945312 2.4249796867370605469 2.5496263504028320312 2.6253230571746826172 2.4378771781921386719 2.3984687328338623047 2.452281951904296875 2.4368107318878173828 2.4136753082275390625 2.4051082134246826172 2.4697554111480712891 2.5604407787322998047 2.6526892185211181641 2.7519631385803222656 2.8062672615051269531 2.8107268810272216797 2.8056325912475585938 2.7925586700439453125 2.7675487995147705078 2.7313861846923828125 2.6743595600128173828 2.6386435031890869141 2.6366474628448486328 2.5649211406707763672 2.4282851219177246094 2.4893078804016113281 2.5256085395812988281 2.5220894813537597656 2.5497841835021972656 2.5607247352600097656 2.5691769123077392578 2.5844151973724365234 2.5644435882568359375 2.5558474063873291016 2.56719970703125 2.6051995754241943359 2.7646889686584472656 3.2827992439270019531 3.567966461181640625 3.4602780342102050781 3.3477261066436767578 3.13788604736328125 2.8863930702209472656 3.1405503749847412109 4.0023775100708007812 4.8028035163879394531 5.3050451278686523438 5.4905028343200683594 5.3963217735290527344 5.1058807373046875 5.1049652099609375 5.62136077880859375 6.2371830940246582031 6.0587029457092285156 5.3541026115417480469 4.6493997573852539062 4.3397841453552246094 4.2340488433837890625 4.0293622016906738281 3.8876061439514160156 3.8341608047485351562 3.8235769271850585938 3.8083612918853759766 3.8146569728851318359 3.7862446308135986328 3.6671602725982666016 3.5110673904418945312 3.4526350498199462891 3.5766024589538574219 3.5721437931060791016 3.4271829128265380859 3.2578318119049072266 3.1519138813018798828 3.0087730884552001953 2.8440883159637451172 2.818096160888671875 2.8258302211761474609 2.7948410511016845703 2.7178697586059570312 2.5880038738250732422 2.3981263637542724609 2.0636022090911865234 1.7534216642379760742 2.178409576416015625 3.4167962074279785156 3.0724027156829833984 2.5013344287872314453 2.6791408061981201172 2.8488359451293945312 3.0158810615539550781 3.4370086193084716797 4.1482686996459960938 4.275966644287109375 4.3894338607788085938 4.4745945930480957031 4.5406246185302734375 4.5812788009643554688 4.6025376319885253906 4.6032686233520507812 4.5858173370361328125 4.556690216064453125 4.5195755958557128906 4.48480987548828125 4.4553556442260742188 4.4403576850891113281 4.4399170875549316406 4.4509215354919433594 4.4700226783752441406 4.490856170654296875 4.511272430419921875 4.5258045196533203125 4.5366268157958984375 4.544437408447265625 4.5526051521301269531 4.5625891685485839844 4.5779681205749511719 4.5974307060241699219 4.6223087310791015625 4.6482419967651367188 4.6772794723510742188 4.704624176025390625 4.733123779296875 4.7598247528076171875 4.7897610664367675781 4.8203310966491699219 4.8571333885192871094 4.8964395523071289062 4.9436278343200683594 4.9911394119262695312 5.0441417694091796875 5.0941414833068847656 5.1472363471984863281 5.1956148147583007812 5.2476105690002441406 5.2976765632629394531 5.3552289009094238281 5.4138445854187011719 5.4837975502014160156 5.5539202690124511719 5.6314558982849121094 5.7016797065734863281 5.771694183349609375 5.8278341293334960938 5.8763608932495117188 5.9097056388854980469 5.93366241455078125 5.9450197219848632812 5.9459714889526367188 5.9368953704833984375 5.9182229042053222656 5.8954076766967773438 5.8677411079406738281 5.8420987129211425781 5.8172674179077148438 5.7985506057739257812 5.7826824188232421875 5.77123260498046875 5.7614941596984863281 5.754085540771484375 5.74662017822265625 5.7379770278930664062 5.7235727310180664062 5.7025098800659179688 5.6682567596435546875 5.6228628158569335938 5.5592660903930664062 5.4898533821105957031 5.409454345703125 5.3335018157958984375 5.2560267448425292969 5.190746307373046875 5.1275806427001953125 5.07220458984375 5.0153417587280273438 4.9642696380615234375 4.9071297645568847656 4.8559851646423339844 4.8072037696838378906 4.7661623954772949219 4.7260303497314453125 4.6936879158020019531 4.6678981781005859375 4.6505808830261230469 4.6362948417663574219 4.6240792274475097656 4.609615325927734375 4.5923452377319335938 4.5697526931762695312 4.5464711189270019531 4.5223202705383300781 4.5024638175964355469 4.4871850013732910156 4.479633331298828125 4.4777283668518066406 4.4793386459350585938 4.4820699691772460938 4.4832577705383300781 4.4806432723999023438 4.4738059043884277344 4.4628238677978515625 4.4499025344848632812 4.4347605705261230469 4.4199833869934082031 4.4048604965209960938 4.3910908699035644531 4.377197265625 4.3644757270812988281 4.3515720367431640625 4.3395838737487792969 4.3265905380249023438 4.312633514404296875 4.2949795722961425781 4.2740263938903808594 4.24643707275390625 4.2144708633422851562 4.1770253181457519531 4.13990020751953125 4.1024374961853027344 4.0703349113464355469 4.0428743362426757812 4.0211420059204101562 3.9993488788604736328 3.9752933979034423828 3.9426267147064208984 3.9001681804656982422 3.8423109054565429688 3.7755293846130371094 3.6975748538970947266 3.6174244880676269531 3.5320351123809814453 3.4499442577362060547 3.3635470867156982422 3.2751276493072509766 3.1737170219421386719 3.0620741844177246094 2.9277949333190917969 2.7794911861419677734 2.612094879150390625 2.4431700706481933594 2.2683854103088378906 2.1052868366241455078 1.9487574100494384766 1.8069709539413452148 1.6657345294952392578 1.5277580022811889648 1.3788741827011108398 1.2223136425018310547 1.0459623336791992188 0.86069738864898681641 0.6581071019172668457 0.45097965002059936523 0.1444403529167175293 0 0 0 0 0 0 0 0 0 0 0 0 0 0 0 0 0 0 0 0 0 0 0 0 0 0 0 0 0 0 0 0 0 
2.3649361133575439453 2.3587195873260498047 2.3738789558410644531 2.3715603351593017578 2.3658709526062011719 2.38056182861328125 2.3908188343048095703 2.3819227218627929688 2.3349409103393554688 2.3474826812744140625 2.4818084239959716797 2.6824283599853515625 2.6279177665710449219 2.4471976757049560547 2.4117090702056884766 2.4162271022796630859 2.4231693744659423828 2.4287939071655273438 2.5175137519836425781 2.6451625823974609375 2.4974412918090820312 2.3952784538269042969 2.4545347690582275391 2.4626185894012451172 2.4363319873809814453 2.4185712337493896484 2.4274392127990722656 2.5047922134399414062 2.5935487747192382812 2.6895315647125244141 2.7836003303527832031 2.8208794593811035156 2.8256781101226806641 2.8294560909271240234 2.8273270130157470703 2.8205051422119140625 2.7997734546661376953 2.743885040283203125 2.7070059776306152344 2.6867406368255615234 2.5459892749786376953 2.5222203731536865234 2.5661218166351318359 2.5732107162475585938 2.5869002342224121094 2.6166493892669677734 2.6350805759429931641 2.6418738365173339844 2.6504375934600830078 2.6556184291839599609 2.6507127285003662109 2.6685228347778320312 2.796268463134765625 3.4378099441528320312 3.6199584007263183594 3.6216285228729248047 3.5786833763122558594 3.5061039924621582031 3.2902243137359619141 3.0388200283050537109 3.5984942913055419922 4.3564705848693847656 4.9718575477600097656 5.3581953048706054688 5.42369842529296875 5.3526172637939453125 5.0992603302001953125 5.18479156494140625 5.7325038909912109375 6.4613614082336425781 6.6081175804138183594 5.9141225814819335938 4.8364157676696777344 4.4705677032470703125 4.2985353469848632812 4.1699886322021484375 4.1015868186950683594 4.0858101844787597656 4.054767608642578125 4.0074205398559570312 3.96006011962890625 3.8958683013916015625 3.7666933536529541016 3.6253943443298339844 3.6196031570434570312 3.7492268085479736328 3.6983137130737304688 3.5080852508544921875 3.3370466232299804688 3.2597908973693847656 3.0836181640625 2.9278311729431152344 2.9236290454864501953 2.9326734542846679688 2.9076716899871826172 2.8574929237365722656 2.7785897254943847656 2.662105560302734375 2.4316980838775634766 2.4450097084045410156 3.6965191364288330078 4.1268353462219238281 4.0177354812622070312 2.5739638805389404297 2.6372876167297363281 2.8042838573455810547 2.9691700935363769531 3.3941519260406494141 4.1145358085632324219 4.2402925491333007812 4.3510370254516601562 4.4337224960327148438 4.4973473548889160156 4.5364589691162109375 4.5569429397583007812 4.5577573776245117188 4.54128265380859375 4.513885498046875 4.4792804718017578125 4.447261810302734375 4.420780181884765625 4.40845489501953125 4.4106311798095703125 4.4239544868469238281 4.4454126358032226562 4.4685077667236328125 4.4915285110473632812 4.5087423324584960938 4.522663116455078125 4.5335927009582519531 4.5451292991638183594 4.5580358505249023438 4.576297760009765625 4.5984048843383789062 4.6260495185852050781 4.6545209884643554688 4.6860899925231933594 4.7155923843383789062 4.7463622093200683594 4.7753233909606933594 4.8080043792724609375 4.8416471481323242188 4.8824820518493652344 4.9263606071472167969 4.9792156219482421875 5.0324602127075195312 5.0917406082153320312 5.1472973823547363281 5.20546722412109375 5.2577176094055175781 5.3128266334533691406 5.3646407127380371094 5.4226489067077636719 5.4802021980285644531 5.5473275184631347656 5.6133465766906738281 5.6851968765258789062 5.7493481636047363281 5.8122925758361816406 5.8617229461669921875 5.9031705856323242188 5.9303431510925292969 5.9481878280639648438 5.95464324951171875 5.9513978958129882812 5.9396347999572753906 5.91930389404296875 5.895931243896484375 5.8684887886047363281 5.8436207771301269531 5.8200225830078125 5.8027009963989257812 5.7886919975280761719 5.7794260978698730469 5.7726778984069824219 5.7687501907348632812 5.7658362388610839844 5.7617235183715820312 5.7516999244689941406 5.7335009574890136719 5.7001829147338867188 5.6529636383056640625 5.5843515396118164062 5.5081696510314941406 5.4193124771118164062 5.335315704345703125 5.2501096725463867188 5.1792430877685546875 5.1121048927307128906 5.05434417724609375 4.99481201171875 4.9410738945007324219 4.8838968276977539062 4.833721160888671875 4.7872467041015625 4.7481551170349121094 4.7097535133361816406 4.6798472404479980469 4.6565289497375488281 4.6411485671997070312 4.6287431716918945312 4.6180510520935058594 4.6048593521118164062 4.5883913040161132812 4.566219329833984375 4.5429987907409667969 4.5186452865600585938 4.4984292984008789062 4.482677459716796875 4.4746685028076171875 4.4723300933837890625 4.4736270904541015625 4.4761824607849121094 4.4773960113525390625 4.4750518798828125 4.4686322212219238281 4.45807647705078125 4.4453577995300292969 4.4300112724304199219 4.4144620895385742188 4.3978085517883300781 4.3820195198059082031 4.3656210899353027344 4.3503589630126953125 4.3348388671875 4.3205852508544921875 4.3055295944213867188 4.2898850440979003906 4.270709991455078125 4.2484951019287109375 4.2197399139404296875 4.1867766380310058594 4.1484122276306152344 4.1105365753173828125 4.0724368095397949219 4.0398769378662109375 4.0120906829833984375 3.990077972412109375 3.9678125381469726562 3.9429242610931396484 3.9087636470794677734 3.8640739917755126953 3.8029735088348388672 3.7323896884918212891 3.6500859260559082031 3.5656609535217285156 3.4760453701019287109 3.3903212547302246094 3.300579071044921875 3.2091031074523925781 3.1044666767120361328 2.9896309375762939453 2.85162353515625 2.6991517543792724609 2.5270018577575683594 2.3532521724700927734 2.1734607219696044922 2.0056931972503662109 1.8448264598846435547 1.6998643875122070312 1.5572352409362792969 1.420485377311706543 1.2763801813125610352 1.1285358667373657227 0.96514087915420532227 0.79469817876815795898 0.60755318403244018555 0.41355967521667480469 0.051930896937847137451 0 0 0 0 0 0 0 0 0 0 0 0 0 0 0 0 0 0 0 0 0 0 0 0 0 0 0 0 0 0 0 0 0 
2.3284437656402587891 2.3382697105407714844 2.3596498966217041016 2.3645660877227783203 2.3678596019744873047 2.3816812038421630859 2.3758370876312255859 2.3350801467895507812 2.3462898731231689453 2.4627370834350585938 2.6810202598571777344 2.6796050071716308594 2.4880137443542480469 2.4080331325531005859 2.4176056385040283203 2.4190266132354736328 2.4359502792358398438 2.4911732673645019531 2.649753570556640625 2.5379848480224609375 2.3943662643432617188 2.4530436992645263672 2.4767248630523681641 2.4520304203033447266 2.4339156150817871094 2.4219641685485839844 2.4398057460784912109 2.5191912651062011719 2.6194462776184082031 2.7222106456756591797 2.8236536979675292969 2.84136199951171875 2.8265674114227294922 2.8304526805877685547 2.8374257087707519531 2.8477613925933837891 2.8403906822204589844 2.8078496456146240234 2.7787785530090332031 2.704227447509765625 2.6012735366821289062 2.6407418251037597656 2.6357944011688232422 2.6435058116912841797 2.6740796566009521484 2.6910302639007568359 2.7086603641510009766 2.7240700721740722656 2.7268068790435791016 2.7394824028015136719 2.7483851909637451172 2.7896974086761474609 3.2589168548583984375 3.7299573421478271484 3.7217688560485839844 3.6936383247375488281 3.7196571826934814453 3.6822578907012939453 3.4266633987426757812 3.2910237312316894531 4.1277914047241210938 4.7287116050720214844 5.1549448966979980469 5.3750071525573730469 5.3149838447570800781 5.2175650596618652344 5.0705823898315429688 5.2763156890869140625 5.6937108039855957031 6.4256968498229980469 6.6396403312683105469 5.9381537437438964844 5.0180845260620117188 4.6762127876281738281 4.4454927444458007812 4.36704254150390625 4.3547091484069824219 4.3369493484497070312 4.2714848518371582031 4.1947159767150878906 4.1303281784057617188 4.0196890830993652344 3.8638298511505126953 3.7385270595550537109 3.7997586727142333984 3.8864922523498535156 3.7701680660247802734 3.5815932750701904297 3.4356231689453125 3.3553514480590820312 3.1413671970367431641 3.0152904987335205078 3.0295336246490478516 3.0356123447418212891 3.0250937938690185547 3.0085995197296142578 2.9931383132934570312 2.991863250732421875 3.0685238838195800781 3.5365076065063476562 3.9581387042999267578 4.1722440719604492188 4.3465933799743652344 2.9673557281494140625 2.602329254150390625 2.7663779258728027344 2.9289662837982177734 3.3574454784393310547 4.0869159698486328125 4.2110457420349121094 4.319561004638671875 4.4001469612121582031 4.4617304801940917969 4.4994058609008789062 4.5189824104309082031 4.5196290016174316406 4.5037298202514648438 4.4774298667907714844 4.4443736076354980469 4.4141178131103515625 4.3896861076354980469 4.3792147636413574219 4.3831582069396972656 4.3980731964111328125 4.4212813377380371094 4.4461717605590820312 4.4713315963745117188 4.4909434318542480469 4.5078387260437011719 4.5218806266784667969 4.536937713623046875 4.553195953369140625 4.5747137069702148438 4.5995693206787109375 4.6300830841064453125 4.6612596511840820312 4.6957669258117675781 4.7280206680297851562 4.7617139816284179688 4.7936320304870605469 4.8298649787902832031 4.8673124313354492188 4.9128794670104980469 4.9618968963623046875 5.0208687782287597656 5.0801067352294921875 5.1457729339599609375 5.2069334983825683594 5.2702288627624511719 5.3260169029235839844 5.3836817741394042969 5.436611175537109375 5.4943041801452636719 5.5500116348266601562 5.6133828163146972656 5.6744637489318847656 5.7398023605346679688 5.7971749305725097656 5.8524537086486816406 5.8947854042053222656 5.9289240837097167969 5.9498772621154785156 5.9617700576782226562 5.963542938232421875 5.9563965797424316406 5.9422774314880371094 5.9206986427307128906 5.8971982002258300781 5.8705086708068847656 5.8469681739807128906 5.8252749443054199219 5.810016632080078125 5.7985129356384277344 5.7918448448181152344 5.7882137298583984375 5.7874736785888671875 5.7882571220397949219 5.7874994277954101562 5.7803978919982910156 5.763736724853515625 5.7301964759826660156 5.6805281639099121094 5.6068086624145507812 5.524204254150390625 5.4275608062744140625 5.3362779617309570312 5.2441687583923339844 5.1684670448303222656 5.0979170799255371094 5.0381999015808105469 4.9771399497985839844 4.9206604957580566406 4.8625745773315429688 4.813571929931640625 4.7699980735778808594 4.7329921722412109375 4.6973161697387695312 4.6699161529541015625 4.6487097740173339844 4.635082244873046875 4.6243643760681152344 4.6150312423706054688 4.6029658317565917969 4.587215423583984375 4.5654311180114746094 4.5422720909118652344 4.5177130699157714844 4.4971036911010742188 4.4807791709899902344 4.4721431732177734375 4.4691414833068847656 4.4699034690856933594 4.4720950126647949219 4.4732451438903808594 4.4712162017822265625 4.4653863906860351562 4.45552825927734375 4.4433078765869140625 4.4280524253845214844 4.4119482040405273438 4.3938889503479003906 4.3761186599731445312 4.3571987152099609375 4.3393578529357910156 4.3211908340454101562 4.3046865463256835938 4.2876367568969726562 4.2704076766967773438 4.2498617172241210938 4.2265658378601074219 4.1968646049499511719 4.1631245613098144531 4.1240210533142089844 4.0854535102844238281 4.0465869903564453125 4.0131945610046386719 3.9843716621398925781 3.9611275196075439453 3.9372210502624511719 3.9103186130523681641 3.8734879493713378906 3.8255953788757324219 3.7604959011077880859 3.6856157779693603516 3.598636627197265625 3.5097901821136474609 3.4159581661224365234 3.3267245292663574219 3.2338435649871826172 3.1395559310913085938 3.0318973064422607422 2.9137971401214599609 2.7719700336456298828 2.6151385307312011719 2.4379270076751708984 2.2590134143829345703 2.0738956928253173828 1.9012414216995239258 1.7359523773193359375 1.5877932310104370117 1.4436601400375366211 1.3077957630157470703 1.1677204370498657227 1.0273425579071044922 0.87513631582260131836 0.71763551235198974609 0.54418963193893432617 0.31352335214614868164 0.0097488136962056159973 0 0 0 0 0 0 0 0 0 0 0 0 0 0 0 0 0 0 0 0 0 0 0 0 0 0 0 0 0 0 0 0 0 
2.3506867885589599609 2.3312623500823974609 2.3269500732421875 2.3488085269927978516 2.3326323032379150391 2.3392734527587890625 2.3306078910827636719 2.3388006687164306641 2.4358975887298583984 2.6432065963745117188 2.715297698974609375 2.5337679386138916016 2.4131302833557128906 2.405719757080078125 2.4213504791259765625 2.4347136020660400391 2.4634592533111572266 2.5966608524322509766 2.597808837890625 2.4194264411926269531 2.3953440189361572266 2.4663496017456054688 2.4725999832153320312 2.4500050544738769531 2.4373018741607666016 2.4289736747741699219 2.4430153369903564453 2.5286469459533691406 2.6331102848052978516 2.7329702377319335938 2.8359296321868896484 2.8633463382720947266 2.8502216339111328125 2.8416085243225097656 2.8374259471893310547 2.8468761444091796875 2.8459074497222900391 2.8510620594024658203 2.8388798236846923828 2.6458344459533691406 2.6812894344329833984 2.7113008499145507812 2.6922457218170166016 2.6970148086547851562 2.71393585205078125 2.7518620491027832031 2.7917227745056152344 2.7952895164489746094 2.8032474517822265625 2.8169312477111816406 2.8343501091003417969 2.9407987594604492188 3.7359867095947265625 3.8462688922882080078 3.8471319675445556641 3.7442405223846435547 3.7730901241302490234 3.7793116569519042969 3.5940256118774414062 3.6894888877868652344 4.703907012939453125 5.0597658157348632812 5.3309664726257324219 5.3538198471069335938 5.2423353195190429688 5.1029567718505859375 5.0681896209716796875 5.3567824363708496094 5.7455186843872070312 6.4313111305236816406 6.6784715652465820312 5.7174272537231445312 5.162845611572265625 4.8315958976745605469 4.6155562400817871094 4.5880441665649414062 4.605182647705078125 4.5725040435791015625 4.4681859016418457031 4.3603067398071289062 4.2526097297668457031 4.1286492347717285156 3.9590089321136474609 3.8876314163208007812 3.9875268936157226562 4.008701324462890625 3.8538224697113037109 3.6576907634735107422 3.5260703563690185547 3.4062237739562988281 3.1920757293701171875 3.1201169490814208984 3.1230700016021728516 3.1252529621124267578 3.1271226406097412109 3.1363365650177001953 3.1657993793487548828 3.2364318370819091797 3.4131894111633300781 3.7444210052490234375 4.0157637596130371094 4.21045684814453125 4.3884725570678710938 2.9821476936340332031 2.57421112060546875 2.7354552745819091797 2.8957929611206054688 3.3275146484375 4.0661039352416992188 4.1892113685607910156 4.2963972091674804688 4.3754901885986328125 4.4356174468994140625 4.4721684455871582031 4.4908766746520996094 4.4910731315612792969 4.4751715660095214844 4.4492902755737304688 4.4169464111328125 4.3874568939208984375 4.3638463020324707031 4.3541727066040039062 4.35894012451171875 4.3746356964111328125 4.3988308906555175781 4.4249477386474609375 4.4518079757690429688 4.4735045433044433594 4.4931397438049316406 4.5101666450500488281 4.5286741256713867188 4.5482907295227050781 4.5733304023742675781 4.60120391845703125 4.6346755027770996094 4.668674468994140625 4.7063536643981933594 4.7418012619018554688 4.7791113853454589844 4.8146014213562011719 4.8550367355346679688 4.8968396186828613281 4.9475684165954589844 5.0019254684448242188 5.0670285224914550781 5.1320776939392089844 5.2037420272827148438 5.2699923515319824219 5.3378782272338867188 5.3966817855834960938 5.4560785293579101562 5.5093173980712890625 5.5658497810363769531 5.618988037109375 5.6779270172119140625 5.7335190773010253906 5.7919096946716308594 5.8422608375549316406 5.8897786140441894531 5.9251103401184082031 5.95221710205078125 5.9673323631286621094 5.9737963676452636719 5.9714560508728027344 5.9609775543212890625 5.9449877738952636719 5.9226474761962890625 5.8994545936584472656 5.8739986419677734375 5.8522620201110839844 5.8330450057983398438 5.8204102516174316406 5.8119339942932128906 5.8081202507019042969 5.807498931884765625 5.8093609809875488281 5.8125886917114257812 5.8135771751403808594 5.8074970245361328125 5.7907242774963378906 5.7556304931640625 5.7029500007629394531 5.6243548393249511719 5.5361580848693847656 5.4330306053161621094 5.3358716964721679688 5.2383785247802734375 5.1589217185974121094 5.0857191085815429688 5.024578094482421875 4.9626722335815429688 4.9047603607177734375 4.8444604873657226562 4.7968235015869140625 4.756633758544921875 4.7223730087280273438 4.6896433830261230469 4.6643095016479492188 4.6449666023254394531 4.6328330039978027344 4.6234860420227050781 4.6152400970458984375 4.6040711402893066406 4.5889062881469726562 4.5674657821655273438 4.5443797111511230469 4.5196480751037597656 4.4986524581909179688 4.4816956520080566406 4.4722914695739746094 4.4684085845947265625 4.4684114456176757812 4.4700264930725097656 4.4709825515747070312 4.4692440032958984375 4.4640960693359375 4.4551262855529785156 4.4436373710632324219 4.4287381172180175781 4.4123167991638183594 4.3930644989013671875 4.373485565185546875 4.3522167205810546875 4.3319697380065917969 4.3113713264465332031 4.2928681373596191406 4.2741498947143554688 4.2556786537170410156 4.2341313362121582031 4.2101054191589355469 4.1798090934753417969 4.1455821990966796875 4.1059498786926269531 4.0667500495910644531 4.0269708633422851562 3.9923596382141113281 3.9617946147918701172 3.9363994598388671875 3.9097523689270019531 3.8797650337219238281 3.8392572402954101562 3.7874124050140380859 3.7178325653076171875 3.6384613513946533203 3.546817779541015625 3.4536805152893066406 3.3558363914489746094 3.2633044719696044922 3.1674983501434326172 3.0705940723419189453 2.9601302146911621094 2.8389048576354980469 2.69322967529296875 2.5321285724639892578 2.3499600887298583984 2.1659884452819824219 1.9756705760955810547 1.7982844114303588867 1.6287531852722167969 1.4774745702743530273 1.3316185474395751953 1.1959475278854370117 1.0584846735000610352 0.92335504293441772461 0.77924966812133789062 0.63133257627487182617 0.4684861302375793457 0.18406020104885101318 0 0 0 0 0 0 0 0 0 0 0 0 0 0 0 0 0 0 0 0 0 0 0 0 0 0 0 0 0 0 0 0 0 0 
2.4242508411407470703 2.4117219448089599609 2.3760848045349121094 2.3586378097534179688 2.3163208961486816406 2.3029539585113525391 2.3356492519378662109 2.4096708297729492188 2.5966022014617919922 2.7228446006774902344 2.5635542869567871094 2.4321465492248535156 2.4030294418334960938 2.4209835529327392578 2.4427454471588134766 2.4531497955322265625 2.5916016101837158203 2.6098911762237548828 2.4626905918121337891 2.4554960727691650391 2.4718060493469238281 2.4386899471282958984 2.4357416629791259766 2.4533507823944091797 2.4523255825042724609 2.4433767795562744141 2.4561183452606201172 2.5448637008666992188 2.6414167881011962891 2.7407820224761962891 2.8412127494812011719 2.8653414249420166016 2.8665735721588134766 2.8557465076446533203 2.8412449359893798828 2.8430707454681396484 2.8552432060241699219 2.8862903118133544922 2.8252763748168945312 2.6720499992370605469 2.7523128986358642578 2.7190060615539550781 2.7149384021759033203 2.7286207675933837891 2.7478275299072265625 2.7873733043670654297 2.8253698348999023438 2.8277657032012939453 2.8464784622192382812 2.8638250827789306641 2.8845317363739013672 3.0914738178253173828 3.9210524559020996094 3.8831038475036621094 3.8546564579010009766 3.79178619384765625 3.8389298915863037109 3.8726382255554199219 3.8121931552886962891 4.3101873397827148438 5.0984926223754882812 5.2766003608703613281 5.4817852973937988281 5.3886051177978515625 5.2594060897827148438 5.1107859611511230469 5.1848092079162597656 5.49347686767578125 6.0988683700561523438 6.7253727912902832031 6.8122506141662597656 5.8790326118469238281 5.31229400634765625 4.9393057823181152344 4.7750363349914550781 4.8139748573303222656 4.8440327644348144531 4.7782335281372070312 4.6455545425415039062 4.5169811248779296875 4.3798274993896484375 4.2269992828369140625 4.0857086181640625 4.0713558197021484375 4.1522793769836425781 4.104373931884765625 3.8967211246490478516 3.7126328945159912109 3.5897958278656005859 3.4240121841430664062 3.2335584163665771484 3.2029244899749755859 3.1976337432861328125 3.1999082565307617188 3.2099392414093017578 3.2326796054840087891 3.2817440032958984375 3.3546366691589355469 3.5386121273040771484 3.8241782188415527344 4.0671234130859375 4.2432727813720703125 4.4048352241516113281 2.9708566665649414062 2.5508563518524169922 2.7092313766479492188 2.8672688007354736328 3.3018183708190917969 4.0491476058959960938 4.1717295646667480469 4.2782196998596191406 4.356304168701171875 4.4154095649719238281 4.4510979652404785156 4.469074249267578125 4.4688262939453125 4.4527773857116699219 4.4270124435424804688 4.3949685096740722656 4.3658194541931152344 4.3424577713012695312 4.3328166007995605469 4.3375425338745117188 4.3533411026000976562 4.3778729438781738281 4.4046382904052734375 4.4327802658081054688 4.4563899040222167969 4.4786610603332519531 4.4986395835876464844 4.5206508636474609375 4.543735504150390625 4.5724802017211914062 4.6037821769714355469 4.6407189369201660156 4.6778812408447265625 4.7191700935363769531 4.75833892822265625 4.8000478744506835938 4.8399577140808105469 4.8853816986083984375 4.93219757080078125 4.9886517524719238281 5.0486617088317871094 5.1200103759765625 5.1908044815063476562 5.2682104110717773438 5.3391542434692382812 5.4110746383666992188 5.472446441650390625 5.5329422950744628906 5.5857272148132324219 5.640247344970703125 5.6900248527526855469 5.7437109947204589844 5.7931027412414550781 5.8438286781311035156 5.8865981101989746094 5.9259166717529296875 5.9540510177612304688 5.9741230010986328125 5.9835557937622070312 5.9848895072937011719 5.9788379669189453125 5.9654970169067382812 5.9480600357055664062 5.9254221916198730469 5.9029793739318847656 5.8792653083801269531 5.8598418235778808594 5.8437037467956542969 5.8342671394348144531 5.8293614387512207031 5.8287034034729003906 5.8310666084289550781 5.8350729942321777344 5.8396959304809570312 5.8410401344299316406 5.8343062400817871094 5.8159251213073730469 5.7779955863952636719 5.7216372489929199219 5.6381206512451171875 5.5447983741760253906 5.4361028671264648438 5.3341317176818847656 5.232288360595703125 5.1498284339904785156 5.0745716094970703125 5.0124378204345703125 4.9501280784606933594 4.8920049667358398438 4.8290348052978515625 4.7825984954833984375 4.7467041015625 4.7157878875732421875 4.6856102943420410156 4.6622490882873535156 4.6446499824523925781 4.633846282958984375 4.6256437301635742188 4.6182770729064941406 4.6078238487243652344 4.5931386947631835938 4.5719990730285644531 4.5489850044250488281 4.5240778923034667969 4.5026621818542480469 4.484966278076171875 4.4746050834655761719 4.4695744514465332031 4.4685373306274414062 4.4692974090576171875 4.4698510169982910156 4.4682822227478027344 4.4638013839721679688 4.4557824134826660156 4.4451274871826171875 4.4307065010070800781 4.4140677452087402344 4.3936891555786132812 4.3723387718200683594 4.3487548828125 4.3261542320251464844 4.3032183647155761719 4.282867431640625 4.26270294189453125 4.2432551383972167969 4.2210106849670410156 4.196544647216796875 4.1659436225891113281 4.1314749717712402344 4.09149932861328125 4.0517435073852539062 4.0109882354736328125 3.9749248027801513672 3.9421675205230712891 3.9140202999114990234 3.8839089870452880859 3.8501260280609130859 3.8052713871002197266 3.7489724159240722656 3.6745791435241699219 3.5905392169952392578 3.4941501617431640625 3.3966689109802246094 3.2946817874908447266 3.1986289024353027344 3.0995848178863525391 2.9997465610504150391 2.8862066268920898438 2.7617521286010742188 2.6121931076049804688 2.4469370841979980469 2.2602016925811767578 2.0716042518615722656 1.8764960765838623047 1.694649815559387207 1.5209417343139648438 1.3663182258605957031 1.2181278467178344727 1.0816149711608886719 0.94514870643615722656 0.8130868077278137207 0.67427974939346313477 0.53317081928253173828 0.3741130828857421875 0.068258330225944519043 0 0 0 0 0 0 0 0 0 0 0 0 0 0 0 0 0 0 0 0 0 0 0 0 0 0 0 0 0 0 0 0 0 0 
2.4213621616363525391 2.4196667671203613281 2.3999931812286376953 2.3726818561553955078 2.3418595790863037109 2.3441648483276367188 2.3997991085052490234 2.5515048503875732422 2.7352046966552734375 2.6151900291442871094 2.4495344161987304688 2.40883636474609375 2.4164903163909912109 2.4427878856658935547 2.4532611370086669922 2.5753934383392333984 2.6856691837310791016 2.5111851692199707031 2.4523947238922119141 2.5270247459411621094 2.5410947799682617188 2.5161108970642089844 2.4478499889373779297 2.4255082607269287109 2.4528157711029052734 2.4645419120788574219 2.4815974235534667969 2.5644352436065673828 2.6584646701812744141 2.7612562179565429688 2.8523390293121337891 2.8705120086669921875 2.8673355579376220703 2.8594439029693603516 2.8411138057708740234 2.8441600799560546875 2.8775489330291748047 2.8890848159790039062 2.7238724231719970703 2.7473146915435791016 2.8057532310485839844 2.7611596584320068359 2.7556416988372802734 2.750705718994140625 2.7628622055053710938 2.797473907470703125 2.8358807563781738281 2.8449335098266601562 2.8669533729553222656 2.8917443752288818359 2.9209322929382324219 3.4269769191741943359 3.9423935413360595703 3.8957097530364990234 3.8718361854553222656 3.8751542568206787109 3.936237335205078125 4.0486125946044921875 4.137241363525390625 4.9064588546752929688 5.4701132774353027344 5.473560333251953125 5.5918374061584472656 5.4484391212463378906 5.2706370353698730469 5.1424574851989746094 5.3326115608215332031 5.6580572128295898438 6.5121870040893554688 7.0386362075805664062 6.7429971694946289062 5.9075412750244140625 5.3567948341369628906 5.0260672569274902344 4.9073109626770019531 5.0165724754333496094 5.031360626220703125 4.9189076423645019531 4.7471714019775390625 4.5723290443420410156 4.4099268913269042969 4.2834882736206054688 4.16754150390625 4.1870775222778320312 4.2538156509399414062 4.142242431640625 3.9112060070037841797 3.7488560676574707031 3.6440858840942382812 3.4207522869110107422 3.2523453235626220703 3.2491922378540039062 3.2525162696838378906 3.2580702304840087891 3.2726426124572753906 3.3029172420501708984 3.3401474952697753906 3.4149899482727050781 3.6031544208526611328 3.8731448650360107422 4.0976252555847167969 4.2657465934753417969 4.419586181640625 2.9645571708679199219 2.5340189933776855469 2.6889033317565917969 2.8442881107330322266 3.2805740833282470703 4.034626007080078125 4.1570301055908203125 4.2631554603576660156 4.3406085968017578125 4.399051666259765625 4.4341759681701660156 4.4517159461975097656 4.45130157470703125 4.4354043006896972656 4.4100155830383300781 4.3784494400024414062 4.34969329833984375 4.3265433311462402344 4.3167476654052734375 4.3209509849548339844 4.3362040519714355469 4.3604426383972167969 4.3872990608215332031 4.4161930084228515625 4.4413228034973144531 4.4659776687622070312 4.4886989593505859375 4.5140247344970703125 4.5404706001281738281 4.5728788375854492188 4.6076588630676269531 4.6483931541442871094 4.6891007423400878906 4.7342963218688964844 4.7775135040283203125 4.8240284919738769531 4.8688459396362304688 4.9197378158569335938 4.971820831298828125 5.0340943336486816406 5.0996327400207519531 5.1768369674682617188 5.2528505325317382812 5.3353128433227539062 5.4102296829223632812 5.4853730201721191406 5.5485935211181640625 5.6096372604370117188 5.6613650321960449219 5.7132434844970703125 5.759151458740234375 5.8071346282958984375 5.8500132560729980469 5.8928599357604980469 5.9279475212097167969 5.9590673446655273438 5.9801545143127441406 5.9935674667358398438 5.9977869987487792969 5.9945726394653320312 5.9853839874267578125 5.9698276519775390625 5.9514470100402832031 5.9289822578430175781 5.9076685905456542969 5.8860602378845214844 5.8692555427551269531 5.8565077781677246094 5.8505282402038574219 5.8493771553039550781 5.851898193359375 5.8570151329040527344 5.8626556396484375 5.8677620887756347656 5.8683557510375976562 5.8596897125244140625 5.8386087417602539062 5.7969632148742675781 5.7365508079528808594 5.6482782363891601562 5.5504465103149414062 5.4371180534362792969 5.3312554359436035156 5.2259969711303710938 5.1412634849548339844 5.0645580291748046875 5.0018625259399414062 4.9395852088928222656 4.8817949295043945312 4.8173570632934570312 4.7716732025146484375 4.7407617568969726562 4.7125163078308105469 4.68460845947265625 4.6630620956420898438 4.6470217704772949219 4.6373486518859863281 4.6300530433654785156 4.6233496665954589844 4.6134185791015625 4.599086761474609375 4.5781736373901367188 4.5551934242248535156 4.5300817489624023438 4.5082011222839355469 4.4896745681762695312 4.478214263916015625 4.4718294143676757812 4.4695234298706054688 4.4691677093505859375 4.4690694808959960938 4.4674229621887207031 4.4634022712707519531 4.4561495780944824219 4.4461917877197265625 4.43215179443359375 4.4152498245239257812 4.3937516212463378906 4.3706846237182617188 4.3448896408081054688 4.3200693130493164062 4.2949733734130859375 4.272968292236328125 4.251583099365234375 4.231388092041015625 4.2087016105651855469 4.1840395927429199219 4.1533694267272949219 4.1188664436340332031 4.0787458419799804688 4.0386033058166503906 3.9970271587371826172 3.9596383571624755859 3.9247975349426269531 3.893993377685546875 3.8605256080627441406 3.8230848312377929688 3.7740838527679443359 3.7135984897613525391 3.6347420215606689453 3.5463833808898925781 3.4455444812774658203 3.3438718318939208984 3.2376716136932373047 3.1377432346343994141 3.0348889827728271484 2.9315302371978759766 2.8144512176513671875 2.6866331100463867188 2.53357696533203125 2.3648710250854492188 2.17472076416015625 1.9827978610992431641 1.7841354608535766602 1.5987094640731811523 1.4211963415145874023 1.2630134820938110352 1.1116895675659179688 0.9730281829833984375 0.83565461635589599609 0.70428299903869628906 0.56802898645401000977 0.43108570575714111328 0.25551712512969970703 0 0 0 0 0 0 0 0 0 0 0 0 0 0 0 0 0 0 0 0 0 0 0 0 0 0 0 0 0 0 0 0 0 0 0 
2.4154565334320068359 2.4099292755126953125 2.3926651477813720703 2.3611404895782470703 2.3916990756988525391 2.4387712478637695312 2.5301465988159179688 2.7275631427764892578 2.6578440666198730469 2.4783179759979248047 2.4142322540283203125 2.4177331924438476562 2.4437122344970703125 2.4575796127319335938 2.5555765628814697266 2.7165091037750244141 2.5665507316589355469 2.4663996696472167969 2.5091762542724609375 2.5109071731567382812 2.5083224773406982422 2.5237627029418945312 2.5219933986663818359 2.4805393218994140625 2.4319376945495605469 2.4424622058868408203 2.5327572822570800781 2.6093904972076416016 2.6856834888458251953 2.7802331447601318359 2.8682520389556884766 2.87949371337890625 2.868244171142578125 2.8619225025177001953 2.8485887050628662109 2.8592703342437744141 2.9017493724822998047 2.8224580287933349609 2.7185497283935546875 2.8163495063781738281 2.8227002620697021484 2.8040132522583007812 2.8027300834655761719 2.7905962467193603516 2.7996017932891845703 2.8286042213439941406 2.8452930450439453125 2.8659861087799072266 2.9001152515411376953 2.9212753772735595703 2.9744200706481933594 3.7314743995666503906 3.9080209732055664062 3.9330527782440185547 3.9562370777130126953 4.0001645088195800781 4.0732870101928710938 4.2236647605895996094 4.5550737380981445312 5.2555880546569824219 5.6983404159545898438 5.6565704345703125 5.6606144905090332031 5.4702572822570800781 5.244960784912109375 5.2560296058654785156 5.4955501556396484375 5.889148712158203125 6.7981829643249511719 7.1431345939636230469 6.7559895515441894531 5.9243741035461425781 5.4914808273315429688 5.0917921066284179688 5.0038504600524902344 5.225215911865234375 5.1510243415832519531 4.9934444427490234375 4.7933902740478515625 4.6188931465148925781 4.443813323974609375 4.3254518508911132812 4.2266550064086914062 4.2864232063293457031 4.3300004005432128906 4.1424646377563476562 3.9277703762054443359 3.7861921787261962891 3.6612055301666259766 3.4141435623168945312 3.2930400371551513672 3.2926030158996582031 3.2968685626983642578 3.3055279254913330078 3.3273866176605224609 3.333221435546875 3.3582260608673095703 3.4759762287139892578 3.6503858566284179688 3.9130253791809082031 4.1273565292358398438 4.2910199165344238281 4.4420528411865234375 2.9647412300109863281 2.52283477783203125 2.6740353107452392578 2.8261213302612304688 3.2621004581451416016 4.0196919441223144531 4.1419234275817871094 4.2476816177368164062 4.3246445655822753906 4.382617950439453125 4.4174427986145019531 4.4349474906921386719 4.4348969459533691406 4.4198770523071289062 4.3956537246704101562 4.365406036376953125 4.3377308845520019531 4.3152909278869628906 4.3055558204650878906 4.3091678619384765625 4.3235039710998535156 4.3467593193054199219 4.3731336593627929688 4.4022679328918457031 4.4285168647766113281 4.4552645683288574219 4.480632781982421875 4.5092320442199707031 4.53907012939453125 4.5752925872802734375 4.6137981414794921875 4.6587176322937011719 4.7036037445068359375 4.7533822059631347656 4.8012037277221679688 4.8531436920166015625 4.9034428596496582031 4.9604516029357910156 5.01824951171875 5.0865712165832519531 5.1576318740844726562 5.2404422760009765625 5.3212418556213378906 5.4081816673278808594 5.4864544868469238281 5.5641207695007324219 5.6285367012023925781 5.6895265579223632812 5.7397189140319824219 5.7882971763610839844 5.8297138214111328125 5.8713250160217285156 5.9070887565612792969 5.9414720535278320312 5.968433380126953125 5.9910111427307128906 6.0048580169677734375 6.0116105079650878906 6.010814666748046875 6.0034208297729492188 5.9915232658386230469 5.9742884635925292969 5.9554553031921386719 5.9336504936218261719 5.9138917922973632812 5.8948225975036621094 5.8810091018676757812 5.8720197677612304688 5.8697886466979980469 5.8726072311401367188 5.8783736228942871094 5.8861036300659179688 5.8930010795593261719 5.8978910446166992188 5.8968677520751953125 5.8852295875549316406 5.8605189323425292969 5.8143472671508789062 5.7494373321533203125 5.6563010215759277344 5.5540947914123535156 5.4364485740661621094 5.3271083831787109375 5.2189307212829589844 5.1323747634887695312 5.0546636581420898438 4.9917874336242675781 4.9299612045288085938 4.8729457855224609375 4.80896759033203125 4.7648496627807617188 4.7375664710998535156 4.7116017341613769531 4.685878753662109375 4.6660895347595214844 4.6515188217163085938 4.6428623199462890625 4.6363272666931152344 4.6301331520080566406 4.6205844879150390625 4.6064958572387695312 4.585723876953125 4.562709808349609375 4.5373110771179199219 4.5148601531982421875 4.4953417778015136719 4.482570648193359375 4.4745497703552246094 4.4706664085388183594 4.4688358306884765625 4.4677286148071289062 4.4656229019165039062 4.4617061614990234375 4.4548635482788085938 4.445293426513671875 4.4313473701477050781 4.4139590263366699219 4.3911647796630859375 4.3662667274475097656 4.3381924629211425781 4.3111348152160644531 4.2839002609252929688 4.2602996826171875 4.2377872467041015625 4.2169589996337890625 4.1939702033996582031 4.1692657470703125 4.1387000083923339844 4.1043291091918945312 4.0642547607421875 4.02394866943359375 3.981845855712890625 3.9434900283813476562 3.9070351123809814453 3.8741064071655273438 3.8379018306732177734 3.7974309921264648438 3.7449452877044677734 3.6808912754058837891 3.5981531143188476562 3.5059022903442382812 3.4008247852325439453 3.2948670387268066406 3.1839766502380371094 3.0792837142944335938 2.9713759422302246094 2.8632602691650390625 2.741607666015625 2.6099288463592529297 2.4536728858947753906 2.2826080322265625 2.0905759334564208984 1.8971399068832397461 1.6966203451156616211 1.5087209939956665039 1.3276726007461547852 1.1653509140014648438 1.0095672607421875 0.86691594123840332031 0.72635591030120849609 0.59334075450897216797 0.45729976892471313477 0.32246136665344238281 0.10017573088407516479 0 0 0 0 0 0 0 0 0 0 0 0 0 0 0 0 0 0 0 0 0 0 0 0 0 0 0 0 0 0 0 0 0 0 0 
2.4101231098175048828 2.3987185955047607422 2.3668000698089599609 2.3482458591461181641 2.4206793308258056641 2.5244085788726806641 2.72866058349609375 2.7088654041290283203 2.5167300701141357422 2.4187827110290527344 2.4196639060974121094 2.4442386627197265625 2.4594280719757080078 2.5410492420196533203 2.7201128005981445312 2.6144754886627197266 2.4700741767883300781 2.5166120529174804688 2.5193963050842285156 2.4945237636566162109 2.4839222431182861328 2.489521026611328125 2.5071704387664794922 2.5197880268096923828 2.5122535228729248047 2.4799277782440185547 2.6984183788299560547 2.6417820453643798828 2.72625732421875 2.8214738368988037109 2.8969709873199462891 2.8883795738220214844 2.8628945350646972656 2.8526449203491210938 2.85161590576171875 2.8750255107879638672 2.8833456039428710938 2.7572245597839355469 2.857624053955078125 2.8669834136962890625 2.8421869277954101562 2.8298053741455078125 2.8257012367248535156 2.826324462890625 2.8259160518646240234 2.8479647636413574219 2.85404205322265625 2.8868396282196044922 2.9295418262481689453 2.9625058174133300781 3.1781182289123535156 3.8130922317504882812 3.8780767917633056641 3.9927315711975097656 4.0717902183532714844 4.0762815475463867188 4.1630764007568359375 4.3029575347900390625 4.8548626899719238281 5.3872752189636230469 5.7173442840576171875 5.8330054283142089844 5.69127655029296875 5.4769735336303710938 5.2965450286865234375 5.4608073234558105469 5.7477178573608398438 6.3997659683227539062 7.1432175636291503906 7.066120147705078125 6.3943305015563964844 5.785732269287109375 5.4832997322082519531 5.1495499610900878906 5.12761688232421875 5.2817859649658203125 5.2073945999145507812 5.0461792945861816406 4.8181819915771484375 4.6391363143920898438 4.4795088768005371094 4.3605022430419921875 4.2837762832641601562 4.3696808815002441406 4.3768563270568847656 4.1487536430358886719 3.9631483554840087891 3.8395593166351318359 3.6774625778198242188 3.4202799797058105469 3.3306262493133544922 3.3293504714965820312 3.3343939781188964844 3.3495955467224121094 3.3360669612884521484 3.3232030868530273438 3.4217925071716308594 3.5311498641967773438 3.7015824317932128906 3.945224761962890625 4.1498899459838867188 4.3133087158203125 4.2697672843933105469 2.7549881935119628906 2.5168926715850830078 2.6647024154663085938 2.8136718273162841797 3.2472798824310302734 4.0036787986755371094 4.1250700950622558594 4.2301411628723144531 4.3065552711486816406 4.3641452789306640625 4.3989338874816894531 4.4169111251831054688 4.4179596900939941406 4.4048666954040527344 4.3829855918884277344 4.3553547859191894531 4.3299160003662109375 4.3091855049133300781 4.3001065254211425781 4.30338287353515625 4.3167309761047363281 4.3386278152465820312 4.3639278411865234375 4.3927087783813476562 4.4195737838745117188 4.4479184150695800781 4.4755492210388183594 4.50717926025390625 4.5402402877807617188 4.5802102088928222656 4.6225080490112304688 4.6717905998229980469 4.721118927001953125 4.7759885787963867188 4.8287754058837890625 4.8864078521728515625 4.9423594474792480469 5.0055704116821289062 5.0691080093383789062 5.1432242393493652344 5.2193269729614257812 5.3070173263549804688 5.391773223876953125 5.482219696044921875 5.5629625320434570312 5.6422772407531738281 5.7071928977966308594 5.7675189971923828125 5.8158564567565917969 5.8608245849609375 5.8974843025207519531 5.9325051307678222656 5.9610180854797363281 5.9868803024291992188 6.0057621002197265625 6.0199766159057617188 6.026874542236328125 6.0273900032043457031 6.0220708847045898438 6.0110826492309570312 5.997039794921875 5.9787282943725585938 5.9599671363830566406 5.9392642974853515625 5.9213747978210449219 5.90508270263671875 5.8943858146667480469 5.8891863822937011719 5.8906388282775878906 5.8972616195678710938 5.9060378074645996094 5.9160442352294921875 5.9238114356994628906 5.9280023574829101562 5.9248890876770019531 5.9097948074340820312 5.8810901641845703125 5.8301234245300292969 5.7605905532836914062 5.6625995635986328125 5.5561594963073730469 5.4344649314880371094 5.3219738006591796875 5.2112741470336914062 5.1232814788818359375 5.0449705123901367188 4.9822726249694824219 4.9212746620178222656 4.865436553955078125 4.8050670623779296875 4.76300811767578125 4.7363433837890625 4.7123627662658691406 4.6886315345764160156 4.6704392433166503906 4.6571788787841796875 4.6493964195251464844 4.6434731483459472656 4.637638092041015625 4.6283383369445800781 4.6143784523010253906 4.5936346054077148438 4.5704874992370605469 4.5446977615356445312 4.5215711593627929688 4.5009331703186035156 4.4867095947265625 4.4768652915954589844 4.4711790084838867188 4.4675707817077636719 4.4650945663452148438 4.46205902099609375 4.4577312469482421875 4.4507279396057128906 4.4410223960876464844 4.42668914794921875 4.4084677696228027344 4.384159088134765625 4.3573465347290039062 4.3270020484924316406 4.2977752685546875 4.2685060501098632812 4.2434058189392089844 4.2198529243469238281 4.1984648704528808594 4.1752481460571289062 4.1505722999572753906 4.1201996803283691406 4.0860791206359863281 4.0462450981140136719 4.0060725212097167969 3.9639301300048828125 3.9252936840057373047 3.8882169723510742188 3.8543503284454345703 3.8168148994445800781 3.7747399806976318359 3.7202525138854980469 3.6539719104766845703 3.5685713291168212891 3.4733414649963378906 3.364612579345703125 3.2545068264007568359 3.1385304927825927734 3.0281534194946289062 2.9138269424438476562 2.7995779514312744141 2.6722364425659179688 2.5362589359283447266 2.3773660659790039062 2.2055623531341552734 2.0139329433441162109 1.8214082717895507812 1.6214013099670410156 1.4326344728469848633 1.2486054897308349609 1.0816138982772827148 0.91994649171829223633 0.77137392759323120117 0.62538856267929077148 0.48854401707649230957 0.35064345598220825195 0.21569946408271789551 0.010878236033022403717 0 0 0 0 0 0 0 0 0 0 0 0 0 0 0 0 0 0 0 0 0 0 0 0 0 0 0 0 0 0 0 0 0 0 0 
2.4038348197937011719 2.3760733604431152344 2.3339891433715820312 2.347873687744140625 2.4457731246948242188 2.6748211383819580078 2.7410521507263183594 2.5529582500457763672 2.4353690147399902344 2.4143652915954589844 2.4397134780883789062 2.4586169719696044922 2.5146937370300292969 2.7034888267517089844 2.6528232097625732422 2.46468353271484375 2.4911799430847167969 2.5205152034759521484 2.5011224746704101562 2.4909968376159667969 2.4884045124053955078 2.4844677448272705078 2.4746842384338378906 2.48416900634765625 2.5128512382507324219 2.5312097072601318359 2.5724301338195800781 2.6070203781127929688 2.6726267337799072266 2.8385694026947021484 2.9371807575225830078 2.9162805080413818359 2.8735508918762207031 2.8450212478637695312 2.85433197021484375 2.8945822715759277344 2.8301331996917724609 2.7666172981262207031 2.8899047374725341797 2.8647127151489257812 2.8421580791473388672 2.837963104248046875 2.8324682712554931641 2.8340313434600830078 2.8355352878570556641 2.8371841907501220703 2.851459503173828125 2.8849594593048095703 2.9201188087463378906 2.9731001853942871094 3.4318180084228515625 3.9062764644622802734 3.9323542118072509766 4.0599470138549804688 4.1285653114318847656 4.0696897506713867188 4.1204614639282226562 4.2837190628051757812 4.9730782508850097656 5.8282170295715332031 5.8269724845886230469 5.9212994575500488281 5.7317051887512207031 5.4759945869445800781 5.4057168960571289062 5.6966805458068847656 6.0540037155151367188 6.8265967369079589844 7.4306578636169433594 7.0325059890747070312 6.3018131256103515625 5.7360992431640625 5.4160709381103515625 5.2323350906372070312 5.289730072021484375 5.2939124107360839844 5.2489886283874511719 5.0875658988952636719 4.8509149551391601562 4.6596698760986328125 4.5117459297180175781 4.3964710235595703125 4.3491053581237792969 4.4420709609985351562 4.3952641487121582031 4.1604037284851074219 4.001033782958984375 3.8927013874053955078 3.6751158237457275391 3.4269423484802246094 3.3692476749420166016 3.3676722049713134766 3.3761897087097167969 3.3444845676422119141 3.3014922142028808594 3.3824796676635742188 3.4790148735046386719 3.5768845081329345703 3.7697720527648925781 3.9922111034393310547 4.1811537742614746094 4.3388872146606445312 3.874462127685546875 2.4451196193695068359 2.5152285099029541016 2.6597416400909423828 2.8056478500366210938 3.2344837188720703125 3.9843575954437255859 4.1040015220642089844 4.20743560791015625 4.2828917503356933594 4.3400387763977050781 4.3750376701354980469 4.3941144943237304688 4.3972563743591308594 4.3875689506530761719 4.3697261810302734375 4.3466143608093261719 4.3251328468322753906 4.3076415061950683594 4.3002123832702636719 4.3036532402038574219 4.3160395622253417969 4.3363070487976074219 4.3600468635559082031 4.3877758979797363281 4.4147162437438964844 4.44420623779296875 4.4737706184387207031 4.5082426071166992188 4.544559478759765625 4.5884299278259277344 4.6348180770874023438 4.6889142990112304688 4.7431902885437011719 4.8037900924682617188 4.862262725830078125 4.9261374473571777344 4.9881353378295898438 5.0578303337097167969 5.1272497177124023438 5.2071399688720703125 5.2879552841186523438 5.3799376487731933594 5.467945098876953125 5.5610337257385253906 5.6434354782104492188 5.7235975265502929688 5.7883629798889160156 5.8474249839782714844 5.89345550537109375 5.9344644546508789062 5.96593475341796875 5.9938759803771972656 6.014678955078125 6.03156280517578125 6.0420222282409667969 6.0476365089416503906 6.0475335121154785156 6.0419392585754394531 6.0323762893676757812 6.018218994140625 6.0024824142456054688 5.9836001396179199219 5.9653911590576171875 5.9462590217590332031 5.9306092262268066406 5.9174237251281738281 5.9100666046142578125 5.9087934494018554688 5.913951873779296875 5.9243011474609375 5.9359369277954101562 5.9479975700378417969 5.9563722610473632812 5.959545135498046875 5.9540209770202636719 5.9351010322570800781 5.9020371437072753906 5.8458790779113769531 5.7713689804077148438 5.6681876182556152344 5.5572581291198730469 5.4313235282897949219 5.3156008720397949219 5.2024168968200683594 5.11315155029296875 5.0345306396484375 4.9723534584045410156 4.9126019477844238281 4.858608245849609375 4.8043150901794433594 4.7637114524841308594 4.7363543510437011719 4.7142291069030761719 4.692401885986328125 4.6757321357727050781 4.6637063026428222656 4.6567282676696777344 4.6513414382934570312 4.6457767486572265625 4.6366276741027832031 4.6227126121520996094 4.6018939018249511719 4.5784983634948730469 4.5521750450134277344 4.5282135009765625 4.5062532424926757812 4.4903430938720703125 4.4783740043640136719 4.4705381393432617188 4.4647054672241210938 4.4603495597839355469 4.4557447433471679688 4.4503226280212402344 4.4424004554748535156 4.431854248046875 4.4164566993713378906 4.3968691825866699219 4.370632171630859375 4.3416409492492675781 4.3088545799255371094 4.2773656845092773438 4.2460074424743652344 4.2193713188171386719 4.1947450637817382812 4.1727724075317382812 4.14931488037109375 4.1246747970581054688 4.0945291519165039062 4.0607385635375976562 4.0213446617126464844 3.9816706180572509766 3.9401187896728515625 3.9021050930023193359 3.8657221794128417969 3.8324961662292480469 3.7954857349395751953 3.7536690235137939453 3.6990714073181152344 3.6322114467620849609 3.5455567836761474609 3.4483184814453125 3.3364429473876953125 3.2221024036407470703 3.1002495288848876953 2.9827313423156738281 2.8599946498870849609 2.7376236915588378906 2.6029493808746337891 2.4619238376617431641 2.3009395599365234375 2.1302838325500488281 1.9419643878936767578 1.7533010244369506836 1.5566461086273193359 1.3688685894012451172 1.1822966337203979492 1.0096918344497680664 0.8401787877082824707 0.68323367834091186523 0.52913433313369750977 0.38607779145240783691 0.24436816573143005371 0.091676481068134307861 0.00050991366151720285416 0 0 0 0 0 0 0 0 0 0 0 0 0 0 0 0 0 0 0 0 0 0 0 0 0 0 0 0 0 0 0 0 0 0 0 
2.3853533267974853516 2.3367319107055664062 2.3432013988494873047 2.4164621829986572266 2.6211688518524169922 2.7638404369354248047 2.5964663028717041016 2.4452874660491943359 2.4032030105590820312 2.4225647449493408203 2.4451479911804199219 2.4801976680755615234 2.6669638156890869141 2.6849091053009033203 2.4940245151519775391 2.4844930171966552734 2.5190367698669433594 2.4992058277130126953 2.4853312969207763672 2.4845418930053710938 2.4868218898773193359 2.4899713993072509766 2.4900023937225341797 2.47682952880859375 2.4666287899017333984 2.4945037364959716797 2.5673947334289550781 2.7312083244323730469 2.75395965576171875 2.7441842555999755859 2.8639574050903320312 2.9455564022064208984 2.9077553749084472656 2.8579547405242919922 2.871967315673828125 2.8943023681640625 2.7742068767547607422 2.8446938991546630859 2.8777296543121337891 2.8544776439666748047 2.8384480476379394531 2.8300244808197021484 2.8193869590759277344 2.8152186870574951172 2.8343443870544433594 2.833995819091796875 2.8539087772369384766 2.8852899074554443359 2.9240720272064208984 3.0208833217620849609 3.6822957992553710938 3.943187713623046875 3.989566802978515625 4.0731825828552246094 4.1060667037963867188 4.0398764610290527344 4.0399308204650878906 4.35956573486328125 5.34395599365234375 5.8539834022521972656 5.9553990364074707031 5.935352325439453125 5.7846879959106445312 5.5737981796264648438 5.5884127616882324219 6.0065131187438964844 6.5612773895263671875 7.0062823295593261719 7.2647676467895507812 6.8457913398742675781 6.1900134086608886719 5.7535037994384765625 5.3795671463012695312 5.3247799873352050781 5.3715147972106933594 5.3372097015380859375 5.2929701805114746094 5.124538421630859375 4.8949475288391113281 4.6902914047241210938 4.5393047332763671875 4.4307446479797363281 4.4123673439025878906 4.5002102851867675781 4.3973889350891113281 4.1821503639221191406 4.0338263511657714844 3.9241325855255126953 3.6643259525299072266 3.4509525299072265625 3.4088809490203857422 3.4073717594146728516 3.3842337131500244141 3.2917814254760742188 3.3582425117492675781 3.4361042976379394531 3.5264933109283447266 3.6347219944000244141 3.8385992050170898438 4.0412759780883789062 4.2185978889465332031 4.35811614990234375 3.2167870998382568359 2.3633248805999755859 2.5174288749694824219 2.6589214801788330078 2.8019967079162597656 3.2241334915161132812 3.9627592563629150391 4.0799608230590820312 4.1811151504516601562 4.2550048828125 4.3115167617797851562 4.3469262123107910156 4.3676104545593261719 4.373630523681640625 4.3684892654418945312 4.3559808731079101562 4.3388457298278808594 4.3226528167724609375 4.3096175193786621094 4.3046832084655761719 4.30879974365234375 4.3203802108764648438 4.3389573097229003906 4.360912322998046875 4.3871889114379882812 4.4136972427368164062 4.443889617919921875 4.4750194549560546875 4.5119910240173339844 4.5513606071472167969 4.59906005859375 4.6495127677917480469 4.7084603309631347656 4.7677454948425292969 4.8341264724731445312 4.89838409423828125 4.9685597419738769531 5.036449432373046875 5.1123480796813964844 5.1872782707214355469 5.2725019454956054688 5.3574757575988769531 5.4530096054077148438 5.5435204505920410156 5.6384305953979492188 5.7217464447021484375 5.8020596504211425781 5.8661446571350097656 5.9235053062438964844 5.9669489860534667969 6.0039429664611816406 6.0302667617797851562 6.0512557029724121094 6.0645756721496582031 6.0728244781494140625 6.0752501487731933594 6.0727443695068359375 6.0661206245422363281 6.0549464225769042969 6.0416150093078613281 6.0247969627380371094 6.0077958106994628906 5.9887399673461914062 5.9713788032531738281 5.9540572166442871094 5.9407629966735839844 5.9307155609130859375 5.9266428947448730469 5.9291481971740722656 5.93780517578125 5.9516062736511230469 5.9658274650573730469 5.9796595573425292969 5.9884119033813476562 5.9903736114501953125 5.9823169708251953125 5.9594893455505371094 5.9220242500305175781 5.8606657981872558594 5.7811923027038574219 5.6728496551513671875 5.5574793815612792969 5.4273862838745117188 5.3085408210754394531 5.1930346488952636719 5.1026921272277832031 5.0240073204040527344 4.9625964164733886719 4.9043750762939453125 4.8535571098327636719 4.8048634529113769531 4.765949249267578125 4.7372622489929199219 4.7167067527770996094 4.6965961456298828125 4.6812958717346191406 4.6703753471374511719 4.664112091064453125 4.6591963768005371094 4.6538600921630859375 4.6448154449462890625 4.6309409141540527344 4.6100568771362304688 4.5864205360412597656 4.5595517158508300781 4.53472137451171875 4.5113644599914550781 4.49365234375 4.4793720245361328125 4.4691386222839355469 4.4607286453247070312 4.4540657997131347656 4.4473295211791992188 4.4401946067810058594 4.4306635856628417969 4.4186377525329589844 4.4015774726867675781 4.3801755905151367188 4.3517031669616699219 4.320377349853515625 4.285091400146484375 4.2513489723205566406 4.2179369926452636719 4.1897907257080078125 4.1640939712524414062 4.1415243148803710938 4.1178064346313476562 4.093189239501953125 4.0632710456848144531 4.0298490524291992188 3.9910273551940917969 3.9521260261535644531 3.9116740226745605469 3.8750379085540771484 3.8404619693756103516 3.8092164993286132812 3.7743179798126220703 3.7343606948852539062 3.6812901496887207031 3.6152908802032470703 3.5286529064178466797 3.4303538799285888672 3.31597900390625 3.1976578235626220703 3.06975555419921875 2.9445002079010009766 2.8124616146087646484 2.6811008453369140625 2.5384778976440429688 2.3923728466033935547 2.2301387786865234375 2.0623366832733154297 1.8797148466110229492 1.6973078250885009766 1.5061752796173095703 1.3209298849105834961 1.1324045658111572266 0.95382720232009887695 0.77536356449127197266 0.60852855443954467773 0.44456404447555541992 0.29365959763526916504 0.14656519889831542969 0.023314459249377250671 0 0 0 0 0 0 0 0 0 0 0 0 0 0 0 0 0 0 0 0 0 0 0 0 0 0 0 0 0 0 0 0 0 0 0 0 
2.3457820415496826172 2.3285238742828369141 2.3944776058197021484 2.5921649932861328125 2.7663271427154541016 2.6473743915557861328 2.4783113002777099609 2.4038758277893066406 2.3962216377258300781 2.4239149093627929688 2.473056793212890625 2.6374471187591552734 2.7042765617370605469 2.5146214962005615234 2.4721944332122802734 2.5205314159393310547 2.5029382705688476562 2.4857349395751953125 2.48171234130859375 2.4817631244659423828 2.4869568347930908203 2.4916853904724121094 2.4965617656707763672 2.4980366230010986328 2.4893419742584228516 2.4780216217041015625 2.5110101699829101562 2.6765184402465820312 2.8795578479766845703 2.9448387622833251953 2.8867471218109130859 2.8379237651824951172 2.8810358047485351562 2.8942313194274902344 2.8949592113494873047 2.8129134178161621094 2.7977902889251708984 2.8700985908508300781 2.8572235107421875 2.8341832160949707031 2.8333880901336669922 2.8258910179138183594 2.8127119541168212891 2.8040745258331298828 2.8097331523895263672 2.8229744434356689453 2.8407781124114990234 2.8731086254119873047 2.9566183090209960938 3.1305661201477050781 3.9017815589904785156 3.9672837257385253906 3.9886033535003662109 4.046604156494140625 4.0822153091430664062 4.0207262039184570312 3.9892280101776123047 4.5892505645751953125 5.6415300369262695312 5.7584743499755859375 5.9786591529846191406 5.8944649696350097656 5.7986249923706054688 5.6277170181274414062 5.80626678466796875 6.2379574775695800781 6.9308886528015136719 7.2846317291259765625 7.3843517303466796875 6.8961400985717773438 5.9911990165710449219 5.6427774429321289062 5.4302353858947753906 5.3854413032531738281 5.39334869384765625 5.3901090621948242188 5.3362722396850585938 5.1576147079467773438 4.9180331230163574219 4.7119851112365722656 4.5666356086730957031 4.4695267677307128906 4.4809813499450683594 4.5468511581420898438 4.4024491310119628906 4.2111911773681640625 4.077869415283203125 3.9567921161651611328 3.6502678394317626953 3.4574263095855712891 3.4437355995178222656 3.428874969482421875 3.3208963871002197266 3.3448626995086669922 3.4127061367034912109 3.483974456787109375 3.56212615966796875 3.6813542842864990234 3.8987390995025634766 4.0841875076293945312 4.2525730133056640625 4.287967681884765625 2.4946153163909912109 2.3726987838745117188 2.5233757495880126953 2.6619257926940917969 2.8022227287292480469 3.2155351638793945312 3.9380490779876708984 4.0521154403686523438 4.1504874229431152344 4.222454071044921875 4.2779855728149414062 4.313877105712890625 4.3366479873657226562 4.3462781906127929688 4.3467268943786621094 4.3407225608825683594 4.3308658599853515625 4.3211412429809570312 4.3136277198791503906 4.3119144439697265625 4.317119598388671875 4.3280239105224609375 4.3448553085327148438 4.3648529052734375 4.3894438743591308594 4.4152579307556152344 4.4458670616149902344 4.4784274101257324219 4.5178127288818359375 4.5602107048034667969 4.6118254661560058594 4.6664648056030273438 4.7303795814514160156 4.7947859764099121094 4.8670492172241210938 4.9371538162231445312 5.0137724876403808594 5.0875544548034667969 5.1695485115051269531 5.24983978271484375 5.3402123451232910156 5.4291977882385253906 5.528018951416015625 5.6207423210144042969 5.7171235084533691406 5.800975799560546875 5.8810019493103027344 5.9439806938171386719 5.9991860389709472656 6.0396571159362792969 6.0723395347595214844 6.0934195518493652344 6.1074137687683105469 6.1133408546447753906 6.1131572723388671875 6.1078004837036132812 6.0974659919738769531 6.0845785140991210938 6.0680575370788574219 6.0511188507080078125 6.0317902565002441406 6.0136427879333496094 5.9945216178894042969 5.9780993461608886719 5.9627056121826171875 5.95185089111328125 5.9450259208679199219 5.9443144798278808594 5.950679779052734375 5.9629034996032714844 5.9802060127258300781 5.9970159530639648438 6.0125584602355957031 6.0215554237365722656 6.0220589637756347656 6.0111646652221679688 5.9840569496154785156 5.9418401718139648438 5.8749432563781738281 5.7902631759643554688 5.6765966415405273438 5.5567173957824707031 5.4224710464477539062 5.3005695343017578125 5.1828670501708984375 5.0916051864624023438 5.0130581855773925781 4.9526286125183105469 4.8964152336120605469 4.8499279022216796875 4.8057560920715332031 4.7688751220703125 4.7392592430114746094 4.7197365760803222656 4.7012839317321777344 4.6873111724853515625 4.6774611473083496094 4.6718950271606445312 4.6674571037292480469 4.6623897552490234375 4.6535196304321289062 4.6398057937622070312 4.6190400123596191406 4.5953383445739746094 4.5680708885192871094 4.5424275398254394531 4.5176076889038085938 4.49788665771484375 4.4809346199035644531 4.4678487777709960938 4.4562907218933105469 4.4467148780822753906 4.4371657371520996094 4.4276590347290039062 4.4158315658569335938 4.4017071723937988281 4.382389068603515625 4.3586883544921875 4.3275694847106933594 4.2936062812805175781 4.255580902099609375 4.2194170951843261719 4.1838216781616210938 4.1540722846984863281 4.1272339820861816406 4.1040225028991699219 4.0800223350524902344 4.0554280281066894531 4.0257625579833984375 3.9927637577056884766 3.9546351432800292969 3.9167184829711914062 3.8777260780334472656 3.8429811000823974609 3.8109567165374755859 3.7825806140899658203 3.7508296966552734375 3.71375274658203125 3.663227081298828125 3.5989549160003662109 3.5130639076232910156 3.4142293930053710938 3.2977087497711181641 3.1755597591400146484 3.0415642261505126953 2.9083502292633056641 2.7666945457458496094 2.6261281967163085938 2.4755697250366210938 2.3247971534729003906 2.1623227596282958984 1.998915553092956543 1.8239473104476928711 1.6497707366943359375 1.4657998085021972656 1.2842702865600585938 1.0942367315292358398 0.90936118364334106445 0.72099727392196655273 0.54294937849044799805 0.36752378940582275391 0.20719707012176513672 0.16184085607528686523 0.10038725286722183228 0 0 0 0 0 0 0 0 0 0 0 0 0 0 0 0 0 0 0 0 0 0 0 0 0 0 0 0 0 0 0 0 0 0 0 0 
2.3375222682952880859 2.4081475734710693359 2.5381777286529541016 2.7378020286560058594 2.6776070594787597656 2.4963409900665283203 2.4285931587219238281 2.4083819389343261719 2.4106557369232177734 2.4511814117431640625 2.6070036888122558594 2.7614312171936035156 2.5577380657196044922 2.4782350063323974609 2.5240662097930908203 2.5127305984497070312 2.4887354373931884766 2.4809520244598388672 2.4814867973327636719 2.4825344085693359375 2.4931192398071289062 2.4991738796234130859 2.5008752346038818359 2.5038421154022216797 2.5058000087738037109 2.5031287670135498047 2.5689032077789306641 2.5823926925659179688 2.7689993381500244141 3.0037682056427001953 3.1919972896575927734 2.9936058521270751953 2.7763240337371826172 2.8220832347869873047 2.8534436225891113281 2.7447705268859863281 2.8394117355346679688 2.8409225940704345703 2.8326900005340576172 2.8128435611724853516 2.8162436485290527344 2.8135862350463867188 2.803226470947265625 2.8029122352600097656 2.7971479892730712891 2.8096230030059814453 2.8245232105255126953 2.859798431396484375 2.9647471904754638672 3.4243614673614501953 3.9364347457885742188 4.0033321380615234375 4.0112919807434082031 4.0279059410095214844 4.0349454879760742188 3.9279742240905761719 4.02724456787109375 5.0253577232360839844 5.5487060546875 5.9231195449829101562 5.9660887718200683594 5.8560662269592285156 5.7899999618530273438 5.6788463592529296875 5.9290404319763183594 6.1758179664611816406 6.6950659751892089844 7.3305873870849609375 7.5982866287231445312 6.9214749336242675781 5.9725413322448730469 5.7017879486083984375 5.4993052482604980469 5.443515777587890625 5.444187164306640625 5.4405164718627929688 5.3715376853942871094 5.1767492294311523438 4.9220461845397949219 4.7236676216125488281 4.5949378013610839844 4.5098948478698730469 4.542697906494140625 4.5877099037170410156 4.414493560791015625 4.2335057258605957031 4.1026930809020996094 3.9544425010681152344 3.6513657569885253906 3.4942879676818847656 3.45957183837890625 3.3334898948669433594 3.3420097827911376953 3.3953452110290527344 3.4580907821655273438 3.5256125926971435547 3.6030619144439697266 3.7513368129730224609 3.9617824554443359375 4.1343770027160644531 4.2857618331909179688 3.7636165618896484375 2.2996392250061035156 2.3848760128021240234 2.5324392318725585938 2.6682982444763183594 2.80603790283203125 3.20929718017578125 3.912578582763671875 4.0231218338012695312 4.1184849739074707031 4.1884698867797851562 4.2430276870727539062 4.2793169021606445312 4.3042888641357421875 4.3177752494812011719 4.3240885734558105469 4.3248491287231445312 4.3225421905517578125 4.3195347785949707031 4.3177919387817382812 4.3195166587829589844 4.3259997367858886719 4.336399078369140625 4.3516435623168945312 4.3698019981384277344 4.392791748046875 4.417949676513671875 4.4488940238952636719 4.4827561378479003906 4.52442169189453125 4.5696563720703125 4.6249189376831054688 4.6834745407104492188 4.7519497871398925781 4.8210077285766601562 4.8985767364501953125 4.9739179611206054688 5.0563111305236816406 5.1354231834411621094 5.2228250503540039062 5.3078837394714355469 5.4028773307800292969 5.4955668449401855469 5.5974874496459960938 5.6923022270202636719 5.7900691032409667969 5.8743710517883300781 5.9539499282836914062 6.0156221389770507812 6.068450927734375 6.1058182716369628906 6.1342210769653320312 6.1504120826721191406 6.1580781936645507812 6.1574854850769042969 6.1499857902526855469 6.1379275321960449219 6.1208529472351074219 6.1025223731994628906 6.08126068115234375 6.0610232353210449219 6.0392975807189941406 6.0199608802795410156 6.0006098747253417969 5.9849057197570800781 5.9711785316467285156 5.9625091552734375 5.9586381912231445312 5.961071014404296875 5.9711241722106933594 5.9868192672729492188 6.007568359375 6.026935577392578125 6.0441498756408691406 6.0533266067504882812 6.0522489547729492188 6.0383710861206054688 6.0068383216857910156 5.959781646728515625 5.8873543739318847656 5.7976093292236328125 5.6789231300354003906 5.5549154281616210938 5.4169716835021972656 5.2924284934997558594 5.17290496826171875 5.0809674263000488281 5.0027103424072265625 4.943325042724609375 4.889621734619140625 4.8472146987915039062 4.8066043853759765625 4.77173614501953125 4.7420296669006347656 4.7229371070861816406 4.705997467041015625 4.6932473182678222656 4.6843900680541992188 4.6794881820678710938 4.675548553466796875 4.670833587646484375 4.6623058319091796875 4.6489782333374023438 4.6286740303039550781 4.6052618026733398438 4.5779442787170410156 4.551738739013671875 4.5255808830261230469 4.5038018226623535156 4.4839625358581542969 4.4677090644836425781 4.4525856971740722656 4.4396619796752929688 4.4268360137939453125 4.4145336151123046875 4.3999958038330078125 4.3834176063537597656 4.3615212440490722656 4.33527374267578125 4.3013148307800292969 4.2645878791809082031 4.2237386703491210938 4.1851072311401367188 4.147304534912109375 4.1159429550170898438 4.08795928955078125 4.0641102790832519531 4.0398373603820800781 4.0152797698974609375 3.9858853816986083984 3.9533326625823974609 3.9159274101257324219 3.8790311813354492188 3.8415470123291015625 3.8087525367736816406 3.7793560028076171875 3.7539327144622802734 3.72542572021484375 3.6913270950317382812 3.6434514522552490234 3.5810070037841796875 3.4959838390350341797 3.3967998027801513672 3.2784731388092041016 3.1530287265777587891 3.0137801170349121094 2.8737363815307617188 2.7239122390747070312 2.5756897926330566406 2.4188168048858642578 2.2648150920867919922 2.1033375263214111328 1.94522857666015625 1.7785984277725219727 1.6131720542907714844 1.4367290735244750977 1.2592599391937255859 1.0681875944137573242 0.8774916529655456543 0.67963641881942749023 0.49059295654296875 0.3036594092845916748 0.13350610435009002686 0.38702973723411560059 0 0 0 0 0 0 0 0 0 0 0 0 0 0 0 0 0 0 0 0 0 0 0 0 0 0 0 0 0 0 0 0 0 0 0 0 0 
2.3718614578247070312 2.5021653175354003906 2.7278380393981933594 2.69591522216796875 2.5145902633666992188 2.4442133903503417969 2.4459974765777587891 2.4198982715606689453 2.4486956596374511719 2.5867013931274414062 2.7185156345367431641 2.6364405155181884766 2.4929325580596923828 2.5301048755645751953 2.5141346454620361328 2.4876666069030761719 2.4793546199798583984 2.4790298938751220703 2.4835031032562255859 2.4843716621398925781 2.4910554885864257812 2.5018792152404785156 2.5051081180572509766 2.507419586181640625 2.5100698471069335938 2.5119171142578125 2.5202155113220214844 2.5947506427764892578 2.6649096012115478516 2.8210873603820800781 3.113986968994140625 3.16754913330078125 3.0338864326477050781 2.8835837841033935547 2.7101597785949707031 2.6648211479187011719 2.8171267509460449219 2.8349473476409912109 2.8003749847412109375 2.7943468093872070312 2.8030531406402587891 2.7983064651489257812 2.78635406494140625 2.7916772365570068359 2.7873587608337402344 2.7958693504333496094 2.8066821098327636719 2.8438451290130615234 2.9597735404968261719 3.7086539268493652344 3.9194989204406738281 4.0109472274780273438 4.0350661277770996094 4.0421314239501953125 3.9880969524383544922 3.8269839286804199219 4.14818572998046875 5.121517181396484375 5.80948638916015625 6.0650467872619628906 5.9917750358581542969 5.9117870330810546875 5.81302642822265625 5.7570805549621582031 5.9479336738586425781 6.0726180076599121094 6.582607269287109375 7.2349228858947753906 7.598358154296875 7.0234365463256835938 6.1085500717163085938 5.76078033447265625 5.5444808006286621094 5.4938635826110839844 5.4966130256652832031 5.4910326004028320312 5.3997058868408203125 5.18747711181640625 4.9403882026672363281 4.738788604736328125 4.6214418411254882812 4.54064178466796875 4.5977444648742675781 4.6230530738830566406 4.431549072265625 4.2481241226196289062 4.1294045448303222656 3.9487235546112060547 3.6461632251739501953 3.5065782070159912109 3.3506226539611816406 3.3483231067657470703 3.3921833038330078125 3.4390213489532470703 3.4960317611694335938 3.5621759891510009766 3.6614096164703369141 3.8434376716613769531 4.0326066017150878906 4.1876807212829589844 4.3240456581115722656 3.443508148193359375 2.2580411434173583984 2.4006071090698242188 2.5451455116271972656 2.6783750057220458984 2.8136017322540283203 3.20520782470703125 3.8854901790618896484 3.9919757843017578125 4.0839834213256835938 4.1518654823303222656 4.2055020332336425781 4.2423081398010253906 4.2695164680480957031 4.28704071044921875 4.2994637489318847656 4.3071942329406738281 4.3126311302185058594 4.3165049552917480469 4.3206915855407714844 4.3259878158569335938 4.3338756561279296875 4.3439059257507324219 4.3577184677124023438 4.3742051124572753906 4.3957972526550292969 4.4205088615417480469 4.4520044326782226562 4.487270355224609375 4.5313138961791992188 4.5794124603271484375 4.6382231712341308594 4.7004933357238769531 4.7732152938842773438 4.8464879989624023438 4.9288091659545898438 5.0088038444519042969 5.0963153839111328125 5.1802439689636230469 5.2725429534912109375 5.3619713783264160156 5.4613542556762695312 5.5577740669250488281 5.6630978584289550781 5.760356903076171875 5.859893798828125 5.9449200630187988281 6.0241408348083496094 6.0843706130981445312 6.1345357894897460938 6.1685194969177246094 6.1924700736999511719 6.2039012908935546875 6.2057809829711914062 6.1994538307189941406 6.1856884956359863281 6.1679468154907226562 6.1451101303100585938 6.1219868659973144531 6.0963201522827148438 6.0727896690368652344 6.0484161376953125 6.0275211334228515625 6.0074620246887207031 5.9920325279235839844 5.9795484542846679688 5.9727578163146972656 5.9716038703918457031 5.9770903587341308594 5.9908952713012695312 6.0102643966674804688 6.0347609519958496094 6.0569653511047363281 6.076061248779296875 6.0854549407958984375 6.0825943946838378906 6.0653581619262695312 6.0288987159729003906 5.9765458106994628906 5.8982129096984863281 5.8032617568969726562 5.6796612739562988281 5.5518093109130859375 5.4105806350708007812 5.2838063240051269531 5.1628403663635253906 5.0704655647277832031 4.9926280975341796875 4.9342856407165527344 4.88359832763671875 4.8447513580322265625 4.8072538375854492188 4.7744045257568359375 4.7452578544616699219 4.7263979911804199219 4.7108869552612304688 4.6993579864501953125 4.6915068626403808594 4.6873068809509277344 4.6839628219604492188 4.6797742843627929688 4.6718935966491699219 4.6593546867370605469 4.6400589942932128906 4.6175060272216796875 4.5906805992126464844 4.5642809867858886719 4.5369243621826171875 4.5129294395446777344 4.48976898193359375 4.4697599411010742188 4.4503507614135742188 4.4333863258361816406 4.4166173934936523438 4.4009847640991210938 4.3832569122314453125 4.3638319969177246094 4.338985443115234375 4.3098597526550292969 4.2727203369140625 4.2329196929931640625 4.1889472007751464844 4.1475992202758789062 4.1073813438415527344 4.0742673873901367188 4.0450544357299804688 4.0205349922180175781 3.9959948062896728516 3.9715056419372558594 3.9424328804016113281 3.9103748798370361328 3.8737242221832275391 3.8378384113311767578 3.8017864227294921875 3.7707829475402832031 3.7437376976013183594 3.7209072113037109375 3.6951940059661865234 3.6636004447937011719 3.6178662776947021484 3.5567753314971923828 3.4722003936767578125 3.3724353313446044922 3.2523653507232666016 3.1240906715393066406 2.980621337890625 2.8353400230407714844 2.6795098781585693359 2.5259644985198974609 2.3651940822601318359 2.2100186347961425781 2.0511231422424316406 1.8992270231246948242 1.7413678169250488281 1.5848146677017211914 1.415912628173828125 1.2424983978271484375 1.0507379770278930664 0.85473340749740600586 0.64792966842651367188 0.4482536017894744873 0.24982798099517822266 0.24249376356601715088 0.3560727536678314209 0 0 0 0 0 0 0 0 0 0 0 0 0 0 0 0 0 0 0 0 0 0 0 0 0 0 0 0 0 0 0 0 0 0 0 0 0 
2.4641773700714111328 2.6912019252777099609 2.7183966636657714844 2.5268111228942871094 2.4237017631530761719 2.4441161155700683594 2.4366731643676757812 2.4364058971405029297 2.5614440441131591797 2.7396867275238037109 2.6557509899139404297 2.5014965534210205078 2.5235497951507568359 2.5226626396179199219 2.4927234649658203125 2.4849016666412353516 2.4872274398803710938 2.4902527332305908203 2.4912059307098388672 2.4907963275909423828 2.4940309524536132812 2.4979765415191650391 2.5013630390167236328 2.5078094005584716797 2.5120840072631835938 2.5122015476226806641 2.5140652656555175781 2.59474945068359375 2.7100050449371337891 2.8092095851898193359 2.9336438179016113281 3.0815482139587402344 3.2013704776763916016 3.1348023414611816406 2.9383432865142822266 2.7328922748565673828 2.7035403251647949219 2.8302023410797119141 2.8059842586517333984 2.7878754138946533203 2.7878384590148925781 2.7771196365356445312 2.7660963535308837891 2.7640700340270996094 2.7637202739715576172 2.7654826641082763672 2.7708199024200439453 2.8299586772918701172 3.0213797092437744141 3.5056087970733642578 3.8204123973846435547 3.9520273208618164062 3.9660272598266601562 3.9963617324829101562 3.8774030208587646484 3.7781920433044433594 4.4620347023010253906 5.5039734840393066406 6.0633716583251953125 6.1886754035949707031 6.0480961799621582031 5.9796705245971679688 5.8326940536499023438 5.8390955924987792969 5.936496734619140625 6.1175036430358886719 6.7822432518005371094 7.4561562538146972656 7.5763649940490722656 6.773834228515625 6.3323774337768554688 5.8618326187133789062 5.57181549072265625 5.5370798110961914062 5.5483770370483398438 5.5327687263488769531 5.4216718673706054688 5.2059679031372070312 4.9485487937927246094 4.7595014572143554688 4.6460347175598144531 4.5747919082641601562 4.6581139564514160156 4.6387853622436523438 4.4431400299072265625 4.2690763473510742188 4.1740221977233886719 3.9419682025909423828 3.6133558750152587891 3.3724939823150634766 3.3637154102325439453 3.3976924419403076172 3.4346644878387451172 3.4741852283477783203 3.5216841697692871094 3.5839257240295410156 3.7402505874633789062 3.9261362552642822266 4.0969247817993164062 4.2338070869445800781 4.3049688339233398438 2.7327399253845214844 2.2790617942810058594 2.41872406005859375 2.5605132579803466797 2.6913416385650634766 2.8242602348327636719 3.2037155628204345703 3.859493255615234375 3.9617753028869628906 4.05039215087890625 4.1162533760070800781 4.1691060066223144531 4.2065248489379882812 4.2358760833740234375 4.2570166587829589844 4.2749562263488769531 4.2889242172241210938 4.3012380599975585938 4.3112039566040039062 4.3206429481506347656 4.3291172981262207031 4.3383092880249023438 4.3481249809265136719 4.3608503341674804688 4.3760919570922851562 4.3967795372009277344 4.4214763641357421875 4.453891754150390625 4.490764617919921875 4.537181854248046875 4.5880002975463867188 4.6499657630920410156 4.7153487205505371094 4.7915101051330566406 4.8680615425109863281 4.9539866447448730469 5.0374736785888671875 5.1288270950317382812 5.216442108154296875 5.3126473426818847656 5.4056558609008789062 5.508899688720703125 5.6089205741882324219 5.7179160118103027344 5.8180990219116210938 5.9199938774108886719 6.0062513351440429688 6.0854716300964355469 6.144359588623046875 6.191844940185546875 6.2224569320678710938 6.2421698570251464844 6.249385833740234375 6.2466459274291992188 6.2360448837280273438 6.2178320884704589844 6.1961145401000976562 6.1691522598266601562 6.1423635482788085938 6.1129546165466308594 6.0862789154052734375 6.0590181350708007812 6.0360856056213378906 6.0146350860595703125 5.9987888336181640625 5.9868116378784179688 5.9812893867492675781 5.98229217529296875 5.9904565811157226562 6.0078096389770507812 6.0308547019958496094 6.0592470169067382812 6.0844845771789550781 6.1056585311889648438 6.1153659820556640625 6.1106724739074707031 6.0899152755737304688 6.0483288764953613281 5.9905514717102050781 5.9063448905944824219 5.8064551353454589844 5.6785063743591308594 5.5475077629089355469 5.4038066864013671875 5.2755055427551269531 5.1536765098571777344 5.0611600875854492188 4.9837012290954589844 4.9263424873352050781 4.8785524368286132812 4.8424692153930664062 4.8075160980224609375 4.7764935493469238281 4.7482495307922363281 4.7297344207763671875 4.7154893875122070312 4.70511627197265625 4.6982350349426269531 4.6947488784790039062 4.6920928955078125 4.6886210441589355469 4.6817288398742675781 4.6704540252685546875 4.6527843475341796875 4.6317467689514160156 4.6060810089111328125 4.5799927711486816406 4.5517444610595703125 4.5255565643310546875 4.498851776123046875 4.4747242927551269531 4.4505720138549804688 4.4291410446166992188 4.4080724716186523438 4.3888821601867675781 4.36782073974609375 4.3454728126525878906 4.3176255226135253906 4.2855715751647949219 4.245174407958984375 4.2022066116333007812 4.1550059318542480469 4.1108493804931640625 4.0681400299072265625 4.0332350730895996094 4.002788543701171875 3.9776189327239990234 3.9528498649597167969 3.9284710884094238281 3.8997576236724853516 3.8682043552398681641 3.8322432041168212891 3.7971813678741455078 3.7621796131134033203 3.7323739528656005859 3.7067787647247314453 3.6854374408721923828 3.6612069606781005859 3.63079833984375 3.5858619213104248047 3.5249564647674560547 3.4398674964904785156 3.3389916419982910156 3.2172250747680664062 3.0869042873382568359 2.9409863948822021484 2.7931833267211914062 2.6349642276763916016 2.4798648357391357422 2.3188612461090087891 2.1653053760528564453 2.0105774402618408203 1.865027308464050293 1.7150260210037231445 1.5659863948822021484 1.4033132791519165039 1.2331641912460327148 1.0410159826278686523 0.84094637632369995117 0.62701565027236938477 0.4185657799243927002 0.2102104872465133667 0.24251000583171844482 0.040182929486036300659 0 0 0 0 0 0 0 0 0 0 0 0 0 0 0 0 0 0 0 0 0 0 0 0 0 0 0 0 0 0 0 0 0 0 0 0 0 
2.6468105316162109375 2.7149662971496582031 2.5533926486968994141 2.4180135726928710938 2.4130878448486328125 2.459644317626953125 2.4490218162536621094 2.5292432308197021484 2.7180719375610351562 2.6678795814514160156 2.5023343563079833984 2.5163476467132568359 2.5260179042816162109 2.5005934238433837891 2.4913380146026611328 2.4899933338165283203 2.4943532943725585938 2.496135711669921875 2.4954991340637207031 2.4971301555633544922 2.5017349720001220703 2.5043208599090576172 2.5068676471710205078 2.5090186595916748047 2.5104091167449951172 2.5112466812133789062 2.5106084346771240234 2.6085522174835205078 2.6891877651214599609 2.8313806056976318359 2.94100189208984375 2.9174141883850097656 2.9585518836975097656 3.0829112529754638672 3.0851120948791503906 3.0218362808227539062 2.7968924045562744141 2.6582334041595458984 2.7099573612213134766 2.7686803340911865234 2.7957792282104492188 2.7666072845458984375 2.7419681549072265625 2.7413401603698730469 2.7479150295257568359 2.7546322345733642578 2.7479751110076904297 2.7907204627990722656 2.9289710521697998047 3.0948245525360107422 3.1183876991271972656 3.1213643550872802734 3.4668776988983154297 3.8215236663818359375 3.6315443515777587891 3.9771525859832763672 5.1235151290893554688 5.8781118392944335938 6.2789049148559570312 6.2755999565124511719 6.069545745849609375 5.9091653823852539062 5.74332427978515625 5.8180003166198730469 5.868259429931640625 6.3441452980041503906 7.0302419662475585938 7.6827712059020996094 7.5905518531799316406 6.7515425682067871094 6.3684701919555664062 5.8242931365966796875 5.5864019393920898438 5.576961517333984375 5.599605560302734375 5.5766606330871582031 5.4471554756164550781 5.2218775749206542969 4.9471707344055175781 4.7803955078125 4.6687288284301757812 4.6134099960327148438 4.7076020240783691406 4.6514234542846679688 4.4568758010864257812 4.2933034896850585938 4.1842088699340820312 3.9235239028930664062 3.5086388587951660156 3.3960812091827392578 3.4189751148223876953 3.4456386566162109375 3.4755392074584960938 3.5077445507049560547 3.5416569709777832031 3.6260235309600830078 3.83885955810546875 4.0065326690673828125 4.156513214111328125 4.2783827781677246094 3.9683854579925537109 2.2864983081817626953 2.3040361404418945312 2.4405932426452636719 2.5796523094177246094 2.7081289291381835938 2.8387773036956787109 3.2052371501922607422 3.8342332839965820312 3.931827545166015625 4.0167741775512695312 4.0805206298828125 4.1325922012329101562 4.1706366539001464844 4.2020630836486816406 4.2265181541442871094 4.2493686676025390625 4.2689347267150878906 4.287387847900390625 4.302776336669921875 4.3169016838073730469 4.3282375335693359375 4.3386850357055664062 4.3484692573547363281 4.3604788780212402344 4.3749432563781738281 4.39528656005859375 4.4205107688903808594 4.45436859130859375 4.4932484626770019531 4.5422687530517578125 4.5958447456359863281 4.660797119140625 4.728900909423828125 4.8078799247741699219 4.8869867324829101562 4.9755711555480957031 5.0615754127502441406 5.1556882858276367188 5.2460174560546875 5.3453016281127929688 5.44130706787109375 5.5480895042419433594 5.6517963409423828125 5.7649388313293457031 5.8687343597412109375 5.9737615585327148438 6.0618724822998046875 6.1414937973022460938 6.1990933418273925781 6.2437491416931152344 6.2708277702331542969 6.2863001823425292969 6.2896337509155273438 6.2832045555114746094 6.2696208953857421875 6.2485909461975097656 6.2244343757629394531 6.1947855949401855469 6.1652503013610839844 6.132511138916015625 6.1025943756103515625 6.071949005126953125 6.0462789535522460938 6.0225582122802734375 6.0054774284362792969 5.9931960105895996094 5.9883160591125488281 5.9909605979919433594 6.0015201568603515625 6.0223674774169921875 6.0492691993713378906 6.0819025039672851562 6.1105332374572753906 6.1340937614440917969 6.1442246437072753906 6.1375412940979003906 6.1129012107849121094 6.0656995773315429688 6.0020837783813476562 5.9117379188537597656 5.8069558143615722656 5.6750636100769042969 5.5415325164794921875 5.3961334228515625 5.2670102119445800781 5.1449155807495117188 5.0524945259094238281 4.9751906394958496094 4.9191422462463378906 4.8739042282104492188 4.8400912284851074219 4.8073620796203613281 4.7780995368957519531 4.7510251998901367188 4.7331066131591796875 4.7202234268188476562 4.71103668212890625 4.7051548957824707031 4.7024302482604980469 4.7005763053894042969 4.6980299949645996094 4.6925106048583984375 4.6830472946166992188 4.6677427291870117188 4.6489624977111816406 4.6252131462097167969 4.5999836921691894531 4.5711216926574707031 4.5426473617553710938 4.5119781494140625 4.4831385612487792969 4.453521728515625 4.4269661903381347656 4.4010343551635742188 4.377910614013671875 4.3532443046569824219 4.327785491943359375 4.2967586517333984375 4.2615785598754882812 4.2176518440246582031 4.1712121963500976562 4.1204471588134765625 4.0731801986694335938 4.0277156829833984375 3.9908468723297119141 3.9590730667114257812 3.9332318305969238281 3.9082574844360351562 3.8840374946594238281 3.8557372093200683594 3.8247125148773193359 3.7893748283386230469 3.7549264430999755859 3.7205283641815185547 3.69121551513671875 3.6659893989562988281 3.6448104381561279297 3.6204845905303955078 3.5896732807159423828 3.5439267158508300781 3.4818177223205566406 3.3950712680816650391 3.2924318313598632812 3.1689417362213134766 3.0373375415802001953 2.8907704353332519531 2.743236541748046875 2.5863633155822753906 2.4336121082305908203 2.2761738300323486328 2.1271541118621826172 1.9782677888870239258 1.8392398357391357422 1.6961764097213745117 1.5532397031784057617 1.395383000373840332 1.2276637554168701172 1.0352902412414550781 0.83228737115859985352 0.61291962862014770508 0.3974329829216003418 0.18057748675346374512 0.31811365485191345215 0 0 0 0 0 0 0 0 0 0 0 0 0 0 0 0 0 0 0 0 0 0 0 0 0 0 0 0 0 0 0 0 0 0 0 0 0 0 
2.7228777408599853516 2.5482900142669677734 2.4167766571044921875 2.4032883644104003906 2.4399676322937011719 2.4580211639404296875 2.5176167488098144531 2.6864950656890869141 2.6840884685516357422 2.5046038627624511719 2.5038797855377197266 2.5249984264373779297 2.4996116161346435547 2.4920415878295898438 2.4959776401519775391 2.4982259273529052734 2.5007407665252685547 2.4995660781860351562 2.4983434677124023438 2.5022985935211181641 2.5111236572265625 2.5124986171722412109 2.514209747314453125 2.5139424800872802734 2.5102903842926025391 2.5121948719024658203 2.5152618885040283203 2.5906465053558349609 2.6699793338775634766 2.8270184993743896484 2.9337670803070068359 2.9397251605987548828 2.8921220302581787109 2.8700568675994873047 2.937412261962890625 3.0440468788146972656 3.0547952651977539062 2.888858795166015625 2.6208810806274414062 2.5697512626647949219 2.7528135776519775391 2.8283183574676513672 2.7749602794647216797 2.7424228191375732422 2.7424440383911132812 2.7566013336181640625 2.7614750862121582031 2.8057115077972412109 3.0098690986633300781 3.1815745830535888672 3.0504338741302490234 2.9634566307067871094 3.0061044692993164062 3.0050706863403320312 3.0435385704040527344 4.4664125442504882812 5.6415572166442871094 6.1622452735900878906 6.4003286361694335938 6.206615447998046875 5.9181256294250488281 5.7359490394592285156 5.6590290069580078125 5.7105112075805664062 5.8670496940612792969 6.474651336669921875 7.0071997642517089844 7.5552020072937011719 7.4761495590209960938 6.7244124412536621094 6.3156371116638183594 5.75704193115234375 5.5995531082153320312 5.6125845909118652344 5.6404118537902832031 5.6083288192749023438 5.4588274955749511719 5.2154688835144042969 4.9490151405334472656 4.7988538742065429688 4.6902556419372558594 4.6738500595092773438 4.7353162765502929688 4.665279388427734375 4.4627070426940917969 4.3221659660339355469 4.1809802055358886719 3.8003239631652832031 3.4716658592224121094 3.4540688991546630859 3.4696750640869140625 3.4901039600372314453 3.5147614479064941406 3.5425658226013183594 3.5783894062042236328 3.7246553897857666016 3.929718017578125 4.0779333114624023438 4.2077770233154296875 4.3248720169067382812 3.3305270671844482422 2.2145273685455322266 2.3312621116638183594 2.4648044109344482422 2.6011610031127929688 2.72747039794921875 2.8560440540313720703 3.2101659774780273438 3.81331634521484375 3.9061453342437744141 3.9873368740081787109 4.0488734245300292969 4.09999847412109375 4.1383991241455078125 4.17144012451171875 4.1985483169555664062 4.2252526283264160156 4.249256134033203125 4.2726502418518066406 4.2924332618713378906 4.3104090690612792969 4.324176788330078125 4.3358507156372070312 4.3458895683288574219 4.3576941490173339844 4.371952056884765625 4.392536163330078125 4.4187359809875488281 4.4543671607971191406 4.4954180717468261719 4.5470557212829589844 4.6032171249389648438 4.6708655357360839844 4.7412862777709960938 4.822521209716796875 4.9035706520080566406 4.9940328598022460938 5.0817079544067382812 5.1775922775268554688 5.2696790695190429688 5.3710846900939941406 5.4693303108215332031 5.5789575576782226562 5.6859083175659179688 5.8029522895812988281 5.9103260040283203125 6.0185446739196777344 6.1086134910583496094 6.1887288093566894531 6.2450795173645019531 6.2869706153869628906 6.3106789588928222656 6.3222875595092773438 6.3223576545715332031 6.3132872581481933594 6.2980074882507324219 6.2756819725036621094 6.2504954338073730469 6.219512939453125 6.1881837844848632812 6.152721405029296875 6.1197638511657714844 6.0856332778930664062 6.0568985939025878906 6.0303936004638671875 6.0115103721618652344 5.9982638359069824219 5.9934115409851074219 5.9970545768737792969 6.0094614028930664062 6.0332965850830078125 6.0636816024780273438 6.1002554893493652344 6.1320824623107910156 6.1578969955444335938 6.1683917045593261719 6.1597180366516113281 6.1312651634216308594 6.0786266326904296875 6.0094609260559082031 5.9134454727172851562 5.8043828010559082031 5.6693744659423828125 5.5341672897338867188 5.3879799842834472656 5.2587885856628417969 5.1369547843933105469 5.0446710586547851562 4.9675951004028320312 4.9130520820617675781 4.8697938919067382812 4.8377671241760253906 4.8069157600402832031 4.7792997360229492188 4.7535696029663085938 4.7364277839660644531 4.7251071929931640625 4.7171087265014648438 4.7121481895446777344 4.7101035118103027344 4.7089867591857910156 4.7073535919189453125 4.7032756805419921875 4.6957941055297851562 4.6831402778625488281 4.6669249534606933594 4.6454343795776367188 4.6213765144348144531 4.5921483039855957031 4.5615143775939941406 4.5269131660461425781 4.4933295249938964844 4.4581899642944335938 4.4264616966247558594 4.3956599235534667969 4.3686456680297851562 4.3404560089111328125 4.3119764328002929688 4.2778573036193847656 4.2396059036254882812 4.1921648979187011719 4.1422338485717773438 4.0878634452819824219 4.0374407768249511719 3.9891850948333740234 3.9503390789031982422 3.917247772216796875 3.8907566070556640625 3.8656008243560791016 3.8415510654449462891 3.8136518001556396484 3.7830989360809326172 3.7482345104217529297 3.7141196727752685547 3.6798367500305175781 3.6503143310546875 3.6244394779205322266 3.6022257804870605469 3.5764451026916503906 3.5439443588256835938 3.4961962699890136719 3.4320034980773925781 3.3430674076080322266 3.2385764122009277344 3.1137683391571044922 2.9817903041839599609 2.8361160755157470703 2.6909089088439941406 2.5379049777984619141 2.3899660110473632812 2.2382893562316894531 2.0952363014221191406 1.9525777101516723633 1.8193091154098510742 1.6815938949584960938 1.542935490608215332 1.3882260322570800781 1.2219995260238647461 1.0294630527496337891 0.82466334104537963867 0.6017398834228515625 0.38135746121406555176 0.15792477130889892578 0.0098505429923534393311 0 0 0 0 0 0 0 0 0 0 0 0 0 0 0 0 0 0 0 0 0 0 0 0 0 0 0 0 0 0 0 0 0 0 0 0 0 0 
2.5578904151916503906 2.4279701709747314453 2.4039089679718017578 2.4286565780639648438 2.4516403675079345703 2.4948704242706298828 2.6798238754272460938 2.6768450736999511719 2.4956424236297607422 2.5150837898254394531 2.5459201335906982422 2.5056293010711669922 2.4816164970397949219 2.481632232666015625 2.488189697265625 2.4937086105346679688 2.4984047412872314453 2.5000219345092773438 2.5021014213562011719 2.5047631263732910156 2.5099253654479980469 2.5102694034576416016 2.5084733963012695312 2.5047855377197265625 2.5053136348724365234 2.5091869831085205078 2.51628875732421875 2.5272223949432373047 2.6410284042358398438 2.8239388465881347656 2.9197015762329101562 2.9339301586151123047 2.9256663322448730469 2.8846395015716552734 2.8117296695709228516 2.8236253261566162109 2.9870073795318603516 3.0466988086700439453 2.9705104827880859375 2.6694769859313964844 2.5250260829925537109 2.7350265979766845703 2.8386318683624267578 2.8009982109069824219 2.7772109508514404297 2.7947452068328857422 2.8125555515289306641 2.859241485595703125 3.1479139328002929688 3.2689220905303955078 3.1535925865173339844 3.1631755828857421875 3.1441717147827148438 3.1293947696685791016 3.6005139350891113281 5.09072113037109375 5.9492220878601074219 6.3072876930236816406 6.2523336410522460938 5.9463291168212890625 5.7297129631042480469 5.6164050102233886719 5.6158299446105957031 5.6112093925476074219 5.9741468429565429688 6.5682115554809570312 6.9166440963745117188 7.5433087348937988281 7.5433683395385742188 6.6847057342529296875 6.2487053871154785156 5.7118558883666992188 5.6131701469421386719 5.6459641456604003906 5.6789522171020507812 5.6365418434143066406 5.4770116806030273438 5.2079324722290039062 4.9474148750305175781 4.808368682861328125 4.7070326805114746094 4.7253093719482421875 4.7521357536315917969 4.6656465530395507812 4.4623360633850097656 4.3247785568237304688 4.0437574386596679688 3.6913480758666992188 3.5064883232116699219 3.5020935535430908203 3.51781463623046875 3.5349996089935302734 3.5569519996643066406 3.5830495357513427734 3.6368072032928466797 3.8320839405059814453 4.0117406845092773438 4.1410088539123535156 4.2570061683654785156 4.3172507286071777344 2.6350243091583251953 2.2222964763641357422 2.3627412319183349609 2.4933652877807617188 2.6268832683563232422 2.7509088516235351562 2.8774282932281494141 3.2196147441864013672 3.7973663806915283203 3.8850102424621582031 3.9619705677032470703 4.0208296775817871094 4.070491790771484375 4.108715057373046875 4.1427450180053710938 4.1718320846557617188 4.2015743255615234375 4.2291250228881835938 4.2566471099853515625 4.2802104949951171875 4.3016190528869628906 4.3177165985107421875 4.330837249755859375 4.3415665626525878906 4.3537693023681640625 4.36843109130859375 4.3898487091064453125 4.4174628257751464844 4.4552059173583984375 4.4986352920532226562 4.5530252456665039062 4.6118111610412597656 4.682170867919921875 4.7549176216125488281 4.8383650779724121094 4.9212560653686523438 5.013401031494140625 5.102420806884765625 5.1995911598205566406 5.2928781509399414062 5.395751953125 5.4956607818603515625 5.6075034141540527344 5.7171649932861328125 5.8376216888427734375 5.9482059478759765625 6.0592870712280273438 6.1510419845581054688 6.23140716552734375 6.2863116264343261719 6.3252916336059570312 6.3456172943115234375 6.3535294532775878906 6.3507080078125 6.3396792411804199219 6.3235826492309570312 6.3009991645812988281 6.2757434844970703125 6.2443375587463378906 6.211833953857421875 6.1740045547485351562 6.1380672454833984375 6.100284576416015625 6.0681629180908203125 6.0384092330932617188 6.0172333717346191406 6.0024561882019042969 5.9970951080322265625 6.0011615753173828125 6.0148935317993164062 6.0411815643310546875 6.0745944976806640625 6.1146697998046875 6.1493420600891113281 6.1771025657653808594 6.187747955322265625 6.1769433021545410156 6.1446423530578613281 6.0866551399230957031 6.0121569633483886719 5.9108762741088867188 5.7980828285217285156 5.6607227325439453125 5.5246419906616210938 5.3785309791564941406 5.24991607666015625 5.1286983489990234375 5.0367450714111328125 4.9602813720703125 4.9073238372802734375 4.8657617568969726562 4.8353295326232910156 4.806293487548828125 4.7804355621337890625 4.7563657760620117188 4.7403712272644042969 4.7307987213134765625 4.7243208885192871094 4.7202310562133789062 4.7187438011169433594 4.7182021141052246094 4.7173404693603515625 4.7146148681640625 4.709125518798828125 4.6992435455322265625 4.6857676506042480469 4.6667160987854003906 4.6439976692199707031 4.6145281791687011719 4.5817589759826660156 4.5431613922119140625 4.5047154426574707031 4.4638948440551757812 4.42684173583984375 4.391033172607421875 4.3600268363952636719 4.3282213211059570312 4.296627044677734375 4.2592926025390625 4.2178101539611816406 4.1666316986083984375 4.1129622459411621094 4.0547146797180175781 4.0008935928344726562 3.9496328830718994141 3.9086680412292480469 3.8741784095764160156 3.847003936767578125 3.8216583728790283203 3.7977733612060546875 3.7702498435974121094 3.7400984764099121094 3.705547332763671875 3.6714899539947509766 3.6368591785430908203 3.6064782142639160156 3.5790350437164306641 3.5547297000885009766 3.5263400077819824219 3.4911236763000488281 3.4405317306518554688 3.3737871646881103516 3.2826159000396728516 3.1766202449798583984 3.0512070655822753906 2.9198153018951416016 2.7762546539306640625 2.6346962451934814453 2.4869563579559326172 2.3450353145599365234 2.2000482082366943359 2.0633883476257324219 1.9267388582229614258 1.7983720302581787109 1.6646882295608520508 1.5289161205291748047 1.3761081695556640625 1.2106678485870361328 1.0179129838943481445 0.81205159425735473633 0.5868822932243347168 0.36320781707763671875 0.13326594233512878418 0.00036554122925736010075 0 0 0 0 0 0 0 0 0 0 0 0 0 0 0 0 0 0 0 0 0 0 0 0 0 0 0 0 0 0 0 0 0 0 0 0 0 0 
2.4291117191314697266 2.4159276485443115234 2.4307777881622314453 2.4530572891235351562 2.4789276123046875 2.6284930706024169922 2.6953694820404052734 2.5127429962158203125 2.4449899196624755859 2.5131959915161132812 2.5331945419311523438 2.5053379535675048828 2.4807569980621337891 2.4780607223510742188 2.4804410934448242188 2.4846284389495849609 2.4889175891876220703 2.4917464256286621094 2.4946672916412353516 2.4976105690002441406 2.50360870361328125 2.5059688091278076172 2.5052475929260253906 2.5025508403778076172 2.5040552616119384766 2.5088574886322021484 2.5158734321594238281 2.5202882289886474609 2.5813553333282470703 2.799198150634765625 2.9110693931579589844 2.9228835105895996094 2.9067316055297851562 2.8967676162719726562 2.8609704971313476562 2.7936484813690185547 2.7706851959228515625 2.8601796627044677734 3.0124096870422363281 2.8809576034545898438 2.5598390102386474609 2.7190859317779541016 2.9269535541534423828 2.8977105617523193359 2.7869379520416259766 2.795810699462890625 2.8138737678527832031 2.9405422210693359375 3.2767312526702880859 3.3790636062622070312 3.3957767486572265625 3.4991323947906494141 3.381824493408203125 3.3748073577880859375 4.2709546089172363281 5.4575943946838378906 6.0880131721496582031 6.2622818946838378906 6.0782785415649414062 5.7873368263244628906 5.6177773475646972656 5.5497002601623535156 5.5591478347778320312 5.6074824333190917969 6.1207537651062011719 6.5299849510192871094 7.1708240509033203125 7.8243856430053710938 7.3122453689575195312 6.4321761131286621094 6.0811557769775390625 5.6721467971801757812 5.6290726661682128906 5.6798219680786132812 5.7112264633178710938 5.6508803367614746094 5.4720454216003417969 5.1888060569763183594 4.944705963134765625 4.8162913322448730469 4.7251210212707519531 4.7483973503112792969 4.7847719192504882812 4.66263580322265625 4.4544734954833984375 4.2266645431518554688 3.9156579971313476562 3.6969501972198486328 3.5667748451232910156 3.5514461994171142578 3.5616810321807861328 3.5778267383575439453 3.5995852947235107422 3.6260700225830078125 3.7193329334259033203 3.9282345771789550781 4.0875196456909179688 4.1988625526428222656 4.3042321205139160156 4.3316359519958496094 2.3664324283599853516 2.2583768367767333984 2.3959515094757080078 2.5239870548248291016 2.6549410820007324219 2.7767210006713867188 2.9012839794158935547 3.2334711551666259766 3.7895576953887939453 3.8719987869262695312 3.9444794654846191406 4.0002183914184570312 4.047760009765625 4.0850267410278320312 4.1190896034240722656 4.1491460800170898438 4.1807918548583984375 4.2107758522033691406 4.2413163185119628906 4.2678585052490234375 4.2921552658081054688 4.3104448318481445312 4.3252615928649902344 4.3371787071228027344 4.3504362106323242188 4.3661165237426757812 4.3888707160949707031 4.4181427955627441406 4.458042144775390625 4.5037584304809570312 4.5607385635375976562 4.6220107078552246094 4.6949949264526367188 4.7701215744018554688 4.8559031486511230469 4.9407520294189453125 5.0346732139587402344 5.1249952316284179688 5.2232303619384765625 5.3173365592956542969 5.4210844039916992188 5.5219674110412597656 5.6351046562194824219 5.7464327812194824219 5.8690657615661621094 5.9816956520080566406 6.0945086479187011719 6.1870718002319335938 6.2670602798461914062 6.3202939033508300781 6.3564476966857910156 6.3737087249755859375 6.378444671630859375 6.3733134269714355469 6.3609876632690429688 6.3447175025939941406 6.3225417137145996094 6.2978043556213378906 6.2665696144104003906 6.2333970069885253906 6.1936807632446289062 6.1551342010498046875 6.1139998435974121094 6.0786547660827636719 6.0456914901733398438 6.0221199989318847656 6.0055365562438964844 5.9992628097534179688 6.0031504631042480469 6.0174922943115234375 6.0452885627746582031 6.0807309150695800781 6.1232056617736816406 6.1597957611083984375 6.1887292861938476562 6.1991357803344726562 6.1862325668334960938 6.1505126953125 6.0879673957824707031 6.0090808868408203125 5.9036650657653808594 5.7882070541381835938 5.6495747566223144531 5.5135216712951660156 5.368221282958984375 5.2406406402587890625 5.1204533576965332031 5.0290937423706054688 4.9536595344543457031 4.9021310806274414062 4.8620028495788574219 4.832981109619140625 4.8056883811950683594 4.7816624641418457031 4.7594971656799316406 4.7449955940246582031 4.7371468544006347656 4.7325181961059570312 4.7292299270629882812 4.7280492782592773438 4.7277359962463378906 4.7272658348083496094 4.7254495620727539062 4.7215213775634765625 4.7139716148376464844 4.7028756141662597656 4.68597412109375 4.6644296646118164062 4.6347584724426269531 4.6000967025756835938 4.5579314231872558594 4.5151281356811523438 4.4692010879516601562 4.4273462295532226562 4.3869986534118652344 4.3523440361022949219 4.3171911239624023438 4.2826685905456542969 4.2422614097595214844 4.197650909423828125 4.1428270339965820312 4.0854935646057128906 4.0234375 3.9662728309631347656 3.9120590686798095703 3.8690190315246582031 3.8331658840179443359 3.8053240776062011719 3.7797763347625732422 3.7560095787048339844 3.7287654876708984375 3.6988718509674072266 3.6644122600555419922 3.6301245689392089844 3.5947527885437011719 3.5630335807800292969 3.5334060192108154297 3.5063645839691162109 3.4747538566589355469 3.4364056587219238281 3.3828411102294921875 3.3138215541839599609 3.2211444377899169922 3.1146206855773925781 2.9896960258483886719 2.8598277568817138672 2.7190265655517578125 2.5812609195709228516 2.4384002685546875 2.3016848564147949219 2.1621744632720947266 2.0304689407348632812 1.8981573581695556641 1.7729852199554443359 1.6416188478469848633 1.5072649717330932617 1.3551857471466064453 1.1898785829544067383 0.99680471420288085938 0.79040777683258056641 0.56414693593978881836 0.33882927894592285156 0.089404538273811340332 0 0 0 0 0 0 0 0 0 0 0 0 0 0 0 0 0 0 0 0 0 0 0 0 0 0 0 0 0 0 0 0 0 0 0 0 0 0 0 
2.4407880306243896484 2.4217238426208496094 2.4431498050689697266 2.494319915771484375 2.6377842426300048828 2.7085561752319335938 2.5420689582824707031 2.4953627586364746094 2.5396656990051269531 2.4964089393615722656 2.4718976020812988281 2.4869694709777832031 2.4875156879425048828 2.4848763942718505859 2.4815247058868408203 2.4811139106750488281 2.4848127365112304688 2.4871461391448974609 2.4866056442260742188 2.4942231178283691406 2.4968328475952148438 2.4991629123687744141 2.5008618831634521484 2.5028514862060546875 2.5067059993743896484 2.5133967399597167969 2.5134766101837158203 2.5171062946319580078 2.5465545654296875 2.7565236091613769531 2.8968713283538818359 2.8954095840454101562 2.881824493408203125 2.8813977241516113281 2.8743140697479248047 2.8402142524719238281 2.7800343036651611328 2.7309417724609375 2.7596430778503417969 2.7224698066711425781 2.8443603515625 2.9589891433715820312 2.9357547760009765625 2.829959869384765625 2.7349908351898193359 2.7723658084869384766 2.784267425537109375 3.03277587890625 3.3417325019836425781 3.4930694103240966797 3.52471923828125 3.5761871337890625 3.5189998149871826172 3.6795485019683837891 4.6418280601501464844 5.673091888427734375 6.1745219230651855469 6.1683402061462402344 5.9300670623779296875 5.6989178657531738281 5.5932688713073730469 5.5503978729248046875 5.4894595146179199219 5.6114525794982910156 6.1921825408935546875 6.6730241775512695312 7.4157128334045410156 7.9505252838134765625 7.2142696380615234375 6.2475805282592773438 5.8831329345703125 5.6540541648864746094 5.662204742431640625 5.7158598899841308594 5.7316999435424804688 5.6512970924377441406 5.4446473121643066406 5.1580333709716796875 4.9361858367919921875 4.8242936134338378906 4.7662987709045410156 4.7829160690307617188 4.8163318634033203125 4.6435570716857910156 4.3206887245178222656 4.095550537109375 3.8942646980285644531 3.6808927059173583984 3.5793235301971435547 3.5897369384765625 3.6051199436187744141 3.6232206821441650391 3.6467821598052978516 3.6750285625457763672 3.8347918987274169922 4.0219707489013671875 4.158878326416015625 4.24901580810546875 4.3418545722961425781 4.1474595069885253906 2.3723063468933105469 2.2987222671508789062 2.4335601329803466797 2.5591194629669189453 2.6876115798950195312 2.8071727752685546875 2.9296517372131347656 3.2536261081695556641 3.7915434837341308594 3.8683657646179199219 3.9356522560119628906 3.9873700141906738281 4.0316791534423828125 4.0668377876281738281 4.0996856689453125 4.1295576095581054688 4.1619849205017089844 4.1934800148010253906 4.2262125015258789062 4.2552385330200195312 4.2822413444519042969 4.3029093742370605469 4.319965362548828125 4.3337945938110351562 4.3489594459533691406 4.3664073944091796875 4.3910975456237792969 4.4223222732543945312 4.4644575119018554688 4.5124239921569824219 4.5719475746154785156 4.6357684135437011719 4.7116370201110839844 4.7896218299865722656 4.8784046173095703125 4.9658794403076171875 5.0622425079345703125 5.1543378829956054688 5.2538805007934570312 5.3487629890441894531 5.4530344009399414062 5.5542736053466796875 5.6677327156066894531 5.7794704437255859375 5.902667999267578125 6.0157337188720703125 6.1286330223083496094 6.2206640243530273438 6.299224853515625 6.3502597808837890625 6.3834452629089355469 6.3978037834167480469 6.3997216224670410156 6.3926801681518554688 6.3794584274291992188 6.3633465766906738281 6.3418798446655273438 6.3179087638854980469 6.2871012687683105469 6.2535076141357421875 6.2121882438659667969 6.17128753662109375 6.1270360946655273438 6.0886139869689941406 6.052494049072265625 6.0264487266540527344 6.0078129768371582031 6.0002303123474121094 6.0033159255981445312 6.0174846649169921875 6.0457029342651367188 6.0819840431213378906 6.1255021095275878906 6.1628289222717285156 6.1919016838073730469 6.2014727592468261719 6.1863455772399902344 6.1475510597229003906 6.0812025070190429688 5.9988780021667480469 5.8904986381530761719 5.7734928131103515625 5.63469696044921875 5.49951934814453125 5.3558011054992675781 5.2299113273620605469 5.1113004684448242188 5.020923614501953125 4.9469118118286132812 4.8968195915222167969 4.8581166267395019531 4.8305602073669433594 4.805206298828125 4.7833385467529296875 4.7635545730590820312 4.7510547637939453125 4.7451968193054199219 4.7426257133483886719 4.7403588294982910156 4.7391791343688964844 4.7386078834533691406 4.7379755973815917969 4.7364225387573242188 4.7334337234497070312 4.7275848388671875 4.7183437347412109375 4.7031536102294921875 4.6825103759765625 4.6525349617004394531 4.6161265373229980469 4.5707402229309082031 4.5240120887756347656 4.47347259521484375 4.4272470474243164062 4.382709503173828125 4.3446102142333984375 4.3062047958374023438 4.2687516212463378906 4.2251915931701660156 4.1773257255554199219 4.1186847686767578125 4.0575075149536132812 3.9914505481719970703 3.9307737350463867188 3.8734583854675292969 3.8282425403594970703 3.7909598350524902344 3.7624077796936035156 3.7366094589233398438 3.7128918170928955078 3.6858143806457519531 3.6560211181640625 3.6214277744293212891 3.5866155624389648438 3.5500903129577636719 3.5165245532989501953 3.4840667247772216797 3.4536433219909667969 3.4182596206665039062 3.3765118122100830078 3.3201298713684082031 3.2495324611663818359 3.1566526889801025391 3.0511522293090820312 2.9282848834991455078 2.8010733127593994141 2.6634569168090820312 2.5289270877838134766 2.389430999755859375 2.2558419704437255859 2.1192824840545654297 1.9899991750717163086 1.8595983982086181641 1.7356286048889160156 1.6049176454544067383 1.470738530158996582 1.3184751272201538086 1.1527565717697143555 0.95914864540100097656 0.75241881608963012695 0.52583152055740356445 0.30006590485572814941 0.037816591560840606689 0 0 0 0 0 0 0 0 0 0 0 0 0 0 0 0 0 0 0 0 0 0 0 0 0 0 0 0 0 0 0 0 0 0 0 0 0 0 0 
2.4730973243713378906 2.4410829544067382812 2.4747574329376220703 2.6106953620910644531 2.7187800407409667969 2.5593886375427246094 2.4941837787628173828 2.5514247417449951172 2.5552392005920410156 2.5320067405700683594 2.5070903301239013672 2.4765782356262207031 2.4578406810760498047 2.4759480953216552734 2.4934234619140625 2.4914960861206054688 2.4874675273895263672 2.4864175319671630859 2.4875547885894775391 2.4902663230895996094 2.4942178726196289062 2.4949960708618164062 2.4919915199279785156 2.4984393119812011719 2.5116133689880371094 2.5203156471252441406 2.5180146694183349609 2.5206100940704345703 2.5314476490020751953 2.7009065151214599609 2.8943495750427246094 2.8726956844329833984 2.8522663116455078125 2.8558604717254638672 2.8541266918182373047 2.8226673603057861328 2.7908062934875488281 2.7821373939514160156 2.7832000255584716797 2.6572749614715576172 2.7994935512542724609 2.9597659111022949219 2.9577648639678955078 2.8153054714202880859 2.6874296665191650391 2.7282035350799560547 2.8570911884307861328 3.2846477031707763672 3.4976990222930908203 3.6374914646148681641 3.6245088577270507812 3.5002455711364746094 3.4242920875549316406 3.7855112552642822266 5.00978851318359375 5.824428558349609375 6.2168745994567871094 6.1309208869934082031 5.8596014976501464844 5.6807413101196289062 5.5791049003601074219 5.5333333015441894531 5.4360208511352539062 5.6722359657287597656 6.1764473915100097656 7.0092029571533203125 7.7877449989318847656 7.8331117630004882812 6.8937234878540039062 6.1347684860229492188 5.8156299591064453125 5.6624317169189453125 5.6957907676696777344 5.7462439537048339844 5.74761962890625 5.6485462188720703125 5.4117636680603027344 5.123485565185546875 4.9216165542602539062 4.8320646286010742188 4.8324179649353027344 4.8821740150451660156 4.8242411613464355469 4.5412659645080566406 4.2059016227722167969 4.0882000923156738281 3.87586212158203125 3.6769711971282958984 3.6000473499298095703 3.6253237724304199219 3.6476738452911376953 3.6692345142364501953 3.6949317455291748047 3.7449853420257568359 3.9508032798767089844 4.1066880226135253906 4.214450836181640625 4.2821187973022460938 4.3790593147277832031 3.6820952892303466797 2.2105011940002441406 2.3400614261627197266 2.4725003242492675781 2.5958817005157470703 2.7222008705139160156 2.8397948741912841797 2.9603302478790283203 3.2787549495697021484 3.8041608333587646484 3.8754267692565917969 3.9371964931488037109 3.9842386245727539062 4.0243425369262695312 4.0562839508056640625 4.08664703369140625 4.1151175498962402344 4.1471185684204101562 4.1791186332702636719 4.21315765380859375 4.2440519332885742188 4.2734751701354980469 4.296619415283203125 4.3163728713989257812 4.3327546119689941406 4.3505649566650390625 4.3703951835632324219 4.3974299430847167969 4.43067169189453125 4.4748392105102539062 4.5247468948364257812 4.5864987373352050781 4.652721405029296875 4.7316040992736816406 4.8128480911254882812 4.9052991867065429688 4.9961261749267578125 5.0956964492797851562 5.1901783943176269531 5.2914357185363769531 5.3871936798095703125 5.4917397499084472656 5.5927214622497558594 5.7054276466369628906 5.816089630126953125 5.9378676414489746094 6.0493588447570800781 6.1602830886840820312 6.2501649856567382812 6.3261232376098632812 6.3745131492614746094 6.4048237800598144531 6.4167132377624511719 6.4164462089538574219 6.4080333709716796875 6.3942456245422363281 6.3783559799194335938 6.3575167655944824219 6.3341846466064453125 6.3037390708923339844 6.2698302268981933594 6.2272624969482421875 6.184505462646484375 6.1377611160278320312 6.0968313217163085938 6.058063507080078125 6.0298380851745605469 6.0092172622680664062 6.0001215934753417969 6.0018696784973144531 6.0150427818298339844 6.0424122810363769531 6.0780487060546875 6.1208786964416503906 6.1574316024780273438 6.1853566169738769531 6.1934313774108886719 6.1761279106140136719 6.1349635124206542969 6.0660762786865234375 5.9817647933959960938 5.8720364570617675781 5.754810333251953125 5.6169676780700683594 5.4835147857666015625 5.3421225547790527344 5.2184481620788574219 5.1018152236938476562 5.0127596855163574219 4.9403772354125976562 4.8916783332824707031 4.8543763160705566406 4.8283090591430664062 4.8050160408020019531 4.7855181694030761719 4.7684388160705566406 4.7582955360412597656 4.754638671875 4.7539854049682617188 4.75286102294921875 4.7514786720275878906 4.7500944137573242188 4.7486391067504882812 4.7465128898620605469 4.7435641288757324219 4.7384004592895507812 4.7301025390625 4.7158226966857910156 4.6955895423889160156 4.6651711463928222656 4.6273040771484375 4.57941436767578125 4.5296783447265625 4.47559356689453125 4.4259638786315917969 4.3780741691589355469 4.3371076583862304688 4.2958703041076660156 4.2557573318481445312 4.2092504501342773438 4.1582994461059570312 4.0960340499877929688 4.0312066078186035156 3.9613513946533203125 3.8973376750946044922 3.8370711803436279297 3.7897784709930419922 3.7511146068572998047 3.7218458652496337891 3.6957404613494873047 3.6719844341278076172 3.6449499130249023438 3.6150934696197509766 3.5801377296447753906 3.5445411205291748047 3.5065655708312988281 3.4708600044250488281 3.4352779388427734375 3.4012675285339355469 3.3620886802673339844 3.3172109127044677734 3.2587137222290039062 3.1877138614654541016 3.0963387489318847656 2.9936604499816894531 2.8744745254516601562 2.7508618831634521484 2.6163358688354492188 2.4836132526397705078 2.3446850776672363281 2.2106854915618896484 2.0730752944946289062 1.9425082206726074219 1.8107646703720092773 1.6856263875961303711 1.5538576841354370117 1.4187557697296142578 1.2656085491180419922 1.0990768671035766602 0.90470659732818603516 0.69765639305114746094 0.47128152847290039062 0.22925259172916412354 0.0070745036937296390533 0 0 0 0 0 0 0 0 0 0 0 0 0 0 0 0 0 0 0 0 0 0 0 0 0 0 0 0 0 0 0 0 0 0 0 0 0 0 0 
2.4533522129058837891 2.4655692577362060547 2.5928785800933837891 2.7209362983703613281 2.5867028236389160156 2.4838769435882568359 2.5278022289276123047 2.523609161376953125 2.5059182643890380859 2.5049149990081787109 2.5128545761108398438 2.5191097259521484375 2.5112247467041015625 2.4817090034484863281 2.4724721908569335938 2.4930446147918701172 2.50482940673828125 2.5034451484680175781 2.4989519119262695312 2.4927501678466796875 2.491313934326171875 2.4913830757141113281 2.4922521114349365234 2.4975366592407226562 2.5103080272674560547 2.5204050540924072266 2.5227475166320800781 2.5274832248687744141 2.5308392047882080078 2.61656951904296875 2.8358571529388427734 2.8281147480010986328 2.8120822906494140625 2.8020851612091064453 2.8074350357055664062 2.7988879680633544922 2.7802479267120361328 2.7688417434692382812 2.8229784965515136719 2.9167950153350830078 2.9080901145935058594 2.7006618976593017578 2.8551681041717529297 2.8242969512939453125 2.7558200359344482422 2.7256226539611816406 3.0191180706024169922 3.4810712337493896484 3.6090528964996337891 3.5777380466461181641 3.4570910930633544922 3.283542633056640625 3.3542420864105224609 4.0642833709716796875 5.3248505592346191406 5.9752802848815917969 6.1727123260498046875 6.08090972900390625 5.8206329345703125 5.6421594619750976562 5.5304493904113769531 5.4807114601135253906 5.3807644844055175781 5.6675581932067871094 6.2040114402770996094 7.2704319953918457031 8.1571664810180664062 7.7594347000122070312 6.6501879692077636719 6.0472769737243652344 5.7706232070922851562 5.6723089218139648438 5.7146010398864746094 5.761096954345703125 5.7551512718200683594 5.6335606575012207031 5.3663196563720703125 5.0901494026184082031 4.9102034568786621094 4.8575458526611328125 4.9211091995239257812 4.9454526901245117188 4.7547287940979003906 4.3967504501342773438 4.1924500465393066406 4.0548014640808105469 3.8477528095245361328 3.671947479248046875 3.6466529369354248047 3.6711413860321044922 3.6964046955108642578 3.7217123508453369141 3.7498033046722412109 3.844921112060546875 4.0498127937316894531 4.17797088623046875 4.2564907073974609375 4.319698333740234375 4.43383026123046875 3.7012727260589599609 2.2586510181427001953 2.3859462738037109375 2.5161190032958984375 2.6374344825744628906 2.7616846561431884766 2.8773965835571289062 2.996051788330078125 3.3103919029235839844 3.8263733386993408203 3.8917582035064697266 3.9474277496337890625 3.9889974594116210938 4.0238690376281738281 4.0515141487121582031 4.0782256126403808594 4.1042346954345703125 4.1348114013671875 4.1665415763854980469 4.2012877464294433594 4.2336974143981933594 4.2655091285705566406 4.2914457321166992188 4.3145437240600585938 4.3342695236206054688 4.3556065559387207031 4.3785576820373535156 4.4084773063659667969 4.4439306259155273438 4.4900808334350585938 4.5417771339416503906 4.6056365966796875 4.674320220947265625 4.7566008567810058594 4.8417687416076660156 4.9388380050659179688 5.0340027809143066406 5.1377897262573242188 5.2354550361633300781 5.3389787673950195312 5.4357991218566894531 5.5404295921325683594 5.640575408935546875 5.7514629364013671875 5.8595914840698242188 5.9779939651489257812 6.0859174728393554688 6.192790985107421875 6.2788538932800292969 6.3509235382080078125 6.3960614204406738281 6.4233727455139160156 6.4330029487609863281 6.4309344291687011719 6.421489715576171875 6.4073147773742675781 6.3916101455688476562 6.3712253570556640625 6.3483247756958007812 6.318073272705078125 6.2838354110717773438 6.2402033805847167969 6.1959042549133300781 6.1470842361450195312 6.1040325164794921875 6.0629534721374511719 6.03272247314453125 6.01009368896484375 5.9992303848266601562 5.9990649223327636719 6.0103936195373535156 6.0356092453002929688 6.0690741539001464844 6.1094141006469726562 6.1435871124267578125 6.1689352989196777344 6.1746735572814941406 6.1549968719482421875 6.1119070053100585938 6.0414519309997558594 5.956325531005859375 5.8466205596923828125 5.7304439544677734375 5.5948314666748046875 5.4641556739807128906 5.3260493278503417969 5.2053208351135253906 5.0912585258483886719 5.0040149688720703125 4.9335551261901855469 4.8863782882690429688 4.8506026268005371094 4.8261814117431640625 4.8052196502685546875 4.7884421348571777344 4.7745342254638671875 4.7672090530395507812 4.7661147117614746094 4.76743316650390625 4.7673158645629882812 4.7657895088195800781 4.7631020545959472656 4.760158538818359375 4.7566442489624023438 4.7529010772705078125 4.7475185394287109375 4.7393617630004882812 4.7252821922302246094 4.7049927711486816406 4.6739373207092285156 4.6347322463989257812 4.5847344398498535156 4.532558441162109375 4.4756045341491699219 4.4231729507446289062 4.3724260330200195312 4.32889556884765625 4.2850046157836914062 4.2423110008239746094 4.1928906440734863281 4.1388812065124511719 4.0730438232421875 4.0046362876892089844 3.9310553073883056641 3.8637540340423583984 3.8005475997924804688 3.7511324882507324219 3.7109820842742919922 3.6808655261993408203 3.6543169021606445312 3.6303861141204833984 3.6032340526580810547 3.5731542110443115234 3.5376534461975097656 3.5010581016540527344 3.4613354206085205078 3.4231090545654296875 3.3838918209075927734 3.3457682132720947266 3.3023676872253417969 3.2542169094085693359 3.1939015388488769531 3.12335205078125 3.0349531173706054688 2.9367635250091552734 2.8228302001953125 2.7037782669067382812 2.5723361968994140625 2.4401464462280273438 2.2992403507232666016 2.1615793704986572266 2.0191152095794677734 1.8836218118667602539 1.7474000453948974609 1.6189197301864624023 1.4845730066299438477 1.3476058244705200195 1.1929767131805419922 1.025258183479309082 0.82985097169876098633 0.62242424488067626953 0.39671546220779418945 0.10747697949409484863 0 0 0 0 0 0 0 0 0 0 0 0 0 0 0 0 0 0 0 0 0 0 0 0 0 0 0 0 0 0 0 0 0 0 0 0 0 0 0 0 
2.4536287784576416016 2.5616731643676757812 2.715160369873046875 2.5888247489929199219 2.4731965065002441406 2.5194520950317382812 2.513462066650390625 2.4884243011474609375 2.4808213710784912109 2.4795153141021728516 2.483367919921875 2.4953253269195556641 2.5214841365814208984 2.5256209373474121094 2.5145032405853271484 2.494213104248046875 2.4850597381591796875 2.5026662349700927734 2.5077548027038574219 2.4999947547912597656 2.4957561492919921875 2.4967484474182128906 2.5006339550018310547 2.5059695243835449219 2.5100367069244384766 2.5143816471099853516 2.5173602104187011719 2.5239987373352050781 2.5286698341369628906 2.5630230903625488281 2.7418091297149658203 2.7653837203979492188 2.7599267959594726562 2.7535572052001953125 2.753902435302734375 2.7634971141815185547 2.7583429813385009766 2.7468972206115722656 2.7694103717803955078 2.806583404541015625 2.8707003593444824219 2.7377786636352539062 2.6631526947021484375 2.7205443382263183594 2.8169958591461181641 2.8955008983612060547 3.2078371047973632812 3.4992911815643310547 3.5009403228759765625 3.4295167922973632812 3.3049995899200439453 3.1981372833251953125 3.4382007122039794922 4.4836487770080566406 5.5651602745056152344 6.0799956321716308594 6.1268191337585449219 6.0058746337890625 5.7626399993896484375 5.5710000991821289062 5.4836635589599609375 5.3973670005798339844 5.38167572021484375 5.6634116172790527344 6.2179732322692871094 7.2532267570495605469 8.166561126708984375 7.8242549896240234375 6.7191462516784667969 6.0349535942077636719 5.7226285934448242188 5.6813650131225585938 5.731292724609375 5.7781829833984375 5.7561039924621582031 5.6068148612976074219 5.3193364143371582031 5.06151580810546875 4.8961467742919921875 4.8882741928100585938 4.9912614822387695312 4.9255456924438476562 4.5834989547729492188 4.3590464591979980469 4.1884965896606445312 4.0199613571166992188 3.8087911605834960938 3.6797616481781005859 3.6926207542419433594 3.7203593254089355469 3.7470960617065429688 3.7762949466705322266 3.8161475658416748047 3.9544575214385986328 4.1297783851623535156 4.2326426506042480469 4.29375457763671875 4.3710613250732421875 4.4765067100524902344 2.9951295852661132812 2.3072023391723632812 2.4431817531585693359 2.8588795661926269531 3.0047764778137207031 3.1258676052093505859 3.2348947525024414062 3.3424675464630126953 3.5383234024047851562 3.8522813320159912109 3.9120872020721435547 3.9619319438934326172 3.9981312751770019531 4.0277299880981445312 4.0509114265441894531 4.0736799240112304688 4.0968580245971679688 4.1255488395690917969 4.1565480232238769531 4.1915545463562011719 4.2251267433166503906 4.2591090202331542969 4.2878594398498535156 4.3145399093627929688 4.3379607200622558594 4.3632354736328125 4.3896384239196777344 4.422641754150390625 4.4602947235107421875 4.5082421302795410156 4.5614752769470214844 4.627193450927734375 4.6981949806213378906 4.7839083671569824219 4.8732051849365234375 4.9752492904663085938 5.0751514434814453125 5.1835722923278808594 5.2847418785095214844 5.3907213211059570312 5.4886026382446289062 5.5931010246276855469 5.6919817924499511719 5.800342559814453125 5.9050240516662597656 6.0188517570495605469 6.1220097541809082031 6.2236237525939941406 6.3049535751342773438 6.3725161552429199219 6.4142355918884277344 6.438716888427734375 6.4464306831359863281 6.4429826736450195312 6.4328093528747558594 6.4183492660522460938 6.4027161598205566406 6.3825488090515136719 6.3598294258117675781 6.3295731544494628906 6.2949814796447753906 6.2504901885986328125 6.2050104141235351562 6.1546154022216796875 6.1099328994750976562 6.06702423095703125 6.0351185798645019531 6.0106625556945800781 5.9979939460754394531 5.9956173896789550781 6.0045499801635742188 6.0266785621643066406 6.0568280220031738281 6.0932984352111816406 6.1238555908203125 6.1455335617065429688 6.1483120918273925781 6.1261577606201171875 6.0815339088439941406 6.0103163719177246094 5.9253659248352050781 5.8168673515319824219 5.7028002738952636719 5.5703983306884765625 5.44326019287109375 5.3091073036193847656 5.1918187141418457031 5.0807213783264160156 4.9956407546997070312 4.9272313117980957031 4.8815932273864746094 4.8473334312438964844 4.8245329856872558594 4.8058810234069824219 4.7918157577514648438 4.7811226844787597656 4.7766866683959960938 4.7781982421875 4.781352996826171875 4.7819867134094238281 4.7802343368530273438 4.7762866020202636719 4.77152252197265625 4.7661547660827636719 4.7610826492309570312 4.7548422813415527344 4.7462248802185058594 4.7317905426025390625 4.7110776901245117188 4.6792435646057128906 4.6388454437255859375 4.5871257781982421875 4.5330119132995605469 4.473819732666015625 4.4191846847534179688 4.3661179542541503906 4.3204250335693359375 4.2742323875427246094 4.2292737960815429688 4.17730712890625 4.1206684112548828125 4.0518217086791992188 3.9804291725158691406 3.9037411212921142578 3.833667755126953125 3.7679092884063720703 3.7165410518646240234 3.6748943328857421875 3.6438057422637939453 3.6165916919708251953 3.5922541618347167969 3.5648109912872314453 3.5344479084014892578 3.4984197616577148438 3.4608666896820068359 3.4194123744964599609 3.3786008358001708984 3.3355541229248046875 3.2930390834808349609 3.2451100349426269531 3.1934611797332763672 3.1312572956085205078 3.0613260269165039062 2.9763283729553222656 2.8831343650817871094 2.7748844623565673828 2.6605269908905029297 2.5318126678466796875 2.3991987705230712891 2.25473785400390625 2.1115479469299316406 1.9621616601943969727 1.8197886943817138672 1.6772298812866210938 1.5440359115600585938 1.4062515497207641602 1.2669206857681274414 1.1105074882507324219 0.94141471385955810547 0.74487900733947753906 0.53713279962539672852 0.30470126867294311523 0.03464282304048538208 0 0 0 0 0 0 0 0 0 0 0 0 0 0 0 0 0 0 0 0 0 0 0 0 0 0 0 0 0 0 0 0 0 0 0 0 0 0 0 0 
2.5163180828094482422 2.6973807811737060547 2.6254017353057861328 2.4579808712005615234 2.5047621726989746094 2.5162110328674316406 2.4893369674682617188 2.4773294925689697266 2.4739396572113037109 2.4714720249176025391 2.4704520702362060547 2.4718081951141357422 2.4797341823577880859 2.4939796924591064453 2.51613616943359375 2.5344173908233642578 2.5178020000457763672 2.4973003864288330078 2.4893295764923095703 2.5078792572021484375 2.5188376903533935547 2.5157575607299804688 2.5143043994903564453 2.5161321163177490234 2.5150630474090576172 2.5153799057006835938 2.5120902061462402344 2.5167829990386962891 2.5246250629425048828 2.5335938930511474609 2.6323416233062744141 2.6815133094787597656 2.6987340450286865234 2.6966588497161865234 2.7027490139007568359 2.7226128578186035156 2.7281272411346435547 2.7280631065368652344 2.7401244640350341797 2.7413601875305175781 2.7543394565582275391 2.7626473903656005859 2.7121546268463134766 2.6644353866577148438 2.89096832275390625 2.9482166767120361328 3.2120120525360107422 3.3759233951568603516 3.3683524131774902344 3.3359456062316894531 3.1605205535888671875 3.2697625160217285156 3.7024896144866943359 4.9373431205749511719 5.7670831680297851562 6.1034522056579589844 6.0682020187377929688 5.9130115509033203125 5.6608939170837402344 5.4705014228820800781 5.4218964576721191406 5.2717723846435546875 5.3274922370910644531 5.6465396881103515625 6.3344287872314453125 7.513904571533203125 8.3051118850708007812 7.6584501266479492188 6.6157641410827636719 6.0434827804565429688 5.6944527626037597656 5.7036709785461425781 5.7585315704345703125 5.7950487136840820312 5.7440214157104492188 5.5758905410766601562 5.2805857658386230469 5.0395483970642089844 4.8943319320678710938 4.9423127174377441406 4.9910454750061035156 4.7744250297546386719 4.5542593002319335938 4.3225574493408203125 4.1397414207458496094 3.9802510738372802734 3.7963073253631591797 3.7415330410003662109 3.7569358348846435547 3.7763454914093017578 3.8013257980346679688 3.8346107006072998047 3.8961327075958251953 4.0640826225280761719 4.2029776573181152344 4.278354644775390625 4.3327441215515136719 4.4278688430786132812 4.5349602699279785156 2.8783142566680908203 2.3606386184692382812 2.5047068595886230469 3.2261302471160888672 3.4176685810089111328 3.5363485813140869141 3.6379590034484863281 3.7321565151214599609 3.8100893497467041016 3.8797419071197509766 3.9340736865997314453 3.9782190322875976562 4.0091524124145507812 4.0335559844970703125 4.0523047447204589844 4.0711007118225097656 4.0913457870483398438 4.1179623603820800781 4.1480121612548828125 4.18306732177734375 4.2176771163940429688 4.2538218498229980469 4.2855982780456542969 4.3162870407104492188 4.3439230918884277344 4.37371826171875 4.4040699005126953125 4.4405355453491210938 4.4805493354797363281 4.5303063392639160156 4.5850186347961425781 4.6525597572326660156 4.7259507179260253906 4.8153676986694335938 4.9092345237731933594 5.0168404579162597656 5.1220731735229492188 5.2357053756713867188 5.3407921791076660156 5.449451446533203125 5.5483727455139160156 5.6524782180786132812 5.7496275901794433594 5.8547310829162597656 5.9550805091857910156 6.0632100105285644531 6.1604971885681152344 6.2557220458984375 6.3314352035522460938 6.3938264846801757812 6.4318299293518066406 6.4534401893615722656 6.45935821533203125 6.4547147750854492188 6.44393157958984375 6.4291615486145019531 6.4134268760681152344 6.3932080268859863281 6.3704066276550292969 6.3399209976196289062 6.3048858642578125 6.2596020698547363281 6.2131252288818359375 6.1614279747009277344 6.1153936386108398438 6.0709233283996582031 6.0375161170959472656 6.0112843513488769531 5.9966831207275390625 5.9917140007019042969 5.9976248741149902344 6.015636444091796875 6.0412096977233886719 6.0722713470458984375 6.0977840423583984375 6.1144390106201171875 6.1133480072021484375 6.0882701873779296875 6.0422062873840332031 5.9707703590393066406 5.8868007659912109375 5.7805776596069335938 5.669696807861328125 5.5416650772094726562 5.4191026687622070312 5.2899255752563476562 5.1768946647644042969 5.0694918632507324219 4.9871263504028320312 4.9210901260375976562 4.8771624565124511719 4.8445291519165039062 4.8234190940856933594 4.8071584701538085938 4.7958984375 4.7885870933532714844 4.7872109413146972656 4.7914972305297851562 4.7964634895324707031 4.7977290153503417969 4.7954983711242675781 4.7903552055358886719 4.7837033271789550781 4.776103973388671875 4.7692975997924804688 4.7617421150207519531 4.7522416114807128906 4.7370471954345703125 4.7156000137329101562 4.6827726364135742188 4.6411042213439941406 4.5876951217651367188 4.531734466552734375 4.4704160690307617188 4.4137024879455566406 4.3584351539611816406 4.3106646537780761719 4.26226806640625 4.2151842117309570312 4.160915374755859375 4.102008819580078125 4.0306830406188964844 3.9568917751312255859 3.8777050971984863281 3.8053417205810546875 3.7373430728912353516 3.6840860843658447266 3.6407597064971923828 3.6083424091339111328 3.5800263881683349609 3.5549206733703613281 3.5269761085510253906 3.4963343143463134766 3.4599177837371826172 3.4215540885925292969 3.3784067630767822266 3.3348209857940673828 3.2874097824096679688 3.2397029399871826172 3.1862554550170898438 3.1301605701446533203 3.0652441978454589844 2.9954383373260498047 2.9137051105499267578 2.8256144523620605469 2.7232317924499511719 2.6136467456817626953 2.4874536991119384766 2.3538053035736083984 2.2047519683837890625 2.054782867431640625 1.8970794677734375 1.7465317249298095703 1.5964831113815307617 1.4575630426406860352 1.3154224157333374023 1.1732317209243774414 1.0147386789321899414 0.84409248828887939453 0.64632201194763183594 0.43827933073043823242 0.19390869140625 0 0 0 0 0 0 0 0 0 0 0 0 0 0 0 0 0 0 0 0 0 0 0 0 0 0 0 0 0 0 0 0 0 0 0 0 0 0 0 0 0 
2.6182255744934082031 2.6246001720428466797 2.4659917354583740234 2.4888315200805664062 2.5078477859497070312 2.4829437732696533203 2.4715509414672851562 2.4694406986236572266 2.4696607589721679688 2.4658708572387695312 2.4635999202728271484 2.4649326801300048828 2.4657523632049560547 2.4682829380035400391 2.4787452220916748047 2.5026698112487792969 2.527492523193359375 2.5377545356750488281 2.5172948837280273438 2.4885265827178955078 2.5148088932037353516 2.5341830253601074219 2.5296435356140136719 2.525188446044921875 2.5189442634582519531 2.5155446529388427734 2.5163855552673339844 2.5181939601898193359 2.5222761631011962891 2.5258152484893798828 2.5546228885650634766 2.5955286026000976562 2.6168968677520751953 2.6248035430908203125 2.6415627002716064453 2.6716740131378173828 2.6951661109924316406 2.6932249069213867188 2.6997237205505371094 2.702606201171875 2.7146139144897460938 2.7391674518585205078 2.7336585521697998047 2.7092075347900390625 2.7700715065002441406 2.8291332721710205078 3.2796049118041992188 3.2627162933349609375 3.2382059097290039062 3.1677148342132568359 3.1479439735412597656 3.95647430419921875 4.1290125846862792969 5.2588510513305664062 5.9300646781921386719 6.05319976806640625 5.9386563301086425781 5.7196445465087890625 5.4713487625122070312 5.3174276351928710938 5.2836008071899414062 5.1994271278381347656 5.2994475364685058594 5.6751585006713867188 6.6262860298156738281 7.8884758949279785156 8.0393400192260742188 7.3064823150634765625 6.3910064697265625 5.9004220962524414062 5.68970489501953125 5.7271952629089355469 5.77608489990234375 5.7969570159912109375 5.7265024185180664062 5.5425195693969726562 5.2476258277893066406 5.0287814140319824219 4.9325513839721679688 4.9709625244140625 4.8748631477355957031 4.769100189208984375 4.5322852134704589844 4.2884416580200195312 4.1465663909912109375 3.9546723365783691406 3.8379654884338378906 3.8175160884857177734 3.8192059993743896484 3.8295466899871826172 3.8494598865509033203 3.8804914951324462891 3.9708833694458007812 4.1463580131530761719 4.25907135009765625 4.3151712417602539062 4.3641676902770996094 4.4813065528869628906 4.5073666572570800781 2.8314812183380126953 2.4139513969421386719 2.5560109615325927734 3.2652997970581054688 3.4554927349090576172 3.5732655525207519531 3.6728105545043945312 3.7636229991912841797 3.8374598026275634766 3.902248382568359375 3.9518909454345703125 3.9913012981414794922 4.0179772377014160156 4.0382685661315917969 4.053558349609375 4.0692720413208007812 4.0872240066528320312 4.1121745109558105469 4.1414294242858886719 4.1765246391296386719 4.2120623588562011719 4.2501993179321289062 4.2848820686340332031 4.31951904296875 4.3513593673706054688 4.3856835365295410156 4.4199891090393066406 4.4598913192749023438 4.5022001266479492188 4.5536518096923828125 4.6097102165222167969 4.678924560546875 4.7545704841613769531 4.8475675582885742188 4.9459056854248046875 5.0589656829833984375 5.16942596435546875 5.2881402969360351562 5.3969941139221191406 5.5081448554992675781 5.6078920364379882812 5.7113556861877441406 5.8065385818481445312 5.9081511497497558594 6.0039954185485839844 6.1062836647033691406 6.1976146697998046875 6.2864236831665039062 6.3565673828125 6.4139242172241210938 6.4484109878540039062 6.4674029350280761719 6.4717473983764648438 6.4660844802856445312 6.4547524452209472656 6.43958282470703125 6.4235348701477050781 6.4029741287231445312 6.3798174858093261719 6.3488664627075195312 6.3132872581481933594 6.2672657966613769531 6.2199740409851074219 6.167270660400390625 6.1202054023742675781 6.0745258331298828125 6.0399088859558105469 6.0121388435363769531 5.9957132339477539062 5.9881081581115722656 5.9907717704772949219 6.0041794776916503906 6.0245099067687988281 6.049304962158203125 6.0689616203308105469 6.0798215866088867188 6.0743508338928222656 6.0461182594299316406 5.9986906051635742188 5.9273653030395507812 5.8448500633239746094 5.7415170669555664062 5.634433746337890625 5.5114188194274902344 5.3940019607543945312 5.2703495025634765625 5.1620411872863769531 5.0587835311889648438 4.97943878173828125 4.9158959388732910156 4.87371063232421875 4.8426566123962402344 4.8231110572814941406 4.80901336669921875 4.8002829551696777344 4.7960648536682128906 4.79750823974609375 4.8043851852416992188 4.8109259605407714844 4.8126688003540039062 4.8099064826965332031 4.8035306930541992188 4.7954158782958984375 4.7858076095581054688 4.7772545814514160156 4.768299102783203125 4.7577881813049316406 4.7416753768920898438 4.719348907470703125 4.6854028701782226562 4.6423907279968261719 4.5872659683227539062 4.5294756889343261719 4.4660787582397460938 4.4073357582092285156 4.3499522209167480469 4.3002471923828125 4.2498874664306640625 4.2010254859924316406 4.144989013671875 4.0845203399658203125 4.0116705894470214844 3.9365015029907226562 3.8558757305145263672 3.7820961475372314453 3.7125248908996582031 3.6576485633850097656 3.6125223636627197266 3.5784282684326171875 3.5485606193542480469 3.5223186016082763672 3.4937024116516113281 3.4628932476043701172 3.4264166355133056641 3.3876318931579589844 3.3431422710418701172 3.2969417572021484375 3.2450261116027832031 3.1916801929473876953 3.1319720745086669922 3.0705134868621826172 3.0017747879028320312 2.9309394359588623047 2.8512430191040039062 2.7671282291412353516 2.6695804595947265625 2.5639827251434326172 2.4398005008697509766 2.3049755096435546875 2.1515169143676757812 1.9951773881912231445 1.8297194242477416992 1.6715786457061767578 1.5145750045776367188 1.3703312873840332031 1.2239416837692260742 1.0786675214767456055 0.91808652877807617188 0.74593377113342285156 0.54693084955215454102 0.33865433931350708008 0.084104225039482116699 0 0 0 0 0 0 0 0 0 0 0 0 0 0 0 0 0 0 0 0 0 0 0 0 0 0 0 0 0 0 0 0 0 0 0 0 0 0 0 0 0 
2.6760792732238769531 2.4769701957702636719 2.4643242359161376953 2.5065660476684570312 2.4745709896087646484 2.4627943038940429688 2.4638814926147460938 2.4663019180297851562 2.4680664539337158203 2.4703567028045654297 2.4676821231842041016 2.4625973701477050781 2.4630744457244873047 2.4636631011962890625 2.4659504890441894531 2.47710418701171875 2.4956989288330078125 2.5233142375946044922 2.5450322628021240234 2.5419220924377441406 2.5227572917938232422 2.5116136074066162109 2.5164213180541992188 2.5214388370513916016 2.5209479331970214844 2.5235321521759033203 2.5264947414398193359 2.5287978649139404297 2.5272216796875 2.5230431556701660156 2.5844259262084960938 2.6647505760192871094 2.6850240230560302734 2.5742423534393310547 2.5735301971435546875 2.6049160957336425781 2.6372811794281005859 2.6460731029510498047 2.6587488651275634766 2.6656115055084228516 2.6664268970489501953 2.6511023044586181641 2.6213691234588623047 2.6373944282531738281 2.7050693035125732422 2.9145483970642089844 3.2271027565002441406 3.1609020233154296875 3.0750293731689453125 3.0706708431243896484 3.8444972038269042969 4.0424456596374511719 4.6476597785949707031 5.5555109977722167969 6.0053296089172363281 5.977100372314453125 5.7644186019897460938 5.5110201835632324219 5.3111491203308105469 5.2363557815551757812 5.1649904251098632812 5.1618905067443847656 5.3693871498107910156 5.8677396774291992188 7.0341563224792480469 8.192203521728515625 7.9693646430969238281 6.8185696601867675781 6.129055023193359375 5.8058714866638183594 5.6942315101623535156 5.7349901199340820312 5.7870373725891113281 5.7990922927856445312 5.7115435600280761719 5.4976410865783691406 5.2189030647277832031 5.0338530540466308594 4.9945130348205566406 4.8869347572326660156 4.90770721435546875 4.759677886962890625 4.5054903030395507812 4.2523608207702636719 4.1207709312438964844 3.9416127204895019531 3.8946628570556640625 3.8842840194702148438 3.8785827159881591797 3.880615234375 3.8922553062438964844 3.9154186248779296875 4.0508718490600585938 4.2180376052856445312 4.3074841499328613281 4.351787567138671875 4.4113364219665527344 4.5228371620178222656 4.1331763267517089844 2.6457149982452392578 2.4720804691314697266 2.6119444370269775391 3.3008573055267333984 3.4879550933837890625 3.6039445400238037109 3.7008152008056640625 3.7879092693328857422 3.8576180934906005859 3.9178273677825927734 3.9632620811462402344 3.9988107681274414062 4.0223021507263183594 4.0397481918334960938 4.0528025627136230469 4.0666255950927734375 4.0832118988037109375 4.1071743965148925781 4.1360125541687011719 4.17134857177734375 4.2078928947448730469 4.2480654716491699219 4.2857384681701660156 4.3244967460632324219 4.36075592041015625 4.3998599052429199219 4.4383463859558105469 4.4818859100341796875 4.5266170501708984375 4.5798482894897460938 4.6373057365417480469 4.7082529067993164062 4.7862401008605957031 4.88295745849609375 4.9859437942504882812 5.1046476364135742188 5.2204880714416503906 5.3443751335144042969 5.4569754600524902344 5.5704693794250488281 5.67079925537109375 5.7732858657836914062 5.86615753173828125 5.9639277458190917969 6.0549969673156738281 6.1512269973754882812 6.236461639404296875 6.3187627792358398438 6.3833055496215820312 6.4356398582458496094 6.4666514396667480469 6.4830760955810546875 6.4858717918395996094 6.4791607856750488281 6.4671764373779296875 6.4513883590698242188 6.4347357749938964844 6.4134817123413085938 6.3896465301513671875 6.3579282760620117188 6.3216109275817871094 6.2747635841369628906 6.2266740798950195312 6.1730623245239257812 6.1251068115234375 6.0783939361572265625 6.0427250862121582031 6.0135331153869628906 5.9952840805053710938 5.9848675727844238281 5.9838976860046386719 5.9919795989990234375 6.0061168670654296875 6.0234293937683105469 6.036052703857421875 6.0399379730224609375 6.029201507568359375 5.9972090721130371094 5.9481997489929199219 5.8770847320556640625 5.79638671875 5.6965832710266113281 5.5940833091735839844 5.4770741462707519531 5.36578369140625 5.2487196922302246094 5.1460766792297363281 5.0478343963623046875 4.9720921516418457031 4.9114160537719726562 4.8711795806884765625 4.8417849540710449219 4.8237776756286621094 4.8117156028747558594 4.8053526878356933594 4.8040747642517089844 4.8082232475280761719 4.8176393508911132812 4.8256001472473144531 4.8277249336242675781 4.824428558349609375 4.8168420791625976562 4.8073492050170898438 4.7962522506713867188 4.7861652374267578125 4.7758555412292480469 4.7643260955810546875 4.747222900390625 4.7238740921020507812 4.6885666847229003906 4.643894195556640625 4.5866522789001464844 4.5266237258911132812 4.4607253074645996094 4.3995957374572753906 4.3397855758666992188 4.2879629135131835938 4.235637664794921875 4.1852092742919921875 4.1278829574584960938 4.066577911376953125 3.9932465553283691406 3.9178366661071777344 3.8369519710540771484 3.7627284526824951172 3.6922495365142822266 3.6358821392059326172 3.5886096954345703125 3.5522344112396240234 3.52010345458984375 3.4921674728393554688 3.4626317024230957031 3.4318256378173828125 3.3957555294036865234 3.3570616245269775391 3.3116083145141601562 3.2627954483032226562 3.205806732177734375 3.1457250118255615234 3.0781664848327636719 3.0095400810241699219 2.9349591732025146484 2.8611652851104736328 2.7816441059112548828 2.6999428272247314453 2.6059286594390869141 2.5034530162811279297 2.3808720111846923828 2.2449936866760253906 2.0877335071563720703 1.9259139299392700195 1.7537809610366821289 1.5890828371047973633 1.4260410070419311523 1.2771136760711669922 1.1269348859786987305 0.97865986824035644531 0.81555956602096557617 0.64171940088272094727 0.44138041138648986816 0.23285833001136779785 0.011725771240890026093 0 0 0 0 0 0 0 0 0 0 0 0 0 0 0 0 0 0 0 0 0 0 0 0 0 0 0 0 0 0 0 0 0 0 0 0 0 0 0 0 0 
2.5652508735656738281 2.4369912147521972656 2.4951100349426269531 2.4845044612884521484 2.4577689170837402344 2.4573798179626464844 2.4624817371368408203 2.4669198989868164062 2.4717144966125488281 2.47483062744140625 2.4704988002777099609 2.4668931961059570312 2.4684939384460449219 2.4662351608276367188 2.4665577411651611328 2.4742832183837890625 2.4862492084503173828 2.5000677108764648438 2.51889801025390625 2.5412817001342773438 2.5570929050445556641 2.5524191856384277344 2.5167257785797119141 2.4927449226379394531 2.5016105175018310547 2.5270898342132568359 2.5328273773193359375 2.5337407588958740234 2.5304377079010009766 2.525081634521484375 2.5232989788055419922 2.5182790756225585938 2.5791890621185302734 2.5817067623138427734 2.6416141986846923828 2.6042001247406005859 2.5835316181182861328 2.5916502475738525391 2.6030080318450927734 2.5905208587646484375 2.559505462646484375 2.5232985019683837891 2.5009293556213378906 2.5386569499969482422 2.7257277965545654297 2.9428067207336425781 3.2451455593109130859 3.2213213443756103516 3.2111661434173583984 3.4735887050628662109 4.0763039588928222656 4.131847381591796875 4.9480342864990234375 5.7310438156127929688 6.0037951469421386719 5.8852167129516601562 5.6090564727783203125 5.3563132286071777344 5.1717877388000488281 5.1663632392883300781 5.0530219078063964844 5.1418962478637695312 5.4945554733276367188 6.0095925331115722656 7.0729804039001464844 8.2286386489868164062 8.0224971771240234375 6.8720641136169433594 6.0724177360534667969 5.7816219329833984375 5.706951141357421875 5.7500505447387695312 5.8027892112731933594 5.8064370155334472656 5.7102627754211425781 5.4667162895202636719 5.2015123367309570312 5.0467467308044433594 4.9533786773681640625 4.9251151084899902344 4.9476723670959472656 4.7388153076171875 4.489269256591796875 4.2492489814758300781 4.1014351844787597656 3.9866364002227783203 3.9557688236236572266 3.9406785964965820312 3.9294669628143310547 3.9242036342620849609 3.9252915382385253906 3.9525930881500244141 4.1446461677551269531 4.285396575927734375 4.355010986328125 4.398815155029296875 4.4518971443176269531 4.3200054168701171875 3.5532994270324707031 2.5828864574432373047 2.5295383930206298828 2.6671962738037109375 3.3290243148803710938 3.5111660957336425781 3.6244347095489501953 3.7181484699249267578 3.8014781475067138672 3.8674168586730957031 3.9237995147705078125 3.9660120010375976562 3.9990611076354980469 4.0209040641784667969 4.0372333526611328125 4.0496821403503417969 4.0631899833679199219 4.0796484947204589844 4.1035642623901367188 4.1325311660766601562 4.1683802604675292969 4.2059564590454101562 4.2480044364929199219 4.2883958816528320312 4.3309221267700195312 4.3712410926818847656 4.4147572517395019531 4.4571280479431152344 4.5040841102600097656 4.5511374473571777344 4.6061234474182128906 4.6649842262268066406 4.737636566162109375 4.8178567886352539062 4.9180378913879394531 5.0252904891967773438 5.149112701416015625 5.2697782516479492188 5.3982319831848144531 5.5140404701232910156 5.6293835639953613281 5.7299413681030273438 5.8312191963195800781 5.9217238426208496094 6.0157938003540039062 6.1024494171142578125 6.1932191848754882812 6.2730388641357421875 6.3496141433715820312 6.4092631340026855469 6.4572277069091796875 6.4852190017700195312 6.4993968009948730469 6.50080108642578125 6.4930777549743652344 6.4803667068481445312 6.4637875556945800781 6.4463052749633789062 6.424098968505859375 6.3993520736694335938 6.3666567802429199219 6.3294739723205566406 6.2817592620849609375 6.2329163551330566406 6.1785168647766113281 6.1298351287841796875 6.0823025703430175781 6.0458016395568847656 6.0154261589050292969 5.9955506324768066406 5.9824891090393066406 5.9779682159423828125 5.9807085990905761719 5.988536834716796875 5.9981584548950195312 6.0035085678100585938 6.0001468658447265625 5.9839148521423339844 5.9479680061340332031 5.8972616195678710938 5.8263034820556640625 5.7474398612976074219 5.6512541770935058594 5.5534825325012207031 5.4426860809326171875 5.3377666473388671875 5.2275972366333007812 5.1309142112731933594 5.037982940673828125 4.9659943580627441406 4.9082360267639160156 4.8699440956115722656 4.8421144485473632812 4.82546234130859375 4.8150858879089355469 4.8106846809387207031 4.8118720054626464844 4.818325042724609375 4.8299531936645507812 4.8390135765075683594 4.841388702392578125 4.8376312255859375 4.8290657997131347656 4.8184385299682617188 4.8062434196472167969 4.7953014373779296875 4.7839980125427246094 4.7715916633605957031 4.7535524368286132812 4.7291426658630371094 4.6923260688781738281 4.6457576751708984375 4.5860819816589355469 4.523502349853515625 4.4548082351684570312 4.3910956382751464844 4.3287868499755859375 4.2749257087707519531 4.2208867073059082031 4.1693224906921386719 4.1114029884338378906 4.0501585006713867188 3.9775116443634033203 3.9030752182006835938 3.8231978416442871094 3.7495839595794677734 3.6789574623107910156 3.6214067935943603516 3.5718941688537597656 3.5328907966613769531 3.4980251789093017578 3.4679982662200927734 3.4373445510864257812 3.4066381454467773438 3.3712985515594482422 3.3330888748168945312 3.2870285511016845703 3.2357659339904785156 3.173557281494140625 3.1062483787536621094 3.0299632549285888672 2.9529962539672851562 2.8710148334503173828 2.7924621105194091797 2.7110133171081542969 2.6296944618225097656 2.5373599529266357422 2.4367129802703857422 2.3151752948760986328 2.1786434650421142578 2.0188944339752197266 1.8534475564956665039 1.6768583059310913086 1.5077425241470336914 1.3405832052230834961 1.1884148120880126953 1.0355319976806640625 0.88498026132583618164 0.71952527761459350586 0.54357600212097167969 0.34186887741088867188 0.12314308434724807739 0.0014618749264627695084 0 0 0 0 0 0 0 0 0 0 0 0 0 0 0 0 0 0 0 0 0 0 0 0 0 0 0 0 0 0 0 0 0 0 0 0 0 0 0 0 0 
2.4615685939788818359 2.4885346889495849609 2.4924051761627197266 2.4617757797241210938 2.4499666690826416016 2.4515745639801025391 2.4587640762329101562 2.4656362533569335938 2.471294403076171875 2.4738676548004150391 2.4739720821380615234 2.4762816429138183594 2.475261688232421875 2.4697372913360595703 2.4716002941131591797 2.4766876697540283203 2.4898471832275390625 2.4993903636932373047 2.5064103603363037109 2.5177617073059082031 2.536838531494140625 2.5552389621734619141 2.5605466365814208984 2.5469591617584228516 2.5136029720306396484 2.4958984851837158203 2.5318379402160644531 2.5446076393127441406 2.5406038761138916016 2.5312209129333496094 2.5254421234130859375 2.5204596519470214844 2.5180475711822509766 2.5180084705352783203 2.5140988826751708984 2.5302803516387939453 2.5392193794250488281 2.6671214103698730469 2.6749653816223144531 2.8516712188720703125 2.8584747314453125 2.8328602313995361328 2.8099792003631591797 2.6443552970886230469 2.6575574874877929688 3.3952612876892089844 3.4512045383453369141 3.4488880634307861328 3.440708160400390625 3.6268177032470703125 4.09814453125 4.1672320365905761719 5.2134842872619628906 6.0064306259155273438 6.4234995841979980469 6.0957856178283691406 5.6488676071166992188 5.2768244743347167969 5.1343483924865722656 5.0759057998657226562 5.0380072593688964844 5.2120914459228515625 5.6429181098937988281 6.2593536376953125 7.3927178382873535156 8.3160715103149414062 7.8428549766540527344 6.8401803970336914062 6.0682759284973144531 5.761257171630859375 5.706569671630859375 5.75885009765625 5.8127541542053222656 5.817047119140625 5.7140192985534667969 5.4513649940490722656 5.1846370697021484375 4.9654774665832519531 5.018718719482421875 5.059490203857421875 4.9715490341186523438 4.7292637825012207031 4.4719500541687011719 4.242610931396484375 4.1114821434020996094 4.0461015701293945312 4.0163278579711914062 3.9958977699279785156 3.9791080951690673828 3.9671549797058105469 3.9581191539764404297 4.0080461502075195312 4.2391824722290039062 4.3470063209533691406 4.4033360481262207031 4.4511952400207519531 4.40460205078125 3.9769928455352783203 3.2835822105407714844 2.5949778556823730469 2.5919342041015625 2.7271509170532226562 3.3532247543334960938 3.5283458232879638672 3.6379415988922119141 3.7279362678527832031 3.8072903156280517578 3.8695967197418212891 3.9226243495941162109 3.9623360633850097656 3.9939367771148681641 4.0153985023498535156 4.0320711135864257812 4.0453124046325683594 4.05987548828125 4.0772995948791503906 4.1020169258117675781 4.1316285133361816406 4.168285369873046875 4.2069873809814453125 4.2508692741394042969 4.2938566207885742188 4.3399882316589355469 4.3842101097106933594 4.4320039749145507812 4.4781970977783203125 4.5286040306091308594 4.5781259536743164062 4.6351099014282226562 4.6956329345703125 4.7702412605285644531 4.8528580665588378906 4.9565443992614746094 5.0679650306701660156 5.19667816162109375 5.3218669891357421875 5.454509735107421875 5.5731487274169921875 5.6899456977844238281 5.7903885841369628906 5.89014434814453125 5.9780607223510742188 6.0682854652404785156 6.1504993438720703125 6.2358889579772949219 6.310443878173828125 6.3815016746520996094 6.43647003173828125 6.4802870750427246094 6.5054278373718261719 6.5174899101257324219 6.5175657272338867188 6.5088248252868652344 6.4953083992004394531 6.4777665138244628906 6.4592313766479492188 6.4358034133911132812 6.4098939895629882812 6.3759756088256835938 6.3377552032470703125 6.2890634536743164062 6.2394313812255859375 6.1842622756958007812 6.1349077224731445312 6.0866332054138183594 6.0493779182434082031 6.0178880691528320312 5.9964094161987304688 5.9806590080261230469 5.97245025634765625 5.9695672988891601562 5.9706988334655761719 5.9721136093139648438 5.9696779251098632812 5.9585328102111816406 5.9363722801208496094 5.8961310386657714844 5.8435420989990234375 5.7726864814758300781 5.6957411766052246094 5.6034021377563476562 5.5106978416442871094 5.4066224098205566406 5.3086400032043457031 5.2060041427612304688 5.1158609390258789062 5.0287823677062988281 4.9608469009399414062 4.9061937332153320312 4.8699550628662109375 4.8437237739562988281 4.8283910751342773438 4.8195538520812988281 4.816982269287109375 4.8204636573791503906 4.8291249275207519531 4.8428907394409179688 4.8528218269348144531 4.8553242683410644531 4.8511075973510742188 4.841648101806640625 4.8299860954284667969 4.8167142868041992188 4.8050560951232910156 4.7931795120239257812 4.77996826171875 4.7608494758605957031 4.7351393699645996094 4.6964402198791503906 4.6475067138671875 4.5848302841186523438 4.5191645622253417969 4.4471883773803710938 4.3805761337280273438 4.3156604766845703125 4.2598996162414550781 4.2045345306396484375 4.1524071693420410156 4.0946974754333496094 4.0344667434692382812 3.9636862277984619141 3.8914270401000976562 3.8137853145599365234 3.7417464256286621094 3.6716628074645996094 3.6131904125213623047 3.5613050460815429688 3.5192821025848388672 3.4811382293701171875 3.4485082626342773438 3.4163501262664794922 3.38558197021484375 3.3509418964385986328 3.3131937980651855469 3.2663722038269042969 3.2122600078582763672 3.144031524658203125 3.0683562755584716797 2.9818389415740966797 2.8948662281036376953 2.8036060333251953125 2.7184348106384277344 2.6331689357757568359 2.5505819320678710938 2.4585247039794921875 2.35878753662109375 2.2379298210144042969 2.1010539531707763672 1.9397546052932739258 1.7719843387603759766 1.5925084352493286133 1.4205051660537719727 1.2506036758422851562 1.0961997509002685547 0.94136965274810791016 0.78911530971527099609 0.6217911839485168457 0.4434280693531036377 0.23945340514183044434 0.04399976879358291626 0 0 0 0 0 0 0 0 0 0 0 0 0 0 0 0 0 0 0 0 0 0 0 0 0 0 0 0 0 0 0 0 0 0 0 0 0 0 0 0 0 0 
2.4579472541809082031 2.5076284408569335938 2.4699788093566894531 2.4507799148559570312 2.4513957500457763672 2.4505522251129150391 2.4596457481384277344 2.4654526710510253906 2.4703133106231689453 2.4735686779022216797 2.4745683670043945312 2.4788844585418701172 2.4778215885162353516 2.4773252010345458984 2.4804539680480957031 2.4831638336181640625 2.4921998977661132812 2.5019013881683349609 2.508625030517578125 2.5121417045593261719 2.5183095932006835938 2.5271754264831542969 2.5422167778015136719 2.5622000694274902344 2.5663993358612060547 2.5447576045989990234 2.5294203758239746094 2.5336534976959228516 2.5509133338928222656 2.5415339469909667969 2.5325238704681396484 2.5289046764373779297 2.5252516269683837891 2.5223252773284912109 2.5194518566131591797 2.5201168060302734375 2.519428253173828125 2.5047693252563476562 2.4857032299041748047 2.5459740161895751953 2.6471157073974609375 2.7435884475708007812 2.7940587997436523438 2.6400051116943359375 2.8034460544586181641 3.4734406471252441406 3.1885368824005126953 3.0772075653076171875 3.0086934566497802734 3.0336079597473144531 3.4154803752899169922 4.55376434326171875 6.0471477508544921875 6.7728428840637207031 6.6336693763732910156 6.1956591606140136719 5.6391038894653320312 5.1915378570556640625 5.0860033035278320312 4.9661054611206054688 5.0375871658325195312 5.2866263389587402344 5.7493219375610351562 6.4981751441955566406 7.7685184478759765625 8.4232120513916015625 7.585803985595703125 6.6529483795166015625 6.0423412322998046875 5.7270975112915039062 5.705310821533203125 5.7754149436950683594 5.8322806358337402344 5.8314566612243652344 5.7134985923767089844 5.4326543807983398438 5.0676965713500976562 4.9925894737243652344 5.1439847946166992188 5.1696305274963378906 4.9713125228881835938 4.73717498779296875 4.4673132896423339844 4.2517971992492675781 4.1168661117553710938 4.0880904197692871094 4.0667324066162109375 4.0451521873474121094 4.0246553421020507812 4.008213043212890625 3.9956645965576171875 4.1104769706726074219 4.3069820404052734375 4.38887786865234375 4.4320812225341796875 4.4934868812561035156 4.4020190238952636719 3.858917236328125 3.2044682502746582031 2.6356720924377441406 2.6531498432159423828 2.7859284877777099609 3.3720192909240722656 3.5392105579376220703 3.6449055671691894531 3.7312705516815185547 3.8070609569549560547 3.8663856983184814453 3.9169335365295410156 3.9551119804382324219 3.9863314628601074219 4.0085301399230957031 4.0267157554626464844 4.0418047904968261719 4.0584225654602050781 4.0776009559631347656 4.1037392616271972656 4.1343636512756347656 4.1719899177551269531 4.2117543220520019531 4.2571821212768554688 4.3022847175598144531 4.3513469696044921875 4.3987598419189453125 4.4501056671142578125 4.4995555877685546875 4.5530467033386230469 4.6049652099609375 4.6640834808349609375 4.7264766693115234375 4.8032083511352539062 4.8882031440734863281 4.9950656890869140625 5.110034942626953125 5.242755889892578125 5.3715386390686035156 5.5074009895324707031 5.6280956268310546875 5.7457566261291503906 5.8457674980163574219 5.9438848495483398438 6.0292959213256835938 6.1159505844116210938 6.1941385269165039062 6.2747187614440917969 6.3446063995361328125 6.4108104705810546875 6.4616994857788085938 6.5019440650939941406 6.524669647216796875 6.5349717140197753906 6.5339560508728027344 6.5243620872497558594 6.5101184844970703125 6.49163055419921875 6.472011566162109375 6.4473090171813964844 6.420177459716796875 6.3849802017211914062 6.34569549560546875 6.2960386276245117188 6.2456607818603515625 6.18979644775390625 6.139850616455078125 6.0909280776977539062 6.0530099868774414062 6.0205235481262207031 5.9975962638854980469 5.9794106483459472656 5.9678502082824707031 5.9598493576049804688 5.9548802375793457031 5.9488148689270019531 5.9392704963684082031 5.9210081100463867188 5.8934102058410644531 5.8492045402526855469 5.7948479652404785156 5.7240362167358398438 5.6488056182861328125 5.5599756240844726562 5.4719610214233398438 5.3741555213928222656 5.2826719284057617188 5.1871218681335449219 5.1031494140625 5.0216097831726074219 4.9574117660522460938 4.9055886268615722656 4.8712267875671386719 4.8464493751525878906 4.8322930335998535156 4.8247623443603515625 4.8238067626953125 4.8292803764343261719 4.8399481773376464844 4.8556094169616699219 4.8661017417907714844 4.8686099052429199219 4.8639264106750488281 4.8536181449890136719 4.8409924507141113281 4.8267035484313964844 4.8142504692077636719 4.8018054962158203125 4.7880425453186035156 4.7678270339965820312 4.7406134605407714844 4.6997666358947753906 4.6482014656066894531 4.5822653770446777344 4.5133414268493652344 4.4380354881286621094 4.3686552047729492188 4.3015079498291015625 4.2444243431091308594 4.1885271072387695312 4.1367053985595703125 4.0801768302917480469 4.0218729972839355469 3.9538588523864746094 3.8845913410186767578 3.8099558353424072266 3.7401289939880371094 3.6711454391479492188 3.6121592521667480469 3.5581898689270019531 3.5132851600646972656 3.4718573093414306641 3.4364755153656005859 3.4025008678436279297 3.3712375164031982422 3.3367507457733154297 3.2989070415496826172 3.2507665157318115234 3.1933491230010986328 3.1187534332275390625 3.0344738960266113281 2.9374918937683105469 2.8402202129364013672 2.7392077445983886719 2.6467225551605224609 2.5566570758819580078 2.4717438220977783203 2.3789384365081787109 2.2793731689453125 2.1588840484619140625 2.0219442844390869141 1.8599638938903808594 1.6910985708236694336 1.5102088451385498047 1.3367440700531005859 1.1653972864151000977 1.0097707509994506836 0.85388106107711791992 0.70075613260269165039 0.53255689144134521484 0.35289368033409118652 0.14423330128192901611 0.0043955259025096893311 0 0 0 0 0 0 0 0 0 0 0 0 0 0 0 0 0 0 0 0 0 0 0 0 0 0 0 0 0 0 0 0 0 0 0 0 0 0 0 0 0 0 
2.483272552490234375 2.4852836132049560547 2.4510793685913085938 2.4455873966217041016 2.4512088298797607422 2.4514703750610351562 2.4577274322509765625 2.4656896591186523438 2.4694690704345703125 2.4724645614624023438 2.4751694202423095703 2.4775092601776123047 2.4769914150238037109 2.4772217273712158203 2.4831488132476806641 2.4913427829742431641 2.4987075328826904297 2.5049653053283691406 2.5116555690765380859 2.5136563777923583984 2.5145418643951416016 2.5170226097106933594 2.5239460468292236328 2.5400531291961669922 2.5558199882507324219 2.5708758831024169922 2.57353973388671875 2.549770355224609375 2.5192525386810302734 2.5262842178344726562 2.542621612548828125 2.5453531742095947266 2.5419793128967285156 2.5331659317016601562 2.5227792263031005859 2.5121812820434570312 2.4969477653503417969 2.4807274341583251953 2.4594478607177734375 2.4347598552703857422 2.4141399860382080078 2.3897950649261474609 2.3788182735443115234 2.4659821987152099609 2.4310991764068603516 2.6895246505737304688 2.4664182662963867188 2.4176948070526123047 2.4860703945159912109 2.8552775382995605469 3.4955606460571289062 4.8797774314880371094 6.2729806900024414062 6.7129368782043457031 6.4532527923583984375 6.04280853271484375 5.4820270538330078125 5.1140775680541992188 4.9842047691345214844 4.8543810844421386719 5.0084099769592285156 5.3273539543151855469 5.9490327835083007812 7.0131211280822753906 8.2831525802612304688 8.3610467910766601562 7.3173933029174804688 6.5917057991027832031 6.0131282806396484375 5.6788487434387207031 5.7224888801574707031 5.8098187446594238281 5.8611879348754882812 5.8494734764099121094 5.7595353126525878906 5.3563771247863769531 5.0453381538391113281 5.1106252670288085938 5.2714400291442871094 5.2351737022399902344 4.9599671363830566406 4.7544999122619628906 4.4712810516357421875 4.2833805084228515625 4.1667537689208984375 4.1413483619689941406 4.1183152198791503906 4.0958724021911621094 4.0729627609252929688 4.0522146224975585938 4.0518393516540527344 4.2317500114440917969 4.3777523040771484375 4.4325380325317382812 4.4687452316284179688 4.5522279739379882812 4.3543667793273925781 3.8038158416748046875 3.1909730434417724609 2.6911334991455078125 2.7194542884826660156 2.8495450019836425781 3.3882703781127929688 3.5462565422058105469 3.6477947235107421875 3.7305600643157958984 3.8030998706817626953 3.8599698543548583984 3.9087688922882080078 3.94625091552734375 3.97800445556640625 4.0019545555114746094 4.0227327346801757812 4.0406551361083984375 4.0602736473083496094 4.081966400146484375 4.1101403236389160156 4.1421666145324707031 4.1809687614440917969 4.2217936515808105469 4.2685542106628417969 4.3153839111328125 4.3668112754821777344 4.416828155517578125 4.4711565971374511719 4.5234832763671875 4.5799283981323242188 4.6344385147094726562 4.6961493492126464844 4.7609410285949707031 4.8403034210205078125 4.927959442138671875 5.0379528999328613281 5.1560802459716796875 5.2921237945556640625 5.4237141609191894531 5.5619382858276367188 5.6839737892150878906 5.8019261360168457031 5.9011478424072265625 5.9973940849304199219 6.0801892280578613281 6.16323089599609375 6.2374029159545898438 6.3132214546203613281 6.3785104751586914062 6.4399552345275878906 6.4868845939636230469 6.5237212181091308594 6.5442118644714355469 6.5529603958129882812 6.5510315895080566406 6.5407400131225585938 6.5258612632751464844 6.5064496994018554688 6.4857015609741210938 6.4596424102783203125 6.4311857223510742188 6.3945965766906738281 6.3541598320007324219 6.3034768104553222656 6.252323150634765625 6.1957445144653320312 6.1451940536499023438 6.0955939292907714844 6.0569701194763183594 6.0234389305114746094 5.9990458488464355469 5.9784712791442871094 5.9636821746826171875 5.9508137702941894531 5.9400858879089355469 5.926982879638671875 5.910762786865234375 5.8858113288879394531 5.8530907630920410156 5.8051218986511230469 5.7490491867065429688 5.678218841552734375 5.6045818328857421875 5.519100189208984375 5.4356179237365722656 5.3439235687255859375 5.25881195068359375 5.1702327728271484375 5.09235382080078125 5.0162954330444335938 4.9556717872619628906 4.9065051078796386719 4.873935699462890625 4.8505945205688476562 4.8376021385192871094 4.83135986328125 4.8320651054382324219 4.8395414352416992188 4.8523640632629394531 4.869838714599609375 4.8807158470153808594 4.8830666542053222656 4.877765655517578125 4.8664546012878417969 4.8527112007141113281 4.8372130393981933594 4.8237371444702148438 4.8103384971618652344 4.7957196235656738281 4.7743554115295410156 4.7453646659851074219 4.7018299102783203125 4.6470537185668945312 4.5772724151611328125 4.5046443939208984375 4.4257445335388183594 4.3536233901977539062 4.2846493721008300781 4.2269768714904785156 4.1715989112854003906 4.1212468147277832031 4.0671982765197753906 4.0120234489440917969 3.9479405879974365234 3.8826389312744140625 3.8118593692779541016 3.744922637939453125 3.6776168346405029297 3.6185355186462402344 3.5627629756927490234 3.5150721073150634766 3.4702548980712890625 3.4318020343780517578 3.3954248428344726562 3.3628709316253662109 3.3275063037872314453 3.2884564399719238281 3.2377703189849853516 3.175876617431640625 3.0937526226043701172 2.9998309612274169922 2.8913669586181640625 2.7828600406646728516 2.6711459159851074219 2.5704438686370849609 2.4746561050415039062 2.3866066932678222656 2.2923696041107177734 2.1925458908081054688 2.0723011493682861328 1.9355342388153076172 1.7734484672546386719 1.6042503118515014648 1.4228570461273193359 1.2488263845443725586 1.07689666748046875 0.92080438137054443359 0.76466637849807739258 0.61167109012603759766 0.44417297840118408203 0.26652884483337402344 0.068501040339469909668 0 0 0 0 0 0 0 0 0 0 0 0 0 0 0 0 0 0 0 0 0 0 0 0 0 0 0 0 0 0 0 0 0 0 0 0 0 0 0 0 0 0 0 
2.5027987957000732422 2.4660294055938720703 2.4435560703277587891 2.4440131187438964844 2.4500255584716796875 2.4536681175231933594 2.458713531494140625 2.4664471149444580078 2.4683949947357177734 2.4686477184295654297 2.4709846973419189453 2.4732182025909423828 2.4754273891448974609 2.4789593219757080078 2.4834115505218505859 2.4945435523986816406 2.5041973590850830078 2.5083091259002685547 2.5081751346588134766 2.5022456645965576172 2.4968805313110351562 2.5008904933929443359 2.5142557621002197266 2.5282204151153564453 2.5369603633880615234 2.5468833446502685547 2.5602774620056152344 2.5681240558624267578 2.55437469482421875 2.536529541015625 2.5237524509429931641 2.5282034873962402344 2.5482690334320068359 2.5432126522064208984 2.5239391326904296875 2.4988763332366943359 2.4724972248077392578 2.4571533203125 2.4375874996185302734 2.4126861095428466797 2.382720947265625 2.3511750698089599609 2.3396577835083007812 2.3371210098266601562 2.2877137660980224609 2.4422338008880615234 2.4366912841796875 2.3847343921661376953 2.4976947307586669922 3.0709831714630126953 4.0039391517639160156 5.3124051094055175781 6.4338774681091308594 6.5686283111572265625 6.2838950157165527344 5.8790526390075683594 5.3216223716735839844 5.0304980278015136719 4.8691544532775878906 4.8446326255798339844 5.0938601493835449219 5.4788670539855957031 6.3032050132751464844 7.4908494949340820312 8.3676996231079101562 8.1132688522338867188 6.9649591445922851562 6.2550129890441894531 5.8512139320373535156 5.6629767417907714844 5.7436451911926269531 5.8452215194702148438 5.8900370597839355469 5.8880581855773925781 5.8236718177795410156 5.4677109718322753906 5.0913271903991699219 5.2115936279296875 5.3649082183837890625 5.2429146766662597656 4.9595489501953125 4.7765173912048339844 4.4818282127380371094 4.3137941360473632812 4.2293992042541503906 4.1927995681762695312 4.1667661666870117188 4.1452779769897460938 4.123149871826171875 4.095661163330078125 4.131893157958984375 4.3480663299560546875 4.46775054931640625 4.5231122970581054688 4.5698766708374023438 4.6326303482055664062 4.3090124130249023438 3.7704484462738037109 3.2018451690673828125 2.7491385936737060547 2.7841007709503173828 2.9115183353424072266 3.4011323451995849609 3.5500998497009277344 3.6480250358581542969 3.7278699874877929688 3.7980325222015380859 3.8533751964569091797 3.9014191627502441406 3.9391038417816162109 3.9721553325653076172 3.9984908103942871094 4.0224308967590332031 4.0436282157897949219 4.0666294097900390625 4.0911383628845214844 4.1216096878051757812 4.1552014350891113281 4.1952109336853027344 4.2369413375854492188 4.2846198081970214844 4.3325023651123046875 4.3853344917297363281 4.4369320869445800781 4.4931993484497070312 4.5476031303405761719 4.6065082550048828125 4.6635608673095703125 4.7281432151794433594 4.7957253456115722656 4.8780598640441894531 4.9684395790100097656 5.0811715126037597656 5.2016348838806152344 5.3398036956787109375 5.4729490280151367188 5.6122579574584960938 5.7346682548522949219 5.8522596359252929688 5.950428009033203125 6.0448126792907714844 6.1252040863037109375 6.2050027847290039062 6.2755804061889648438 6.3471231460571289062 6.4082827568054199219 6.4654755592346191406 6.5089058876037597656 6.5427989959716796875 6.5614490509033203125 6.5690245628356933594 6.5664963722229003906 6.5558018684387207031 6.5405201911926269531 6.5203900337219238281 6.4986739158630371094 6.4714074134826660156 6.44173431396484375 6.4038472175598144531 6.3623337745666503906 6.3106927871704101562 6.2588143348693847656 6.2015604972839355469 6.1504144668579101562 6.1001224517822265625 6.0607628822326660156 6.0261855125427246094 6.0004372596740722656 5.9777965545654296875 5.960338592529296875 5.9435777664184570312 5.9283390045166015625 5.9097800254821777344 5.8884100914001464844 5.8583035469055175781 5.8216199874877929688 5.7707018852233886719 5.7132468223571777344 5.642364501953125 5.5699672698974609375 5.4871611595153808594 5.4073610305786132812 5.3206949234008789062 5.2408633232116699219 5.1580920219421386719 5.085308074951171875 5.0138483047485351562 4.956081390380859375 4.9089446067810058594 4.8778090476989746094 4.8557257652282714844 4.84377288818359375 4.838775634765625 4.8410801887512207031 4.8504896163940429688 4.8655643463134765625 4.8845477104187011719 4.8956017494201660156 4.897602081298828125 4.8915343284606933594 4.8790726661682128906 4.8640575408935546875 4.8471431732177734375 4.8323850631713867188 4.8176798820495605469 4.8017520904541015625 4.7788023948669433594 4.7479643821716308594 4.7016463279724121094 4.6434369087219238281 4.5696358680725097656 4.493297576904296875 4.4110212326049804688 4.3366260528564453125 4.2666401863098144531 4.2094182968139648438 4.1558241844177246094 4.1081738471984863281 4.0578064918518066406 4.0066924095153808594 3.9472413063049316406 3.886318206787109375 3.8196835517883300781 3.7558748722076416016 3.6905798912048339844 3.6318783760070800781 3.5749342441558837891 3.5250477790832519531 3.4772784709930419922 3.4358446598052978516 3.3966479301452636719 3.3618676662445068359 3.3242485523223876953 3.2825300693511962891 3.2278716564178466797 3.1604630947113037109 3.0702860355377197266 2.9667503833770751953 2.8472206592559814453 2.7280714511871337891 2.6062848567962646484 2.4978077411651611328 2.3964896202087402344 2.3052847385406494141 2.2094881534576416016 2.1092760562896728516 1.9892358779907226562 1.8527780771255493164 1.690922856330871582 1.5218691825866699219 1.3405621051788330078 1.1665948629379272461 0.99476164579391479492 0.83892399072647094727 0.68349879980087280273 0.53199040889739990234 0.3681679069995880127 0.19879350066184997559 0.026055229827761650085 0 0 0 0 0 0 0 0 0 0 0 0 0 0 0 0 0 0 0 0 0 0 0 0 0 0 0 0 0 0 0 0 0 0 0 0 0 0 0 0 0 0 0 
2.5129306316375732422 2.4617159366607666016 2.4427402019500732422 2.4467349052429199219 2.4515826702117919922 2.4570488929748535156 2.4613604545593261719 2.4651782512664794922 2.4666483402252197266 2.4617900848388671875 2.4635732173919677734 2.4704840183258056641 2.4805753231048583984 2.4883131980895996094 2.4916241168975830078 2.4954059123992919922 2.5007698535919189453 2.5027115345001220703 2.4907400608062744141 2.4822964668273925781 2.4812567234039306641 2.4903404712677001953 2.5069279670715332031 2.5216388702392578125 2.5284981727600097656 2.5303583145141601562 2.5374033451080322266 2.5470385551452636719 2.5525367259979248047 2.5583145618438720703 2.5550587177276611328 2.5249326229095458984 2.5098779201507568359 2.5211493968963623047 2.5227081775665283203 2.4956254959106445312 2.4596831798553466797 2.4419410228729248047 2.4372532367706298828 2.4165935516357421875 2.3672842979431152344 2.3336117267608642578 2.3130373954772949219 2.2930650711059570312 2.2629837989807128906 2.3416526317596435547 2.5296051502227783203 2.4701383113861083984 2.8916850090026855469 3.3792302608489990234 4.4219660758972167969 5.6748614311218261719 6.4375433921813964844 6.3802165985107421875 6.095752716064453125 5.6373414993286132812 5.1636424064636230469 4.9556689262390136719 4.7815480232238769531 4.8937063217163085938 5.211620330810546875 5.7240915298461914062 6.7607750892639160156 7.9903759956359863281 8.3449554443359375 7.7088518142700195312 6.6313152313232421875 5.981258392333984375 5.7435002326965332031 5.7130279541015625 5.7842650413513183594 5.879150390625 5.92778778076171875 5.886852264404296875 5.8167858123779296875 5.4574856758117675781 5.1288981437683105469 5.3100562095642089844 5.4205808639526367188 5.2211766242980957031 4.9844837188720703125 4.8088440895080566406 4.530231475830078125 4.3814573287963867188 4.2738356590270996094 4.2355146408081054688 4.2150502204895019531 4.2003054618835449219 4.1870522499084472656 4.1733088493347167969 4.2526888847351074219 4.4616527557373046875 4.5708842277526855469 4.6319398880004882812 4.6685471534729003906 4.6404538154602050781 4.2468891143798828125 3.7454445362091064453 3.2244427204132080078 2.8135702610015869141 2.8540105819702148438 2.9785139560699462891 3.4131588935852050781 3.5526101589202880859 3.6473443508148193359 3.72487640380859375 3.7934770584106445312 3.8481812477111816406 3.8964476585388183594 3.9352352619171142578 3.9704036712646484375 3.9997932910919189453 4.0275664329528808594 4.0525822639465332031 4.0794568061828613281 4.1071791648864746094 4.1402993202209472656 4.1756916046142578125 4.2169976234436035156 4.2595152854919433594 4.3077139854431152344 4.3559746742248535156 4.4092459678649902344 4.4614071846008300781 4.5186052322387695312 4.5743694305419921875 4.635402679443359375 4.695186614990234375 4.763240814208984375 4.8343377113342285156 4.92034149169921875 5.0138092041015625 5.1291403770446777344 5.2512793540954589844 5.390483856201171875 5.5239834785461425781 5.6631183624267578125 5.7849326133728027344 5.9014925956726074219 5.9982991218566894531 6.0907335281372070312 6.1687741279602050781 6.2454347610473632812 6.3124942779541015625 6.3797760009765625 6.4367818832397460938 6.4896969795227050781 6.5296478271484375 6.5606913566589355469 6.5776696205139160156 6.5843176841735839844 6.5814485549926757812 6.5706334114074707031 6.5551853179931640625 6.5345354080200195312 6.5119919776916503906 6.4836244583129882812 6.4527935981750488281 6.4136414527893066406 6.3710641860961914062 6.318470001220703125 6.2658553123474121094 6.207889556884765625 6.1560730934143066406 6.1049647331237792969 6.0647158622741699219 6.0289320945739746094 6.0017709732055664062 5.9771761894226074219 5.9573903083801269531 5.9374451637268066406 5.9186720848083496094 5.8959398269653320312 5.8706750869750976562 5.8366856575012207031 5.7970166206359863281 5.7438530921936035156 5.6853246688842773438 5.6143946647644042969 5.5429859161376953125 5.4623646736145019531 5.3856377601623535156 5.3032336235046386719 5.2279205322265625 5.1501460075378417969 5.0817623138427734375 5.0142946243286132812 4.9588251113891601562 4.9131178855895996094 4.8830981254577636719 4.862178802490234375 4.8512449264526367188 4.8476891517639160156 4.8517413139343261719 4.8633742332458496094 4.8811898231506347656 4.9014348983764648438 4.912456512451171875 4.9138340950012207031 4.9066953659057617188 4.8927035331726074219 4.8760075569152832031 4.8571820259094238281 4.8406209945678710938 4.8240041732788085938 4.8061618804931640625 4.7809076309204101562 4.7475385665893554688 4.6980443000793457031 4.6361627578735351562 4.5580105781555175781 4.4777421951293945312 4.3921523094177246094 4.3159222602844238281 4.2458662986755371094 4.1904020309448242188 4.1402530670166015625 4.0969829559326171875 4.0519962310791015625 4.0063419342041015625 3.9526462554931640625 3.8968617916107177734 3.8349614143371582031 3.7747380733489990234 3.7119257450103759766 3.6541371345520019531 3.5966222286224365234 3.5450103282928466797 3.4945063591003417969 3.4498870372772216797 3.4070601463317871094 3.3686628341674804688 3.3268554210662841797 3.2803933620452880859 3.2196099758148193359 3.1448719501495361328 3.04522705078125 2.9312126636505126953 2.8001315593719482422 2.6701562404632568359 2.5382785797119140625 2.42206573486328125 2.3152360916137695312 2.2208676338195800781 2.1234946250915527344 2.0228908061981201172 1.9030864238739013672 1.7670243978500366211 1.6055604219436645508 1.4368662834167480469 1.2559616565704345703 1.0824652910232543945 0.91130560636520385742 0.75651538372039794922 0.60309970378875732422 0.45556658506393432617 0.29869344830513000488 0.1355107724666595459 0.0041826944798231124878 0 0 0 0 0 0 0 0 0 0 0 0 0 0 0 0 0 0 0 0 0 0 0 0 0 0 0 0 0 0 0 0 0 0 0 0 0 0 0 0 0 0 0 
2.5048832893371582031 2.468837738037109375 2.4483814239501953125 2.4468710422515869141 2.4503400325775146484 2.4552233219146728516 2.4609558582305908203 2.4662227630615234375 2.4650697708129882812 2.4620099067687988281 2.464534759521484375 2.4735910892486572266 2.4849593639373779297 2.4938237667083740234 2.4972741603851318359 2.4983785152435302734 2.5011496543884277344 2.496456146240234375 2.48674774169921875 2.4812383651733398438 2.4758532047271728516 2.4916760921478271484 2.5056598186492919922 2.5146923065185546875 2.5199799537658691406 2.5206177234649658203 2.5217096805572509766 2.5275800228118896484 2.5384778976440429688 2.54961395263671875 2.5572977066040039062 2.5568892955780029297 2.5312047004699707031 2.4889497756958007812 2.4886372089385986328 2.4789843559265136719 2.4490685462951660156 2.4394772052764892578 2.4513924121856689453 2.4124274253845214844 2.3567717075347900391 2.3279309272766113281 2.2922751903533935547 2.2609441280364990234 2.2336699962615966797 2.2218372821807861328 2.4302842617034912109 2.3974835872650146484 3.3196127414703369141 3.6284525394439697266 4.9089336395263671875 6.0131258964538574219 6.40010833740234375 6.189235687255859375 5.8874411582946777344 5.444942474365234375 5.0538401603698730469 4.86902618408203125 4.7498369216918945312 4.9556384086608886719 5.2934293746948242188 5.8871068954467773438 7.0448369979858398438 8.233539581298828125 8.4789028167724609375 7.411739349365234375 6.2786393165588378906 5.8576993942260742188 5.7121348381042480469 5.7652311325073242188 5.82825469970703125 5.9193096160888671875 5.9162583351135253906 5.8511471748352050781 5.7498807907104492188 5.3520588874816894531 5.1715464591979980469 5.4023771286010742188 5.4475550651550292969 5.2268114089965820312 5.0183081626892089844 4.8355474472045898438 4.5490412712097167969 4.3811941146850585938 4.2621631622314453125 4.2615218162536621094 4.2582187652587890625 4.2549333572387695312 4.2558989524841308594 4.2654213905334472656 4.3637418746948242188 4.5501856803894042969 4.649200439453125 4.6959123611450195312 4.7068462371826171875 4.5247831344604492188 4.1571955680847167969 3.7276177406311035156 3.2533962726593017578 2.8770501613616943359 2.9217934608459472656 3.0434958934783935547 3.4243435859680175781 3.5549163818359375 3.6472303867340087891 3.7233028411865234375 3.7912893295288085938 3.8462452888488769531 3.8955907821655273438 3.9361445903778076172 3.9738957881927490234 4.0064740180969238281 4.0381445884704589844 4.0669322013854980469 4.0975675582885742188 4.1283926963806152344 4.1640748977661132812 4.2011861801147460938 4.243633270263671875 4.2866582870483398438 4.3348698616027832031 4.3827571868896484375 4.4354381561279296875 4.4870724678039550781 4.5440611839294433594 4.6002583503723144531 4.6627378463745117188 4.7249746322631835938 4.796504974365234375 4.8712520599365234375 4.961032867431640625 5.0575017929077148438 5.1749873161315917969 5.298038482666015625 5.4372434616088867188 5.5700712203979492188 5.7080583572387695312 5.8286275863647460938 5.9438624382019042969 6.0393738746643066406 6.1301922798156738281 6.2063555717468261719 6.2804555892944335938 6.3445291519165039062 6.408054351806640625 6.4613156318664550781 6.5103321075439453125 6.5471138954162597656 6.5755891799926757812 6.5911207199096679688 6.5970587730407714844 6.5940327644348144531 6.5832905769348144531 6.5678644180297851562 6.5469160079956054688 6.5237913131713867188 6.4945878982543945312 6.4628338813781738281 6.4226536750793457031 6.3792028427124023438 6.3258199691772460938 6.2725820541381835938 6.2139801979064941406 6.1615166664123535156 6.1095805168151855469 6.0683989524841308594 6.0313787460327148438 6.0028767585754394531 5.9765729904174804688 5.9549236297607421875 5.9326329231262207031 5.9114198684692382812 5.8859224319458007812 5.8581495285034179688 5.8217096328735351562 5.7801885604858398438 5.72564697265625 5.6664905548095703125 5.5956258773803710938 5.5249972343444824219 5.4460282325744628906 5.3716144561767578125 5.2924304008483886719 5.2205352783203125 5.1465373039245605469 5.0814723968505859375 5.0170006752014160156 4.9630808830261230469 4.9179582595825195312 4.8885402679443359375 4.8684740066528320312 4.8584151268005371094 4.8563361167907714844 4.8621110916137695312 4.8761830329895019531 4.8968992233276367188 4.9179019927978515625 4.9286618232727050781 4.9291510581970214844 4.9206709861755371094 4.9048409461975097656 4.8861546516418457031 4.8650689125061035156 4.8463573455810546875 4.8274617195129394531 4.8073949813842773438 4.779590606689453125 4.7435364723205566406 4.6908135414123535156 4.6255908012390136719 4.543857574462890625 4.4604716300964355469 4.3724331855773925781 4.2952694892883300781 4.22621917724609375 4.1736116409301757812 4.1280732154846191406 4.0902228355407714844 4.0515594482421875 4.0120539665222167969 3.9645516872406005859 3.9141118526458740234 3.8570351600646972656 3.8004505634307861328 3.7402367591857910156 3.6835994720458984375 3.6258835792541503906 3.5728907585144042969 3.5198640823364257812 3.4719927310943603516 3.4250476360321044922 3.38213348388671875 3.3349034786224365234 3.2824611663818359375 3.2144417762756347656 3.1317052841186523438 3.0225100517272949219 2.8985106945037841797 2.7568066120147705078 2.6170916557312011719 2.476253509521484375 2.3531956672668457031 2.2414536476135253906 2.1442170143127441406 2.04535675048828125 1.9443131685256958008 1.8246406316757202148 1.6888910531997680664 1.5277967453002929688 1.3595391511917114258 1.1792453527450561523 1.0065793991088867188 0.83664798736572265625 0.68380260467529296875 0.53394556045532226562 0.39092165231704711914 0.2397053837776184082 0.077785581350326538086 0 0 0 0 0 0 0 0 0 0 0 0 0 0 0 0 0 0 0 0 0 0 0 0 0 0 0 0 0 0 0 0 0 0 0 0 0 0 0 0 0 0 0 0 
2.4300010204315185547 2.4602255821228027344 2.4621329307556152344 2.4627728462219238281 2.4619264602661132812 2.4592010974884033203 2.4641931056976318359 2.4696934223175048828 2.4674503803253173828 2.4636766910552978516 2.4691193103790283203 2.4798612594604492188 2.4887318611145019531 2.4957256317138671875 2.4996581077575683594 2.5073838233947753906 2.5037667751312255859 2.4904944896697998047 2.48535919189453125 2.4838554859161376953 2.4801490306854248047 2.4909777641296386719 2.5042929649353027344 2.5120408535003662109 2.5153522491455078125 2.5174334049224853516 2.5181562900543212891 2.5215146541595458984 2.5288143157958984375 2.5387024879455566406 2.5475616455078125 2.5483160018920898438 2.5313022136688232422 2.5120062828063964844 2.4973149299621582031 2.4687395095825195312 2.4399940967559814453 2.4359180927276611328 2.4369878768920898438 2.3871884346008300781 2.3560786247253417969 2.3290190696716308594 2.2844789028167724609 2.2431354522705078125 2.2095921039581298828 2.1775095462799072266 2.2335391044616699219 2.6262495517730712891 3.3555371761322021484 4.0729761123657226562 5.3341832160949707031 6.3066196441650390625 6.3408269882202148438 6.0762300491333007812 5.6937084197998046875 5.2663259506225585938 4.9549083709716796875 4.8063788414001464844 4.8397297859191894531 5.1451630592346191406 5.5534639358520507812 6.20160675048828125 7.4286069869995117188 8.2134752273559570312 8.274326324462890625 7.134967803955078125 6.0890827178955078125 5.7856578826904296875 5.67813873291015625 5.7547917366027832031 5.8691272735595703125 5.9133453369140625 5.883544921875 5.8947682380676269531 5.6637248992919921875 5.3103609085083007812 5.2467465400695800781 5.4752197265625 5.4798855781555175781 5.2567996978759765625 5.0529198646545410156 4.8601541519165039062 4.6239438056945800781 4.4110026359558105469 4.2702460289001464844 4.2924036979675292969 4.3052010536193847656 4.3132371902465820312 4.3281526565551757812 4.3580231666564941406 4.4704079627990722656 4.6418957710266113281 4.7342867851257324219 4.7793989181518554688 4.7764363288879394531 4.5148844718933105469 4.1286740303039550781 3.7300112247467041016 3.2931883335113525391 2.9466722011566162109 2.9950222969055175781 3.1137814521789550781 3.4371774196624755859 3.5587375164031982422 3.6491129398345947266 3.7243361473083496094 3.7924718856811523438 3.8484637737274169922 3.8997068405151367188 3.9427297115325927734 3.9836556911468505859 4.019725799560546875 4.0555667877197265625 4.0883202552795410156 4.122837066650390625 4.1568241119384765625 4.1950917243957519531 4.2338776588439941406 4.2772970199584960938 4.32050323486328125 4.3681521415710449219 4.4148435592651367188 4.4658441543579101562 4.5158205032348632812 4.5714259147644042969 4.6271076202392578125 4.6903390884399414062 4.7547521591186523438 4.829784393310546875 4.90836334228515625 5.0021204948425292969 5.1016335487365722656 5.2210235595703125 5.3444561958312988281 5.48291015625 5.6143288612365722656 5.7505006790161132812 5.8694505691528320312 5.98332977294921875 6.0778059959411621094 6.1674737930297851562 6.2422614097595214844 6.3142957687377929688 6.3757181167602539062 6.4356508255004882812 6.4851784706115722656 6.53021240234375 6.5637035369873046875 6.5894718170166015625 6.6034569740295410156 6.6086139678955078125 6.6054062843322753906 6.5947580337524414062 6.5794167518615722656 6.55828857421875 6.5347619056701660156 6.5049252510070800781 6.4724435806274414062 6.4314417839050292969 6.3872928619384765625 6.3332800865173339844 6.2795310020446777344 6.2203640937805175781 6.1672577857971191406 6.1144428253173828125 6.0722241401672363281 6.0338244438171386719 6.0038728713989257812 5.9757952690124511719 5.9523267745971679688 5.9279026985168457031 5.9046149253845214844 5.8768873214721679688 5.8471779823303222656 5.8089299201965332031 5.7661223411560058594 5.7107205390930175781 5.6513080596923828125 5.580780029296875 5.5110545158386230469 5.4337191581726074219 5.3614525794982910156 5.2851557731628417969 5.2162618637084960938 5.1455249786376953125 5.0832729339599609375 5.0212774276733398438 4.9685087203979492188 4.9230790138244628906 4.8937144279479980469 4.8741374015808105469 4.8649158477783203125 4.8644084930419921875 4.8721294403076171875 4.8893461227416992188 4.9131593704223632812 4.9344501495361328125 4.944637298583984375 4.9437861442565917969 4.9334440231323242188 4.9151539802551269531 4.893863677978515625 4.8698725700378417969 4.8484439849853515625 4.8267459869384765625 4.8040738105773925781 4.7734751701354980469 4.7346949577331542969 4.678920745849609375 4.6107048988342285156 4.5260753631591796875 4.4406485557556152344 4.3515429496765136719 4.2747602462768554688 4.2080864906311035156 4.15966033935546875 4.120151519775390625 4.0890469551086425781 4.0580420494079589844 4.0258564949035644531 3.9856150150299072266 3.9413702487945556641 3.8898262977600097656 3.8373675346374511719 3.7800509929656982422 3.7246344089508056641 3.6665680408477783203 3.6118404865264892578 3.5556952953338623047 3.5037891864776611328 3.4516839981079101562 3.4030737876892089844 3.3490869998931884766 3.2894003391265869141 3.2129526138305664062 3.1213064193725585938 3.001949310302734375 2.8676939010620117188 2.7153170108795166016 2.5659384727478027344 2.4162395000457763672 2.2863564491271972656 2.1695828437805175781 2.0692491531372070312 1.9685909748077392578 1.8667927980422973633 1.7469503879547119141 1.61130523681640625 1.4504981040954589844 1.2827526330947875977 1.1033151149749755859 0.93193137645721435547 0.76416176557540893555 0.61423802375793457031 0.46768176555633544922 0.32873350381851196289 0.18229420483112335205 0.02460619807243347168 0 0 0 0 0 0 0 0 0 0 0 0 0 0 0 0 0 0 0 0 0 0 0 0 0 0 0 0 0 0 0 0 0 0 0 0 0 0 0 0 0 0 0 0 
2.3986637592315673828 2.4020419120788574219 2.4210112094879150391 2.4528379440307617188 2.4717516899108886719 2.4744415283203125 2.4713771343231201172 2.4692411422729492188 2.4674859046936035156 2.4699814319610595703 2.4790956974029541016 2.4887440204620361328 2.4942395687103271484 2.4983987808227539062 2.5050363540649414062 2.5091698169708251953 2.501270294189453125 2.4909305572509765625 2.4880096912384033203 2.4884874820709228516 2.4929747581481933594 2.4968993663787841797 2.5046124458312988281 2.5138611793518066406 2.5183913707733154297 2.5188312530517578125 2.5213859081268310547 2.525943756103515625 2.5306215286254882812 2.5365335941314697266 2.5385234355926513672 2.5298531055450439453 2.5131113529205322266 2.4941112995147705078 2.4731726646423339844 2.4567618370056152344 2.4315855503082275391 2.4205541610717773438 2.3961472511291503906 2.3662190437316894531 2.3498671054840087891 2.310886383056640625 2.280811309814453125 2.2416522502899169922 2.1917202472686767578 2.1568176746368408203 2.1606900691986083984 3.0278747081756591797 3.4739735126495361328 4.5666017532348632812 5.7093920707702636719 6.395343780517578125 6.2756781578063964844 6.0040659904479980469 5.5657668113708496094 5.0697102546691894531 4.7542243003845214844 4.6842975616455078125 4.868988037109375 5.2906708717346191406 5.9875645637512207031 6.7982616424560546875 7.6498479843139648438 7.9437947273254394531 7.5479001998901367188 6.6420903205871582031 6.0024704933166503906 5.7588934898376464844 5.6738486289978027344 5.7816176414489746094 5.8658194541931152344 5.8846983909606933594 5.9467477798461914062 5.9469981193542480469 5.6362910270690917969 5.3303213119506835938 5.3672800064086914062 5.5301303863525390625 5.5039038658142089844 5.2736020088195800781 5.0873708724975585938 4.8884835243225097656 4.6836867332458496094 4.4529824256896972656 4.3101186752319335938 4.3371758460998535156 4.3540282249450683594 4.3661489486694335938 4.3865551948547363281 4.4319705963134765625 4.5656151771545410156 4.7181038856506347656 4.7924904823303222656 4.8281254768371582031 4.8280234336853027344 4.5258917808532714844 4.1319165229797363281 3.7502179145812988281 3.3390667438507080078 3.0147550106048583984 3.0656721591949462891 3.1817085742950439453 3.4515388011932373047 3.5650033950805664062 3.6540672779083251953 3.7290518283843994141 3.7979574203491210938 3.8555161952972412109 3.9091033935546875 3.9548687934875488281 3.9990448951721191406 4.0384058952331542969 4.0779924392700195312 4.1143078804016113281 4.1522326469421386719 4.1889405250549316406 4.229373931884765625 4.2694668769836425781 4.313457489013671875 4.3564076423645019531 4.4029254913330078125 4.4477276802062988281 4.4961614608764648438 4.5435709953308105469 4.5967855453491210938 4.6510138511657714844 4.7140746116638183594 4.779903411865234375 4.8577408790588378906 4.9395804405212402344 5.03676605224609375 5.1388463973999023438 5.259647369384765625 5.3830237388610839844 5.5203390121459960938 5.650115966796875 5.784423828125 5.9019489288330078125 6.0149722099304199219 6.1090931892395019531 6.19847869873046875 6.2727532386779785156 6.3436217308044433594 6.4031291007995605469 6.4600939750671386719 6.5063242912292480469 6.5476999282836914062 6.5780673027038574219 6.6011638641357421875 6.6135196685791015625 6.6177268028259277344 6.61415863037109375 6.603443145751953125 6.5881133079528808594 6.566867828369140625 6.54314422607421875 6.5129632949829101562 6.4800777435302734375 6.4386205673217773438 6.3940944671630859375 6.3397517204284667969 6.2857213020324707031 6.2261757850646972656 6.1725530624389648438 6.11895751953125 6.0757527351379394531 6.0360155105590820312 6.0046434402465820312 5.9748225212097167969 5.9495897293090820312 5.9231381416320800781 5.8979277610778808594 5.8681926727294921875 5.836803436279296875 5.7970838546752929688 5.7533416748046875 5.6974949836730957031 5.6382150650024414062 5.5683922767639160156 5.4998216629028320312 5.4242348670959472656 5.354030609130859375 5.2803125381469726562 5.2139725685119628906 5.1459031105041503906 5.0858621597290039062 5.0257043838500976562 4.9737024307250976562 4.92711639404296875 4.8971099853515625 4.8774886131286621094 4.8689708709716796875 4.8698687553405761719 4.8796567916870117188 4.9005827903747558594 4.9269175529479980469 4.9480385780334472656 4.9573612213134765625 4.9547896385192871094 4.9421825408935546875 4.9209923744201660156 4.8967061042785644531 4.8694543838500976562 4.8450636863708496094 4.8204488754272460938 4.7952470779418945312 4.7621860504150390625 4.7212772369384765625 4.6634449958801269531 4.5935192108154296875 4.5075712203979492188 4.4216666221618652344 4.3332467079162597656 4.2584977149963378906 4.1956205368041992188 4.1522607803344726562 4.1193184852600097656 4.0952405929565429688 4.0720806121826171875 4.047374725341796875 4.0146021842956542969 3.9767649173736572266 3.9309270381927490234 3.8826510906219482422 3.8281111717224121094 3.7735793590545654297 3.714588165283203125 3.6574594974517822266 3.5974559783935546875 3.5408568382263183594 3.4830408096313476562 3.4284081459045410156 3.3675642013549804688 3.3007786273956298828 3.2163288593292236328 3.116455078125 2.9879403114318847656 2.8445982933044433594 2.6828489303588867188 2.5249924659729003906 2.3674590587615966797 2.2314064502716064453 2.1098659038543701172 2.0063583850860595703 1.9035826921463012695 1.8005973100662231445 1.6801290512084960938 1.5442208051681518555 1.3834182024002075195 1.2160265445709228516 1.0375548601150512695 0.86775636672973632812 0.70193052291870117188 0.55410248041152954102 0.41067746281623840332 0.27634298801422119141 0.12999729812145233154 0 0 0 0 0 0 0 0 0 0 0 0 0 0 0 0 0 0 0 0 0 0 0 0 0 0 0 0 0 0 0 0 0 0 0 0 0 0 0 0 0 0 0 0 0 
2.4198744297027587891 2.4272415637969970703 2.4210116863250732422 2.410800933837890625 2.4228305816650390625 2.4586331844329833984 2.4760842323303222656 2.4766492843627929688 2.4762408733367919922 2.4818260669708251953 2.4885284900665283203 2.4927637577056884766 2.4958679676055908203 2.4992885589599609375 2.5071709156036376953 2.5100824832916259766 2.5017893314361572266 2.4936363697052001953 2.4935126304626464844 2.4974269866943359375 2.5036177635192871094 2.5104777812957763672 2.5161845684051513672 2.5199480056762695312 2.5222113132476806641 2.5229139328002929688 2.5236780643463134766 2.5271284580230712891 2.5368711948394775391 2.5463211536407470703 2.5441803932189941406 2.5231111049652099609 2.5041487216949462891 2.4860415458679199219 2.4572346210479736328 2.4364974498748779297 2.4233462810516357422 2.4063222408294677734 2.3727788925170898438 2.3584468364715576172 2.3313283920288085938 2.2931528091430664062 2.2596883773803710938 2.2353174686431884766 2.2068791389465332031 2.1646823883056640625 2.1288619041442871094 3.3396384716033935547 3.9300262928009033203 5.0593090057373046875 6.1694736480712890625 6.4637732505798339844 6.2570881843566894531 5.9215755462646484375 5.3648018836975097656 4.868450164794921875 4.6097664833068847656 4.6797876358032226562 4.9612574577331542969 5.4737591743469238281 6.3044185638427734375 7.2617387771606445312 8.0138044357299804688 8.0672702789306640625 7.1640820503234863281 6.28905487060546875 5.8940711021423339844 5.7047667503356933594 5.6937661170959472656 5.8123974800109863281 5.8420996665954589844 5.9504227638244628906 6.03171539306640625 6.0335764884948730469 5.6428036689758300781 5.3988847732543945312 5.5243682861328125 5.5987882614135742188 5.5213789939880371094 5.283039093017578125 5.1214461326599121094 4.9239940643310546875 4.7413644790649414062 4.5122175216674804688 4.391345977783203125 4.4015002250671386719 4.4103269577026367188 4.4182653427124023438 4.4315662384033203125 4.4542236328125 4.6360812187194824219 4.7866945266723632812 4.839534759521484375 4.8436994552612304688 4.7874073982238769531 4.5043406486511230469 4.1442689895629882812 3.7834985256195068359 3.3947899341583251953 3.0890765190124511719 3.1419692039489746094 3.2552239894866943359 3.4705634117126464844 3.5759725570678710938 3.6641433238983154297 3.739383697509765625 3.8096470832824707031 3.8693447113037109375 3.9258289337158203125 3.9747600555419921875 4.0224604606628417969 4.0651631355285644531 4.1082615852355957031 4.1479420661926269531 4.1890077590942382812 4.2281317710876464844 4.2703814506530761719 4.3114070892333984375 4.3554883003234863281 4.397609710693359375 4.4422230720520019531 4.4842047691345214844 4.5288815498352050781 4.5725340843200683594 4.6220660209655761719 4.6736626625061035156 4.7354297637939453125 4.8017930984497070312 4.8816838264465332031 4.9662156105041503906 5.0663352012634277344 5.1705904006958007812 5.2924256324768066406 5.415435791015625 5.5513892173767089844 5.6794795989990234375 5.8121123313903808594 5.928676605224609375 6.0416674613952636719 6.1364226341247558594 6.2266817092895507812 6.301494598388671875 6.3721804618835449219 6.4304203987121582031 6.4847807884216308594 6.5277891159057617188 6.5653829574584960938 6.5923480987548828125 6.6123590469360351562 6.6226472854614257812 6.6254205703735351562 6.6210789680480957031 6.6099400520324707031 6.5944147109985351562 6.5730366706848144531 6.5492739677429199219 6.5190258026123046875 6.4860692024230957031 6.4445524215698242188 6.4000086784362792969 6.3456811904907226562 6.2916364669799804688 6.231914520263671875 6.1779065132141113281 6.1235995292663574219 6.07939910888671875 6.0382513999938964844 6.0052919387817382812 5.9734430313110351562 5.9460797309875488281 5.91709136962890625 5.8894014358520507812 5.8570408821105957031 5.8234653472900390625 5.781890869140625 5.7370762825012207031 5.6809420585632324219 5.6221928596496582031 5.553684234619140625 5.4869074821472167969 5.4137310981750488281 5.34609222412109375 5.2753129005432128906 5.2116923332214355469 5.1463046073913574219 5.0883450508117675781 5.0297513008117675781 4.9783463478088378906 4.929759979248046875 4.8980693817138671875 4.8777775764465332031 4.8697948455810546875 4.8720760345458984375 4.8844733238220214844 4.9102792739868164062 4.9382586479187011719 4.9588561058044433594 4.9668660163879394531 4.9619035720825195312 4.9462599754333496094 4.9212808609008789062 4.8931751251220703125 4.8618841171264648438 4.8339657783508300781 4.8060851097106933594 4.7783198356628417969 4.7431397438049316406 4.7008390426635742188 4.6422305107116699219 4.5722851753234863281 4.4871845245361328125 4.4030122756958007812 4.3175487518310546875 4.2467885017395019531 4.189517974853515625 4.1526722908020019531 4.1275267601013183594 4.1113948822021484375 4.0969300270080566406 4.0805444717407226562 4.0562624931335449219 4.0258431434631347656 3.9866340160369873047 3.9431145191192626953 3.89144134521484375 3.8372530937194824219 3.7761454582214355469 3.7151017189025878906 3.6495037078857421875 3.586639404296875 3.5218040943145751953 3.4603607654571533203 3.3922913074493408203 3.3184006214141845703 3.2262079715728759766 3.1185169219970703125 2.9813487529754638672 2.8293998241424560547 2.6587064266204833984 2.4926538467407226562 2.3273723125457763672 2.1849789619445800781 2.0582089424133300781 1.9508742094039916992 1.8451790809631347656 1.7401757240295410156 1.6182286739349365234 1.4813371896743774414 1.320040583610534668 1.1527676582336425781 0.97487300634384155273 0.8059743046760559082 0.64179122447967529297 0.49663379788398742676 0.35737389326095581055 0.22878916561603546143 0.064324930310249328613 0 0 0 0 0 0 0 0 0 0 0 0 0 0 0 0 0 0 0 0 0 0 0 0 0 0 0 0 0 0 0 0 0 0 0 0 0 0 0 0 0 0 0 0 0 
2.4078385829925537109 2.4209575653076171875 2.4367125034332275391 2.4433481693267822266 2.4265007972717285156 2.4102838039398193359 2.4411406517028808594 2.4639782905578613281 2.4839141368865966797 2.4942626953125 2.4957194328308105469 2.4935412406921386719 2.4935548305511474609 2.5005960464477539062 2.5094647407531738281 2.5089886188507080078 2.4995136260986328125 2.4998252391815185547 2.5067324638366699219 2.5091710090637207031 2.5106139183044433594 2.5140423774719238281 2.5202312469482421875 2.5254101753234863281 2.5273370742797851562 2.5283646583557128906 2.5270242691040039062 2.5295631885528564453 2.5378589630126953125 2.5476977825164794922 2.5449337959289550781 2.5260155200958251953 2.5033018589019775391 2.4778902530670166016 2.4496378898620605469 2.4284572601318359375 2.4085094928741455078 2.3819420337677001953 2.3597674369812011719 2.3565640449523925781 2.3403346538543701172 2.2885494232177734375 2.24434661865234375 2.2133066654205322266 2.1877763271331787109 2.1514377593994140625 2.1805112361907958984 3.0241227149963378906 4.3596544265747070312 5.5173053741455078125 6.4867577552795410156 6.4363360404968261719 6.1924929618835449219 5.772613525390625 5.1505069732666015625 4.7116780281066894531 4.5701651573181152344 4.7277798652648925781 5.0928149223327636719 5.6959023475646972656 6.5729894638061523438 7.4783124923706054688 8.2340030670166015625 7.8862681388854980469 6.6977725028991699219 6.1168732643127441406 5.8317055702209472656 5.6804332733154296875 5.7057046890258789062 5.781909942626953125 5.9112148284912109375 6.0251493453979492188 6.1135716438293457031 6.0442752838134765625 5.6182861328125 5.4937276840209960938 5.6594014167785644531 5.6789216995239257812 5.521526336669921875 5.2906908988952636719 5.1425299644470214844 4.9466290473937988281 4.8104104995727539062 4.5623788833618164062 4.4794864654541015625 4.4686756134033203125 4.4653487205505371094 4.4656691551208496094 4.4696979522705078125 4.4768962860107421875 4.6670947074890136719 4.8403096199035644531 4.8812427520751953125 4.87578582763671875 4.7960119247436523438 4.5048799514770507812 4.1679196357727050781 3.8253045082092285156 3.4535703659057617188 3.1611461639404296875 3.2152602672576904297 3.3260102272033691406 3.4932334423065185547 3.5916624069213867188 3.6794023513793945312 3.7552778720855712891 3.8272125720977783203 3.8892416954040527344 3.9486877918243408203 4.0006880760192871094 4.0516228675842285156 4.0972018241882324219 4.1430673599243164062 4.1853032112121582031 4.2287311553955078125 4.2695517539978027344 4.3129191398620605469 4.3542733192443847656 4.397846221923828125 4.4385857582092285156 4.4807028770446777344 4.5192689895629882812 4.5594687461853027344 4.5986490249633789062 4.6436610221862792969 4.6917238235473632812 4.7511005401611328125 4.8168358802795410156 4.8974809646606445312 4.9835143089294433594 5.0854444503784179688 5.1910505294799804688 5.3133783340454101562 5.4358658790588378906 5.5706357955932617188 5.697498321533203125 5.8292098045349121094 5.9457378387451171875 6.0598611831665039062 6.156436920166015625 6.2488679885864257812 6.3253922462463378906 6.3970594406127929688 6.4549164772033691406 6.507389068603515625 6.5476317405700683594 6.5817251205444335938 6.6053309440612792969 6.6220889091491699219 6.6299738883972167969 6.6308307647705078125 6.6252417564392089844 6.6132235527038574219 6.597209930419921875 6.5756559371948242188 6.5519838333129882812 6.521968841552734375 6.4893231391906738281 6.448207855224609375 6.4040675163269042969 6.3501591682434082031 6.2964158058166503906 6.2367901802062988281 6.182621002197265625 6.1278004646301269531 6.0827550888061523438 6.0403151512145996094 6.0057644844055175781 5.9717464447021484375 5.9419646263122558594 5.9099206924438476562 5.8790950775146484375 5.8433089256286621094 5.8068361282348632812 5.7627892494201660156 5.7165732383728027344 5.6601595878601074219 5.6022572517395019531 5.5356278419494628906 5.4712653160095214844 5.4011478424072265625 5.3365550041198730469 5.2690300941467285156 5.20824432373046875 5.1454906463623046875 5.0894327163696289062 5.0320868492126464844 4.9810137748718261719 4.93029022216796875 4.8957052230834960938 4.8741559982299804688 4.8662967681884765625 4.8698639869689941406 4.8854489326477050781 4.9164175987243652344 4.9448313713073730469 4.9646277427673339844 4.9709911346435546875 4.9631800651550292969 4.9440088272094726562 4.9147157669067382812 4.8823556900024414062 4.8466930389404296875 4.8151159286499023438 4.7840890884399414062 4.7541728019714355469 4.7176947593688964844 4.6751947402954101562 4.6175775527954101562 4.5497531890869140625 4.4680752754211425781 4.3881158828735351562 4.3080005645751953125 4.2430081367492675781 4.1924414634704589844 4.162441253662109375 4.1449913978576660156 4.13652801513671875 4.1304497718811035156 4.1222176551818847656 4.1065039634704589844 4.0837306976318359375 4.0513772964477539062 4.0126543045043945312 3.963512420654296875 3.9088437557220458984 3.8442780971527099609 3.7778234481811523438 3.705127716064453125 3.6348831653594970703 3.5624773502349853516 3.4944305419921875 3.4200427532196044922 3.3404068946838378906 3.2422351837158203125 3.1285786628723144531 2.9846935272216796875 2.8258833885192871094 2.6478562355041503906 2.474872589111328125 2.3027780055999755859 2.1544947624206542969 2.0224590301513671875 1.9108521938323974609 1.8014611005783081055 1.6935563087463378906 1.5692414045333862305 1.4305834770202636719 1.2678885459899902344 1.0996944904327392578 0.92153531312942504883 0.75331276655197143555 0.59104079008102416992 0.44905236363410949707 0.31456276774406433105 0.19212670624256134033 0.019041098654270172119 0 0 0 0 0 0 0 0 0 0 0 0 0 0 0 0 0 0 0 0 0 0 0 0 0 0 0 0 0 0 0 0 0 0 0 0 0 0 0 0 0 0 0 0 0 
2.4060213565826416016 2.4145689010620117188 2.4243204593658447266 2.433582305908203125 2.4438149929046630859 2.4472699165344238281 2.4364464282989501953 2.4260437488555908203 2.4353768825531005859 2.4728875160217285156 2.4979462623596191406 2.4981031417846679688 2.4956107139587402344 2.4985971450805664062 2.5047173500061035156 2.501739501953125 2.4951124191284179688 2.5063054561614990234 2.5211009979248046875 2.5273151397705078125 2.5256953239440917969 2.5223608016967773438 2.5222456455230712891 2.5269460678100585938 2.5292432308197021484 2.5273079872131347656 2.5293378829956054688 2.5333456993103027344 2.537811279296875 2.5459759235382080078 2.5434098243713378906 2.5262279510498046875 2.5022761821746826172 2.4749495983123779297 2.4496288299560546875 2.4241924285888671875 2.3970611095428466797 2.3657093048095703125 2.3434994220733642578 2.3322708606719970703 2.3413870334625244141 2.2770586013793945312 2.2335686683654785156 2.1956880092620849609 2.1613452434539794922 2.1157774925231933594 2.2963516712188720703 3.3132677078247070312 4.6279215812683105469 5.8512711524963378906 6.526027679443359375 6.3285722732543945312 6.0092740058898925781 5.4616694450378417969 4.9414753913879394531 4.6012315750122070312 4.5890798568725585938 4.8364391326904296875 5.2344923019409179688 6.1156969070434570312 7.1198744773864746094 7.8485741615295410156 8.2213659286499023438 7.4932293891906738281 6.3420662879943847656 6.0222096443176269531 5.8221569061279296875 5.6816349029541015625 5.6731009483337402344 5.8305468559265136719 5.9846105575561523438 6.0937600135803222656 6.1796598434448242188 6.0162758827209472656 5.6135439872741699219 5.6067843437194824219 5.7771015167236328125 5.745426177978515625 5.5204458236694335938 5.3117113113403320312 5.1607556343078613281 4.9575486183166503906 4.8178777694702148438 4.6040129661560058594 4.5507307052612304688 4.5360574722290039062 4.5231380462646484375 4.5167946815490722656 4.5169157981872558594 4.5511126518249511719 4.7548689842224121094 4.8848824501037597656 4.9123387336730957031 4.9192442893981933594 4.8024749755859375 4.5362229347229003906 4.214641571044921875 3.8837544918060302734 3.5232985019683837891 3.2397673130035400391 3.2944252490997314453 3.4026761054992675781 3.5235748291015625 3.6151916980743408203 3.7026884555816650391 3.7795670032501220703 3.8535571098327636719 3.918239593505859375 3.9808948040008544922 4.0360713005065917969 4.0901770591735839844 4.1383919715881347656 4.1865792274475097656 4.2306995391845703125 4.2758817672729492188 4.3178167343139648438 4.3616814613342285156 4.4027667045593261719 4.4451694488525390625 4.483852386474609375 4.5226840972900390625 4.5569930076599121094 4.5916986465454101562 4.6253595352172851562 4.6646986007690429688 4.7080502510070800781 4.7636981010437011719 4.8274788856506347656 4.9074606895446777344 4.9937334060668945312 5.0962910652160644531 5.2023668289184570312 5.3245649337768554688 5.4462795257568359375 5.5799541473388671875 5.7060003280639648438 5.8375606536865234375 5.9550914764404296875 6.0717325210571289062 6.1715836524963378906 6.2677721977233886719 6.3474092483520507812 6.4213423728942871094 6.4796509742736816406 6.5307240486145019531 6.568332672119140625 6.5987834930419921875 6.6186614036560058594 6.6315946578979492188 6.6364331245422363281 6.6346406936645507812 6.6271557807922363281 6.6136689186096191406 6.5968036651611328125 6.5749917030334472656 6.5515160560607910156 6.5220351219177246094 6.4900956153869628906 6.4498729705810546875 6.4065923690795898438 6.35355377197265625 6.30045318603515625 6.2412233352661132812 6.1871151924133300781 6.1319475173950195312 6.0861616134643554688 6.0424289703369140625 6.0061373710632324219 5.96959686279296875 5.9368529319763183594 5.9008955955505371094 5.865909576416015625 5.82547760009765625 5.7850255966186523438 5.7375359535217285156 5.6893548965454101562 5.6325435638427734375 5.5758175849914550781 5.51175689697265625 5.4506335258483886719 5.3845133781433105469 5.3237690925598144531 5.2601885795593261719 5.2027034759521484375 5.1428880691528320312 5.0888280868530273438 5.0326223373413085938 4.9816875457763671875 4.9289484024047851562 4.889812469482421875 4.8661046028137207031 4.8579096794128417969 4.8630990982055664062 4.8837680816650390625 4.9193139076232910156 4.9474849700927734375 4.9661302566528320312 4.9703540802001953125 4.9589605331420898438 4.9354257583618164062 4.900875091552734375 4.8634185791015625 4.8226408958435058594 4.7869405746459960938 4.7526140213012695312 4.7207860946655273438 4.6837410926818847656 4.642238616943359375 4.5874929428100585938 4.5241308212280273438 4.4487633705139160156 4.3758673667907714844 4.3039484024047851562 4.2469973564147949219 4.20482635498046875 4.182567596435546875 4.1732044219970703125 4.1725125312805175781 4.1749448776245117188 4.1752529144287109375 4.1689119338989257812 4.154743194580078125 4.1301631927490234375 4.0967540740966796875 4.050045013427734375 3.9939968585968017578 3.9242513179779052734 3.8503248691558837891 3.7683122158050537109 3.6888592243194580078 3.6076395511627197266 3.5326395034790039062 3.4523389339447021484 3.3678698539733886719 3.2649941444396972656 3.1466834545135498047 2.9973342418670654297 2.8326373100280761719 2.6480054855346679688 2.4684770107269287109 2.2896044254302978516 2.1350862979888916016 1.9970560073852539062 1.8802248239517211914 1.7659938335418701172 1.6539670228958129883 1.5258710384368896484 1.3840705156326293945 1.2188133001327514648 1.0490269660949707031 0.87034523487091064453 0.70290255546569824219 0.54306584596633911133 0.40510392189025878906 0.27648326754570007324 0.13882465660572052002 0.0032234175596386194229 0 0 0 0 0 0 0 0 0 0 0 0 0 0 0 0 0 0 0 0 0 0 0 0 0 0 0 0 0 0 0 0 0 0 0 0 0 0 0 0 0 0 0 0 0 
2.4053416252136230469 2.4142568111419677734 2.4210200309753417969 2.4259333610534667969 2.4317126274108886719 2.4400115013122558594 2.4511239528656005859 2.4573304653167724609 2.4574174880981445312 2.4374063014984130859 2.4546816349029541016 2.4720761775970458984 2.4923141002655029297 2.4943931102752685547 2.4981973171234130859 2.4949355125427246094 2.4946734905242919922 2.5080943107604980469 2.5227804183959960938 2.5328576564788818359 2.5363564491271972656 2.5315387248992919922 2.5258920192718505859 2.5253109931945800781 2.5267469882965087891 2.5286960601806640625 2.5313961505889892578 2.5353891849517822266 2.5399978160858154297 2.5429060459136962891 2.5375788211822509766 2.5226614475250244141 2.5017733573913574219 2.4771623611450195312 2.4493112564086914062 2.4181504249572753906 2.3862445354461669922 2.3544754981994628906 2.3300771713256835938 2.3219404220581054688 2.3239955902099609375 2.2547931671142578125 2.2162325382232666016 2.1847376823425292969 2.1500954627990722656 2.1008894443511962891 2.4964208602905273438 3.7200684547424316406 4.9831976890563964844 6.1436066627502441406 6.3462162017822265625 6.1432132720947265625 5.7055635452270507812 5.1555457115173339844 4.7846002578735351562 4.5574402809143066406 4.6545076370239257812 4.936008453369140625 5.3719706535339355469 6.4282670021057128906 7.6903066635131835938 7.9585847854614257812 7.7448544502258300781 6.8783674240112304688 6.1467733383178710938 5.9884004592895507812 5.825580596923828125 5.6404876708984375 5.7192301750183105469 5.8975892066955566406 6.0553679466247558594 6.1672272682189941406 6.207035064697265625 5.9366626739501953125 5.6301794052124023438 5.7122702598571777344 5.8746342658996582031 5.7889728546142578125 5.5115938186645507812 5.3395977020263671875 5.1815037727355957031 5.0018076896667480469 4.8323979377746582031 4.6729345321655273438 4.6249341964721679688 4.5964188575744628906 4.5754914283752441406 4.5647535324096679688 4.5658407211303710938 4.6651601791381835938 4.8841862678527832031 4.94358062744140625 4.9623594284057617188 4.9997930526733398438 4.8721761703491210938 4.6036648750305175781 4.2837691307067871094 3.9539468288421630859 3.5962338447570800781 3.3157489299774169922 3.3701663017272949219 3.4762241840362548828 3.5582785606384277344 3.6442890167236328125 3.7316312789916992188 3.8096716403961181641 3.8857312202453613281 3.9529271125793457031 4.0184969902038574219 4.0764379501342773438 4.1331567764282226562 4.1833887100219726562 4.2331929206848144531 4.2783613204956054688 4.3244128227233886719 4.3667979240417480469 4.410549163818359375 4.4508905410766601562 4.4917349815368652344 4.5281085968017578125 4.5635118484497070312 4.5935454368591308594 4.6228117942810058594 4.6509456634521484375 4.6845431327819824219 4.7229075431823730469 4.7741861343383789062 4.8350262641906738281 4.9130010604858398438 4.9981231689453125 5.0998907089233398438 5.2053170204162597656 5.3265843391418457031 5.4471983909606933594 5.579830169677734375 5.70540618896484375 5.8374195098876953125 5.9566817283630371094 6.0766854286193847656 6.1806397438049316406 6.2814722061157226562 6.3650507926940917969 6.4420614242553710938 6.5014662742614746094 6.5517058372497558594 6.587108612060546875 6.6142177581787109375 6.6305012702941894531 6.6395945549011230469 6.6412248611450195312 6.6365170478820800781 6.6268463134765625 6.6115975379943847656 6.5937304496765136719 6.5716147422790527344 6.5483841896057128906 6.5195956230163574219 6.4885783195495605469 6.4495191574096679688 6.4073543548583984375 6.3554391860961914062 6.3031682968139648438 6.2445454597473144531 6.1906900405883789062 6.1353855133056640625 6.0890827178955078125 6.0442600250244140625 6.0063881874084472656 5.9674539566040039062 5.9318137168884277344 5.8919348716735839844 5.8527064323425292969 5.8074917793273925781 5.7629146575927734375 5.7118315696716308594 5.6615886688232421875 5.6043524742126464844 5.5488429069519042969 5.4874238967895507812 5.4296050071716308594 5.367519378662109375 5.3105916976928710938 5.2508325576782226562 5.1964502334594726562 5.139293670654296875 5.0869436264038085938 5.0316252708435058594 4.9807009696960449219 4.926532745361328125 4.88231658935546875 4.8554363250732421875 4.8465862274169921875 4.854122161865234375 4.8816771507263183594 4.9195165634155273438 4.9472627639770507812 4.9646215438842773438 4.9665894508361816406 4.9515032768249511719 4.9235281944274902344 4.8836846351623535156 4.8411579132080078125 4.7953767776489257812 4.7557516098022460938 4.7184586524963378906 4.6851658821105957031 4.6481947898864746094 4.6084728240966796875 4.5576376914978027344 4.4999070167541503906 4.4321694374084472656 4.3675136566162109375 4.3048009872436523438 4.2564759254455566406 4.2227792739868164062 4.207820892333984375 4.205669403076171875 4.2116723060607910156 4.2213687896728515625 4.2290754318237304688 4.2310895919799804688 4.2247519493103027344 4.2072896957397460938 4.1786665916442871094 4.1338644027709960938 4.0759067535400390625 4.0004115104675292969 3.9185321331024169922 3.8268673419952392578 3.7381422519683837891 3.6484150886535644531 3.5671525001525878906 3.4820270538330078125 3.3940179347991943359 3.2879576683044433594 3.1665127277374267578 3.0132565498352050781 2.8440706729888916016 2.6541421413421630859 2.4691376686096191406 2.2843503952026367188 2.1241328716278076172 1.980304718017578125 1.858111262321472168 1.7386146783828735352 1.621918797492980957 1.4895300865173339844 1.34423828125 1.1761916875839233398 1.0046869516372680664 0.82545912265777587891 0.65888679027557373047 0.50168067216873168945 0.36799123883247375488 0.24544113874435424805 0.083645641803741455078 0 0 0 0 0 0 0 0 0 0 0 0 0 0 0 0 0 0 0 0 0 0 0 0 0 0 0 0 0 0 0 0 0 0 0 0 0 0 0 0 0 0 0 0 0 0 
2.4059216976165771484 2.4154577255249023438 2.4191896915435791016 2.4196014404296875 2.4218466281890869141 2.4315853118896484375 2.4439172744750976562 2.4551224708557128906 2.4642646312713623047 2.4767928123474121094 2.464267730712890625 2.4442880153656005859 2.4475615024566650391 2.4806566238403320312 2.4992249011993408203 2.5058133602142333984 2.5065996646881103516 2.5107903480529785156 2.5183594226837158203 2.5290858745574951172 2.5400567054748535156 2.5366234779357910156 2.5302126407623291016 2.5286519527435302734 2.5274758338928222656 2.531585693359375 2.5356030464172363281 2.5360949039459228516 2.5400221347808837891 2.5435225963592529297 2.5302267074584960938 2.5112690925598144531 2.4953713417053222656 2.4726889133453369141 2.4426872730255126953 2.4106342792510986328 2.3761961460113525391 2.3435025215148925781 2.3135776519775390625 2.3077085018157958984 2.2800385951995849609 2.2240335941314697266 2.1927425861358642578 2.1678307056427001953 2.1324367523193359375 2.1113858222961425781 2.7628054618835449219 4.0408191680908203125 5.2953004837036132812 6.311862945556640625 6.2972407341003417969 6.0310826301574707031 5.4802489280700683594 4.9806756973266601562 4.6947531700134277344 4.5671234130859375 4.7639069557189941406 5.1049742698669433594 5.6063542366027832031 6.5450825691223144531 7.7725439071655273438 8.11144256591796875 7.4897565841674804688 6.4800138473510742188 6.0575232505798339844 5.9226932525634765625 5.7529702186584472656 5.66321563720703125 5.7888131141662597656 5.97382354736328125 6.1343731880187988281 6.23744964599609375 6.1846837997436523438 5.8557615280151367188 5.6674623489379882812 5.819149017333984375 5.9519257545471191406 5.7922949790954589844 5.5119924545288085938 5.3744482994079589844 5.2028088569641113281 5.0146455764770507812 4.8655800819396972656 4.7554345130920410156 4.6929974555969238281 4.6545748710632324219 4.6273283958435058594 4.6132602691650390625 4.6112585067749023438 4.7722783088684082031 4.9667110443115234375 4.9907422065734863281 5.0156030654907226562 5.0748953819274902344 5.0000319480895996094 4.7259430885314941406 4.3863606452941894531 4.0441379547119140625 3.6808893680572509766 3.3985536098480224609 3.4520006179809570312 3.5559184551239013672 3.6021418571472167969 3.6831862926483154297 3.7704427242279052734 3.8497340679168701172 3.927997589111328125 3.9977164268493652344 4.0660867691040039062 4.1265649795532226562 4.1855268478393554688 4.23732757568359375 4.2882332801818847656 4.3338599205017089844 4.3799595832824707031 4.4221968650817871094 4.4652943611145019531 4.5044322013854980469 4.5432982444763183594 4.5770363807678222656 4.60874176025390625 4.6343259811401367188 4.6580209732055664062 4.6804118156433105469 4.7079396247863769531 4.7408194541931152344 4.7868437767028808594 4.8435215950012207031 4.9178833961486816406 5.0002069473266601562 5.0994720458984375 5.2028217315673828125 5.3219981193542480469 5.4408321380615234375 5.57212066650390625 5.697299957275390625 5.8301920890808105469 5.9518818855285644531 6.0762176513671875 6.1853222846984863281 6.2919621467590332031 6.3805675506591796875 6.4616045951843261719 6.5227274894714355469 6.5725035667419433594 6.605831146240234375 6.6295070648193359375 6.6419568061828613281 6.6468410491943359375 6.6448602676391601562 6.6367917060852050781 6.6245427131652832031 6.6071825027465820312 6.5881724357604980469 6.5656757354736328125 6.5427336692810058594 6.5147929191589355469 6.4849143028259277344 6.4472975730895996094 6.4065237045288085938 6.3560023307800292969 6.3047742843627929688 6.2469925880432128906 6.1935839653015136719 6.1383538246154785156 6.0917110443115234375 6.0459294319152832031 6.0065670013427734375 5.9653005599975585938 5.9267859458923339844 5.88297271728515625 5.8394589424133300781 5.7894086837768554688 5.7406458854675292969 5.6859049797058105469 5.6335463523864746094 5.5758533477783203125 5.5215511322021484375 5.462772369384765625 5.408260345458984375 5.3502039909362792969 5.2970747947692871094 5.2410898208618164062 5.18973541259765625 5.1350955963134765625 5.0842289924621582031 5.029582977294921875 4.9784297943115234375 4.9232840538024902344 4.8742275238037109375 4.8418741226196289062 4.8321352005004882812 4.8446130752563476562 4.880184173583984375 4.9186162948608398438 4.9457998275756835938 4.9616637229919433594 4.9611220359802246094 4.942012786865234375 4.9092550277709960938 4.8637633323669433594 4.8158769607543945312 4.7648758888244628906 4.7212429046630859375 4.6810555458068847656 4.64653778076171875 4.6100974082946777344 4.5727953910827636719 4.526790618896484375 4.4757742881774902344 4.416942596435546875 4.3617267608642578125 4.3093318939208984375 4.2704095840454101562 4.2455830574035644531 4.2378854751586914062 4.2425627708435058594 4.2546868324279785156 4.2709331512451171875 4.2853679656982421875 4.2951211929321289062 4.2960982322692871094 4.285236358642578125 4.260890960693359375 4.2173953056335449219 4.1568603515625 4.0748348236083984375 3.9842650890350341797 3.8822777271270751953 3.7838275432586669922 3.6854104995727539062 3.5980346202850341797 3.5085291862487792969 3.4175989627838134766 3.3091135025024414062 3.1852867603302001953 3.0288507938385009766 2.8557665348052978516 2.6610109806060791016 2.4708170890808105469 2.2802116870880126953 2.1141815185546875 1.9642450809478759766 1.8362776041030883789 1.7110502719879150391 1.5892455577850341797 1.4521472454071044922 1.3030503988265991211 1.1320126056671142578 0.95873022079467773438 0.77905231714248657227 0.61363112926483154297 0.45953208208084106445 0.33073556423187255859 0.20261263847351074219 0.018032692372798919678 0 0 0 0 0 0 0 0 0 0 0 0 0 0 0 0 0 0 0 0 0 0 0 0 0 0 0 0 0 0 0 0 0 0 0 0 0 0 0 0 0 0 0 0 0 0 
2.4048571586608886719 2.4154984951019287109 2.4141371250152587891 2.4143085479736328125 2.4181106090545654297 2.4300253391265869141 2.4407935142517089844 2.4516584873199462891 2.4513590335845947266 2.4769105911254882812 2.4785754680633544922 2.4808866977691650391 2.4694969654083251953 2.4571502208709716797 2.4546387195587158203 2.4770109653472900391 2.5107083320617675781 2.5219538211822509766 2.5252051353454589844 2.5262825489044189453 2.5349256992340087891 2.5369875431060791016 2.5335140228271484375 2.5306642055511474609 2.5324914455413818359 2.5345675945281982422 2.5353174209594726562 2.5376503467559814453 2.5429391860961914062 2.5461404323577880859 2.5288760662078857422 2.5041685104370117188 2.4820685386657714844 2.4616615772247314453 2.4355695247650146484 2.4019043445587158203 2.3656449317932128906 2.3327999114990234375 2.3062293529510498047 2.28772735595703125 2.2483019828796386719 2.2106082439422607422 2.1808769702911376953 2.1549224853515625 2.1033840179443359375 2.1814100742340087891 3.0607938766479492188 4.3153967857360839844 5.5461721420288085938 6.2332711219787597656 6.2134761810302734375 5.8265500068664550781 5.2932553291320800781 4.8810529708862304688 4.6530828475952148438 4.6267380714416503906 4.8838334083557128906 5.2527151107788085938 5.8941149711608886719 6.8024168014526367188 7.9046506881713867188 8.195343017578125 7.4138169288635253906 6.3203878402709960938 6.013713836669921875 5.8630914688110351562 5.7439222335815429688 5.6980824470520019531 5.8593573570251464844 6.0531649589538574219 6.2067399024963378906 6.2622361183166503906 6.0952095985412597656 5.82259368896484375 5.7077488899230957031 5.9068112373352050781 6.0048918724060058594 5.792591094970703125 5.5281167030334472656 5.3995490074157714844 5.2089776992797851562 5.0499973297119140625 4.8740057945251464844 4.7968134880065917969 4.7418913841247558594 4.7018380165100097656 4.6716208457946777344 4.6543827056884765625 4.661956787109375 4.8711614608764648438 5.0003299713134765625 5.0212078094482421875 5.06023406982421875 5.1262788772583007812 5.1696310043334960938 4.8981871604919433594 4.5021219253540039062 4.1378731727600097656 3.7647416591644287109 3.4778578281402587891 3.5299870967864990234 3.6320891380310058594 3.6501812934875488281 3.7275447845458984375 3.8148908615112304688 3.8951249122619628906 3.9753012657165527344 4.0470991134643554688 4.1176543235778808594 4.1799921989440917969 4.2404384613037109375 4.2931127548217773438 4.3444375991821289062 4.3899474143981933594 4.4354095458984375 4.4768533706665039062 4.5189104080200195312 4.556636810302734375 4.5934977531433105469 4.6247892379760742188 4.6532511711120605469 4.6750979423522949219 4.6941986083984375 4.7117953300476074219 4.7340598106384277344 4.7619848251342773438 4.8027911186218261719 4.8547267913818359375 4.9243226051330566406 5.0024590492248535156 5.0976605415344238281 5.1975741386413574219 5.3135471343994140625 5.4299573898315429688 5.5595693588256835938 5.6842784881591796875 5.8181562423706054688 5.9424333572387695312 6.0712604522705078125 6.1856589317321777344 6.2982921600341796875 6.3921480178833007812 6.4774394035339355469 6.5405406951904296875 6.5902009010314941406 6.6218037605285644531 6.6423926353454589844 6.6513075828552246094 6.6522436141967773438 6.6468353271484375 6.6355447769165039062 6.6207947731018066406 6.6014151573181152344 6.5813426971435546875 6.5584530830383300781 6.53577423095703125 6.5086483955383300781 6.4798789024353027344 6.4436841011047363281 6.4042959213256835938 6.3551397323608398438 6.304981231689453125 6.2481179237365722656 6.1952724456787109375 6.1403369903564453125 6.0935716629028320312 6.0471401214599609375 6.0066690444946289062 5.9636211395263671875 5.9228906631469726562 5.8760461807250976562 5.8292512893676757812 5.7755150794982910156 5.72354888916015625 5.6659884452819824219 5.6119780540466308594 5.55389404296875 5.5004620552062988281 5.4436421394348144531 5.3916039466857910156 5.3365831375122070312 5.2863316535949707031 5.2332196235656738281 5.1841669082641601562 5.1314144134521484375 5.0816712379455566406 5.0275301933288574219 4.975940704345703125 4.9201555252075195312 4.8683600425720214844 4.8281950950622558594 4.8176703453063964844 4.8391757011413574219 4.8798232078552246094 4.9182186126708984375 4.9448156356811523438 4.9592356681823730469 4.956363677978515625 4.9336061477661132812 4.8965678215026855469 4.8460693359375 4.793476104736328125 4.7379403114318847656 4.6908907890319824219 4.6483292579650878906 4.612945556640625 4.5772461891174316406 4.5423688888549804688 4.5009632110595703125 4.4562044143676757812 4.4055562019348144531 4.3589019775390625 4.3157238960266113281 4.2850275039672851562 4.2677168846130371094 4.2659006118774414062 4.2758340835571289062 4.2924656867980957031 4.3134093284606933594 4.3326625823974609375 4.3480210304260253906 4.3543004989624023438 4.3481311798095703125 4.3266172409057617188 4.2834925651550292969 4.2201890945434570312 4.1321516036987304688 4.0338888168334960938 3.9229402542114257812 3.8161685466766357422 3.7104260921478271484 3.6180145740509033203 3.5250360965728759766 3.43190765380859375 3.3216757774353027344 3.19611358642578125 3.0372328758239746094 2.8610270023345947266 2.6623063087463378906 2.4677727222442626953 2.2722318172454833984 2.1012058258056640625 1.9459590911865234375 1.8129308223724365234 1.6826548576354980469 1.5563503503799438477 1.4151287078857421875 1.2627465724945068359 1.0892063379287719727 0.91455250978469848633 0.73475474119186401367 0.57069700956344604492 0.41974350810050964355 0.29569312930107116699 0.14316698908805847168 0 0 0 0 0 0 0 0 0 0 0 0 0 0 0 0 0 0 0 0 0 0 0 0 0 0 0 0 0 0 0 0 0 0 0 0 0 0 0 0 0 0 0 0 0 0 0 
2.3968322277069091797 2.4056675434112548828 2.4140117168426513672 2.4219787120819091797 2.4244561195373535156 2.4270575046539306641 2.4402546882629394531 2.4431815147399902344 2.452056884765625 2.4611675739288330078 2.46555328369140625 2.4707050323486328125 2.4781329631805419922 2.4904415607452392578 2.4796564579010009766 2.4542367458343505859 2.4658083915710449219 2.49723052978515625 2.5310983657836914062 2.529369354248046875 2.532306671142578125 2.5374324321746826172 2.5336890220642089844 2.5291905403137207031 2.5303378105163574219 2.5288197994232177734 2.5322391986846923828 2.5384099483489990234 2.5445687770843505859 2.5419936180114746094 2.5217635631561279297 2.4960536956787109375 2.477569580078125 2.4569401741027832031 2.4299633502960205078 2.3962810039520263672 2.3574337959289550781 2.3246850967407226562 2.3025610446929931641 2.2764072418212890625 2.2318797111511230469 2.1993262767791748047 2.1776888370513916016 2.1499032974243164062 2.0776247978210449219 2.3301422595977783203 3.4042677879333496094 4.6129231452941894531 5.673816680908203125 6.0737500190734863281 6.0135860443115234375 5.5731382369995117188 5.140106201171875 4.8297924995422363281 4.6944575309753417969 4.7378892898559570312 5.0094623565673828125 5.4123196601867675781 6.2307372093200683594 7.5083956718444824219 8.4415540695190429688 8.1350374221801757812 6.9884433746337890625 6.2341108322143554688 5.9887280464172363281 5.8534932136535644531 5.7445402145385742188 5.7411370277404785156 5.9317255020141601562 6.1293807029724121094 6.2722644805908203125 6.2786755561828613281 6.0372142791748046875 5.8221230506896972656 5.778713226318359375 5.9947633743286132812 6.0426111221313476562 5.7913594245910644531 5.5550394058227539062 5.4245023727416992188 5.2056593894958496094 5.0454630851745605469 4.8725881576538085938 4.8256497383117675781 4.7844867706298828125 4.7469897270202636719 4.7153348922729492188 4.694561004638671875 4.7237119674682617188 4.9361820220947265625 5.0202932357788085938 5.0313792228698730469 5.0992054939270019531 5.2010402679443359375 5.2899789810180664062 5.0487618446350097656 4.6155400276184082031 4.2368273735046386719 3.8552777767181396484 3.5635919570922851562 3.6142828464508056641 3.7146756649017333984 3.7092390060424804688 3.7837169170379638672 3.8713564872741699219 3.9522902965545654297 4.0339980125427246094 4.1075372695922851562 4.1797623634338378906 4.2433619499206542969 4.3045911788940429688 4.357494354248046875 4.4085669517517089844 4.4533824920654296875 4.49761199951171875 4.5375494956970214844 4.5780277252197265625 4.6140599250793457031 4.6487908363342285156 4.6777205467224121094 4.703273773193359375 4.7219896316528320312 4.7373585700988769531 4.7509946823120117188 4.7686014175415039062 4.7918062210083007812 4.8270616531372070312 4.8731966018676757812 4.9362535476684570312 5.0081701278686523438 5.0970244407653808594 5.1914758682250976562 5.3024806976318359375 5.4153037071228027344 5.5424637794494628906 5.6663575172424316406 5.8012242317199707031 5.9283161163330078125 6.0620746612548828125 6.1822967529296875 6.3016200065612792969 6.401340484619140625 6.4914240837097167969 6.5568604469299316406 6.6066632270812988281 6.63661956787109375 6.6540980339050292969 6.659393310546875 6.6562600135803222656 6.6473250389099121094 6.6327190399169921875 6.6153979301452636719 6.5940580368041992188 6.5729126930236816406 6.5495972633361816406 6.5271549224853515625 6.5008254051208496094 6.4731664657592773438 6.4384198188781738281 6.4004464149475097656 6.3526911735534667969 6.3037018775939941406 6.2478952407836914062 6.1958050727844238281 6.1414051055908203125 6.0947365760803222656 6.0479459762573242188 6.0067296028137207031 5.9624438285827636719 5.9201874732971191406 5.8713145256042480469 5.8224000930786132812 5.7663011550903320312 5.7122778892517089844 5.6528882980346679688 5.597782135009765625 5.53936767578125 5.4863839149475097656 5.4306921958923339844 5.380138397216796875 5.3269968032836914062 5.2785878181457519531 5.227375030517578125 5.1798658370971679688 5.1283888816833496094 5.0795450210571289062 5.0257744789123535156 4.9741611480712890625 4.9180154800415039062 4.8649525642395019531 4.8149981498718261719 4.8042430877685546875 4.8394336700439453125 4.8816127777099609375 4.9199733734130859375 4.9459171295166015625 4.9588294029235839844 4.9536342620849609375 4.9273552894592285156 4.8862676620483398438 4.8310918807983398438 4.7741489410400390625 4.7144746780395507812 4.6643619537353515625 4.6197504997253417969 4.5837225914001464844 4.5488715171813964844 4.5163731575012207031 4.4793210029602050781 4.4403848648071289062 4.3972606658935546875 4.3583879470825195312 4.3234686851501464844 4.2999997138977050781 4.289081573486328125 4.2920141220092773438 4.305904388427734375 4.3256726264953613281 4.3496761322021484375 4.3719816207885742188 4.3908786773681640625 4.4004430770874023438 4.3969883918762207031 4.3767480850219726562 4.3329067230224609375 4.266475677490234375 4.1727433204650878906 4.0675616264343261719 3.9487364292144775391 3.8347287178039550781 3.7226328849792480469 3.6258265972137451172 3.5297632217407226562 3.4346170425415039062 3.3227069377899169922 3.1954343318939208984 3.0341691970825195312 2.854961395263671875 2.6524665355682373047 2.4538338184356689453 2.2536666393280029297 2.0779929161071777344 1.917843937873840332 1.7801872491836547852 1.645342707633972168 1.5150247812271118164 1.3702055215835571289 1.2150504589080810547 1.0395367145538330078 0.8640092015266418457 0.68460518121719360352 0.52236294746398925781 0.37493637204170227051 0.25588309764862060547 0.071614339947700500488 0 0 0 0 0 0 0 0 0 0 0 0 0 0 0 0 0 0 0 0 0 0 0 0 0 0 0 0 0 0 0 0 0 0 0 0 0 0 0 0 0 0 0 0 0 0 0 
2.3942918777465820312 2.4013783931732177734 2.4161727428436279297 2.4270563125610351562 2.4304823875427246094 2.4347145557403564453 2.4393150806427001953 2.4351654052734375 2.4540946483612060547 2.4564330577850341797 2.457462310791015625 2.4601523876190185547 2.4677650928497314453 2.480350494384765625 2.4902141094207763672 2.4908626079559326172 2.4871616363525390625 2.4652547836303710938 2.4689013957977294922 2.50353240966796875 2.5352284908294677734 2.5453369617462158203 2.54225921630859375 2.5306904315948486328 2.5257327556610107422 2.5224473476409912109 2.5221269130706787109 2.5263280868530273438 2.5351853370666503906 2.5327444076538085938 2.5107710361480712891 2.4868171215057373047 2.4695019721984863281 2.4485185146331787109 2.4202287197113037109 2.3885698318481445312 2.3525590896606445312 2.3227047920227050781 2.3059778213500976562 2.2689728736877441406 2.2198314666748046875 2.1875476837158203125 2.1705145835876464844 2.1292181015014648438 2.0979495048522949219 2.7767684459686279297 3.7653625011444091797 4.8365869522094726562 5.67699432373046875 5.9406785964965820312 5.8235301971435546875 5.41432952880859375 5.0612502098083496094 4.87789154052734375 4.8245058059692382812 4.8756966590881347656 5.1020083427429199219 5.6381592750549316406 6.6887917518615722656 8.0423326492309570312 8.783008575439453125 8.2679576873779296875 7.0552759170532226562 6.244022369384765625 5.9710297584533691406 5.8653979301452636719 5.7783741950988769531 5.8048586845397949219 5.9997868537902832031 6.1875562667846679688 6.3232989311218261719 6.2980585098266601562 6.0349979400634765625 5.8462581634521484375 5.8897633552551269531 6.09044647216796875 6.0667171478271484375 5.7789931297302246094 5.5869188308715820312 5.4396843910217285156 5.2110028266906738281 5.0522532463073730469 4.8992781639099121094 4.860073089599609375 4.8241510391235351562 4.7889676094055175781 4.7564558982849121094 4.7285442352294921875 4.7699260711669921875 4.9790215492248535156 5.1194591522216796875 5.1981844902038574219 5.2574567794799804688 5.3229498863220214844 5.3685116767883300781 5.0986342430114746094 4.6989855766296386719 4.3228983879089355469 3.9388279914855957031 3.6445384025573730469 3.6941592693328857422 3.7932195663452148438 3.7721610069274902344 3.8447999954223632812 3.9327800273895263672 4.0141658782958984375 4.0965380668640136719 4.1711010932922363281 4.2441873550415039062 4.3082246780395507812 4.3694019317626953125 4.4218616485595703125 4.4720621109008789062 4.5157060623168945312 4.5583753585815429688 4.5965037345886230469 4.6350064277648925781 4.6693205833435058594 4.7021684646606445312 4.7292351722717285156 4.7527523040771484375 4.7695341110229492188 4.7827472686767578125 4.7940149307250976562 4.8084850311279296875 4.8279938697814941406 4.8583154678344726562 4.8985495567321777344 4.954319000244140625 5.0189180374145507812 5.1000390052795410156 5.1877303123474121094 5.2926239967346191406 5.4010868072509765625 5.5252041816711425781 5.6478943824768066406 5.7834014892578125 5.9129343032836914062 6.0511465072631835938 6.1767220497131347656 6.3023061752319335938 6.4074845314025878906 6.5020627975463867188 6.5697650909423828125 6.6198477745056152344 6.6484050750732421875 6.6631541252136230469 6.66524505615234375 6.6585192680358886719 6.6465001106262207031 6.6290097236633300781 6.6095280647277832031 6.5866041183471679688 6.56453704833984375 6.5408244132995605469 6.5185313224792480469 6.4928174018859863281 6.46605682373046875 6.4325146675109863281 6.3957028388977050781 6.3491725921630859375 6.3012638092041015625 6.2465043067932128906 6.1952714920043945312 6.1415376663208007812 6.0951542854309082031 6.0483341217041015625 6.0068454742431640625 5.9620852470397949219 5.9193062782287597656 5.8698830604553222656 5.8205218315124511719 5.7639880180358886719 5.7096009254455566406 5.6498694419860839844 5.5945177078247070312 5.5358939170837402344 5.4827809333801269531 5.4270453453063964844 5.3765616416931152344 5.3236346244812011719 5.2755675315856933594 5.2248363494873046875 5.1777796745300292969 5.1268396377563476562 5.0784711837768554688 5.0250940322875976562 4.9740967750549316406 4.9181804656982421875 4.8645548820495605469 4.8078069686889648438 4.7993187904357910156 4.8441510200500488281 4.8867487907409667969 4.9250531196594238281 4.950321197509765625 4.9618344306945800781 4.954647064208984375 4.9255151748657226562 4.881252288818359375 4.8224916458129882812 4.7622766494750976562 4.6995482444763183594 4.647228240966796875 4.6012010574340820312 4.5648040771484375 4.53067779541015625 4.4999852180480957031 4.4661250114440917969 4.4313755035400390625 4.3935790061950683594 4.3601350784301757812 4.3308691978454589844 4.3122115135192871094 4.3053426742553710938 4.311023712158203125 4.326873779296875 4.3478646278381347656 4.3727426528930664062 4.39574432373046875 4.4153780937194824219 4.4254794120788574219 4.4221029281616210938 4.401187896728515625 4.3555245399475097656 4.2860698699951171875 4.187923431396484375 4.0778021812438964844 3.9535567760467529297 3.8346259593963623047 3.7181556224822998047 3.6181843280792236328 3.5197057723999023438 3.4227743148803710938 3.3091990947723388672 3.1801950931549072266 3.0166676044464111328 2.8347821235656738281 2.6290624141693115234 2.4270443916320800781 2.2231707572937011719 2.0438890457153320312 1.8800519704818725586 1.7390162944793701172 1.6009441614151000977 1.4678938388824462891 1.320738673210144043 1.1639282703399658203 0.98744410276412963867 0.81182533502578735352 0.63339209556579589844 0.47320380806922912598 0.32916522026062011719 0.21454171836376190186 0.01034547761082649231 0 0 0 0 0 0 0 0 0 0 0 0 0 0 0 0 0 0 0 0 0 0 0 0 0 0 0 0 0 0 0 0 0 0 0 0 0 0 0 0 0 0 0 0 0 0 0 
2.3921985626220703125 2.4057726860046386719 2.4199249744415283203 2.4255924224853515625 2.4274094104766845703 2.4326384067535400391 2.4325950145721435547 2.4338665008544921875 2.4510052204132080078 2.4593110084533691406 2.4583425521850585938 2.4619691371917724609 2.4639911651611328125 2.4685254096984863281 2.4692928791046142578 2.4793176651000976562 2.4970035552978515625 2.5006489753723144531 2.4881560802459716797 2.4678528308868408203 2.4696557521820068359 2.5092024803161621094 2.5406422615051269531 2.5420172214508056641 2.5337848663330078125 2.5240845680236816406 2.5164182186126708984 2.5212099552154541016 2.5314564704895019531 2.5307903289794921875 2.5086169242858886719 2.4868273735046386719 2.4653189182281494141 2.44100189208984375 2.4138388633728027344 2.3798666000366210938 2.3460636138916015625 2.3222606182098388672 2.3105928897857666016 2.2602720260620117188 2.2144615650177001953 2.1839704513549804688 2.1575529575347900391 2.0975170135498046875 2.2619771957397460938 3.4356524944305419922 4.2935605049133300781 5.2384152412414550781 5.8026533126831054688 5.8381438255310058594 5.6475396156311035156 5.3392653465270996094 5.0597691535949707031 4.944232940673828125 4.9218282699584960938 4.9864993095397949219 5.2722692489624023438 5.9409132003784179688 7.0865077972412109375 8.2429304122924804688 8.5811319351196289062 8.1121835708618164062 7.2080717086791992188 6.2215776443481445312 5.9582219123840332031 5.9027485847473144531 5.8562164306640625 5.8800120353698730469 6.06975555419921875 6.2444281578063964844 6.3766465187072753906 6.3082880973815917969 6.0472021102905273438 5.8965625762939453125 6.0240397453308105469 6.1831645965576171875 6.0606985092163085938 5.7685389518737792969 5.6194539070129394531 5.4467668533325195312 5.2443776130676269531 5.040576934814453125 4.91550445556640625 4.9013895988464355469 4.8712186813354492188 4.8378987312316894531 4.8061704635620117188 4.77808380126953125 4.8563680648803710938 5.0558285713195800781 5.2455015182495117188 5.3755393028259277344 5.4104018211364746094 5.4251651763916015625 5.4463982582092285156 5.1747317314147949219 4.7805256843566894531 4.4085402488708496094 4.0257964134216308594 3.7317130565643310547 3.7806191444396972656 3.8784699440002441406 3.8468973636627197266 3.9183950424194335938 4.0066485404968261719 4.0882277488708496094 4.1706056594848632812 4.2453374862670898438 4.3186631202697753906 4.3824787139892578125 4.44292449951171875 4.4943375587463378906 4.5430507659912109375 4.5849866867065429688 4.6256198883056640625 4.6616005897521972656 4.69765472412109375 4.7298583984375 4.7608056068420410156 4.7862138748168945312 4.8082079887390136719 4.8238506317138671875 4.8360123634338378906 4.84603118896484375 4.8584189414978027344 4.8748221397399902344 4.900360107421875 4.9343004226684570312 4.9817829132080078125 5.0377440452575683594 5.1094965934753417969 5.1888670921325683594 5.2861952781677246094 5.3891744613647460938 5.5093007087707519531 5.6301507949829101562 5.7657675743103027344 5.8973793983459472656 6.0397820472717285156 6.1706485748291015625 6.302471160888671875 6.4130954742431640625 6.5121860504150390625 6.5822315216064453125 6.6326298713684082031 6.6598010063171386719 6.6718258857727050781 6.6707057952880859375 6.6603941917419433594 6.6452951431274414062 6.6249461174011230469 6.6034531593322753906 6.5789747238159179688 6.5559563636779785156 6.5317711830139160156 6.5095272064208984375 6.4843144416809082031 6.4583592414855957031 6.4259161949157714844 6.3902001380920410156 6.3449459075927734375 6.2982239723205566406 6.244724273681640625 6.1945409774780273438 6.1416344642639160156 6.0956578254699707031 6.0489492416381835938 6.0074033737182617188 5.9625844955444335938 5.919921875 5.8709926605224609375 5.8224377632141113281 5.7669768333435058594 5.7135763168334960938 5.6547217369079589844 5.5997967720031738281 5.5410304069519042969 5.4872727394104003906 5.4304900169372558594 5.3788900375366210938 5.3248143196105957031 5.2758970260620117188 5.2245655059814453125 5.1772742271423339844 5.1264972686767578125 5.078449249267578125 5.0261063575744628906 4.9762735366821289062 4.921413421630859375 4.8685488700866699219 4.8141384124755859375 4.8107600212097167969 4.8553538322448730469 4.8971714973449707031 4.9348406791687011719 4.9590983390808105469 4.9690074920654296875 4.9598226547241210938 4.9280695915222167969 4.8810400962829589844 4.8192539215087890625 4.7563433647155761719 4.6911654472351074219 4.6371469497680664062 4.5901074409484863281 4.5535397529602050781 4.5201039314270019531 4.4909114837646484375 4.4595799446105957031 4.4280500411987304688 4.3942556381225585938 4.3647866249084472656 4.3395166397094726562 4.3240756988525390625 4.3196287155151367188 4.3265786170959472656 4.3428235054016113281 4.3634777069091796875 4.3874149322509765625 4.4091548919677734375 4.4272122383117675781 4.4355635643005371094 4.4299955368041992188 4.4065880775451660156 4.3577899932861328125 4.2848072052001953125 4.1824812889099121094 4.0681519508361816406 3.9395236968994140625 3.8166751861572265625 3.6966416835784912109 3.5939040184020996094 3.4930715560913085938 3.3941898345947265625 3.2786602973937988281 3.1476500034332275391 2.9816842079162597656 2.7971057891845703125 2.5883092880249023438 2.3831987380981445312 2.1760807037353515625 1.9937722682952880859 1.8269963264465332031 1.683401942253112793 1.5430244207382202148 1.4081610441207885742 1.2596325874328613281 1.1020549535751342773 0.92546129226684570312 0.75051867961883544922 0.57372009754180908203 0.41605165600776672363 0.27561622858047485352 0.1116784214973449707 0.00015701001393608748913 0 0 0 0 0 0 0 0 0 0 0 0 0 0 0 0 0 0 0 0 0 0 0 0 0 0 0 0 0 0 0 0 0 0 0 0 0 0 0 0 0 0 0 0 0 0 0 
2.3899896144866943359 2.4099948406219482422 2.4188585281372070312 2.4215035438537597656 2.4248051643371582031 2.4252393245697021484 2.4283618927001953125 2.4388735294342041016 2.4448912143707275391 2.4589788913726806641 2.4574644565582275391 2.4584190845489501953 2.4547896385192871094 2.45562744140625 2.4557788372039794922 2.4706265926361083984 2.488170623779296875 2.4961369037628173828 2.5016226768493652344 2.5037739276885986328 2.4890336990356445312 2.4678220748901367188 2.4679541587829589844 2.5038714408874511719 2.5382425785064697266 2.5421001911163330078 2.5333685874938964844 2.5307219028472900391 2.5329561233520507812 2.5265831947326660156 2.5013451576232910156 2.4859564304351806641 2.4657242298126220703 2.4411616325378417969 2.4129724502563476562 2.3779654502868652344 2.3385908603668212891 2.3275146484375 2.3075163364410400391 2.2516560554504394531 2.2114336490631103516 2.1826403141021728516 2.1459286212921142578 2.0839862823486328125 2.6045763492584228516 3.6139416694641113281 4.6120862960815429688 5.5191631317138671875 5.7761197090148925781 5.7121949195861816406 5.4620928764343261719 5.1979722976684570312 5.0287733078002929688 4.9843325614929199219 4.9885277748107910156 5.1529178619384765625 5.5927805900573730469 6.3600373268127441406 7.4927039146423339844 8.275653839111328125 8.1219968795776367188 7.2205462455749511719 6.7341341972351074219 6.1363496780395507812 5.9658575057983398438 5.9620447158813476562 5.94850921630859375 5.9584589004516601562 6.1393504142761230469 6.3053216934204101562 6.4271674156188964844 6.3016285896301269531 6.057376861572265625 5.960330963134765625 6.1412816047668457031 6.2503914833068847656 6.0397930145263671875 5.7786297798156738281 5.6494693756103515625 5.4561839103698730469 5.2789373397827148438 5.0613341331481933594 4.9781255722045898438 4.9541168212890625 4.922107696533203125 4.889339447021484375 4.8605928421020507812 4.8488817214965820312 4.9806437492370605469 5.1363744735717773438 5.3083028793334960938 5.4239287376403808594 5.4307003021240234375 5.4658961296081542969 5.5243887901306152344 5.2480444908142089844 4.8518610000610351562 4.4829959869384765625 4.1045093536376953125 3.8139424324035644531 3.8626952171325683594 3.9595787525177001953 3.923267364501953125 3.9940748214721679688 4.0822567939758300781 4.1636204719543457031 4.245513916015625 4.3195648193359375 4.3924059867858886719 4.4555492401123046875 4.5149235725402832031 4.5649862289428710938 4.6119503974914550781 4.6519885063171386719 4.6904587745666503906 4.7243027687072753906 4.7579998970031738281 4.7880029678344726562 4.8170943260192871094 4.8411607742309570312 4.8621563911437988281 4.8773331642150878906 4.8893313407897949219 4.8990616798400878906 4.9104580879211425781 4.9247736930847167969 4.9464440345764160156 4.9750108718872070312 5.0151276588439941406 5.0631575584411621094 5.1260981559753417969 5.1974992752075195312 5.287441253662109375 5.3848633766174316406 5.5007171630859375 5.6192569732666015625 5.7542161941528320312 5.8869833946228027344 6.0324497222900390625 6.1675257682800292969 6.3043527603149414062 6.4193902015686035156 6.5221881866455078125 6.5941619873046875 6.6447520256042480469 6.6706852912902832031 6.6803183555603027344 6.6763958930969238281 6.662937164306640625 6.6450991630554199219 6.6222891807556152344 6.5990467071533203125 6.5731048583984375 6.5491361618041992188 6.5243997573852539062 6.5020732879638671875 6.4771852493286132812 6.4518537521362304688 6.4202699661254882812 6.3855438232421875 6.3415365219116210938 6.2960600852966308594 6.2439298629760742188 6.1948328018188476562 6.142749786376953125 6.0971193313598632812 6.0504217147827148438 6.00875091552734375 5.9639043807983398438 5.9215517044067382812 5.8735284805297851562 5.826366424560546875 5.7727379798889160156 5.7210626602172851562 5.6637516021728515625 5.6096224784851074219 5.5507497787475585938 5.4960637092590332031 5.4376811981201171875 5.3843150138854980469 5.3283472061157226562 5.2779388427734375 5.2255115509033203125 5.1778397560119628906 5.1270966529846191406 5.0798535346984863281 5.0290541648864746094 4.9808716773986816406 4.9281053543090820312 4.8789868354797363281 4.8419442176818847656 4.8414292335510253906 4.8737745285034179688 4.9123859405517578125 4.9481348991394042969 4.9710149765014648438 4.9792108535766601562 4.9681811332702636719 4.9342594146728515625 4.885105133056640625 4.8211102485656738281 4.7563085556030273438 4.6894707679748535156 4.6343555450439453125 4.5867452621459960938 4.550197601318359375 4.5173711776733398438 4.4893050193786621094 4.4597539901733398438 4.4304027557373046875 4.3992190361022949219 4.3722314834594726562 4.3492970466613769531 4.33551788330078125 4.3319668769836425781 4.3388714790344238281 4.3542203903198242188 4.3733477592468261719 4.3950710296630859375 4.4142541885375976562 4.4292755126953125 4.4344730377197265625 4.4253435134887695312 4.3983559608459472656 4.3456330299377441406 4.2688007354736328125 4.1623969078063964844 4.04425048828125 3.9118049144744873047 3.7855875492095947266 3.6624317169189453125 3.5571432113647460938 3.4540076255798339844 3.3531422615051269531 3.2356293201446533203 3.1026763916015625 2.9345171451568603516 2.7476732730865478516 2.5364263057708740234 2.3289692401885986328 2.1195092201232910156 1.9351407289505004883 1.7664929628372192383 1.6214036941528320312 1.4798290729522705078 1.3441869020462036133 1.1952837705612182617 1.0378057956695556641 0.86186975240707397461 0.68818646669387817383 0.51336693763732910156 0.35826030373573303223 0.22107180953025817871 0.040577262639999389648 0 0 0 0 0 0 0 0 0 0 0 0 0 0 0 0 0 0 0 0 0 0 0 0 0 0 0 0 0 0 0 0 0 0 0 0 0 0 0 0 0 0 0 0 0 0 0 0 
2.3884339332580566406 2.4097089767456054688 2.4119381904602050781 2.4164321422576904297 2.4214153289794921875 2.4117143154144287109 2.4228546619415283203 2.43943023681640625 2.4403932094573974609 2.4549512863159179688 2.4506037235260009766 2.4503190517425537109 2.4466662406921386719 2.4414317607879638672 2.4460551738739013672 2.4636585712432861328 2.4770932197570800781 2.4877078533172607422 2.4927747249603271484 2.5045537948608398438 2.5073108673095703125 2.5059711933135986328 2.4907338619232177734 2.4703936576843261719 2.4740731716156005859 2.5006146430969238281 2.5312905311584472656 2.5428130626678466797 2.55040740966796875 2.5434908866882324219 2.5112028121948242188 2.4839317798614501953 2.4564862251281738281 2.4340701103210449219 2.4126868247985839844 2.3731482028961181641 2.3318257331848144531 2.3237631320953369141 2.29973602294921875 2.2459452152252197266 2.2035980224609375 2.1718358993530273438 2.1233847141265869141 2.1477484703063964844 3.2955000400543212891 4.2141385078430175781 5.0056705474853515625 5.6379919052124023438 5.6802949905395507812 5.5237431526184082031 5.3096866607666015625 5.07883453369140625 5.0137929916381835938 5.0234937667846679688 5.1003308296203613281 5.3779082298278808594 5.9917917251586914062 6.9257006645202636719 7.9816389083862304688 8.25244140625 7.6678071022033691406 6.6760697364807128906 6.2950663566589355469 6.0562491416931152344 6.0010852813720703125 6.0311160087585449219 6.0432515144348144531 6.0431380271911621094 6.2057261466979980469 6.3748574256896972656 6.473575592041015625 6.3055372238159179688 6.0753774642944335938 6.0332932472229003906 6.2487063407897949219 6.2867002487182617188 6.0146656036376953125 5.8113341331481933594 5.6770620346069335938 5.5008301734924316406 5.3171911239624023438 5.1172308921813964844 5.0586996078491210938 5.0212497711181640625 4.9831829071044921875 4.9497861862182617188 4.9216814041137695312 4.9280295372009277344 5.1179938316345214844 5.26100921630859375 5.3782901763916015625 5.42060089111328125 5.4455251693725585938 5.53217315673828125 5.5938215255737304688 5.3146328926086425781 4.9165391921997070312 4.5537543296813964844 4.1847949028015136719 3.9024205207824707031 3.9517931938171386719 4.0478792190551757812 4.0113806724548339844 4.0814609527587890625 4.1689372062683105469 4.2495212554931640625 4.3303842544555664062 4.4031863212585449219 4.4745922088623046875 4.5366101264953613281 4.5946640968322753906 4.6430792808532714844 4.6879634857177734375 4.7257924079895019531 4.7617897987365722656 4.7932438850402832031 4.8244562149047851562 4.8521313667297363281 4.8790073394775390625 4.9016480445861816406 4.9218173027038574219 4.9368367195129394531 4.9491453170776367188 4.9591531753540039062 4.9702520370483398438 4.9831938743591308594 5.0016984939575195312 5.0255331993103027344 5.0591015815734863281 5.0998206138610839844 5.1543865203857421875 5.2180271148681640625 5.3004450798034667969 5.3918538093566894531 5.5027337074279785156 5.6180586814880371094 5.7512483596801757812 5.8840794563293457031 6.0315880775451660156 6.169910430908203125 6.31076812744140625 6.4294571876525878906 6.5353956222534179688 6.6089129447937011719 6.6594715118408203125 6.684085845947265625 6.691318511962890625 6.6846098899841308594 6.6679720878601074219 6.6473565101623535156 6.6220917701721191406 6.5969128608703613281 6.5692610740661621094 6.5441083908081054688 6.5185899734497070312 6.4960045814514160156 6.4713072776794433594 6.4464602470397949219 6.4157085418701171875 6.3820939064025878906 6.3395953178405761719 6.2957291603088378906 6.2452845573425292969 6.1974663734436035156 6.1462521553039550781 6.1008062362670898438 6.053760528564453125 6.0115532875061035156 5.9662747383117675781 5.9239611625671386719 5.8767552375793457031 5.8311352729797363281 5.7797055244445800781 5.7301831245422363281 5.6748023033142089844 5.6216759681701660156 5.5626664161682128906 5.5067987442016601562 5.4463858604431152344 5.3907856941223144531 5.332439422607421875 5.2802205085754394531 5.2267632484436035156 5.178836822509765625 5.1288180351257324219 5.0832571983337402344 5.0347833633422851562 4.9893255233764648438 4.9411501884460449219 4.9038133621215820312 4.8819794654846191406 4.8828287124633789062 4.9054403305053710938 4.9359989166259765625 4.9674315452575683594 4.9877996444702148438 4.9937472343444824219 4.9806270599365234375 4.9445343017578125 4.8934488296508789062 4.8275880813598632812 4.7612829208374023438 4.6932063102722167969 4.6373376846313476562 4.5894188880920410156 4.5530462265014648438 4.5208792686462402344 4.4938611984252929688 4.4658598899841308594 4.4383249282836914062 4.4092235565185546875 4.3840961456298828125 4.3627247810363769531 4.3497858047485351562 4.346179962158203125 4.3520779609680175781 4.3654627799987792969 4.3820118904113769531 4.4003915786743164062 4.4159173965454101562 4.4267306327819824219 4.4276537895202636719 4.4137749671936035156 4.3820643424987792969 4.3241991996765136719 4.2423434257507324219 4.130634307861328125 4.00753021240234375 3.8701298236846923828 3.7395389080047607422 3.6123325824737548828 3.5037431716918945312 3.3976778984069824219 3.2943832874298095703 3.1745927333831787109 3.0395824909210205078 2.8692917823791503906 2.6804044246673583984 2.4670889377593994141 2.2577748298645019531 2.0465886592864990234 1.8608237504959106445 1.69106292724609375 1.5452477931976318359 1.4032961130142211914 1.2676683664321899414 1.1192013025283813477 0.9625708460807800293 0.78804457187652587891 0.61623835563659667969 0.44389522075653076172 0.29163756966590881348 0.14436972141265869141 0.00049392599612474441528 0 0 0 0 0 0 0 0 0 0 0 0 0 0 0 0 0 0 0 0 0 0 0 0 0 0 0 0 0 0 0 0 0 0 0 0 0 0 0 0 0 0 0 0 0 0 0 0 
2.3846909999847412109 2.4005146026611328125 2.4052131175994873047 2.4134991168975830078 2.4157049655914306641 2.415500640869140625 2.4262597560882568359 2.4378459453582763672 2.4358191490173339844 2.4490580558776855469 2.4466187953948974609 2.4448723793029785156 2.4366168975830078125 2.4267444610595703125 2.43881988525390625 2.4532332420349121094 2.4630174636840820312 2.4761054515838623047 2.4835197925567626953 2.494678497314453125 2.4974553585052490234 2.5035197734832763672 2.5119197368621826172 2.5146274566650390625 2.5110056400299072266 2.4914143085479736328 2.4679453372955322266 2.5003669261932373047 2.5704047679901123047 2.5816385746002197266 2.5566704273223876953 2.5148234367370605469 2.4596371650695800781 2.4296042919158935547 2.4052627086639404297 2.3703589439392089844 2.344303131103515625 2.3306756019592285156 2.2908072471618652344 2.2405698299407958984 2.1958467960357666016 2.1585135459899902344 2.0996594429016113281 2.3809411525726318359 3.8409671783447265625 4.6585693359375 5.4583415985107421875 5.6961073875427246094 5.5538234710693359375 5.32027435302734375 5.1251215934753417969 5.0115709304809570312 5.0471639633178710938 5.0642976760864257812 5.1684904098510742188 5.4097313880920410156 6.1980867385864257812 7.2807860374450683594 7.9544711112976074219 7.9020762443542480469 7.3124136924743652344 6.4825472831726074219 6.1725931167602539062 6.07402801513671875 6.0717821121215820312 6.1276936531066894531 6.1485795974731445312 6.1493926048278808594 6.2807378768920898438 6.4444279670715332031 6.5057883262634277344 6.3078660964965820312 6.0975623130798339844 6.125701904296875 6.3328833580017089844 6.2911624908447265625 5.998767852783203125 5.8516011238098144531 5.7052021026611328125 5.556034088134765625 5.3363323211669921875 5.1871333122253417969 5.1323628425598144531 5.0865736007690429688 5.0433468818664550781 5.0091319084167480469 4.9849138259887695312 5.0151052474975585938 5.1788525581359863281 5.3420152664184570312 5.4472098350524902344 5.4712743759155273438 5.5261769294738769531 5.6233501434326171875 5.6691074371337890625 5.3530583381652832031 4.9580826759338378906 4.6081490516662597656 4.2548017501831054688 3.9852128028869628906 4.0360589027404785156 4.1316738128662109375 4.0989017486572265625 4.1679720878601074219 4.2539625167846679688 4.3332009315490722656 4.4126267433166503906 4.4839468002319335938 4.5535411834716796875 4.6140007972717285156 4.6707773208618164062 4.7176499366760253906 4.76056671142578125 4.7962994575500488281 4.8299551010131835938 4.8591599464416503906 4.8880753517150878906 4.9137058258056640625 4.9385156631469726562 4.9596066474914550781 4.9789547920227050781 4.9938702583312988281 5.0065641403198242188 5.01705169677734375 5.0283398628234863281 5.0407543182373046875 5.0575199127197265625 5.0784010887145996094 5.1077852249145507812 5.1436872482299804688 5.1924571990966796875 5.2504181861877441406 5.3268189430236816406 5.412952423095703125 5.5189275741577148438 5.6304850578308105469 5.7608165740966796875 5.8924069404602050781 6.0402975082397460938 6.1800799369812011719 6.3230953216552734375 6.4439301490783691406 6.5517134666442871094 6.6259975433349609375 6.6761960983276367188 6.6995410919189453125 6.7046809196472167969 6.6955671310424804688 6.6761479377746582031 6.6531567573547363281 6.6255626678466796875 6.5983982086181640625 6.5689043998718261719 6.5424017906188964844 6.5159096717834472656 6.4928984642028808594 6.4681715965270996094 6.4436254501342773438 6.4136562347412109375 6.3811993598937988281 6.3404216766357421875 6.2983493804931640625 6.2497143745422363281 6.2032032012939453125 6.1527261734008789062 6.1071486473083496094 6.0592112541198730469 6.015850067138671875 5.9693927764892578125 5.9263849258422851562 5.8792409896850585938 5.8345627784729003906 5.7848362922668457031 5.7370781898498535156 5.6833200454711914062 5.6310229301452636719 5.5718131065368652344 5.5148129463195800781 5.4525198936462402344 5.3948993682861328125 5.3345022201538085938 5.2810525894165039062 5.2271656990051269531 5.1798000335693359375 5.13161468505859375 5.0883851051330566406 5.0430684089660644531 5.0016360282897949219 4.9623460769653320312 4.9370136260986328125 4.9220871925354003906 4.92412567138671875 4.9435114860534667969 4.96683502197265625 4.9913692474365234375 5.0075731277465820312 5.0106515884399414062 4.9953031539916992188 4.9571590423583984375 4.9044351577758789062 4.8371334075927734375 4.7697644233703613281 4.7008872032165527344 4.6445965766906738281 4.5965971946716308594 4.5604948997497558594 4.5289845466613769531 4.5029191970825195312 4.4762740135192871094 4.4502930641174316406 4.4229207038879394531 4.3992609977722167969 4.3789877891540527344 4.366413116455078125 4.3622260093688964844 4.366619110107421875 4.3775568008422851562 4.3911485671997070312 4.4059152603149414062 4.4176769256591796875 4.4243249893188476562 4.4210829734802246094 4.40251922607421875 4.3659811019897460938 4.3025646209716796875 4.2149152755737304688 4.0967121124267578125 3.9672923088073730469 3.8234210014343261719 3.6870777606964111328 3.5546057224273681641 3.4418704509735107422 3.3323261737823486328 3.2263653278350830078 3.1043176651000976562 2.9674932956695556641 2.7955250740051269531 2.6051847934722900391 2.3905405998229980469 2.1801583766937255859 1.968112945556640625 1.7817946672439575195 1.6117664575576782227 1.4659966230392456055 1.3244196176528930664 1.1894699335098266602 1.0420513153076171875 0.88679355382919311523 0.71409326791763305664 0.54439908266067504883 0.37457767128944396973 0.22499217092990875244 0.067941248416900634766 0 0 0 0 0 0 0 0 0 0 0 0 0 0 0 0 0 0 0 0 0 0 0 0 0 0 0 0 0 0 0 0 0 0 0 0 0 0 0 0 0 0 0 0 0 0 0 0 0 
2.3830304145812988281 2.3920407295227050781 2.3976993560791015625 2.4059555530548095703 2.4052567481994628906 2.4175693988800048828 2.4246613979339599609 2.4353992938995361328 2.4345433712005615234 2.4449553489685058594 2.4464905261993408203 2.4382510185241699219 2.4295322895050048828 2.4236404895782470703 2.4339509010314941406 2.4460475444793701172 2.4544935226440429688 2.4650483131408691406 2.4761528968811035156 2.4821901321411132812 2.4869759082794189453 2.4927093982696533203 2.5054831504821777344 2.5251002311706542969 2.5421192646026611328 2.5477170944213867188 2.4808361530303955078 2.4898829460144042969 2.4934563636779785156 2.5153264999389648438 2.5580828189849853516 2.5597891807556152344 2.5070581436157226562 2.4526300430297851562 2.4027299880981445312 2.3721215724945068359 2.3619897365570068359 2.3354811668395996094 2.2724325656890869141 2.2287957668304443359 2.1901581287384033203 2.1461777687072753906 2.0905179977416992188 2.843837738037109375 4.2212853431701660156 5.1011724472045898438 5.6773009300231933594 5.6696634292602539062 5.4180741310119628906 5.1781439781188964844 5.0183506011962890625 4.99248504638671875 5.1213941574096679688 5.1379642486572265625 5.1838474273681640625 5.4704508781433105469 6.2134685516357421875 7.3540172576904296875 8.228031158447265625 7.989345550537109375 6.9540014266967773438 6.3537487983703613281 6.1682248115539550781 6.1306304931640625 6.1792898178100585938 6.299808502197265625 6.340351104736328125 6.3054866790771484375 6.3828482627868652344 6.5237765312194824219 6.5269818305969238281 6.3051562309265136719 6.1278243064880371094 6.2344121932983398438 6.4025864601135253906 6.2784700393676757812 6.0062189102172851562 5.8882346153259277344 5.7477841377258300781 5.6137299537658691406 5.3673624992370605469 5.2663149833679199219 5.2074871063232421875 5.1558785438537597656 5.1082067489624023438 5.072193145751953125 5.0492348670959472656 5.142063140869140625 5.3043766021728515625 5.4136633872985839844 5.5117578506469726562 5.5814986228942871094 5.6842751502990722656 5.7513594627380371094 5.6624283790588378906 5.3292489051818847656 4.9765615463256835938 4.6531634330749511719 4.3241972923278808594 4.0741357803344726562 4.1276078224182128906 4.2230544090270996094 4.1978559494018554688 4.26515960693359375 4.348445892333984375 4.4254689216613769531 4.5028548240661621094 4.5723161697387695312 4.6398835182189941406 4.6985058784484863281 4.7535572052001953125 4.7989139556884765625 4.8398752212524414062 4.8734693527221679688 4.9047026634216308594 4.9315643310546875 4.9580736160278320312 4.981548309326171875 5.0043001174926757812 5.0236415863037109375 5.0416722297668457031 5.0561618804931640625 5.0690054893493652344 5.0799088478088378906 5.0916490554809570312 5.1042428016662597656 5.1206898689270019531 5.1405978202819824219 5.1681857109069824219 5.2018809318542480469 5.2476658821105957031 5.3020200729370117188 5.3737397193908691406 5.454967498779296875 5.5555009841918945312 5.6621465682983398438 5.7879843711853027344 5.9166502952575683594 6.0628705024719238281 6.2021756172180175781 6.345462799072265625 6.4669175148010253906 6.5751867294311523438 6.6493711471557617188 6.6986989974975585938 6.7205939292907714844 6.7236232757568359375 6.7121396064758300781 6.6900892257690429688 6.664642333984375 6.6343555450439453125 6.6047725677490234375 6.5729351043701171875 6.5446410179138183594 6.5167856216430664062 6.4930434226989746094 6.4679918289184570312 6.4436922073364257812 6.4146280288696289062 6.383678436279296875 6.3451380729675292969 6.3053231239318847656 6.2589206695556640625 6.2139253616333007812 6.1640920639038085938 6.1179132461547851562 6.0681977272033691406 6.0226235389709472656 5.9736528396606445312 5.9286708831787109375 5.8803067207336425781 5.8356089591979980469 5.7867069244384765625 5.7400598526000976562 5.6874060630798339844 5.6356320381164550781 5.5760755538940429688 5.5179667472839355469 5.4539775848388671875 5.3946714401245117188 5.3329844474792480469 5.2791485786437988281 5.22607421875 5.1808595657348632812 5.1358652114868164062 5.0963282585144042969 5.0560941696166992188 5.0221486091613769531 4.994861602783203125 4.9767184257507324219 4.9669785499572753906 4.970317840576171875 4.9878668785095214844 5.0089373588562011719 5.0250926017761230469 5.0346364974975585938 5.0327138900756835938 5.0143523216247558594 4.9737682342529296875 4.919292449951171875 4.8505969047546386719 4.7822971343994140625 4.7127928733825683594 4.6562242507934570312 4.6082577705383300781 4.572509765625 4.5417547225952148438 4.5167789459228515625 4.4917058944702148438 4.4675579071044921875 4.4422459602355957031 4.4203348159790039062 4.4013509750366210938 4.3891558647155761719 4.3841681480407714844 4.3866486549377441406 4.3946003913879394531 4.4047284126281738281 4.4154806137084960938 4.4233264923095703125 4.4258947372436523438 4.4186601638793945312 4.3954362869262695312 4.3537144660949707031 4.283710479736328125 4.1884613037109375 4.0610632896423339844 3.9222683906555175781 3.7685332298278808594 3.623355865478515625 3.4828913211822509766 3.3640849590301513672 3.2497406005859375 3.1404008865356445312 3.0158202648162841797 2.8772554397583007812 2.7039346694946289062 2.5126180648803710938 2.297267913818359375 2.08649444580078125 1.8743290901184082031 1.688158869743347168 1.5185586214065551758 1.3734660148620605469 1.2328864336013793945 1.0991910696029663086 0.95341193675994873047 0.80009663105010986328 0.62974250316619873047 0.46258130669593811035 0.29561185836791992188 0.14875832200050354004 0.017287788912653923035 0 0 0 0 0 0 0 0 0 0 0 0 0 0 0 0 0 0 0 0 0 0 0 0 0 0 0 0 0 0 0 0 0 0 0 0 0 0 0 0 0 0 0 0 0 0 0 0 0 
2.3781759738922119141 2.3889601230621337891 2.3970446586608886719 2.3984868526458740234 2.4019610881805419922 2.4139685630798339844 2.4177236557006835938 2.4294264316558837891 2.4365122318267822266 2.4352800846099853516 2.4458830356597900391 2.4356319904327392578 2.4311952590942382812 2.4325098991394042969 2.4326481819152832031 2.4407284259796142578 2.4474968910217285156 2.4567780494689941406 2.4680297374725341797 2.4758584499359130859 2.4816324710845947266 2.4886493682861328125 2.4999666213989257812 2.5138463973999023438 2.5262556076049804688 2.5033488273620605469 2.4889428615570068359 2.5344173908233642578 2.5307295322418212891 2.5008342266082763672 2.4812047481536865234 2.49605560302734375 2.5033135414123535156 2.4463682174682617188 2.4237663745880126953 2.4214923381805419922 2.3622090816497802734 2.3027548789978027344 2.2583405971527099609 2.2193310260772705078 2.1823272705078125 2.13343048095703125 2.1939885616302490234 3.3822820186614990234 4.5463261604309082031 5.42841339111328125 5.6974778175354003906 5.5992040634155273438 5.3243379592895507812 5.1522932052612304688 5.0253920555114746094 5.0590434074401855469 5.166522979736328125 5.1895589828491210938 5.27553558349609375 5.6415286064147949219 6.3985118865966796875 7.8310003280639648438 8.7816381454467773438 8.3238916397094726562 6.9548749923706054688 6.3286070823669433594 6.2017359733581542969 6.2000155448913574219 6.3045072555541992188 6.4615445137023925781 6.5518336296081542969 6.4892301559448242188 6.4873552322387695312 6.5931868553161621094 6.5428261756896972656 6.3117475509643554688 6.1723513603210449219 6.3315520286560058594 6.4400873184204101562 6.2407045364379882812 6.0249915122985839844 5.91231536865234375 5.8018617630004882812 5.636932373046875 5.4066143035888671875 5.3330454826354980469 5.2731604576110839844 5.2182097434997558594 5.1671285629272460938 5.1270914077758789062 5.1055507659912109375 5.2570409774780273438 5.4697270393371582031 5.5595402717590332031 5.6162891387939453125 5.6708931922912597656 5.7441053390502929688 5.7703809738159179688 5.5652608871459960938 5.2829608917236328125 4.977024078369140625 4.6858716011047363281 4.3851819038391113281 4.15702056884765625 4.2137603759765625 4.3093671798706054688 4.2942042350769042969 4.3592305183410644531 4.4390172958374023438 4.5133066177368164062 4.5883517265319824219 4.6558361053466796875 4.7216544151306152344 4.7787189483642578125 4.8319005966186523438 4.875629425048828125 4.9149985313415527344 4.9468188285827636719 4.9759812355041503906 5.0007891654968261719 5.0251116752624511719 5.0465826988220214844 5.0674252510070800781 5.0851888656616210938 5.1017303466796875 5.1152567863464355469 5.1277985572814941406 5.1388802528381347656 5.1511516571044921875 5.1645197868347167969 5.1820483207702636719 5.2030587196350097656 5.2315855026245117188 5.2659249305725097656 5.3119540214538574219 5.3653950691223144531 5.4346303939819335938 5.5120959281921386719 5.6075506210327148438 5.7089800834655761719 5.8295640945434570312 5.9540119171142578125 6.0967550277709960938 6.2337470054626464844 6.3753824234008789062 6.4957194328308105469 6.602947235107421875 6.6760711669921875 6.7240276336669921875 6.7443909645080566406 6.7454895973205566406 6.732082366943359375 6.707859039306640625 6.6800971031188964844 6.6471352577209472656 6.6150650978088378906 6.5807509422302246094 6.5505175590515136719 6.521099090576171875 6.49634552001953125 6.4708042144775390625 6.44667816162109375 6.418567657470703125 6.3892388343811035156 6.3530230522155761719 6.3155446052551269531 6.2714099884033203125 6.2278666496276855469 6.1784448623657226562 6.1312694549560546875 6.07915496826171875 6.0305953025817871094 5.9781107902526855469 5.930133819580078125 5.8794469833374023438 5.8336529731750488281 5.7844295501708984375 5.7379527091979980469 5.6856074333190917969 5.6338977813720703125 5.5738706588745117188 5.5148611068725585938 5.44969940185546875 5.3896107673645019531 5.3277196884155273438 5.2746753692626953125 5.2239823341369628906 5.1819148063659667969 5.1411271095275878906 5.1064424514770507812 5.0733761787414550781 5.0488085746765136719 5.0286231040954589844 5.0154719352722167969 5.0097532272338867188 5.0143380165100097656 5.0307893753051757812 5.0512223243713378906 5.0646634101867675781 5.0666375160217285156 5.0582499504089355469 5.0356965065002441406 4.992488861083984375 4.9363627433776855469 4.8665094375610351562 4.7975320816040039062 4.7276210784912109375 4.67087554931640625 4.6229190826416015625 4.5874171257019042969 4.5572533607482910156 4.5332212448120117188 4.5096302032470703125 4.4873180389404296875 4.4641385078430175781 4.4440679550170898438 4.426448822021484375 4.4146413803100585938 4.408756256103515625 4.4091534614562988281 4.4139471054077148438 4.4205508232116699219 4.427433013916015625 4.4318079948425292969 4.4310770034790039062 4.4207639694213867188 4.3938159942626953125 4.3475799560546875 4.2712435722351074219 4.1680455207824707031 4.0304770469665527344 3.8809759616851806641 3.7157871723175048828 3.5603032112121582031 3.4105780124664306641 3.2848873138427734375 3.1653058528900146484 3.0525002479553222656 2.9255766868591308594 2.7856554985046386719 2.6115283966064453125 2.4198393821716308594 2.2044386863708496094 1.9938719272613525391 1.782120823860168457 1.5964756011962890625 1.4275257587432861328 1.2832065820693969727 1.143646240234375 1.0112079381942749023 0.86712765693664550781 0.71584075689315795898 0.54795324802398681641 0.38342997431755065918 0.21944406628608703613 0.074666306376457214355 0.0014138439437374472618 0 0 0 0 0 0 0 0 0 0 0 0 0 0 0 0 0 0 0 0 0 0 0 0 0 0 0 0 0 0 0 0 0 0 0 0 0 0 0 0 0 0 0 0 0 0 0 0 0 
2.373706817626953125 2.3850388526916503906 2.3934261798858642578 2.3946614265441894531 2.4069192409515380859 2.4086961746215820312 2.4122531414031982422 2.4229271411895751953 2.4334897994995117188 2.4304299354553222656 2.4350311756134033203 2.4397406578063964844 2.4342732429504394531 2.4362652301788330078 2.4348809719085693359 2.4348952770233154297 2.4374473094940185547 2.4446828365325927734 2.4559736251831054688 2.4673781394958496094 2.4744248390197753906 2.4860160350799560547 2.4992153644561767578 2.5008459091186523438 2.5075161457061767578 2.4746651649475097656 2.5023372173309326172 2.524005889892578125 2.5231456756591796875 2.5232932567596435547 2.51016998291015625 2.4872949123382568359 2.4595263004302978516 2.4111068248748779297 2.4571559429168701172 2.4325609207153320312 2.3497676849365234375 2.2835371494293212891 2.2437806129455566406 2.2108290195465087891 2.1740396022796630859 2.1200850009918212891 2.5228981971740722656 3.9526581764221191406 4.9178113937377929688 5.6487364768981933594 5.7372283935546875 5.5742535591125488281 5.3371791839599609375 5.188083648681640625 5.0883016586303710938 5.11592864990234375 5.1565318107604980469 5.2524065971374511719 5.4781632423400878906 5.9501142501831054688 6.7685799598693847656 8.0594339370727539062 8.8325376510620117188 8.3856143951416015625 7.2198357582092285156 6.411487579345703125 6.2248907089233398438 6.2916355133056640625 6.4464058876037597656 6.6038269996643066406 6.7282691001892089844 6.6754221916198730469 6.6058149337768554688 6.6577687263488769531 6.5187888145446777344 6.3026285171508789062 6.2333731651306152344 6.4354948997497558594 6.4433827400207519531 6.2066097259521484375 6.0559430122375488281 5.93280792236328125 5.8445177078247070312 5.6461834907531738281 5.4713716506958007812 5.4035611152648925781 5.3405914306640625 5.2830481529235839844 5.2290096282958984375 5.1823759078979492188 5.1809496879577636719 5.3651480674743652344 5.5512757301330566406 5.6466665267944335938 5.7261943817138671875 5.7791385650634765625 5.8013787269592285156 5.7206268310546875 5.4841980934143066406 5.237468719482421875 4.9722361564636230469 4.7164974212646484375 4.4496002197265625 4.2473278045654296875 4.3071746826171875 4.4032425880432128906 4.4015526771545410156 4.4639554023742675781 4.5393748283386230469 4.6102008819580078125 4.682285308837890625 4.7475061416625976562 4.8115997314453125 4.8671007156372070312 4.9183983802795410156 4.9600515365600585938 4.99752044677734375 5.027736663818359375 5.0549750328063964844 5.0777482986450195312 5.0997676849365234375 5.1190633773803710938 5.1377387046813964844 5.1536774635314941406 5.1685743331909179688 5.1807565689086914062 5.1923842430114746094 5.2033929824829101562 5.216339111328125 5.231082916259765625 5.2508821487426757812 5.2746858596801757812 5.3065586090087890625 5.3439655303955078125 5.39250946044921875 5.4471554756164550781 5.51544189453125 5.58969879150390625 5.6799116134643554688 5.7755465507507324219 5.88968658447265625 6.0083265304565429688 6.1456804275512695312 6.2785372734069824219 6.4164938926696777344 6.5339174270629882812 6.6384520530700683594 6.7093453407287597656 6.7550883293151855469 6.7734379768371582031 6.7724885940551757812 6.7572469711303710938 6.7307381629943847656 6.700469970703125 6.6645655632019042969 6.6297259330749511719 6.5926280021667480469 6.5601482391357421875 6.5287189483642578125 6.5026683807373046875 6.4764742851257324219 6.4525256156921386719 6.4255080223083496094 6.3979420661926269531 6.3642725944519042969 6.3293499946594238281 6.2876515388488769531 6.2455735206604003906 6.1963534355163574219 6.14772796630859375 6.0924072265625 6.0398931503295898438 5.9827260971069335938 5.9307193756103515625 5.8765959739685058594 5.8287138938903808594 5.7782144546508789062 5.7311596870422363281 5.6784925460815429688 5.6264543533325195312 5.5657596588134765625 5.5059132575988769531 5.4401407241821289062 5.3799767494201660156 5.319004058837890625 5.2682371139526367188 5.2212224006652832031 5.1835885047912597656 5.1487474441528320312 5.1213202476501464844 5.0980730056762695312 5.0803556442260742188 5.0658597946166992188 5.0575623512268066406 5.0556592941284179688 5.0617036819458007812 5.0774846076965332031 5.0974054336547851562 5.1109104156494140625 5.1092896461486816406 5.0930533409118652344 5.0645813941955566406 5.0174379348754882812 4.9595303535461425781 4.888698577880859375 4.8192968368530273438 4.7491793632507324219 4.6922664642333984375 4.6441049575805664062 4.6085033416748046875 4.5785012245178222656 4.5550365447998046875 4.53266143798828125 4.5121088027954101562 4.4911046028137207031 4.4729280471801757812 4.4566245079040527344 4.4449563026428222656 4.4375963211059570312 4.4350881576538085938 4.4357137680053710938 4.4378533363342285156 4.440067291259765625 4.4405570030212402344 4.4365291595458984375 4.4234094619750976562 4.393123626708984375 4.3426427841186523438 4.2599453926086425781 4.1483130455017089844 3.9995782375335693359 3.8380720615386962891 3.6599273681640625 3.4927532672882080078 3.3325569629669189453 3.1991710662841796875 3.0738654136657714844 2.9574208259582519531 2.8282260894775390625 2.6872048377990722656 2.5126798152923583984 2.3210718631744384766 2.1060693264007568359 1.8960367441177368164 1.6848359107971191406 1.4995732307434082031 1.330829620361328125 1.1866687536239624023 1.0474674701690673828 0.91579496860504150391 0.77315312623977661133 0.62400454282760620117 0.45907217264175415039 0.29810452461242675781 0.13720877468585968018 0.017739076167345046997 0 0 0 0 0 0 0 0 0 0 0 0 0 0 0 0 0 0 0 0 0 0 0 0 0 0 0 0 0 0 0 0 0 0 0 0 0 0 0 0 0 0 0 0 0 0 0 0 0 0 
2.3709170818328857422 2.3834259510040283203 2.3888926506042480469 2.3965392112731933594 2.4068589210510253906 2.4046180248260498047 2.4092690944671630859 2.4199194908142089844 2.4276051521301269531 2.4328598976135253906 2.4279699325561523438 2.4377737045288085938 2.4349777698516845703 2.4345493316650390625 2.4341001510620117188 2.4307467937469482422 2.4276301860809326172 2.4337928295135498047 2.4446794986724853516 2.4554407596588134766 2.4662477970123291016 2.4779989719390869141 2.4921987056732177734 2.4932737350463867188 2.4857389926910400391 2.478511810302734375 2.5108120441436767578 2.5063049793243408203 2.5099630355834960938 2.5174376964569091797 2.5097687244415283203 2.4882733821868896484 2.4463160037994384766 2.4069025516510009766 2.4336185455322265625 2.4109821319580078125 2.3456804752349853516 2.2893044948577880859 2.2402777671813964844 2.2068362236022949219 2.1690061092376708984 2.1389932632446289062 2.9282774925231933594 4.2611322402954101562 5.2536768913269042969 5.7922558784484863281 5.8029193878173828125 5.5866527557373046875 5.4234967231750488281 5.287830352783203125 5.1928510665893554688 5.2345261573791503906 5.3035335540771484375 5.4434819221496582031 5.7382140159606933594 6.2368097305297851562 7.1186647415161132812 8.2188014984130859375 8.6632165908813476562 8.1427316665649414062 7.2413382530212402344 6.5176835060119628906 6.2620410919189453125 6.3860144615173339844 6.5481829643249511719 6.7172656059265136719 6.8593211174011230469 6.8089394569396972656 6.6978068351745605469 6.6538901329040527344 6.4756913185119628906 6.2955584526062011719 6.3143439292907714844 6.5104060173034667969 6.4202203750610351562 6.1927900314331054688 6.0758209228515625 5.9712133407592773438 5.8572187423706054688 5.6518340110778808594 5.5361309051513671875 5.4666204452514648438 5.400669097900390625 5.342090606689453125 5.2871413230895996094 5.2399888038635253906 5.2734613418579101562 5.4681935310363769531 5.622821807861328125 5.7228260040283203125 5.8089709281921386719 5.8622684478759765625 5.8427567481994628906 5.6576304435729980469 5.4240393638610839844 5.2007021903991699219 4.9673328399658203125 4.7437548637390136719 4.5099091529846191406 4.33358001708984375 4.3954567909240722656 4.4911398887634277344 4.5040001869201660156 4.5641508102416992188 4.635406494140625 4.7027769088745117188 4.7718181610107421875 4.835052490234375 4.8975477218627929688 4.9516458511352539062 5.0013561248779296875 5.0412554740905761719 5.0766887664794921875 5.1052851676940917969 5.1310405731201171875 5.1521120071411132812 5.1720681190490722656 5.1892809867858886719 5.2057700157165527344 5.2197861671447753906 5.2329463958740234375 5.243854522705078125 5.2544755935668945312 5.2650909423828125 5.27866363525390625 5.2950162887573242188 5.3175535202026367188 5.3449993133544921875 5.3816308975219726562 5.4234452247619628906 5.4758353233337402344 5.5328054428100585938 5.6013917922973632812 5.6734409332275390625 5.7593598365783691406 5.8497419357299804688 5.9574689865112304688 6.0699667930603027344 6.2012610435485839844 6.3289780616760253906 6.4619660377502441406 6.5752406120300292969 6.6758937835693359375 6.743679046630859375 6.7865686416625976562 6.8027176856994628906 6.799831390380859375 6.7827820777893066406 6.7541027069091796875 6.7215218544006347656 6.6829385757446289062 6.6455965042114257812 6.6059432029724121094 6.5712246894836425781 6.5378079414367675781 6.5104947090148925781 6.4836874008178710938 6.4599127769470214844 6.4338030815124511719 6.407741546630859375 6.3762812614440917969 6.3435697555541992188 6.303928375244140625 6.2630019187927246094 6.2137203216552734375 6.1634440422058105469 6.1047387123107910156 6.0481481552124023438 5.9862656593322753906 5.9301104545593261719 5.8722491264343261719 5.8218755722045898438 5.7695918083190917969 5.7214841842651367188 5.66805267333984375 5.6154036521911621094 5.5540194511413574219 5.4937701225280761719 5.4279589653015136719 5.3685436248779296875 5.30957794189453125 5.2616629600524902344 5.2188763618469238281 5.1863460540771484375 5.1586933135986328125 5.1395936012268066406 5.1226944923400878906 5.1095972061157226562 5.1000533103942871094 5.0958585739135742188 5.0972065925598144531 5.104763031005859375 5.1204080581665039062 5.140254974365234375 5.1543002128601074219 5.1527495384216308594 5.1332998275756835938 5.0991601943969726562 5.0474181175231933594 4.9871706962585449219 4.9156250953674316406 4.8461318016052246094 4.7760252952575683594 4.7188849449157714844 4.6701307296752929688 4.6338224411010742188 4.6031789779663085938 4.5794610977172851562 4.5574741363525390625 4.53800201416015625 4.5185542106628417969 4.5017313957214355469 4.4861731529235839844 4.4740552902221679688 4.4645071029663085938 4.4583482742309570312 4.4540252685546875 4.4510488510131835938 4.4480943679809570312 4.4444875717163085938 4.4373173713684082031 4.4218597412109375 4.3890666961669921875 4.3354487419128417969 4.2478837966918945312 4.1295366287231445312 3.9716551303863525391 3.8001329898834228516 3.6111209392547607422 3.4341149330139160156 3.2651259899139404297 3.1253271102905273438 2.9953262805938720703 2.8759942054748535156 2.7451353073120117188 2.6034896373748779297 2.4290032386779785156 2.2378172874450683594 2.0234124660491943359 1.8138649463653564453 1.6028341054916381836 1.4171929359436035156 1.2474442720413208008 1.1020448207855224609 0.96171540021896362305 0.82950377464294433594 0.68729168176651000977 0.53983414173126220703 0.37823686003684997559 0.22075322270393371582 0.1199380829930305481 0.097338683903217315674 0 0 0 0 0 0 0 0 0 0 0 0 0 0 0 0 0 0 0 0 0 0 0 0 0 0 0 0 0 0 0 0 0 0 0 0 0 0 0 0 0 0 0 0 0 0 0 0 0 0 
2.3712334632873535156 2.3814320564270019531 2.3821578025817871094 2.3912236690521240234 2.3959937095642089844 2.4002983570098876953 2.4077141284942626953 2.4185240268707275391 2.4231371879577636719 2.4287531375885009766 2.42722320556640625 2.4231705665588378906 2.4385745525360107422 2.4340808391571044922 2.4281139373779296875 2.4218745231628417969 2.4220674037933349609 2.4231562614440917969 2.4306631088256835938 2.4404532909393310547 2.4547472000122070312 2.4720394611358642578 2.4881091117858886719 2.4856007099151611328 2.4488070011138916016 2.4818694591522216797 2.4916384220123291016 2.4868059158325195312 2.496562957763671875 2.5004663467407226562 2.4937739372253417969 2.4784588813781738281 2.4556889533996582031 2.4231524467468261719 2.3995795249938964844 2.4038083553314208984 2.3490777015686035156 2.2945277690887451172 2.2531847953796386719 2.2192287445068359375 2.1669499874114990234 2.3041601181030273438 3.4230608940124511719 4.5830984115600585938 5.4872374534606933594 5.7831268310546875 5.7608675956726074219 5.5655202865600585938 5.4720907211303710938 5.3757457733154296875 5.3298921585083007812 5.3641705513000488281 5.4612517356872558594 5.6669912338256835938 5.9840378761291503906 6.5039715766906738281 7.4943695068359375 8.5745296478271484375 8.34413909912109375 7.3570046424865722656 6.7109375 6.3767848014831542969 6.3263173103332519531 6.4919681549072265625 6.6666107177734375 6.8369679450988769531 6.9761447906494140625 6.9275636672973632812 6.8014774322509765625 6.6453866958618164062 6.4446663856506347656 6.3028473854064941406 6.4197077751159667969 6.5550456047058105469 6.386264801025390625 6.2023940086364746094 6.0954847335815429688 6.0231876373291015625 5.8410100936889648438 5.6715331077575683594 5.5935750007629394531 5.5263628959655761719 5.4615263938903808594 5.4047603607177734375 5.3521981239318847656 5.3039102554321289062 5.3990831375122070312 5.5827298164367675781 5.7124204635620117188 5.8063225746154785156 5.8797435760498046875 5.9200234413146972656 5.8212099075317382812 5.5740594863891601562 5.3522486686706542969 5.1563897132873535156 4.9590463638305664062 4.7720685005187988281 4.5760817527770996094 4.4295530319213867188 4.4936947822570800781 4.5875802040100097656 4.6163649559020996094 4.6745395660400390625 4.7415742874145507812 4.8052897453308105469 4.8714008331298828125 4.9325919151306152344 4.9933028221130371094 5.0458998680114746094 5.0940694808959960938 5.1324129104614257812 5.1660146713256835938 5.1926784515380859375 5.2165570259094238281 5.2359933853149414062 5.2538232803344726562 5.2686734199523925781 5.2825350761413574219 5.2941555976867675781 5.3051056861877441406 5.3144345283508300781 5.3240675926208496094 5.334400177001953125 5.3485231399536132812 5.3665556907653808594 5.3923764228820800781 5.4246230125427246094 5.4673032760620117188 5.5148453712463378906 5.5724673271179199219 5.6325583457946777344 5.70198822021484375 5.7726092338562011719 5.8547792434692382812 5.9398546218872070312 6.040721893310546875 6.1463642120361328125 6.270351409912109375 6.3914155960083007812 6.5176529884338378906 6.6250982284545898438 6.7201690673828125 6.7834734916687011719 6.8225317001342773438 6.8359198570251464844 6.8304705619812011719 6.8111710548400878906 6.780029296875 6.7450103759765625 6.7037334442138671875 6.6638808250427246094 6.6214838027954101562 6.5844249725341796875 6.5489954948425292969 6.5204539299011230469 6.4930539131164550781 6.469341278076171875 6.4439663887023925781 6.4192209243774414062 6.3897371292114257812 6.3589935302734375 6.3211307525634765625 6.2810807228088378906 6.2313609123229980469 6.1790246963500976562 6.1165041923522949219 6.0555577278137207031 5.98859405517578125 5.9278731346130371094 5.8657937049865722656 5.8124680519104003906 5.7579069137573242188 5.7083144187927246094 5.6537184715270996094 5.6003117561340332031 5.5385022163391113281 5.4781975746154785156 5.4131932258605957031 5.3554677963256835938 5.2992520332336425781 5.2550044059753417969 5.2176690101623535156 5.1919946670532226562 5.1732277870178222656 5.1602873802185058594 5.1482348442077636719 5.1398324966430664062 5.1351757049560546875 5.1349997520446777344 5.1396474838256835938 5.1490583419799804688 5.165279388427734375 5.1855206489562988281 5.2007670402526855469 5.2001576423645019531 5.1815705299377441406 5.1459364891052246094 5.0902190208435058594 5.0270175933837890625 4.9539518356323242188 4.8844423294067382812 4.8144059181213378906 4.7567462921142578125 4.7066168785095214844 4.66852569580078125 4.6358962059020996094 4.610622406005859375 4.5877852439880371094 4.5684638023376464844 4.549774169921875 4.5335979461669921875 4.51793670654296875 4.5043439865112304688 4.491161346435546875 4.4796605110168457031 4.4684367179870605469 4.4585180282592773438 4.4486932754516601562 4.43976593017578125 4.4287505149841308594 4.41086578369140625 4.3760161399841308594 4.3201889991760253906 4.2292408943176269531 4.1060385704040527344 3.9412338733673095703 3.761981964111328125 3.5645236968994140625 3.3798465728759765625 3.2039983272552490234 3.0592267513275146484 2.9256470203399658203 2.8042075634002685547 2.6722841262817382812 2.5304646492004394531 2.3564121723175048828 2.1659119129180908203 1.9521230459213256836 1.7427254915237426758 1.5309913158416748047 1.3435161113739013672 1.1705888509750366211 1.0214817523956298828 0.87739646434783935547 0.74241542816162109375 0.59910166263580322266 0.45331057906150817871 0.2952232062816619873 0.14173774421215057373 0.38962057232856750488 0 0 0 0 0 0 0 0 0 0 0 0 0 0 0 0 0 0 0 0 0 0 0 0 0 0 0 0 0 0 0 0 0 0 0 0 0 0 0 0 0 0 0 0 0 0 0 0 0 0 0 
2.3732392787933349609 2.3782808780670166016 2.3795409202575683594 2.3847823143005371094 2.3904716968536376953 2.3945932388305664062 2.4040403366088867188 2.415744781494140625 2.4212443828582763672 2.4261288642883300781 2.4295327663421630859 2.4187254905700683594 2.4348034858703613281 2.4347424507141113281 2.4250469207763671875 2.4176981449127197266 2.4134073257446289062 2.4140894412994384766 2.4169929027557373047 2.4260029792785644531 2.4420080184936523438 2.4609053134918212891 2.4797921180725097656 2.4651410579681396484 2.4434323310852050781 2.4765017032623291016 2.4652717113494873047 2.4708142280578613281 2.4819672107696533203 2.4872052669525146484 2.4834399223327636719 2.4733905792236328125 2.4548552036285400391 2.4225115776062011719 2.3966641426086425781 2.4056921005249023438 2.2991085052490234375 2.2446179389953613281 2.2264618873596191406 2.2142989635467529297 2.1730999946594238281 2.6850845813751220703 3.9104626178741455078 4.705326080322265625 5.4788165092468261719 5.7102084159851074219 5.6661810874938964844 5.5423941612243652344 5.4601473808288574219 5.4205169677734375 5.4329257011413574219 5.4816899299621582031 5.6224808692932128906 5.8771119117736816406 6.2434048652648925781 6.8269176483154296875 7.7579112052917480469 8.6519403457641601562 8.1754293441772460938 6.9927625656127929688 6.5085577964782714844 6.344364166259765625 6.4160361289978027344 6.5948624610900878906 6.7763133049011230469 6.9406456947326660156 7.0824198722839355469 7.0512933731079101562 6.8898024559020996094 6.6530098915100097656 6.4431180953979492188 6.3400821685791015625 6.5197315216064453125 6.5780377388000488281 6.37560272216796875 6.2188253402709960938 6.134243011474609375 6.0294165611267089844 5.8237738609313964844 5.70543670654296875 5.638080596923828125 5.5747818946838378906 5.5137510299682617188 5.4611673355102539062 5.4140381813049316406 5.3926129341125488281 5.5374975204467773438 5.6977200508117675781 5.8104319572448730469 5.8956098556518554688 5.9607696533203125 5.9079189300537109375 5.6708350181579589844 5.4496412277221679688 5.258602142333984375 5.0989742279052734375 4.9428696632385253906 4.7956142425537109375 4.6387200355529785156 4.52156829833984375 4.5880036354064941406 4.6800088882446289062 4.7230296134948730469 4.7783842086791992188 4.8417453765869140625 4.9028024673461914062 4.9668936729431152344 5.0263586044311523438 5.0854029655456542969 5.1366181373596191406 5.1835355758666992188 5.2208027839660644531 5.2532176971435546875 5.2784790992736816406 5.3004899024963378906 5.3180189132690429688 5.3337826728820800781 5.346286773681640625 5.3573789596557617188 5.3663897514343261719 5.3749017715454101562 5.3825006484985351562 5.3911409378051757812 5.4014072418212890625 5.4162130355834960938 5.4356904029846191406 5.4648180007934570312 5.50173187255859375 5.5502371788024902344 5.603359222412109375 5.6660265922546386719 5.7292871475219726562 5.7999234199523925781 5.8696427345275878906 5.949039459228515625 6.0298967361450195312 6.1249976158142089844 6.2243947982788085938 6.3412160873413085938 6.455402374267578125 6.5743861198425292969 6.6753444671630859375 6.764068603515625 6.8224186897277832031 6.8572392463684082031 6.8673262596130371094 6.8588476181030273438 6.8370656967163085938 6.8034763336181640625 6.7662882804870605469 6.7226967811584472656 6.6805987358093261719 6.6359157562255859375 6.5970273017883300781 6.5601077079772949219 6.530635833740234375 6.5026645660400390625 6.4788389205932617188 6.4538178443908691406 6.4298586845397949219 6.4016232490539550781 6.3721280097961425781 6.3353075981140136719 6.295543670654296875 6.2449827194213867188 6.190624237060546875 6.124805450439453125 6.0600953102111816406 5.9887137413024902344 5.9240097999572753906 5.8581919670104980469 5.8021640777587890625 5.7454113960266113281 5.6943264007568359375 5.6387357711791992188 5.5849137306213378906 5.5230808258056640625 5.4634265899658203125 5.3997888565063476562 5.3439497947692871094 5.290699005126953125 5.25043487548828125 5.2192287445068359375 5.2003788948059082031 5.18707275390625 5.1781740188598632812 5.1703138351440429688 5.1657652854919433594 5.1651043891906738281 5.1682758331298828125 5.1758494377136230469 5.1872510910034179688 5.2048673629760742188 5.226139068603515625 5.2429146766662597656 5.2441530227661132812 5.2277803421020507812 5.1947655677795410156 5.1405653953552246094 5.0764150619506835938 5.0019688606262207031 4.9314241409301757812 4.8609738349914550781 4.8022265434265136719 4.7497549057006835938 4.7086734771728515625 4.672565460205078125 4.6442399024963378906 4.61901092529296875 4.5985126495361328125 4.5793056488037109375 4.5626430511474609375 4.5457096099853515625 4.5295157432556152344 4.5114483833312988281 4.4933729171752929688 4.4739627838134765625 4.4559650421142578125 4.4382357597351074219 4.4232301712036132812 4.4079155921936035156 4.387676239013671875 4.351551055908203125 4.2950520515441894531 4.203357696533203125 4.0788412094116210938 3.9117195606231689453 3.7297270298004150391 3.5291833877563476562 3.3416604995727539062 3.1632561683654785156 3.0166516304016113281 2.8818197250366210938 2.7597591876983642578 2.6277244091033935547 2.4862129688262939453 2.3128252029418945312 2.1230282783508300781 1.9095785617828369141 1.6996597051620483398 1.4859888553619384766 1.2948726415634155273 1.1162877082824707031 0.96076112985610961914 0.81006830930709838867 0.6698767542839050293 0.5241400599479675293 0.37883079051971435547 0.22370129823684692383 0.07514546811580657959 0.37742364406585693359 0 0 0 0 0 0 0 0 0 0 0 0 0 0 0 0 0 0 0 0 0 0 0 0 0 0 0 0 0 0 0 0 0 0 0 0 0 0 0 0 0 0 0 0 0 0 0 0 0 0 0 
2.3746366500854492188 2.3766558170318603516 2.3810791969299316406 2.3790736198425292969 2.3844134807586669922 2.3897340297698974609 2.4008688926696777344 2.4104671478271484375 2.4159481525421142578 2.4204645156860351562 2.4252028465270996094 2.4242739677429199219 2.4242184162139892578 2.4338161945343017578 2.4247837066650390625 2.4125182628631591797 2.4044785499572753906 2.4049534797668457031 2.4099259376525878906 2.418476104736328125 2.4349451065063476562 2.4514076709747314453 2.4596912860870361328 2.4299857616424560547 2.4526164531707763672 2.4605917930603027344 2.4546854496002197266 2.4586989879608154297 2.4645349979400634766 2.4686784744262695312 2.4677839279174804688 2.4660272598266601562 2.4492907524108886719 2.4185576438903808594 2.4009110927581787109 2.3539290428161621094 2.2500481605529785156 2.1949286460876464844 2.1785886287689208984 2.2009263038635253906 2.2042157649993896484 3.0778207778930664062 4.2835226058959960938 5.1948809623718261719 5.6065087318420410156 5.7154474258422851562 5.6653127670288085938 5.58679962158203125 5.5332188606262207031 5.562877655029296875 5.6252536773681640625 5.6653270721435546875 5.8452658653259277344 6.1240129470825195312 6.5008721351623535156 7.2532939910888671875 8.3746395111083984375 8.7916126251220703125 7.9443683624267578125 6.8882222175598144531 6.4659547805786132812 6.3942155838012695312 6.5363011360168457031 6.7091555595397949219 6.8923578262329101562 7.0557913780212402344 7.1974306106567382812 7.1845417022705078125 6.9369864463806152344 6.6474628448486328125 6.4473738670349121094 6.4228715896606445312 6.6203336715698242188 6.5756978988647460938 6.363300323486328125 6.2452287673950195312 6.1803526878356933594 6.0072069168090820312 5.8200669288635253906 5.742847442626953125 5.6786680221557617188 5.6201539039611816406 5.5651674270629882812 5.5187587738037109375 5.4790592193603515625 5.4943537712097167969 5.672306060791015625 5.8066616058349609375 5.9257178306579589844 5.9978313446044921875 5.98113250732421875 5.7021412849426269531 5.4185314178466796875 5.2435197830200195312 5.1105389595031738281 5.0072112083435058594 4.9098725318908691406 4.8164815902709960938 4.7091050148010253906 4.6245627403259277344 4.6934218406677246094 4.7832956314086914062 4.8417658805847167969 4.8931651115417480469 4.9512133598327636719 5.0100636482238769531 5.0727076530456542969 5.13079833984375 5.1884102821350097656 5.2383546829223632812 5.2842464447021484375 5.3208308219909667969 5.3525395393371582031 5.3769097328186035156 5.3974595069885253906 5.4128146171569824219 5.4255390167236328125 5.4349608421325683594 5.442615509033203125 5.4482998847961425781 5.4536285400390625 5.4589643478393554688 5.46622467041015625 5.4760689735412597656 5.4915575981140136719 5.5133700370788574219 5.5463094711303710938 5.5879087448120117188 5.6422681808471679688 5.70088958740234375 5.7686448097229003906 5.8355126380920410156 5.90792083740234375 5.9769711494445800781 6.0537567138671875 6.1310038566589355469 6.2208075523376464844 6.313899993896484375 6.4229650497436523438 6.5292921066284179688 6.6396112442016601562 6.7326641082763671875 6.8137822151184082031 6.8660058975219726562 6.8952260017395019531 6.9008970260620117188 6.888446807861328125 6.8635797500610351562 6.8272027969360351562 6.7876372337341308594 6.7415604591369628906 6.6973886489868164062 6.6508398056030273438 6.6105947494506835938 6.5725002288818359375 6.5421457290649414062 6.5134720802307128906 6.4892573356628417969 6.4641323089599609375 6.4404039382934570312 6.4127178192138671875 6.3837513923645019531 6.3471517562866210938 6.3069987297058105469 6.2552337646484375 6.1988620758056640625 6.1298418045043945312 6.0615344047546386719 5.9859862327575683594 5.9175286293029785156 5.8481440544128417969 5.7894692420959472656 5.7306151390075683594 5.6783595085144042969 5.6221976280212402344 5.56848907470703125 5.507442474365234375 5.4489259719848632812 5.3870558738708496094 5.3336162567138671875 5.2841887474060058594 5.2491116523742675781 5.2241649627685546875 5.2097277641296386719 5.2006731033325195312 5.1958189010620117188 5.1920495033264160156 5.1908745765686035156 5.1937861442565917969 5.2001047134399414062 5.2107052803039550781 5.2246251106262207031 5.2448782920837402344 5.2684197425842285156 5.2867531776428222656 5.2910251617431640625 5.2786183357238769531 5.2501502037048339844 5.2019014358520507812 5.1426143646240234375 5.0698690414428710938 4.9986948966979980469 4.9257874488830566406 4.8640599250793457031 4.8071980476379394531 4.7609362602233886719 4.7188634872436523438 4.6851525306701660156 4.6552829742431640625 4.631809234619140625 4.6104478836059570312 4.5918488502502441406 4.5720462799072265625 4.5515303611755371094 4.5263981819152832031 4.4993596076965332031 4.4690814018249511719 4.4405002593994140625 4.4124808311462402344 4.3895630836486816406 4.3686761856079101562 4.34564971923828125 4.3088140487670898438 4.2532758712768554688 4.1637349128723144531 4.0416655540466308594 3.8772857189178466797 3.6979961395263671875 3.5002150535583496094 3.3151056766510009766 3.1388275623321533203 2.9938020706176757812 2.8602466583251953125 2.7391781806945800781 2.6080193519592285156 2.4673838615417480469 2.2950870990753173828 2.1062045097351074219 1.8928940296173095703 1.6816657781600952148 1.4643777608871459961 1.2669967412948608398 1.0789585113525390625 0.91275823116302490234 0.75136357545852661133 0.6034018397331237793 0.45253273844718933105 0.30634161829948425293 0.15496577322483062744 0.42400845885276794434 0.053623639047145843506 0 0 0 0 0 0 0 0 0 0 0 0 0 0 0 0 0 0 0 0 0 0 0 0 0 0 0 0 0 0 0 0 0 0 0 0 0 0 0 0 0 0 0 0 0 0 0 0 0 0 0 
2.3736751079559326172 2.3758044242858886719 2.3774218559265136719 2.3750820159912109375 2.3844788074493408203 2.3923428058624267578 2.4018900394439697266 2.4097225666046142578 2.4127874374389648438 2.4161953926086425781 2.4205150604248046875 2.4255216121673583984 2.4152643680572509766 2.4292953014373779297 2.4268171787261962891 2.4096643924713134766 2.4014496803283691406 2.4004139900207519531 2.4061832427978515625 2.4141507148742675781 2.4313721656799316406 2.449825286865234375 2.4384427070617675781 2.4213001728057861328 2.4483435153961181641 2.4438335895538330078 2.4473955631256103516 2.4493570327758789062 2.4517500400543212891 2.4565889835357666016 2.454181671142578125 2.4594557285308837891 2.4498245716094970703 2.4206032752990722656 2.4317250251770019531 2.3510344028472900391 2.25569915771484375 2.2037329673767089844 2.2015278339385986328 2.2216558456420898438 2.3197216987609863281 3.2630639076232910156 4.4898204803466796875 5.3782911300659179688 5.6755466461181640625 5.7650890350341796875 5.7584357261657714844 5.7128620147705078125 5.6647620201110839844 5.7073101997375488281 5.8101491928100585938 5.8814272880554199219 6.0611786842346191406 6.325347900390625 6.7106175422668457031 7.7490096092224121094 8.84600067138671875 8.7525234222412109375 7.6602892875671386719 6.8104443550109863281 6.5146017074584960938 6.4668188095092773438 6.6288423538208007812 6.8213706016540527344 7.0039191246032714844 7.1625952720642089844 7.2997236251831054688 7.2861566543579101562 6.9499068260192871094 6.6424298286437988281 6.4633169174194335938 6.5401730537414550781 6.6814799308776855469 6.5504827499389648438 6.3527202606201171875 6.282703399658203125 6.1764979362487792969 5.9873013496398925781 5.8300409317016601562 5.7709598541259765625 5.7105641365051269531 5.6567091941833496094 5.6077132225036621094 5.5685133934020996094 5.5339517593383789062 5.6119217872619628906 5.8058633804321289062 5.925121307373046875 6.0239720344543457031 5.9759874343872070312 5.6727242469787597656 5.2923741340637207031 5.0651006698608398438 4.974720001220703125 4.9253978729248046875 4.8931684494018554688 4.8641743659973144531 4.8340253829956054688 4.7859334945678710938 4.7246699333190917969 4.7936682701110839844 4.8816657066345214844 4.9538640975952148438 5.0022902488708496094 5.0556573867797851562 5.1105580329895019531 5.1711091995239257812 5.2286267280578613281 5.2857413291931152344 5.3352785110473632812 5.3809113502502441406 5.4174318313598632812 5.4491443634033203125 5.4733076095581054688 5.4930605888366699219 5.5067529678344726562 5.5164999961853027344 5.5222063064575195312 5.5257730484008789062 5.52776336669921875 5.5295009613037109375 5.5320401191711425781 5.537105560302734375 5.5459542274475097656 5.5623345375061035156 5.5864200592041015625 5.6229948997497558594 5.66878509521484375 5.727733612060546875 5.7906951904296875 5.8628849983215332031 5.9330019950866699219 6.0072469711303710938 6.0763711929321289062 6.1514992713928222656 6.2256717681884765625 6.31111907958984375 6.3990511894226074219 6.5011701583862304688 6.599956512451171875 6.7018346786499023438 6.7872076034545898438 6.8606042861938476562 6.9063801765441894531 6.9297213554382324219 6.9308309555053710938 6.9144039154052734375 6.8865251541137695312 6.8473138809204101562 6.8054513931274414062 6.7574114799499511719 6.7118883132934570312 6.6642727851867675781 6.6231908798217773438 6.5842103958129882812 6.5530209541320800781 6.523471832275390625 6.49851226806640625 6.4727230072021484375 6.4485502243041992188 6.4205040931701660156 6.3911423683166503906 6.353961944580078125 6.3131284713745117188 6.2601799964904785156 6.2020363807678222656 6.1304073333740234375 6.0592660903930664062 5.9804840087890625 5.9091134071350097656 5.8369774818420410156 5.7764425277709960938 5.7163648605346679688 5.6636462211608886719 5.607753753662109375 5.5547885894775390625 5.4948396682739257812 5.4376974105834960938 5.3779325485229492188 5.3273615837097167969 5.2822279930114746094 5.2510251998901367188 5.2292470932006835938 5.217864990234375 5.212360382080078125 5.2108969688415527344 5.21050262451171875 5.2115693092346191406 5.2169055938720703125 5.2255945205688476562 5.2388300895690917969 5.255474090576171875 5.2794575691223144531 5.306011199951171875 5.3258748054504394531 5.3328900337219238281 5.3254947662353515625 5.30263519287109375 5.2614588737487792969 5.2094244956970214844 5.1434674263000488281 5.0750799179077148438 5.0007271766662597656 4.9338750839233398438 4.8696179389953613281 4.8160963058471679688 4.76615142822265625 4.7254452705383300781 4.68939971923828125 4.6616282463073730469 4.6368341445922851562 4.6151943206787109375 4.5914602279663085938 4.5657229423522949219 4.5326976776123046875 4.4960227012634277344 4.4542765617370605469 4.4146366119384765625 4.3759183883666992188 4.3447847366333007812 4.3181376457214355469 4.2924165725708007812 4.2554612159729003906 4.2021503448486328125 4.1167607307434082031 3.9998846054077148438 3.8420460224151611328 3.6695511341094970703 3.4789419174194335938 3.3002207279205322266 3.1296150684356689453 2.9887590408325195312 2.8583996295928955078 2.7394807338714599609 2.6099948883056640625 2.4708101749420166016 2.3001089096069335938 2.1125380992889404297 1.8995792865753173828 1.6869351863861083984 1.4654623270034790039 1.2607527971267700195 1.0616091489791870117 0.8835163116455078125 0.7106615900993347168 0.55317723751068115234 0.39612105488777160645 0.24886870384216308594 0.10135200619697570801 0.44778406620025634766 0.010602733120322227478 0 0 0 0 0 0 0 0 0 0 0 0 0 0 0 0 0 0 0 0 0 0 0 0 0 0 0 0 0 0 0 0 0 0 0 0 0 0 0 0 0 0 0 0 0 0 0 0 0 0 0 
2.3859124183654785156 2.3898656368255615234 2.3865921497344970703 2.3823802471160888672 2.3880596160888671875 2.3951282501220703125 2.4015514850616455078 2.4067835807800292969 2.4094738960266113281 2.4144017696380615234 2.4202783107757568359 2.4238753318786621094 2.4171380996704101562 2.4177420139312744141 2.4276635646820068359 2.408641815185546875 2.4017813205718994141 2.3989369869232177734 2.4041051864624023438 2.4158666133880615234 2.4298710823059082031 2.4402325153350830078 2.4095060825347900391 2.4246046543121337891 2.4345977306365966797 2.4299542903900146484 2.4312932491302490234 2.4372711181640625 2.4393649101257324219 2.4440286159515380859 2.4457190036773681641 2.4511339664459228516 2.4594502449035644531 2.4413650035858154297 2.4182298183441162109 2.34079742431640625 2.2777571678161621094 2.2274904251098632812 2.2512888908386230469 2.2604880332946777344 2.6862466335296630859 3.7322986125946044922 4.7883229255676269531 5.4332861900329589844 5.6969904899597167969 5.8163599967956542969 5.8658413887023925781 5.8508234024047851562 5.8536658287048339844 5.9210224151611328125 6.0832791328430175781 6.1239924430847167969 6.282657623291015625 6.5264081954956054688 7.032703399658203125 8.2735204696655273438 9.1692438125610351562 8.6778774261474609375 7.51520538330078125 6.8354802131652832031 6.5822710990905761719 6.5759091377258300781 6.7706923484802246094 6.9542784690856933594 7.1228566169738769531 7.26966094970703125 7.4036407470703125 7.3547964096069335938 6.9448442459106445312 6.6466541290283203125 6.516681671142578125 6.6603589057922363281 6.6980252265930175781 6.5070590972900390625 6.3486981391906738281 6.2884154319763183594 6.1499695777893066406 5.958232879638671875 5.8445568084716796875 5.7941870689392089844 5.7405767440795898438 5.6929354667663574219 5.6501145362854003906 5.6173982620239257812 5.6000843048095703125 5.7462978363037109375 5.9509835243225097656 6.0450215339660644531 6.0394597053527832031 5.7659273147583007812 5.2978157997131347656 4.718418121337890625 4.63852691650390625 4.6902155876159667969 4.7442831993103027344 4.7911701202392578125 4.8349442481994628906 4.8726277351379394531 4.9065990447998046875 4.9226002693176269531 4.9703345298767089844 5.0242919921875 5.0785093307495117188 5.1232838630676269531 5.1725287437438964844 5.2230496406555175781 5.2790360450744628906 5.3338694572448730469 5.3908247947692871094 5.4412636756896972656 5.4880518913269042969 5.5257940292358398438 5.5585904121398925781 5.5833086967468261719 5.6028156280517578125 5.6150946617126464844 5.6218085289001464844 5.6233034133911132812 5.6214690208435058594 5.6180877685546875 5.6144127845764160156 5.6122965812683105469 5.6139616966247558594 5.6218724250793457031 5.6389613151550292969 5.665035247802734375 5.7047686576843261719 5.7543120384216308594 5.8179011344909667969 5.8852782249450683594 5.9615278244018554688 6.034732818603515625 6.1112833023071289062 6.1812281608581542969 6.2555303573608398438 6.3272757530212402344 6.4083642959594726562 6.4907546043395996094 6.5856847763061523438 6.6766719818115234375 6.7694010734558105469 6.8459043502807617188 6.9101967811584472656 6.9484729766845703125 6.9651799201965332031 6.9612970352172851562 6.9404158592224121094 6.9089655876159667969 6.8667116165161132812 6.8228473663330078125 6.7734289169311523438 6.7270765304565429688 6.67876434326171875 6.6370086669921875 6.597076416015625 6.564746856689453125 6.5337762832641601562 6.5074062347412109375 6.4800543785095214844 6.4544405937194824219 6.4249539375305175781 6.3945131301879882812 6.3563685417175292969 6.3145279884338378906 6.2601294517517089844 6.2001976966857910156 6.1261773109436035156 6.0525293350219726562 5.9709863662719726562 5.8973407745361328125 5.8233742713928222656 5.7618198394775390625 5.7014570236206054688 5.64911651611328125 5.5940828323364257812 5.5422687530517578125 5.4839906692504882812 5.4289684295654296875 5.3723902702331542969 5.3252773284912109375 5.2830424308776855469 5.2540807723999023438 5.2351059913635253906 5.2266969680786132812 5.2246046066284179688 5.2263774871826171875 5.2292437553405761719 5.2318525314331054688 5.2384920120239257812 5.248935699462890625 5.2647700309753417969 5.2849774360656738281 5.3148112297058105469 5.344818115234375 5.36675262451171875 5.3764400482177734375 5.3743395805358886719 5.3588719367980957031 5.3266596794128417969 5.2834715843200683594 5.226451873779296875 5.1648802757263183594 5.0934805870056152344 5.0233759880065917969 4.9495930671691894531 4.8837938308715820312 4.8211450576782226562 4.7700181007385253906 4.7249293327331542969 4.6906905174255371094 4.660564422607421875 4.634307861328125 4.6050806045532226562 4.5726370811462402344 4.5300574302673339844 4.4820895195007324219 4.4271273612976074219 4.374874114990234375 4.3240427970886230469 4.2836718559265136719 4.2506546974182128906 4.2222166061401367188 4.1857852935791015625 4.1355829238891601562 4.0559663772583007812 3.9469654560089111328 3.7991280555725097656 3.6370396614074707031 3.4574275016784667969 3.2885127067565917969 3.1266200542449951172 2.9921674728393554688 2.8666117191314697266 2.7509107589721679688 2.6240415573120117188 2.4871644973754882812 2.3190302848815917969 2.1336731910705566406 1.9217015504837036133 1.7077311277389526367 1.4813761711120605469 1.2681778669357299805 1.0573675632476806641 0.8664836883544921875 0.68000274896621704102 0.51151996850967407227 0.34761378169059753418 0.19954551756381988525 0.19484727084636688232 0.24018882215023040771 0 0 0 0 0 0 0 0 0 0 0 0 0 0 0 0 0 0 0 0 0 0 0 0 0 0 0 0 0 0 0 0 0 0 0 0 0 0 0 0 0 0 0 0 0 0 0 0 0 0 0 0 
2.3942296504974365234 2.4188077449798583984 2.4171373844146728516 2.4048950672149658203 2.4001052379608154297 2.3976645469665527344 2.4004764556884765625 2.4039795398712158203 2.4087951183319091797 2.4133062362670898438 2.4188227653503417969 2.4209914207458496094 2.4183771610260009766 2.4111180305480957031 2.4240400791168212891 2.4161705970764160156 2.4015510082244873047 2.3993380069732666016 2.4017450809478759766 2.4176726341247558594 2.4285795688629150391 2.4152016639709472656 2.4044213294982910156 2.4246129989624023438 2.4216475486755371094 2.4222996234893798828 2.4228694438934326172 2.4255013465881347656 2.42598724365234375 2.4320218563079833984 2.4328558444976806641 2.4368233680725097656 2.4536905288696289062 2.4774053096771240234 2.427089691162109375 2.3316111564636230469 2.280605316162109375 2.25785064697265625 2.2949478626251220703 2.32996368408203125 3.0571544170379638672 4.1801156997680664062 5.1112999916076660156 5.5082716941833496094 5.735157012939453125 5.8533535003662109375 5.9397311210632324219 5.9759221076965332031 6.0233082771301269531 6.0998635292053222656 6.2247982025146484375 6.3134665489196777344 6.4894967079162597656 6.7856726646423339844 7.3389582633972167969 8.5619478225708007812 9.476116180419921875 8.9549856185913085938 7.6522035598754882812 6.9147028923034667969 6.6533846855163574219 6.7086658477783203125 6.9124975204467773438 7.078723907470703125 7.2361173629760742188 7.3813300132751464844 7.5075397491455078125 7.38773345947265625 6.9367117881774902344 6.6517744064331054688 6.5797281265258789062 6.7254595756530761719 6.677051544189453125 6.4756059646606445312 6.3627123832702636719 6.2803196907043457031 6.1142678260803222656 5.9330463409423828125 5.8557467460632324219 5.8109130859375 5.7657918930053710938 5.7254528999328613281 5.689235687255859375 5.6599240303039550781 5.6692738533020019531 5.87583160400390625 6.0602650642395019531 6.1070837974548339844 5.9815988540649414062 5.6336040496826171875 5.1593089103698730469 4.6840939521789550781 4.6842284202575683594 4.7617545127868652344 4.8319544792175292969 4.8897085189819335938 4.9422497749328613281 4.9869518280029296875 5.0298047065734863281 5.0688624382019042969 5.1095671653747558594 5.14971160888671875 5.1930613517761230469 5.2358126640319824219 5.2827863693237304688 5.330249786376953125 5.3825807571411132812 5.43381500244140625 5.4877948760986328125 5.5379519462585449219 5.5871148109436035156 5.6278715133666992188 5.6633887290954589844 5.6898479461669921875 5.70993804931640625 5.7212996482849121094 5.7252936363220214844 5.7226796150207519531 5.7151846885681152344 5.7053179740905761719 5.6943526268005371094 5.6870465278625488281 5.6856760978698730469 5.6922130584716796875 5.7090649604797363281 5.7358303070068359375 5.7773189544677734375 5.8294329643249511719 5.8962769508361816406 5.9669127464294433594 6.046596527099609375 6.1225833892822265625 6.2012925148010253906 6.2725348472595214844 6.34729766845703125 6.4181194305419921875 6.4963393211364746094 6.5740742683410644531 6.6620888710021972656 6.7455615997314453125 6.8296561241149902344 6.8977069854736328125 6.9533400535583496094 6.9846596717834472656 6.9952158927917480469 6.9864716529846191406 6.9613394737243652344 6.9270005226135253906 6.8827290534973144531 6.83777618408203125 6.7877111434936523438 6.7410006523132324219 6.692302703857421875 6.6499562263488769531 6.6089143753051757812 6.5750784873962402344 6.5420584678649902344 6.5134630203247070312 6.4835643768310546875 6.45584869384765625 6.4246182441711425781 6.3928656578063964844 6.3533935546875 6.310321807861328125 6.2544956207275390625 6.1930918693542480469 6.1173791885375976562 6.0422444343566894531 5.9593749046325683594 5.8848986625671386719 5.8105454444885253906 5.7491116523742675781 5.6892399787902832031 5.6376528739929199219 5.5838093757629394531 5.5335216522216796875 5.4775156974792480469 5.4251317977905273438 5.3710689544677734375 5.3255662918090820312 5.2850451469421386719 5.2579932212829589844 5.2413954734802246094 5.2354154586791992188 5.2360448837280273438 5.2403607368469238281 5.2458314895629882812 5.2495446205139160156 5.2557091712951660156 5.2666573524475097656 5.2845864295959472656 5.3091692924499511719 5.3461761474609375 5.3787121772766113281 5.4028763771057128906 5.4152846336364746094 5.417209625244140625 5.4080481529235839844 5.3851237297058105469 5.3508410453796386719 5.3024950027465820312 5.2476019859313964844 5.1808114051818847656 5.1114664077758789062 5.0329942703247070312 4.9574375152587890625 4.8799147605895996094 4.8141579627990722656 4.7565317153930664062 4.7135987281799316406 4.6763873100280761719 4.64429473876953125 4.6087179183959960938 4.5691933631896972656 4.5171761512756347656 4.4584727287292480469 4.3912267684936523438 4.3274369239807128906 4.2657027244567871094 4.2172055244445800781 4.1788916587829589844 4.1486463546752929688 4.1129465103149414062 4.0656113624572753906 3.9917418956756591797 3.8909516334533691406 3.7540094852447509766 3.6031649112701416016 3.4353008270263671875 3.2767889499664306641 3.1240983009338378906 2.9963614940643310547 2.8756964206695556641 2.7633647918701171875 2.6393539905548095703 2.5050837993621826172 2.3398442268371582031 2.1569809913635253906 1.9461461305618286133 1.7310335636138916016 1.5015761852264404297 1.2831724882125854492 1.0633330345153808594 0.86147314310073852539 0.66346752643585205078 0.48571383953094482422 0.31614920496940612793 0.16788254678249359131 0.062853924930095672607 0.047721106559038162231 0 0 0 0 0 0 0 0 0 0 0 0 0 0 0 0 0 0 0 0 0 0 0 0 0 0 0 0 0 0 0 0 0 0 0 0 0 0 0 0 0 0 0 0 0 0 0 0 0 0 0 0 
2.4048769474029541016 2.3788123130798339844 2.4053287506103515625 2.4340867996215820312 2.4375169277191162109 2.4260640144348144531 2.4142496585845947266 2.4116578102111816406 2.4119279384613037109 2.4142031669616699219 2.4152033329010009766 2.4166560173034667969 2.4179019927978515625 2.4120440483093261719 2.4111337661743164062 2.4195144176483154297 2.4048769474029541016 2.3991544246673583984 2.4027218818664550781 2.4162888526916503906 2.4222686290740966797 2.3984856605529785156 2.4188232421875 2.4146523475646972656 2.4117047786712646484 2.4169380664825439453 2.4194903373718261719 2.4167613983154296875 2.4155476093292236328 2.4165353775024414062 2.4157986640930175781 2.42035675048828125 2.4461338520050048828 2.491809844970703125 2.3928728103637695312 2.3245387077331542969 2.2901110649108886719 2.3126020431518554688 2.3410935401916503906 2.4679358005523681641 3.4010837078094482422 4.3777766227722167969 5.2197747230529785156 5.688938140869140625 5.8648204803466796875 6.0181384086608886719 6.1337566375732421875 6.1576399803161621094 6.2293934822082519531 6.3316168785095214844 6.4580121040344238281 6.5732936859130859375 6.7764768600463867188 7.0981192588806152344 7.6700143814086914062 8.843944549560546875 9.547801971435546875 8.8741388320922851562 7.7647676467895507812 7.0283107757568359375 6.7666716575622558594 6.8646535873413085938 7.0591330528259277344 7.2169413566589355469 7.3689217567443847656 7.5028667449951171875 7.6072649955749511719 7.377277374267578125 6.9153218269348144531 6.6626214981079101562 6.6556420326232910156 6.7582745552062988281 6.6307888031005859375 6.4481105804443359375 6.38245391845703125 6.2536644935607910156 6.0711407661437988281 5.9081387519836425781 5.8612275123596191406 5.8281111717224121094 5.7934460639953613281 5.7619533538818359375 5.733180999755859375 5.7110829353332519531 5.7931609153747558594 6.0222554206848144531 6.1316676139831542969 6.1413927078247070312 5.9167952537536621094 5.5708870887756347656 5.1573596000671386719 4.7957177162170410156 4.8211889266967773438 4.9020395278930664062 4.9744596481323242188 5.0328087806701660156 5.0839552879333496094 5.1251740455627441406 5.1622648239135742188 5.1952028274536132812 5.2308130264282226562 5.2674570083618164062 5.3093166351318359375 5.3522830009460449219 5.3996300697326660156 5.4466738700866699219 5.4975261688232421875 5.5466570854187011719 5.5982151031494140625 5.6463232040405273438 5.69483184814453125 5.7378339767456054688 5.7778267860412597656 5.808319091796875 5.8308119773864746094 5.8420400619506835938 5.8430180549621582031 5.8347101211547851562 5.8186817169189453125 5.8004179000854492188 5.7827448844909667969 5.7708415985107421875 5.7657461166381835938 5.7696175575256347656 5.7844905853271484375 5.8103017807006835938 5.8516302108764648438 5.9042987823486328125 5.9724149703979492188 6.0447473526000976562 6.1266665458679199219 6.2052855491638183594 6.2874035835266113281 6.3618397712707519531 6.4391407966613769531 6.511066436767578125 6.5883994102478027344 6.6624255180358886719 6.7429218292236328125 6.8168277740478515625 6.8898692131042480469 6.948307037353515625 6.9946651458740234375 7.0182638168334960938 7.0220313072204589844 7.0085968971252441406 6.980106353759765625 6.9438872337341308594 6.8985490798950195312 6.8531832695007324219 6.8029870986938476562 6.7561678886413574219 6.7070550918579101562 6.6637525558471679688 6.6207528114318847656 6.5841894149780273438 6.5476045608520507812 6.5156488418579101562 6.4825229644775390625 6.4522027969360351562 6.4185166358947753906 6.3847784996032714844 6.3434228897094726562 6.2988409996032714844 6.2416734695434570312 6.1793932914733886719 6.1031885147094726562 6.0279803276062011719 5.945369720458984375 5.8714089393615722656 5.7977786064147949219 5.7371325492858886719 5.6783323287963867188 5.6280465126037597656 5.5760998725891113281 5.5280523300170898438 5.4744653701782226562 5.4237904548645019531 5.3713383674621582031 5.3275022506713867188 5.2889986038208007812 5.2640032768249511719 5.2497615814208984375 5.2460508346557617188 5.2491207122802734375 5.2556486129760742188 5.263347625732421875 5.268543243408203125 5.2725911140441894531 5.2818851470947265625 5.3016886711120605469 5.3339543342590332031 5.3784332275390625 5.4130430221557617188 5.43979644775390625 5.4552865028381347656 5.4614419937133789062 5.4574689865112304688 5.4427514076232910156 5.418498992919921875 5.3801369667053222656 5.3325839042663574219 5.2707147598266601562 5.2026467323303222656 5.1217508316040039062 5.0404324531555175781 4.9532451629638671875 4.8744192123413085938 4.7991647720336914062 4.7397613525390625 4.6883912086486816406 4.6458601951599121094 4.6006331443786621094 4.5518894195556640625 4.4889659881591796875 4.4187440872192382812 4.3389410972595214844 4.2638454437255859375 4.191982269287109375 4.1366262435913085938 4.0944194793701171875 4.062549591064453125 4.0272936820983886719 3.9830195903778076172 3.9152326583862304688 3.8228936195373535156 3.6975278854370117188 3.5595872402191162109 3.4052324295043945312 3.2583243846893310547 3.1156411170959472656 2.9948892593383789062 2.8789353370666503906 2.7696661949157714844 2.6480104923248291016 2.5156486034393310547 2.3522820472717285156 2.1711831092834472656 1.9627367258071899414 1.7506291866302490234 1.5225982666015625 1.3019587993621826172 1.0757119655609130859 0.86524200439453125 0.65776878595352172852 0.47234380245208740234 0.29840508103370666504 0.15085382759571075439 0.17415890097618103027 0 0 0 0 0 0 0 0 0 0 0 0 0 0 0 0 0 0 0 0 0 0 0 0 0 0 0 0 0 0 0 0 0 0 0 0 0 0 0 0 0 0 0 0 0 0 0 0 0 0 0 0 0 
2.5243353843688964844 2.4301216602325439453 2.4133880138397216797 2.3896875381469726562 2.3931767940521240234 2.4172847270965576172 2.4241321086883544922 2.4225380420684814453 2.4144260883331298828 2.4125266075134277344 2.4117689132690429688 2.4106910228729248047 2.4120290279388427734 2.4097583293914794922 2.4016537666320800781 2.4132940769195556641 2.4063317775726318359 2.3999478816986083984 2.4049344062805175781 2.4107449054718017578 2.3960466384887695312 2.3887562751770019531 2.4118096828460693359 2.4050784111022949219 2.4063162803649902344 2.4124879837036132812 2.4144182205200195312 2.4116139411926269531 2.4043037891387939453 2.4045369625091552734 2.4008531570434570312 2.4083356857299804688 2.4608452320098876953 2.4718773365020751953 2.361705780029296875 2.3152818679809570312 2.3067135810852050781 2.3696405887603759766 2.3954613208770751953 2.7647702693939208984 3.6444234848022460938 4.5349874496459960938 5.2928929328918457031 5.8810706138610839844 6.0974979400634765625 6.2589259147644042969 6.4092993736267089844 6.38831329345703125 6.465190887451171875 6.5873675346374511719 6.7329092025756835938 6.8540663719177246094 7.0265240669250488281 7.3043971061706542969 8.0023393630981445312 9.045520782470703125 9.4725866317749023438 8.6614847183227539062 7.6100792884826660156 7.1113886833190917969 6.9056415557861328125 7.0212736129760742188 7.2055816650390625 7.3503737449645996094 7.493488311767578125 7.6195034980773925781 7.6818714141845703125 7.3354964256286621094 6.901943206787109375 6.6717071533203125 6.7187204360961914062 6.762660980224609375 6.5760178565979003906 6.4384603500366210938 6.3622722625732421875 6.2129769325256347656 6.0238037109375 5.9009199142456054688 5.8720350265502929688 5.8474040031433105469 5.8211455345153808594 5.7978949546813964844 5.7795114517211914062 5.7645864486694335938 5.9338726997375488281 6.1233129501342773438 6.1661005020141601562 6.0959229469299316406 5.8528199195861816406 5.5553584098815917969 5.2031106948852539062 4.9085574150085449219 4.9489426612854003906 5.0327973365783691406 5.1064291000366210938 5.1638712882995605469 5.2115397453308105469 5.2481331825256347656 5.2817387580871582031 5.3124217987060546875 5.3447847366333007812 5.377185821533203125 5.4138331413269042969 5.4525103569030761719 5.497959136962890625 5.5461015701293945312 5.5998592376708984375 5.6517801284790039062 5.7054271697998046875 5.7547497749328613281 5.8038659095764160156 5.8468813896179199219 5.887088775634765625 5.91887664794921875 5.9432015419006347656 5.9542756080627441406 5.9506363868713378906 5.9353361129760742188 5.9129381179809570312 5.8902435302734375 5.8683476448059082031 5.8527088165283203125 5.8440337181091308594 5.8448739051818847656 5.8566899299621582031 5.8794589042663574219 5.9172000885009765625 5.9663090705871582031 6.0314149856567382812 6.1025705337524414062 6.1852498054504394531 6.2663969993591308594 6.3529119491577148438 6.4325900077819824219 6.5154747962951660156 6.5913357734680175781 6.6702046394348144531 6.7422719001770019531 6.8166613578796386719 6.8815598487854003906 6.9424533843994140625 6.9885153770446777344 7.0231676101684570312 7.0393862724304199219 7.0389418601989746094 7.0234913825988769531 6.9939074516296386719 6.9574031829833984375 6.9122104644775390625 6.8670907020568847656 6.8169755935668945312 6.7697815895080566406 6.7194285392761230469 6.6740741729736328125 6.6280932426452636719 6.5884175300598144531 6.5484437942504882812 6.5133123397827148438 6.476734161376953125 6.4433765411376953125 6.4068064689636230469 6.3708581924438476562 6.3277153968811035156 6.2821354866027832031 6.2246279716491699219 6.1627268791198730469 6.0875139236450195312 6.0135531425476074219 5.9323816299438476562 5.8597464561462402344 5.7875514030456542969 5.7282490730285644531 5.6710453033447265625 5.6223874092102050781 5.5720911026000976562 5.5252718925476074219 5.4729495048522949219 5.4237232208251953125 5.3730993270874023438 5.3311247825622558594 5.2946991920471191406 5.2716250419616699219 5.2593655586242675781 5.2574009895324707031 5.262218475341796875 5.2702426910400390625 5.2793850898742675781 5.2857737541198730469 5.2887177467346191406 5.2929568290710449219 5.31433868408203125 5.3576140403747558594 5.405948638916015625 5.4424161911010742188 5.4716124534606933594 5.4899239540100097656 5.4997715950012207031 5.5 5.4905629158020019531 5.472484588623046875 5.4426984786987304688 5.4029970169067382812 5.3463435173034667969 5.2795867919921875 5.1962690353393554688 5.1105899810791015625 5.0181074142456054688 4.9333162307739257812 4.8501248359680175781 4.7799072265625 4.7119507789611816406 4.6505136489868164062 4.5859174728393554688 4.5220885276794433594 4.4459905624389648438 4.364654541015625 4.2747287750244140625 4.19219970703125 4.1153774261474609375 4.0567078590393066406 4.0114903450012207031 3.9781606197357177734 3.9435763359069824219 3.9020478725433349609 3.8393738269805908203 3.7539601325988769531 3.6377186775207519531 3.5100684165954589844 3.3682851791381835938 3.2332041263580322266 3.0997524261474609375 2.9838871955871582031 2.8694069385528564453 2.7592439651489257812 2.6345679759979248047 2.4998679161071777344 2.3378241062164306641 2.1622617244720458984 1.9617862701416015625 1.7568495273590087891 1.5343285799026489258 1.3159554004669189453 1.0884485244750976562 0.87435436248779296875 0.66218066215515136719 0.47287830710411071777 0.2972939908504486084 0.15176719427108764648 0.017544426023960113525 0 0 0 0 0 0 0 0 0 0 0 0 0 0 0 0 0 0 0 0 0 0 0 0 0 0 0 0 0 0 0 0 0 0 0 0 0 0 0 0 0 0 0 0 0 0 0 0 0 0 0 0 0 
2.5015132427215576172 2.54443359375 2.5526058673858642578 2.4715261459350585938 2.4276139736175537109 2.3809566497802734375 2.3788189888000488281 2.4027593135833740234 2.4234187602996826172 2.4177234172821044922 2.4106891155242919922 2.4080870151519775391 2.4088444709777832031 2.4062514305114746094 2.402309417724609375 2.4068906307220458984 2.4021744728088378906 2.4020419120788574219 2.4055852890014648438 2.3982703685760498047 2.3726518154144287109 2.3920221328735351562 2.3985161781311035156 2.3974840641021728516 2.400562286376953125 2.4064748287200927734 2.4070937633514404297 2.4072713851928710938 2.3990232944488525391 2.3974709510803222656 2.3904929161071777344 2.3940007686614990234 2.419353485107421875 2.4047298431396484375 2.3427307605743408203 2.3205766677856445312 2.3513631820678710938 2.4182708263397216797 2.4883036613464355469 3.1396348476409912109 3.9196105003356933594 4.7398829460144042969 5.5054345130920410156 6.0884633064270019531 6.3071069717407226562 6.4645948410034179688 6.6005916595458984375 6.6108837127685546875 6.7323150634765625 6.8888659477233886719 7.0415921211242675781 7.1710023880004882812 7.3426451683044433594 7.5993227958679199219 8.34748077392578125 9.3689594268798828125 9.6030101776123046875 8.8417816162109375 7.7482962608337402344 7.2543649673461914062 7.0793638229370117188 7.2167906761169433594 7.3828611373901367188 7.5151696205139160156 7.6414875984191894531 7.743930816650390625 7.713581085205078125 7.2494769096374511719 6.8717527389526367188 6.6668424606323242188 6.7764272689819335938 6.7456951141357421875 6.5420107841491699219 6.4259085655212402344 6.3080797195434570312 6.1455807685852050781 5.967235565185546875 5.9041886329650878906 5.8890142440795898438 5.87187957763671875 5.8540325164794921875 5.8400030136108398438 5.8329539299011230469 5.86437225341796875 6.0726637840270996094 6.184696197509765625 6.18780517578125 6.0436539649963378906 5.8130941390991210938 5.5559964179992675781 5.2625117301940917969 5.0278706550598144531 5.0874834060668945312 5.1747536659240722656 5.2439527511596679688 5.2947859764099121094 5.3379988670349121094 5.3737978935241699219 5.4071431159973144531 5.4364047050476074219 5.4657258987426757812 5.4939351081848144531 5.5252790451049804688 5.5585141181945800781 5.5984296798706054688 5.642505645751953125 5.6948804855346679688 5.749744415283203125 5.8106546401977539062 5.8693246841430664062 5.9287052154541015625 5.9802646636962890625 6.0254673957824707031 6.0519118309020996094 6.0607380867004394531 6.0560450553894042969 6.0437259674072265625 6.0281186103820800781 6.0090613365173339844 5.9894814491271972656 5.9692950248718261719 5.9513692855834960938 5.9366254806518554688 5.9303903579711914062 5.9339718818664550781 5.9493894577026367188 5.9806170463562011719 6.0253863334655761719 6.087188720703125 6.1559739112854003906 6.2375278472900390625 6.3196387290954589844 6.4100346565246582031 6.4966874122619628906 6.5887522697448730469 6.6723093986511230469 6.7562160491943359375 6.8280572891235351562 6.8956079483032226562 6.9491868019104003906 6.99517059326171875 7.026683807373046875 7.04717254638671875 7.0531826019287109375 7.0464582443237304688 7.0299944877624511719 7.0031456947326660156 6.9702177047729492188 6.9264101982116699219 6.8802323341369628906 6.8283963203430175781 6.7796316146850585938 6.7279229164123535156 6.6814389228820800781 6.6337094306945800781 6.5916280746459960938 6.5483403205871582031 6.50975799560546875 6.4694309234619140625 6.4329538345336914062 6.3936471939086914062 6.355808258056640625 6.3112883567810058594 6.2649884223937988281 6.2072739601135253906 6.1456522941589355469 6.0712833404541015625 5.9986591339111328125 5.9193921089172363281 5.8487682342529296875 5.7788114547729492188 5.7213153839111328125 5.6655426025390625 5.6177930831909179688 5.5683917999267578125 5.5226721763610839844 5.472026824951171875 5.4247698783874511719 5.3765416145324707031 5.3368887901306152344 5.302883148193359375 5.2818346023559570312 5.2714114189147949219 5.2708568572998046875 5.2769107818603515625 5.2858700752258300781 5.2958288192749023438 5.3028569221496582031 5.3061552047729492188 5.3049058914184570312 5.3286609649658203125 5.3821363449096679688 5.4323611259460449219 5.4708881378173828125 5.5028033256530761719 5.5241489410400390625 5.5377492904663085938 5.5419821739196777344 5.5372381210327148438 5.5236392021179199219 5.4986081123352050781 5.4644861221313476562 5.4154081344604492188 5.3523659706115722656 5.2656202316284179688 5.1755385398864746094 5.0775709152221679688 4.9871149063110351562 4.89798736572265625 4.8223409652709960938 4.7478656768798828125 4.677127838134765625 4.5956635475158691406 4.5068559646606445312 4.3989892005920410156 4.2911906242370605469 4.1923136711120605469 4.11004638671875 4.0312771797180175781 3.9688048362731933594 3.9199514389038085938 3.8842501640319824219 3.8484988212585449219 3.8073461055755615234 3.7469635009765625 3.6658115386962890625 3.5563199520111083984 3.4370059967041015625 3.3055679798126220703 3.1830604076385498047 3.0646059513092041016 2.9506676197052001953 2.8259046077728271484 2.7058999538421630859 2.5776433944702148438 2.4456019401550292969 2.2912552356719970703 2.1259746551513671875 1.9375563859939575195 1.7440508604049682617 1.5318008661270141602 1.3203978538513183594 1.0964603424072265625 0.88311040401458740234 0.67022204399108886719 0.48012381792068481445 0.3050848543643951416 0.15432348847389221191 0.0049872766248881816864 0 0 0 0 0 0 0 0 0 0 0 0 0 0 0 0 0 0 0 0 0 0 0 0 0 0 0 0 0 0 0 0 0 0 0 0 0 0 0 0 0 0 0 0 0 0 0 0 0 0 0 0 0 
2.3827564716339111328 2.4435391426086425781 2.5098688602447509766 2.4958984851837158203 2.4952998161315917969 2.4866921901702880859 2.439178466796875 2.3864490985870361328 2.3718008995056152344 2.4021196365356445312 2.4222493171691894531 2.4193789958953857422 2.4134118556976318359 2.4043049812316894531 2.4053995609283447266 2.4003984928131103516 2.3949577808380126953 2.3976202011108398438 2.3983561992645263672 2.3750591278076171875 2.3684787750244140625 2.3778383731842041016 2.3837764263153076172 2.3901424407958984375 2.38994598388671875 2.3937866687774658203 2.3973133563995361328 2.39749908447265625 2.3935582637786865234 2.3915753364562988281 2.3795630931854248047 2.35919189453125 2.3511040210723876953 2.3646271228790283203 2.3251285552978515625 2.3210313320159912109 2.3867423534393310547 2.4401898384094238281 2.5899617671966552734 3.3383100032806396484 4.1843156814575195312 4.9652099609375 5.7016305923461914062 6.1456165313720703125 6.3568024635314941406 6.5340948104858398438 6.6348247528076171875 6.7463755607604980469 6.8920512199401855469 7.0663518905639648438 7.2370090484619140625 7.3659987449645996094 7.5138416290283203125 7.8315057754516601562 8.6320962905883789062 9.5908365249633789062 9.4979457855224609375 8.7032861709594726562 7.645008087158203125 7.2813615798950195312 7.1907367706298828125 7.3157420158386230469 7.4536728858947753906 7.5650548934936523438 7.6701936721801757812 7.7469034194946289062 7.5746779441833496094 7.0632939338684082031 6.7565026283264160156 6.6449828147888183594 6.7574920654296875 6.6503772735595703125 6.4707593917846679688 6.3782067298889160156 6.2286114692687988281 6.0651774406433105469 5.9244742393493652344 5.8990049362182617188 5.8881731033325195312 5.8754425048828125 5.8632960319519042969 5.8556365966796875 5.8528313636779785156 5.9240550994873046875 6.1327815055847167969 6.2095003128051757812 6.1827216148376464844 5.9980797767639160156 5.7778024673461914062 5.54492950439453125 5.2845931053161621094 5.0811734199523925781 5.14897918701171875 5.2364749908447265625 5.3038387298583984375 5.3553228378295898438 5.3987131118774414062 5.4336304664611816406 5.4652733802795410156 5.4919257164001464844 5.5174646377563476562 5.5414476394653320312 5.5682177543640136719 5.5972971916198730469 5.63349151611328125 5.6749677658081054688 5.7255735397338867188 5.7788801193237304688 5.8379511833190917969 5.8958067893981933594 5.9557862281799316406 6.0083780288696289062 6.0547795295715332031 6.0837988853454589844 6.0975937843322753906 6.0984869003295898438 6.0903778076171875 6.0755147933959960938 6.0565743446350097656 6.0379214286804199219 6.0185451507568359375 6.0010266304016113281 5.9863843917846679688 5.9800062179565429688 5.9833312034606933594 5.9986729621887207031 6.0302796363830566406 6.0752811431884765625 6.1377243995666503906 6.2079854011535644531 6.2919325828552246094 6.3770480155944824219 6.4719223976135253906 6.5638141632080078125 6.6611790657043457031 6.7482342720031738281 6.833179473876953125 6.9021916389465332031 6.9624800682067871094 7.005802154541015625 7.0386862754821777344 7.0575451850891113281 7.0658273696899414062 7.063175201416015625 7.0505695343017578125 7.0312652587890625 7.0040597915649414062 6.9727334976196289062 6.9313154220581054688 6.8872761726379394531 6.8372673988342285156 6.789699554443359375 6.73841094970703125 6.6915731430053710938 6.64246368408203125 6.598209381103515625 6.5519161224365234375 6.5102415084838867188 6.4665970802307128906 6.4273328781127929688 6.3855800628662109375 6.3460545539855957031 6.3003444671630859375 6.2535586357116699219 6.1960172653198242188 6.1352224349975585938 6.0623016357421875 5.99114990234375 5.9132609367370605469 5.8431138992309570312 5.7731118202209472656 5.7155303955078125 5.6601719856262207031 5.6131930351257324219 5.5648093223571777344 5.5203719139099121094 5.4716138839721679688 5.4265122413635253906 5.3808188438415527344 5.3435158729553222656 5.3117985725402832031 5.2924594879150390625 5.2833151817321777344 5.2834982872009277344 5.2899684906005859375 5.2990689277648925781 5.3090271949768066406 5.31601715087890625 5.3193583488464355469 5.3200511932373046875 5.3471961021423339844 5.4010229110717773438 5.4528565406799316406 5.4934568405151367188 5.5281109809875488281 5.5524191856384277344 5.5694971084594726562 5.5771927833557128906 5.5762109756469726562 5.5659856796264648438 5.5440449714660644531 5.5114912986755371094 5.4607992172241210938 5.3951568603515625 5.30731964111328125 5.2151021957397460938 5.1138095855712890625 5.0195355415344238281 4.9259228706359863281 4.8459286689758300781 4.7669658660888671875 4.6920461654663085938 4.6071667671203613281 4.5184993743896484375 4.4137024879455566406 4.3063688278198242188 4.1933312416076660156 4.0916185379028320312 3.9953203201293945312 3.9188313484191894531 3.8569028377532958984 3.8102383613586425781 3.7643640041351318359 3.7147150039672851562 3.6463837623596191406 3.5583131313323974609 3.4418265819549560547 3.3156862258911132812 3.1768846511840820312 3.0466086864471435547 2.9218292236328125 2.8161668777465820312 2.7086918354034423828 2.6034264564514160156 2.485569000244140625 2.3614525794982910156 2.2171177864074707031 2.0636694431304931641 1.8888603448867797852 1.7084330320358276367 1.5085060596466064453 1.306481480598449707 1.089001774787902832 0.87910938262939453125 0.66753607988357543945 0.47665095329284667969 0.2988065183162689209 0.092479243874549865723 0 0 0 0 0 0 0 0 0 0 0 0 0 0 0 0 0 0 0 0 0 0 0 0 0 0 0 0 0 0 0 0 0 0 0 0 0 0 0 0 0 0 0 0 0 0 0 0 0 0 0 0 0 0 
2.3530325889587402344 2.3614327907562255859 2.3734369277954101562 2.3924434185028076172 2.4300272464752197266 2.468685150146484375 2.5036702156066894531 2.4789748191833496094 2.3997228145599365234 2.3870174884796142578 2.36368560791015625 2.3811688423156738281 2.4110367298126220703 2.4060616493225097656 2.4003319740295410156 2.3897149562835693359 2.3812360763549804688 2.3825261592864990234 2.3782708644866943359 2.3416087627410888672 2.3539717197418212891 2.3509261608123779297 2.3565914630889892578 2.3649032115936279297 2.3640961647033691406 2.3726086616516113281 2.378452301025390625 2.3782649040222167969 2.3795118331909179688 2.3725981712341308594 2.3559567928314208984 2.3057179450988769531 2.3937973976135253906 2.4524412155151367188 2.4031674861907958984 2.3568363189697265625 2.3904709815979003906 2.4179742336273193359 2.6411604881286621094 3.50792694091796875 4.4104018211364746094 5.0982613563537597656 5.620849609375 5.9707193374633789062 6.2596993446350097656 6.4939141273498535156 6.57126617431640625 6.6918325424194335938 6.8291106224060058594 7.07674407958984375 7.179931640625 7.2250437736511230469 7.4578776359558105469 7.8797793388366699219 8.8250217437744140625 9.6787042617797851562 9.3585071563720703125 8.1401348114013671875 7.2629756927490234375 7.0652141571044921875 7.0011777877807617188 7.15032196044921875 7.2971625328063964844 7.4162726402282714844 7.5280084609985351562 7.5844178199768066406 7.2411251068115234375 6.7906708717346191406 6.6015944480895996094 6.6596364974975585938 6.6688232421875 6.4860391616821289062 6.3349285125732421875 6.2509064674377441406 6.0959343910217285156 5.9399290084838867188 5.8585743904113769531 5.8444495201110839844 5.8360600471496582031 5.8321089744567871094 5.8314614295959472656 5.8357567787170410156 5.845592498779296875 5.9617071151733398438 6.1309046745300292969 6.1973948478698730469 6.1150360107421875 5.9211068153381347656 5.6953611373901367188 5.4618997573852539062 5.2067189216613769531 5.0080380439758300781 5.0630588531494140625 5.1493368148803710938 5.2286849021911621094 5.2942461967468261719 5.3522505760192871094 5.3979382514953613281 5.4362416267395019531 5.4654722213745117188 5.4906029701232910156 5.5120625495910644531 5.5345978736877441406 5.5580945014953613281 5.5869293212890625 5.6197052001953125 5.6591768264770507812 5.7005367279052734375 5.7464766502380371094 5.7912302017211914062 5.8381304740905761719 5.8812594413757324219 5.9236168861389160156 5.9593052864074707031 5.9902987480163574219 6.0115900039672851562 6.0243778228759765625 6.0280241966247558594 6.0245008468627929688 6.0159158706665039062 6.0045695304870605469 5.9943366050720214844 5.9878754615783691406 5.9886455535888671875 5.9997658729553222656 6.0223169326782226562 6.0614147186279296875 6.1139135360717773438 6.1846818923950195312 6.2630133628845214844 6.3557162284851074219 6.4493837356567382812 6.5528836250305175781 6.6507449150085449219 6.7516827583312988281 6.8395824432373046875 6.9218797683715820312 6.9845061302185058594 7.033321380615234375 7.0631341934204101562 7.0807142257690429688 7.0858120918273925781 7.0815839767456054688 7.0705151557922363281 7.0524444580078125 7.0299358367919921875 6.9998950958251953125 6.9673037528991699219 6.928691864013671875 6.8902230262756347656 6.8466830253601074219 6.8043088912963867188 6.7568840980529785156 6.7111954689025878906 6.6608939170837402344 6.6138906478881835938 6.5637259483337402344 6.5181903839111328125 6.4704866409301757812 6.427860260009765625 6.3831553459167480469 6.3415923118591308594 6.2944474220275878906 6.2470483779907226562 6.1895694732666015625 6.1293849945068359375 6.0574669837951660156 5.9873027801513671875 5.9102835655212402344 5.8410186767578125 5.771526336669921875 5.7135744094848632812 5.656879425048828125 5.6088204383850097656 5.5607209205627441406 5.5177764892578125 5.4713807106018066406 5.4288926124572753906 5.3861689567565917969 5.3514924049377441406 5.3221416473388671875 5.3043131828308105469 5.2959260940551757812 5.2961406707763671875 5.3021306991577148438 5.3104929924011230469 5.3195595741271972656 5.3258023262023925781 5.3296484947204589844 5.3390507698059082031 5.3675141334533691406 5.4158849716186523438 5.4695248603820800781 5.5126695632934570312 5.5506796836853027344 5.5785360336303710938 5.599613189697265625 5.6110682487487792969 5.6138706207275390625 5.60638427734375 5.5846080780029296875 5.5489277839660644531 5.4939050674438476562 5.4255957603454589844 5.3371000289916992188 5.2431993484497070312 5.1392269134521484375 5.0427098274230957031 4.9475655555725097656 4.8673238754272460938 4.7904534339904785156 4.7214684486389160156 4.6466641426086425781 4.5666956901550292969 4.4654393196105957031 4.3538846969604492188 4.2270874977111816406 4.1063671112060546875 3.9876980781555175781 3.8913035392761230469 3.8110139369964599609 3.7482171058654785156 3.6862671375274658203 3.6222326755523681641 3.5398347377777099609 3.4394278526306152344 3.3110187053680419922 3.1742484569549560547 3.0247790813446044922 2.8847453594207763672 2.7497999668121337891 2.6363294124603271484 2.529193878173828125 2.4316053390502929688 2.3283598423004150391 2.2220475673675537109 2.0959684848785400391 1.958811640739440918 1.8002259731292724609 1.6349391937255859375 1.4493263959884643555 1.2583899497985839844 1.0488032102584838867 0.84318441152572631836 0.63336157798767089844 0.44302675127983093262 0.26093059778213500977 0.037278585135936737061 0 0 0 0 0 0 0 0 0 0 0 0 0 0 0 0 0 0 0 0 0 0 0 0 0 0 0 0 0 0 0 0 0 0 0 0 0 0 0 0 0 0 0 0 0 0 0 0 0 0 0 0 0 0 
2.3684811592102050781 2.3546407222747802734 2.3420820236206054688 2.3333914279937744141 2.3295164108276367188 2.3445603847503662109 2.400234222412109375 2.4473905563354492188 2.46453857421875 2.4489302635192871094 2.3438248634338378906 2.3048217296600341797 2.3197934627532958984 2.3538663387298583984 2.3789210319519042969 2.3883574008941650391 2.3764450550079345703 2.3679468631744384766 2.3472521305084228516 2.3384847640991210938 2.3567981719970703125 2.3357334136962890625 2.3337674140930175781 2.3379542827606201172 2.3403525352478027344 2.3501894474029541016 2.3582375049591064453 2.3604052066802978516 2.3575038909912109375 2.3465266227722167969 2.32942962646484375 2.2882056236267089844 2.4301400184631347656 2.4912698268890380859 2.4793870449066162109 2.4333789348602294922 2.3766214847564697266 2.4176776409149169922 2.8601045608520507812 3.7828583717346191406 4.5660138130187988281 5.1768779754638671875 5.5734696388244628906 5.9060902595520019531 6.2077651023864746094 6.4012465476989746094 6.4538965225219726562 6.475475311279296875 6.5495791435241699219 6.9066185951232910156 7.0656752586364746094 7.0996389389038085938 7.3712892532348632812 7.9779686927795410156 8.946857452392578125 9.6326856613159179688 9.06055450439453125 7.7153143882751464844 7.0768790245056152344 6.8372502326965332031 6.8119482994079589844 6.9790973663330078125 7.1356420516967773438 7.271610260009765625 7.3962612152099609375 7.3879094123840332031 6.9133939743041992188 6.5768742561340332031 6.5211591720581054688 6.6360726356506347656 6.5444178581237792969 6.3498358726501464844 6.2309546470642089844 6.1204233169555664062 5.966892242431640625 5.8334746360778808594 5.7944855690002441406 5.7864971160888671875 5.7816562652587890625 5.7808413505554199219 5.7855520248413085938 5.7980508804321289062 5.8302712440490722656 5.9753766059875488281 6.0907130241394042969 6.1377973556518554688 6.0295476913452148438 5.8152890205383300781 5.5826864242553710938 5.3535146713256835938 5.1109743118286132812 4.9255762100219726562 4.9799909591674804688 5.0648183822631835938 5.1445751190185546875 5.2122702598571777344 5.27408599853515625 5.3248777389526367188 5.3691959381103515625 5.4029297828674316406 5.4298524856567382812 5.4496440887451171875 5.467254638671875 5.4843950271606445312 5.5062713623046875 5.5332493782043457031 5.5679874420166015625 5.6060233116149902344 5.6496753692626953125 5.6930699348449707031 5.7386012077331542969 5.7800850868225097656 5.8206119537353515625 5.8551473617553710938 5.8865227699279785156 5.9105954170227050781 5.9295020103454589844 5.9420623779296875 5.9513888359069824219 5.9579777717590332031 5.9641695022583007812 5.9706616401672363281 5.9798402786254882812 5.9927854537963867188 6.0136475563049316406 6.0431418418884277344 6.0883588790893554688 6.1461915969848632812 6.2227473258972167969 6.307041168212890625 6.4068346023559570312 6.5075106620788574219 6.6186432838439941406 6.7230610847473144531 6.8293423652648925781 6.9198207855224609375 7.0015978813171386719 7.0600328445434570312 7.1001772880554199219 7.1186857223510742188 7.1222615242004394531 7.1141800880432128906 7.0975270271301269531 7.0775771141052246094 7.0529928207397460938 7.02715301513671875 6.9964094161987304688 6.9649996757507324219 6.9286651611328125 6.8926076889038085938 6.851657867431640625 6.8116049766540527344 6.76654052734375 6.7228765487670898438 6.674045562744140625 6.6272602081298828125 6.5757617950439453125 6.5276875495910644531 6.4765706062316894531 6.4308991432189941406 6.38338470458984375 6.3397216796875 6.2908601760864257812 6.2423944473266601562 6.1843624114990234375 6.1242532730102539062 6.0529451370239257812 5.98366546630859375 5.9078602790832519531 5.839847564697265625 5.7714109420776367188 5.7140622138977050781 5.6577448844909667969 5.6094746589660644531 5.5601949691772460938 5.5164132118225097656 5.4712309837341308594 5.4312872886657714844 5.3914599418640136719 5.359210968017578125 5.3318400382995605469 5.3149762153625488281 5.3065662384033203125 5.305965423583984375 5.310512542724609375 5.3172616958618164062 5.3245987892150878906 5.3295645713806152344 5.3364787101745605469 5.3518033027648925781 5.3809189796447753906 5.4242224693298339844 5.4789857864379882812 5.5249114036560058594 5.5665740966796875 5.5982375144958496094 5.6234989166259765625 5.6386885643005371094 5.6439142227172851562 5.6360254287719726562 5.6125979423522949219 5.5757613182067871094 5.5196862220764160156 5.4502859115600585938 5.3612470626831054688 5.2681498527526855469 5.1654987335205078125 5.0704822540283203125 4.9785518646240234375 4.9040365219116210938 4.8344168663024902344 4.7701511383056640625 4.6960420608520507812 4.6133089065551757812 4.5061583518981933594 4.3866238594055175781 4.2492122650146484375 4.1165714263916015625 3.9834847450256347656 3.8717260360717773438 3.7745265960693359375 3.69664764404296875 3.6201150417327880859 3.542911529541015625 3.4475691318511962891 3.3359079360961914062 3.1968402862548828125 3.0508301258087158203 2.8924851417541503906 2.7445962429046630859 2.6018533706665039062 2.4815249443054199219 2.3691487312316894531 2.2689995765686035156 2.1663637161254882812 2.0647256374359130859 1.9496943950653076172 1.8279349803924560547 1.6867671012878417969 1.5362882614135742188 1.3635383844375610352 1.1833071708679199219 0.9828484654426574707 0.78444594144821166992 0.5809803009033203125 0.39593550562858581543 0.20252822339534759521 0 0 0 0 0 0 0 0 0 0 0 0 0 0 0 0 0 0 0 0 0 0 0 0 0 0 0 0 0 0 0 0 0 0 0 0 0 0 0 0 0 0 0 0 0 0 0 0 0 0 0 0 0 0 0 
2.3646864891052246094 2.3661034107208251953 2.3507421016693115234 2.3382222652435302734 2.3154277801513671875 2.3018686771392822266 2.3264553546905517578 2.3086996078491210938 2.3530488014221191406 2.3767998218536376953 2.3152446746826171875 2.2877335548400878906 2.2843534946441650391 2.3171331882476806641 2.3120665550231933594 2.3195760250091552734 2.3406043052673339844 2.3497321605682373047 2.3382158279418945312 2.3524277210235595703 2.3419749736785888672 2.321018218994140625 2.3168764114379882812 2.3193783760070800781 2.3209686279296875 2.3253290653228759766 2.3359475135803222656 2.3364586830139160156 2.3326344490051269531 2.3217856884002685547 2.280887603759765625 2.3059484958648681641 2.4433393478393554688 2.4369382858276367188 2.4363813400268554688 2.3884360790252685547 2.3432459831237792969 2.4192740917205810547 3.0554933547973632812 3.9075441360473632812 4.5849771499633789062 5.152164459228515625 5.5383725166320800781 5.8506908416748046875 6.0883798599243164062 6.209415435791015625 6.2324686050415039062 6.2479338645935058594 6.3679494857788085938 6.8184714317321777344 6.9937343597412109375 7.0686120986938476562 7.4029054641723632812 8.148189544677734375 8.9736728668212890625 9.29833984375 8.5743732452392578125 7.4816904067993164062 6.8842868804931640625 6.6211347579956054688 6.6638379096984863281 6.8453111648559570312 7.0202212333679199219 7.1704654693603515625 7.2893309593200683594 7.1276378631591796875 6.63184356689453125 6.4167714118957519531 6.4796848297119140625 6.551799774169921875 6.3878579139709472656 6.2021012306213378906 6.1033782958984375 5.9855437278747558594 5.8338518142700195312 5.7315640449523925781 5.7239003181457519531 5.7244086265563964844 5.726284027099609375 5.7293295860290527344 5.7340426445007324219 5.7409448623657226562 5.7810711860656738281 5.9263863563537597656 6.0124058723449707031 6.0656337738037109375 5.9307618141174316406 5.6939225196838378906 5.4598755836486816406 5.2394232749938964844 5.0118384361267089844 4.8405504226684570312 4.8947324752807617188 4.9776473045349121094 5.0563406944274902344 5.123661041259765625 5.1852507591247558594 5.2355475425720214844 5.2791147232055664062 5.3122806549072265625 5.3392357826232910156 5.3598194122314453125 5.3787961006164550781 5.3970079421997070312 5.4189891815185546875 5.4452123641967773438 5.4787149429321289062 5.5151467323303222656 5.5563173294067382812 5.5967836380004882812 5.6394014358520507812 5.6789307594299316406 5.7186818122863769531 5.7538800239562988281 5.7874894142150878906 5.8152346611022949219 5.8396906852722167969 5.8589673042297363281 5.8766808509826660156 5.8922548294067382812 5.9088892936706542969 5.9260702133178710938 5.947582244873046875 5.9732255935668945312 6.0084733963012695312 6.0516028404235839844 6.1100831031799316406 6.1788496971130371094 6.2652621269226074219 6.3569746017456054688 6.462856292724609375 6.5681557655334472656 6.6837153434753417969 6.7920551300048828125 6.9018216133117675781 6.9942178726196289062 7.0756626129150390625 7.1307048797607421875 7.1635541915893554688 7.1726865768432617188 7.1649460792541503906 7.1461052894592285156 7.1185688972473144531 7.0901918411254882812 7.0593891143798828125 7.0302290916442871094 6.9981660842895507812 6.9671182632446289062 6.931915283203125 6.8969016075134277344 6.8567728996276855469 6.8171687126159667969 6.7722544670104980469 6.7284345626831054688 6.6791667938232421875 6.6318635940551757812 6.579883575439453125 6.5313658714294433594 6.4793462753295898438 6.43204498291015625 6.3823199272155761719 6.3367681503295898438 6.2863626480102539062 6.2369842529296875 6.1785607337951660156 6.11865997314453125 6.048107147216796875 5.9798765182495117188 5.9055204391479492188 5.8388905525207519531 5.7717385292053222656 5.7153248786926269531 5.659847259521484375 5.6123251914978027344 5.5639233589172363281 5.5205621719360351562 5.4747557640075683594 5.4348120689392089844 5.3971080780029296875 5.367282867431640625 5.3416638374328613281 5.3252243995666503906 5.3158593177795410156 5.3133397102355957031 5.3151412010192871094 5.3190679550170898438 5.323520660400390625 5.3274211883544921875 5.3377146720886230469 5.355846405029296875 5.3857946395874023438 5.4263544082641601562 5.4816498756408691406 5.5311293601989746094 5.5774445533752441406 5.6139230728149414062 5.6441855430603027344 5.6622257232666015625 5.6682105064392089844 5.6607785224914550781 5.6378865242004394531 5.6013674736022949219 5.5461568832397460938 5.4790349006652832031 5.3932981491088867188 5.3031325340270996094 5.2040643692016601562 5.1140680313110351562 5.02779388427734375 4.9566431045532226562 4.8877882957458496094 4.8220601081848144531 4.7444829940795898438 4.6568627357482910156 4.5429472923278808594 4.4155488014221191406 4.268329620361328125 4.1249675750732421875 3.9790399074554443359 3.8535857200622558594 3.7404055595397949219 3.646305084228515625 3.5530033111572265625 3.4611825942993164062 3.3517975807189941406 3.2281880378723144531 3.0781698226928710938 2.9229836463928222656 2.7560496330261230469 2.6006569862365722656 2.4505198001861572266 2.3235936164855957031 2.2056078910827636719 2.101818084716796875 1.9976613521575927734 1.8972245454788208008 1.7867170572280883789 1.6723217964172363281 1.5419974327087402344 1.4047770500183105469 1.246937870979309082 1.0786454677581787109 0.88812881708145141602 0.6980788111686706543 0.50250160694122314453 0.32455840706825256348 0.092989303171634674072 0 0 0 0 0 0 0 0 0 0 0 0 0 0 0 0 0 0 0 0 0 0 0 0 0 0 0 0 0 0 0 0 0 0 0 0 0 0 0 0 0 0 0 0 0 0 0 0 0 0 0 0 0 0 0 
2.3417069911956787109 2.3472409248352050781 2.3528943061828613281 2.3543889522552490234 2.3406326770782470703 2.3211808204650878906 2.3357646465301513672 2.306118011474609375 2.2757856845855712891 2.2843716144561767578 2.2891216278076171875 2.2783830165863037109 2.2972962856292724609 2.3704464435577392578 2.3582789897918701172 2.3041036128997802734 2.2790033817291259766 2.2813305854797363281 2.3006780147552490234 2.3448662757873535156 2.3470463752746582031 2.3288891315460205078 2.3130364418029785156 2.3082230091094970703 2.3073456287384033203 2.3063170909881591797 2.3124783039093017578 2.3143208026885986328 2.3141937255859375 2.3120145797729492188 2.2640719413757324219 2.3437139987945556641 2.4228122234344482422 2.4042441844940185547 2.4046916961669921875 2.3426187038421630859 2.3212511539459228516 2.4682931900024414062 3.2025945186614990234 4.0141472816467285156 4.6757788658142089844 5.152248382568359375 5.506420135498046875 5.7575430870056152344 5.9500451087951660156 6.0381312370300292969 6.0525970458984375 6.0931415557861328125 6.2793974876403808594 6.6390776634216308594 6.85533905029296875 7.047649383544921875 7.3742051124572753906 8.2520875930786132812 8.9276981353759765625 8.7668180465698242188 8.0030889511108398438 7.1835355758666992188 6.6658267974853515625 6.4701213836669921875 6.5652804374694824219 6.7594027519226074219 6.9429211616516113281 7.0953078269958496094 7.1823506355285644531 6.8437933921813964844 6.4295830726623535156 6.3273806571960449219 6.4420871734619140625 6.4252629280090332031 6.2364840507507324219 6.0632123947143554688 5.9946422576904296875 5.8611760139465332031 5.7104554176330566406 5.6458587646484375 5.6566691398620605469 5.6626620292663574219 5.6651949882507324219 5.6666378974914550781 5.6686148643493652344 5.6683688163757324219 5.7164096832275390625 5.8648166656494140625 5.9442076683044433594 5.9837741851806640625 5.8018612861633300781 5.5629024505615234375 5.3380122184753417969 5.1310505867004394531 4.920238494873046875 4.7632722854614257812 4.8172216415405273438 4.8972859382629394531 4.9727153778076171875 5.0368227958679199219 5.0954546928405761719 5.1437511444091796875 5.1862936019897460938 5.2195267677307128906 5.2475862503051757812 5.2700667381286621094 5.2917103767395019531 5.3129162788391113281 5.3379273414611816406 5.3658466339111328125 5.3991146087646484375 5.4336953163146972656 5.4724149703979492188 5.510997772216796875 5.5524005889892578125 5.5916118621826171875 5.6319680213928222656 5.6687021255493164062 5.7050051689147949219 5.736415863037109375 5.7659478187561035156 5.7910542488098144531 5.8157444000244140625 5.8384470939636230469 5.8628454208374023438 5.8873858451843261719 5.9167914390563964844 5.9502415657043457031 5.9944057464599609375 6.0468373298645019531 6.1164345741271972656 6.1966080665588378906 6.2951536178588867188 6.3974137306213378906 6.5128536224365234375 6.6251153945922851562 6.7454514503479003906 6.8554997444152832031 6.9645318984985351562 7.05464935302734375 7.1326189041137695312 7.1834859848022460938 7.2109398841857910156 7.2142229080200195312 7.1994276046752929688 7.1735606193542480469 7.1391606330871582031 7.1058797836303710938 7.0716042518615722656 7.0404429435729980469 7.0069875717163085938 6.9749298095703125 6.9387187957763671875 6.902751922607421875 6.8616080284118652344 6.8209891319274902344 6.774806976318359375 6.7297124862670898438 6.6790895462036132812 6.6306400299072265625 6.577640533447265625 6.5284628868103027344 6.47615814208984375 6.4290456771850585938 6.3795642852783203125 6.3337306976318359375 6.2825255393981933594 6.2325086593627929688 6.1738181114196777344 6.1140799522399902344 6.0441012382507324219 5.9766983985900878906 5.9035038948059082031 5.8380136489868164062 5.772045135498046875 5.7166471481323242188 5.6622533798217773438 5.6158099174499511719 5.568737030029296875 5.5268254280090332031 5.4826788902282714844 5.4431200027465820312 5.4041905403137207031 5.37424468994140625 5.3495202064514160156 5.3328633308410644531 5.3217325210571289062 5.3164806365966796875 5.3146643638610839844 5.3150148391723632812 5.3159918785095214844 5.319232940673828125 5.3307123184204101562 5.3498940467834472656 5.3806719779968261719 5.4209203720092773438 5.4768786430358886719 5.5301485061645507812 5.5814309120178222656 5.6228017807006835938 5.6566286087036132812 5.6768159866333007812 5.6851482391357421875 5.6797313690185546875 5.6592621803283691406 5.6267123222351074219 5.5767412185668945312 5.5135884284973144531 5.4312276840209960938 5.3451242446899414062 5.2507762908935546875 5.163547515869140625 5.0780544281005859375 5.0061984062194824219 4.9354081153869628906 4.8668804168701171875 4.7853937149047851562 4.693210601806640625 4.5735464096069335938 4.43975830078125 4.2846527099609375 4.1325898170471191406 3.9760165214538574219 3.8389062881469726562 3.7118105888366699219 3.6033489704132080078 3.4943709373474121094 3.3880360126495361328 3.2651388645172119141 3.1305220127105712891 2.9707975387573242188 2.8077859878540039062 2.6337630748748779297 2.4722883701324462891 2.3161168098449707031 2.1835789680480957031 2.0602765083312988281 1.9524679183959960938 1.8456541299819946289 1.7444895505905151367 1.6354517936706542969 1.5244678258895874023 1.3993154764175415039 1.2680200338363647461 1.1170642375946044922 0.95685082674026489258 0.77549982070922851562 0.59356266260147094727 0.40584546327590942383 0.23505294322967529297 0.02136868797242641449 0 0 0 0 0 0 0 0 0 0 0 0 0 0 0 0 0 0 0 0 0 0 0 0 0 0 0 0 0 0 0 0 0 0 0 0 0 0 0 0 0 0 0 0 0 0 0 0 0 0 0 0 0 0 0 
2.3297517299652099609 2.3325135707855224609 2.3338789939880371094 2.3321423530578613281 2.3348557949066162109 2.32805633544921875 2.3364381790161132812 2.3262708187103271484 2.2975444793701171875 2.2867562770843505859 2.2920639514923095703 2.265460968017578125 2.2920198440551757812 2.3897650241851806641 2.3861372470855712891 2.3307487964630126953 2.3192796707153320312 2.3165621757507324219 2.2772319316864013672 2.271999359130859375 2.3029258251190185547 2.3240103721618652344 2.3212213516235351562 2.3118689060211181641 2.3046784400939941406 2.2983992099761962891 2.2959575653076171875 2.2964587211608886719 2.2995467185974121094 2.2917656898498535156 2.2722871303558349609 2.3683412075042724609 2.3891534805297851562 2.3464679718017578125 2.3400919437408447266 2.3012146949768066406 2.3118176460266113281 2.6408460140228271484 3.4220607280731201172 4.1637921333312988281 4.7079648971557617188 5.1308283805847167969 5.4566826820373535156 5.704784393310546875 5.8381609916687011719 5.9040803909301757812 5.9259715080261230469 5.97640228271484375 6.2567586898803710938 6.5766143798828125 6.7655124664306640625 6.9725446701049804688 7.3444724082946777344 8.315441131591796875 8.9171810150146484375 8.48828125 7.3770322799682617188 6.838039398193359375 6.4621524810791015625 6.3414011001586914062 6.4846124649047851562 6.6876344680786132812 6.8725309371948242188 7.018314361572265625 6.981109619140625 6.5321288108825683594 6.2658534049987792969 6.2748141288757324219 6.3635916709899902344 6.2742929458618164062 6.0768742561340332031 5.9460320472717285156 5.8688845634460449219 5.7215785980224609375 5.5851845741271972656 5.5661468505859375 5.5776166915893554688 5.5819373130798339844 5.5833544731140136719 5.5847449302673339844 5.5881466865539550781 5.5940222740173339844 5.6801052093505859375 5.80951690673828125 5.8765492439270019531 5.8092069625854492188 5.6000657081604003906 5.3964285850524902344 5.1946444511413574219 5.008045196533203125 4.8185758590698242188 4.6785883903503417969 4.7316722869873046875 4.8075470924377441406 4.8786859512329101562 4.9392514228820800781 4.995029449462890625 5.0416002273559570312 5.0835824012756347656 5.1176476478576660156 5.14795684814453125 5.1734919548034667969 5.1984820365905761719 5.2222075462341308594 5.2489094734191894531 5.27777862548828125 5.3117909431457519531 5.3469815254211425781 5.3859333992004394531 5.4241147041320800781 5.4650464057922363281 5.50443267822265625 5.5458955764770507812 5.58463287353515625 5.6241273880004882812 5.6596760749816894531 5.6947607994079589844 5.7260847091674804688 5.7579813003540039062 5.7878170013427734375 5.8199582099914550781 5.8518853187561035156 5.8891048431396484375 5.9300112724304199219 5.9822969436645507812 6.0427408218383789062 6.1213693618774414062 6.2106485366821289062 6.3193492889404296875 6.431308746337890625 6.5564928054809570312 6.6763606071472167969 6.8021140098571777344 6.9147090911865234375 7.0239872932434082031 7.1117658615112304688 7.1846365928649902344 7.2294688224792480469 7.2504367828369140625 7.2480454444885253906 7.2278795242309570312 7.1979174613952636719 7.1600909233093261719 7.1243300437927246094 7.0879998207092285156 7.0553693771362304688 7.0206618309020996094 6.9874434471130371094 6.9495973587036132812 6.9115233421325683594 6.8676614761352539062 6.8244566917419433594 6.7758011817932128906 6.7287311553955078125 6.6763143539428710938 6.6265316009521484375 6.5724692344665527344 6.5226573944091796875 6.4700613021850585938 6.4230480194091796875 6.3740925788879394531 6.3291430473327636719 6.2789392471313476562 6.2292766571044921875 6.1704645156860351562 6.110698699951171875 6.0409803390502929688 5.9740748405456542969 5.9016709327697753906 5.8370571136474609375 5.7721605300903320312 5.717861175537109375 5.6648030281066894531 5.6197729110717773438 5.574451446533203125 5.5343952178955078125 5.4924435615539550781 5.4547705650329589844 5.4165220260620117188 5.3843622207641601562 5.3564348220825195312 5.338108062744140625 5.3243861198425292969 5.3155293464660644531 5.3091115951538085938 5.3050074577331542969 5.3019351959228515625 5.3039379119873046875 5.3150944709777832031 5.3345856666564941406 5.3663196563720703125 5.4076285362243652344 5.4651660919189453125 5.52264404296875 5.5792307853698730469 5.6244854927062988281 5.6618218421936035156 5.6856403350830078125 5.6979947090148925781 5.6979737281799316406 5.6855325698852539062 5.659912109375 5.6154947280883789062 5.5570950508117675781 5.4799189567565917969 5.3973941802978515625 5.3047165870666503906 5.2174487113952636719 5.1306691169738769531 5.0568089485168457031 4.983219146728515625 4.9114389419555664062 4.8258609771728515625 4.7291684150695800781 4.6040048599243164062 4.4641790390014648438 4.3015804290771484375 4.1411151885986328125 3.9740376472473144531 3.8251616954803466797 3.6837537288665771484 3.5604152679443359375 3.4352617263793945312 3.3138010501861572266 3.1763474941253662109 3.0302941799163818359 2.8609945774078369141 2.69051361083984375 2.5098268985748291016 2.3425571918487548828 2.1803402900695800781 2.0417771339416503906 1.9122155904769897461 1.7989815473556518555 1.6876130104064941406 1.5836232900619506836 1.4736770391464233398 1.3637549877166748047 1.2414449453353881836 1.1141988039016723633 0.96841353178024291992 0.81343173980712890625 0.63736432790756225586 0.46149027347564697266 0.28207442164421081543 0.098441496491432189941 0 0 0 0 0 0 0 0 0 0 0 0 0 0 0 0 0 0 0 0 0 0 0 0 0 0 0 0 0 0 0 0 0 0 0 0 0 0 0 0 0 0 0 0 0 0 0 0 0 0 0 0 0 0 0 0 
2.3147890567779541016 2.3166975975036621094 2.3177158832550048828 2.3166782855987548828 2.3120710849761962891 2.3113906383514404297 2.3114902973175048828 2.3089609146118164062 2.3080561161041259766 2.3096258640289306641 2.2992334365844726562 2.2637133598327636719 2.2986795902252197266 2.3754098415374755859 2.3600900173187255859 2.3318119049072265625 2.3327775001525878906 2.3558728694915771484 2.3327968120574951172 2.3088500499725341797 2.3056497573852539062 2.2889573574066162109 2.2545742988586425781 2.2802734375 2.3065130710601806641 2.3084962368011474609 2.3004250526428222656 2.304386138916015625 2.3105854988098144531 2.2743828296661376953 2.2860856056213378906 2.3148615360260009766 2.3170378208160400391 2.3050291538238525391 2.2987048625946044922 2.2868599891662597656 2.4146976470947265625 2.8938021659851074219 3.5950105190277099609 4.228595733642578125 4.7600731849670410156 5.1689238548278808594 5.5016741752624511719 5.7102704048156738281 5.8459868431091308594 5.8449811935424804688 5.8308801651000976562 5.9354143142700195312 6.1856045722961425781 6.4474887847900390625 6.6991572380065917969 6.918926239013671875 7.4545073509216308594 8.4443035125732421875 8.7736673355102539062 8.2673597335815429688 7.0575971603393554688 6.6364035606384277344 6.29134368896484375 6.2559099197387695312 6.4296355247497558594 6.6309118270874023438 6.8135776519775390625 6.9386491775512695312 6.6947603225708007812 6.297092437744140625 6.1476335525512695312 6.2208690643310546875 6.2762198448181152344 6.1275792121887207031 5.9314827919006347656 5.844890594482421875 5.7428503036499023438 5.5901441574096679688 5.4946498870849609375 5.4918484687805175781 5.4949598312377929688 5.4954938888549804688 5.4954886436462402344 5.4981737136840820312 5.5070366859436035156 5.5337376594543457031 5.6625227928161621094 5.7463994026184082031 5.71552276611328125 5.5712099075317382812 5.397441864013671875 5.2254414558410644531 5.0495519638061523438 4.8849816322326660156 4.7174735069274902344 4.5948476791381835938 4.6475973129272460938 4.72042083740234375 4.788509368896484375 4.8463015556335449219 4.8997445106506347656 4.9450068473815917969 4.9868397712707519531 5.0221304893493652344 5.054790496826171875 5.0828599929809570312 5.1104784011840820312 5.1366796493530273438 5.1656484603881835938 5.1959939002990722656 5.2309069633483886719 5.2666530609130859375 5.3062524795532226562 5.3453617095947265625 5.3874063491821289062 5.4277868270874023438 5.4705781936645507812 5.5113520622253417969 5.5539789199829101562 5.593502044677734375 5.6337766647338867188 5.6707239151000976562 5.7091493606567382812 5.7456431388854980469 5.7851300239562988281 5.8240942955017089844 5.868743896484375 5.9166469573974609375 5.9763512611389160156 6.0438246726989746094 6.1299791336059570312 6.2263779640197753906 6.3423895835876464844 6.4606423377990722656 6.5915169715881347656 6.71546173095703125 6.8438200950622558594 6.9568819999694824219 7.0646638870239257812 7.1498408317565917969 7.2196059226989746094 7.2612943649291992188 7.2782421112060546875 7.2717289924621582031 7.2478013038635253906 7.2154088020324707031 7.1760168075561523438 7.1395511627197265625 7.1029000282287597656 7.0699381828308105469 7.0344738960266113281 7.0001215934753417969 6.9606175422668457031 6.9205236434936523438 6.8740816116333007812 6.8282542228698730469 6.7767620086669921875 6.7273793220520019531 6.6731443405151367188 6.6222715377807617188 6.5674591064453125 6.5172781944274902344 6.4646000862121582031 6.4177689552307128906 6.3692684173583984375 6.3249635696411132812 6.2756967544555664062 6.2271380424499511719 6.1693091392517089844 6.1097321510314941406 6.0397887229919433594 5.972789764404296875 5.9005031585693359375 5.8362207412719726562 5.7719755172729492188 5.71857452392578125 5.6667885780334472656 5.6231899261474609375 5.57965087890625 5.5414323806762695312 5.5015659332275390625 5.4656615257263183594 5.4286761283874511719 5.3963947296142578125 5.3649182319641113281 5.3409662246704101562 5.3229131698608398438 5.3104033470153808594 5.2994694709777832031 5.2910566329956054688 5.284198760986328125 5.2843337059020996094 5.2943654060363769531 5.3137621879577636719 5.3464713096618652344 5.3894772529602050781 5.4493632316589355469 5.5104441642761230469 5.5704197883605957031 5.6185846328735351562 5.6597676277160644531 5.6881604194641113281 5.7086997032165527344 5.7177443504333496094 5.7131476402282714844 5.6935176849365234375 5.6552767753601074219 5.6019825935363769531 5.5281186103820800781 5.4468679428100585938 5.3540873527526855469 5.2657465934753417969 5.177135467529296875 5.10114288330078125 5.0249323844909667969 4.9502954483032226562 4.8612308502197265625 4.7607331275939941406 4.6309223175048828125 4.4859571456909179688 4.31691741943359375 4.1491580009460449219 3.9728806018829345703 3.8136227130889892578 3.6595327854156494141 3.5230302810668945312 3.3836786746978759766 3.2491400241851806641 3.0992338657379150391 2.9433257579803466797 2.7661828994750976562 2.5898127555847167969 2.4038145542144775391 2.2316288948059082031 2.0637328624725341797 1.9189035892486572266 1.7822680473327636719 1.6623454093933105469 1.5447119474411010742 1.4359726905822753906 1.3229490518569946289 1.2120376825332641602 1.0906103849411010742 0.96585893630981445312 0.82421892881393432617 0.67447870969772338867 0.5048153996467590332 0.33494341373443603516 0.16038250923156738281 0.023082345724105834961 0 0 0 0 0 0 0 0 0 0 0 0 0 0 0 0 0 0 0 0 0 0 0 0 0 0 0 0 0 0 0 0 0 0 0 0 0 0 0 0 0 0 0 0 0 0 0 0 0 0 0 0 0 0 0 0 
2.2995245456695556641 2.2997689247131347656 2.2992830276489257812 2.2966070175170898438 2.2904198169708251953 2.2979154586791992188 2.2942457199096679688 2.2992763519287109375 2.3001384735107421875 2.2919931411743164062 2.2893967628479003906 2.2837975025177001953 2.3023836612701416016 2.3674092292785644531 2.3623206615447998047 2.2990469932556152344 2.2910206317901611328 2.3373436927795410156 2.3302361965179443359 2.3570449352264404297 2.3990948200225830078 2.3719422817230224609 2.3056893348693847656 2.2314121723175048828 2.2313897609710693359 2.2670285701751708984 2.2956845760345458984 2.3124980926513671875 2.3137054443359375 2.2301013469696044922 2.3174300193786621094 2.3118021488189697266 2.2776119709014892578 2.2943871021270751953 2.2711768150329589844 2.2822046279907226562 2.4193315505981445312 3.0350663661956787109 3.6715252399444580078 4.2283892631530761719 4.7966241836547851562 5.1886539459228515625 5.4419679641723632812 5.55879974365234375 5.7109136581420898438 5.7274508476257324219 5.7375402450561523438 5.8521199226379394531 6.0245876312255859375 6.2888436317443847656 6.6116847991943359375 6.8684630393981933594 7.5587105751037597656 8.5180835723876953125 8.557559967041015625 7.6230230331420898438 6.6254372596740722656 6.3610162734985351562 6.1363739967346191406 6.1844625473022460938 6.3801851272583007812 6.5811891555786132812 6.7598743438720703125 6.7830791473388671875 6.3823037147521972656 6.1189160346984863281 6.0533862113952636719 6.1706709861755371094 6.1728425025939941406 5.9705457687377929688 5.7977032661437988281 5.7376627922058105469 5.6005635261535644531 5.4538636207580566406 5.4039831161499023438 5.3995208740234375 5.3950762748718261719 5.3920001983642578125 5.3915085792541503906 5.3960504531860351562 5.4120221138000488281 5.5040979385375976562 5.5979328155517578125 5.556667327880859375 5.45186614990234375 5.3224806785583496094 5.175983428955078125 5.0316491127014160156 4.8831906318664550781 4.7440195083618164062 4.6029477119445800781 4.5017228126525878906 4.55461883544921875 4.6243076324462890625 4.6895871162414550781 4.7452449798583984375 4.797039031982421875 4.8414316177368164062 4.8833088874816894531 4.9194731712341308594 4.9540414810180664062 4.9849238395690917969 5.0161309242248535156 5.0458216667175292969 5.0779051780700683594 5.1102437973022460938 5.1462969779968261719 5.1825919151306152344 5.2226281166076660156 5.2624063491821289062 5.3058290481567382812 5.3483147621154785156 5.3937869071960449219 5.4372744560241699219 5.4833583831787109375 5.527004241943359375 5.5725774765014648438 5.6154875755310058594 5.661052703857421875 5.7048969268798828125 5.7525391578674316406 5.7993688583374023438 5.8523454666137695312 5.9080491065979003906 5.9758906364440917969 6.0508575439453125 6.144702911376953125 6.2479729652404785156 6.3705015182495117188 6.4937043190002441406 6.6280970573425292969 6.7532639503479003906 6.8803424835205078125 6.9900822639465332031 7.0931582450866699219 7.1736207008361816406 7.2385478019714355469 7.276615142822265625 7.2918977737426757812 7.2855195999145507812 7.2618432044982910156 7.2290134429931640625 7.1889829635620117188 7.1521654129028320312 7.1153674125671386719 7.0823788642883300781 7.046810150146484375 7.0119638442993164062 6.9711818695068359375 6.9293112754821777344 6.8806552886962890625 6.8326745033264160156 6.7789092063903808594 6.7275815010070800781 6.671596527099609375 6.6195845603942871094 6.564174652099609375 6.5138678550720214844 6.4613189697265625 6.4148006439208984375 6.3668060302734375 6.3230872154235839844 6.2745518684387207031 6.2267012596130371094 6.1696362495422363281 6.1106863021850585938 6.040805816650390625 5.9731583595275878906 5.9001355171203613281 5.8355078697204589844 5.7714085578918457031 5.7186846733093261719 5.6681375503540039062 5.6260514259338378906 5.5844144821166992188 5.5480990409851074219 5.5102715492248535156 5.4759998321533203125 5.4401106834411621094 5.4078516960144042969 5.3746237754821777344 5.3455915451049804688 5.3187646865844726562 5.3003211021423339844 5.2847151756286621094 5.2720112800598144531 5.2613158226013183594 5.2590031623840332031 5.2674579620361328125 5.286609649658203125 5.3204827308654785156 5.3657374382019042969 5.4285893440246582031 5.4920172691345214844 5.5541372299194335938 5.6052746772766113281 5.6521081924438476562 5.6903171539306640625 5.7217793464660644531 5.7392263412475585938 5.7425580024719238281 5.7302446365356445312 5.6985530853271484375 5.6493411064147949219 5.5777235031127929688 5.4970507621765136719 5.4036717414855957031 5.3139824867248535156 5.2234511375427246094 5.1454062461853027344 5.0667748451232910156 4.9895105361938476562 4.8971762657165527344 4.7929968833923339844 4.6585268974304199219 4.5082812309265136719 4.3325700759887695312 4.1572852134704589844 3.9716176986694335938 3.8019113540649414062 3.6352467536926269531 3.4858844280242919922 3.3328859806060791016 3.1860258579254150391 3.0247201919555664062 2.8600752353668212891 2.6760535240173339844 2.4947082996368408203 2.3040156364440917969 2.1269145011901855469 1.952466130256652832 1.7996206283569335938 1.6533191204071044922 1.5238038301467895508 1.3967161178588867188 1.2803392410278320312 1.1616678237915039062 1.0478609800338745117 0.92598801851272583008 0.80310487747192382812 0.66568243503570556641 0.52200901508331298828 0.36056721210479736328 0.1998335421085357666 0.19481584429740905762 0 0 0 0 0 0 0 0 0 0 0 0 0 0 0 0 0 0 0 0 0 0 0 0 0 0 0 0 0 0 0 0 0 0 0 0 0 0 0 0 0 0 0 0 0 0 0 0 0 0 0 0 0 0 0 0 0 
2.2869372367858886719 2.2867434024810791016 2.2857098579406738281 2.2789180278778076172 2.2788190841674804688 2.2843015193939208984 2.2814235687255859375 2.2825176715850830078 2.2827181816101074219 2.2761380672454833984 2.2709398269653320312 2.2685790061950683594 2.2672722339630126953 2.286296844482421875 2.3019869327545166016 2.2361485958099365234 2.2278840541839599609 2.2546522617340087891 2.2726030349731445312 2.2527501583099365234 2.3129546642303466797 2.3650066852569580078 2.347972869873046875 2.3013894557952880859 2.2639377117156982422 2.2259516716003417969 2.2172641754150390625 2.2457621097564697266 2.2508521080017089844 2.2394480705261230469 2.33969879150390625 2.3237855434417724609 2.2581183910369873047 2.2635822296142578125 2.2540700435638427734 2.3020949363708496094 2.6284315586090087891 3.2853186130523681641 3.7856104373931884766 4.2453789710998535156 4.8051304817199707031 5.1520810127258300781 5.3249573707580566406 5.4396157264709472656 5.5043077468872070312 5.5953545570373535156 5.6836199760437011719 5.7762379646301269531 5.9708833694458007812 6.3003230094909667969 6.525432586669921875 6.7838625907897949219 7.6152200698852539062 8.6201171875 8.5479412078857421875 7.3983778953552246094 6.3854241371154785156 6.1267046928405761719 6.033458709716796875 6.136562347412109375 6.3453969955444335938 6.54122161865234375 6.6973595619201660156 6.5254659652709960938 6.1541767120361328125 5.9846844673156738281 6.0096912384033203125 6.1327981948852539062 6.0329265594482421875 5.8220663070678710938 5.6816859245300292969 5.617618560791015625 5.4599938392639160156 5.3377394676208496094 5.3107442855834960938 5.2990956306457519531 5.2897315025329589844 5.2847857475280761719 5.285274505615234375 5.291347503662109375 5.3316130638122558594 5.4394307136535644531 5.4435057640075683594 5.3390474319458007812 5.215305328369140625 5.0904035568237304688 4.9607729911804199219 4.8390836715698242188 4.7170176506042480469 4.60418701171875 4.4908723831176757812 4.4120812416076660156 4.4653520584106445312 4.5321302413940429688 4.5950174331665039062 4.6491479873657226562 4.70013427734375 4.7441544532775878906 4.78598785400390625 4.8230953216552734375 4.8599648475646972656 4.8939304351806640625 4.9287915229797363281 4.9619193077087402344 4.9970550537109375 5.0314188003540039062 5.0687236785888671875 5.1056609153747558594 5.1461629867553710938 5.1865301132202148438 5.2310733795166015625 5.2753481864929199219 5.3235964775085449219 5.3704581260681152344 5.4203248023986816406 5.4678435325622558594 5.5184102058410644531 5.5669999122619628906 5.6193671226501464844 5.6702332496643066406 5.7257294654846191406 5.7802248001098632812 5.8413853645324707031 5.9047312736511230469 5.9804277420043945312 6.0624508857727050781 6.1632637977600097656 6.272418975830078125 6.4000878334045410156 6.5266466140747070312 6.6625676155090332031 6.7868146896362304688 6.9100556373596191406 7.0138316154479980469 7.1092386245727539062 7.1824254989624023438 7.2407307624816894531 7.2747392654418945312 7.2883429527282714844 7.2825369834899902344 7.2615232467651367188 7.2322812080383300781 7.1953282356262207031 7.159610748291015625 7.1227426528930664062 7.0894842147827148438 7.053623199462890625 7.0185465812683105469 6.9775485992431640625 6.9353008270263671875 6.8858814239501953125 6.8370084762573242188 6.7823324203491210938 6.7302579879760742188 6.6735939979553222656 6.6210699081420898438 6.5652494430541992188 6.5148186683654785156 6.4624776840209960938 6.4163265228271484375 6.36879730224609375 6.3255267143249511719 6.2774105072021484375 6.2298178672790527344 6.1728048324584960938 6.1136088371276855469 6.0433034896850585938 5.9751024246215820312 5.9009084701538085938 5.8351559638977050781 5.7705140113830566406 5.7180256843566894531 5.6683917045593261719 5.6275806427001953125 5.5875773429870605469 5.5528292655944824219 5.5165357589721679688 5.4833502769470214844 5.4480352401733398438 5.4155316352844238281 5.3808960914611816406 5.3490624427795410156 5.3159503936767578125 5.2887492179870605469 5.2670650482177734375 5.2510280609130859375 5.2372326850891113281 5.2325949668884277344 5.2395396232604980469 5.2584986686706542969 5.2936267852783203125 5.3412446975708007812 5.4063997268676757812 5.4702587127685546875 5.5335860252380371094 5.5889129638671875 5.6455621719360351562 5.6927728652954101562 5.732273101806640625 5.7569398880004882812 5.76806640625 5.7621774673461914062 5.7356433868408203125 5.6896615028381347656 5.6198587417602539062 5.5396838188171386719 5.4458861351013183594 5.3552126884460449219 5.2633147239685058594 5.183864593505859375 5.1035642623901367188 5.0243840217590332031 4.92946624755859375 4.8221402168273925781 4.6834120750427246094 4.5281534194946289062 4.3460898399353027344 4.1637735366821289062 3.9696104526519775391 3.7908084392547607422 3.6136000156402587891 3.4537723064422607422 3.2899746894836425781 3.1336772441864013672 2.9640460014343261719 2.7934899330139160156 2.6051464080810546875 2.4206655025482177734 2.2266714572906494141 2.0452547073364257812 1.8639512062072753906 1.7018883228302001953 1.5439217090606689453 1.4024896621704101562 1.2634187936782836914 1.1371798515319824219 1.0110481977462768555 0.89316099882125854492 0.77011620998382568359 0.64884966611862182617 0.51576197147369384766 0.37856045365333557129 0.22542585432529449463 0.21080073714256286621 0.021401908248662948608 0 0 0 0 0 0 0 0 0 0 0 0 0 0 0 0 0 0 0 0 0 0 0 0 0 0 0 0 0 0 0 0 0 0 0 0 0 0 0 0 0 0 0 0 0 0 0 0 0 0 0 0 0 0 0 0 0 
2.2723474502563476562 2.2726645469665527344 2.2729117870330810547 2.2700061798095703125 2.2689545154571533203 2.2647731304168701172 2.2660043239593505859 2.2666256427764892578 2.2629182338714599609 2.2598853111267089844 2.256694793701171875 2.2531907558441162109 2.2497627735137939453 2.2463183403015136719 2.2438411712646484375 2.2307565212249755859 2.236328125 2.2361485958099365234 2.2151694297790527344 2.1858479976654052734 2.1852560043334960938 2.2035112380981445312 2.2213981151580810547 2.2697684764862060547 2.3538432121276855469 2.3418128490447998047 2.2867062091827392578 2.2256722450256347656 2.1656441688537597656 2.2660202980041503906 2.3332498073577880859 2.2768213748931884766 2.2451732158660888672 2.2417416572570800781 2.2527515888214111328 2.3270063400268554688 2.8574848175048828125 3.4770715236663818359 3.9774928092956542969 4.3841557502746582031 4.7886986732482910156 5.0381908416748046875 5.1532654762268066406 5.2499055862426757812 5.3472084999084472656 5.5585713386535644531 5.6435694694519042969 5.7307200431823730469 5.9164867401123046875 6.2009558677673339844 6.455532073974609375 6.7765927314758300781 7.8160676956176757812 8.7364168167114257812 8.1649913787841796875 7.0280413627624511719 6.2697238922119140625 5.9754109382629394531 5.953357696533203125 6.0971007347106933594 6.3125662803649902344 6.5105848312377929688 6.5664963722229003906 6.2413244247436523438 5.9827475547790527344 5.8784685134887695312 5.9964833259582519531 6.0419974327087402344 5.8490042686462402344 5.6664490699768066406 5.5428490638732910156 5.4655423164367675781 5.3069500923156738281 5.2162923812866210938 5.1970968246459960938 5.1773095130920410156 5.1621489524841308594 5.155750274658203125 5.1607370376586914062 5.1734557151794433594 5.2283129692077636719 5.3145503997802734375 5.2589430809020996094 5.110260009765625 4.9542851448059082031 4.8258337974548339844 4.7124190330505371094 4.6163511276245117188 4.5254974365234375 4.444583892822265625 4.3654036521911621094 4.3141417503356933594 4.3678951263427734375 4.4315438270568847656 4.4922451972961425781 4.5450644493103027344 4.5952444076538085938 4.639362335205078125 4.6824126243591308594 4.7215576171875 4.7612690925598144531 4.798511505126953125 4.8370347023010253906 4.8735165596008300781 4.9116606712341308594 4.9481291770935058594 4.9869074821472167969 5.0248007774353027344 5.06612396240234375 5.1073651313781738281 5.1532382965087890625 5.1993880271911621094 5.2502789497375488281 5.3003392219543457031 5.3545765876770019531 5.4071207046508789062 5.4635338783264160156 5.5182833671569824219 5.5779781341552734375 5.6364488601684570312 5.700504302978515625 5.7634134292602539062 5.8336186408996582031 5.9054107666015625 5.9896945953369140625 6.0792388916015625 6.1871767044067382812 6.3019857406616210938 6.4341373443603515625 6.5630536079406738281 6.6990475654602050781 6.8206415176391601562 6.9378290176391601562 7.033267974853515625 7.1182603836059570312 7.1814455986022949219 7.2304215431213378906 7.2583365440368652344 7.2692341804504394531 7.264064788818359375 7.2458281517028808594 7.2203583717346191406 7.1883411407470703125 7.1571917533874511719 7.1235032081604003906 7.0909857749938964844 7.054859161376953125 7.0196208953857421875 6.9789137840270996094 6.9374575614929199219 6.8892879486083984375 6.841587066650390625 6.7878665924072265625 6.7364559173583984375 6.6803121566772460938 6.6280808448791503906 6.5724177360534667969 6.5220360755920410156 6.4697551727294921875 6.4238448143005371094 6.3767600059509277344 6.3338418006896972656 6.2858862876892089844 6.2381253242492675781 6.1804385185241699219 6.1200938224792480469 6.0481090545654296875 5.9782533645629882812 5.902484893798828125 5.8352813720703125 5.7693452835083007812 5.7165818214416503906 5.6675510406494140625 5.6278429031372070312 5.5892915725708007812 5.5558466911315917969 5.5206136703491210938 5.4879450798034667969 5.4525876045227050781 5.4193997383117675781 5.3832039833068847656 5.3489890098571777344 5.3119640350341796875 5.2782945632934570312 5.2469258308410644531 5.226093292236328125 5.2098212242126464844 5.2029862403869628906 5.2084760665893554688 5.2273831367492675781 5.264110565185546875 5.3143482208251953125 5.3804488182067871094 5.4435396194458007812 5.5099902153015136719 5.5739736557006835938 5.6389422416687011719 5.692676544189453125 5.7393946647644042969 5.7714571952819824219 5.7900419235229492188 5.7901906967163085938 5.7688117027282714844 5.7262964248657226562 5.6586904525756835938 5.5794591903686523438 5.4857926368713378906 5.3947157859802246094 5.3021268844604492188 5.221954345703125 5.1406779289245605469 5.0601191520690917969 4.962963104248046875 4.8525128364562988281 4.7091431617736816406 4.5481915473937988281 4.3589324951171875 4.1688609123229980469 3.965728759765625 3.7778503894805908203 3.5908038616180419922 3.4218087196350097656 3.2491157054901123047 3.0855553150177001953 2.9101097583770751953 2.7360963821411132812 2.5458240509033203125 2.3599057197570800781 2.1635468006134033203 1.9777070283889770508 1.7880504131317138672 1.6139699220657348633 1.4403842687606811523 1.2828028202056884766 1.1274120807647705078 0.9877789616584777832 0.85164475440979003906 0.72845733165740966797 0.60408580303192138672 0.48513630032539367676 0.35783052444458007812 0.2276906818151473999 0.25001737475395202637 0.29336875677108764648 0 0 0 0 0 0 0 0 0 0 0 0 0 0 0 0 0 0 0 0 0 0 0 0 0 0 0 0 0 0 0 0 0 0 0 0 0 0 0 0 0 0 0 0 0 0 0 0 0 0 0 0 0 0 0 0 0 0 
2.2601518630981445312 2.2622535228729248047 2.2609431743621826172 2.2653262615203857422 2.2677581310272216797 2.2611875534057617188 2.2539649009704589844 2.2518608570098876953 2.2500934600830078125 2.2471458911895751953 2.2417023181915283203 2.2361667156219482422 2.2325563430786132812 2.2289345264434814453 2.225673675537109375 2.2240111827850341797 2.2321436405181884766 2.2303180694580078125 2.2175910472869873047 2.2017807960510253906 2.1857748031616210938 2.1660268306732177734 2.1596157550811767578 2.1794648170471191406 2.2393310070037841797 2.3031065464019775391 2.3583846092224121094 2.3316867351531982422 2.2482895851135253906 2.2929232120513916016 2.3032898902893066406 2.2410356998443603516 2.2399449348449707031 2.2238991260528564453 2.2540068626403808594 2.4150154590606689453 2.9817872047424316406 3.5251309871673583984 4.0142416954040527344 4.4688057899475097656 4.7882714271545410156 4.9606695175170898438 5.0597882270812988281 5.1096568107604980469 5.2679958343505859375 5.4995312690734863281 5.6304597854614257812 5.7246794700622558594 5.9990668296813964844 6.1945490837097167969 6.4869780540466308594 6.8424158096313476562 7.9738698005676269531 8.5836267471313476562 7.6660132408142089844 6.6314764022827148438 6.183864593505859375 5.8935112953186035156 5.8999128341674804688 6.0617756843566894531 6.2836518287658691406 6.469417572021484375 6.3486838340759277344 6.0267782211303710938 5.849025726318359375 5.8038773536682128906 5.9672360420227050781 5.8919019699096679688 5.6731591224670410156 5.5112643241882324219 5.4197010993957519531 5.3230757713317871094 5.1706533432006835938 5.1107583045959472656 5.0774378776550292969 5.0477223396301269531 5.023426055908203125 5.0120997428894042969 5.025417327880859375 5.0646486282348632812 5.1520218849182128906 5.2137961387634277344 5.1446871757507324219 4.8768815994262695312 4.6678357124328613281 4.5385150909423828125 4.4477472305297851562 4.3825354576110839844 4.3270649909973144531 4.2814378738403320312 4.2401757240295410156 4.2203211784362792969 4.2752699851989746094 4.3358182907104492188 4.3943438529968261719 4.4460821151733398438 4.4962925910949707031 4.5414867401123046875 4.5865411758422851562 4.6282639503479003906 4.6710085868835449219 4.7111449241638183594 4.7526688575744628906 4.7918596267700195312 4.832454681396484375 4.8707590103149414062 4.9110102653503417969 4.9500374794006347656 4.9924650192260742188 5.0348505973815917969 5.0821862220764160156 5.1300177574157714844 5.1831479072570800781 5.2360711097717285156 5.2942681312561035156 5.3515982627868652344 5.4141554832458496094 5.4753308296203613281 5.5421586036682128906 5.6078948974609375 5.6801428794860839844 5.7511310577392578125 5.8300023078918457031 5.9098186492919921875 6.0021390914916992188 6.0985350608825683594 6.212657928466796875 6.3319797515869140625 6.4672069549560546875 6.5970807075500488281 6.7316961288452148438 6.8494091033935546875 6.9594759941101074219 7.0457949638366699219 7.1196031570434570312 7.1721982955932617188 7.211223602294921875 7.2322945594787597656 7.2394289970397949219 7.2338428497314453125 7.2177643775939941406 7.1959028244018554688 7.1682376861572265625 7.1410365104675292969 7.1116151809692382812 7.0829434394836425781 7.0495247840881347656 7.0152301788330078125 6.9753847122192382812 6.9354853630065917969 6.8896989822387695312 6.8446321487426757812 6.7938094139099121094 6.7446508407592773438 6.6901578903198242188 6.6389031410217285156 6.5838894844055175781 6.5338416099548339844 6.4817490577697753906 6.4359588623046875 6.3890643119812011719 6.3463544845581054688 6.2983751296997070312 6.2501459121704101562 6.1913232803344726562 6.129245758056640625 6.0548405647277832031 5.9826002120971679688 5.9044275283813476562 5.835620880126953125 5.768650054931640625 5.7153773307800292969 5.666576385498046875 5.6276350021362304688 5.5901165008544921875 5.5574831962585449219 5.5226383209228515625 5.4897952079772949219 5.4537248611450195312 5.4194407463073730469 5.3816366195678710938 5.3455362319946289062 5.3060097694396972656 5.2692408561706542969 5.2315907478332519531 5.202785491943359375 5.1832509040832519531 5.1745810508728027344 5.178707122802734375 5.1976385116577148438 5.2361903190612792969 5.2885766029357910156 5.3543133735656738281 5.4184803962707519531 5.4923768043518066406 5.5618100166320800781 5.6310391426086425781 5.6891045570373535156 5.7415676116943359375 5.7794260978698730469 5.8040132522583007812 5.8094024658203125 5.7928404808044433594 5.7538576126098632812 5.6888427734375 5.6111574172973632812 5.5184292793273925781 5.42780303955078125 5.3354635238647460938 5.2554388046264648438 5.1740422248840332031 5.0928030014038085938 4.9939775466918945312 4.8807439804077148438 4.7328519821166992188 4.566131591796875 4.3695387840270996094 4.1717290878295898438 3.9600782394409179688 3.7641878128051757812 3.5691950321197509766 3.3934149742126464844 3.2147138118743896484 3.0467793941497802734 2.8684525489807128906 2.6934666633605957031 2.5034124851226806641 2.317607879638671875 2.1198461055755615234 1.9299333095550537109 1.7316108942031860352 1.5445816516876220703 1.3539222478866577148 1.1786096096038818359 1.0053299665451049805 0.85112369060516357422 0.70435088872909545898 0.57584398984909057617 0.45060515403747558594 0.33470961451530456543 0.21196061372756958008 0.22990494966506958008 0.57695615291595458984 0.042511899024248123169 0 0 0 0 0 0 0 0 0 0 0 0 0 0 0 0 0 0 0 0 0 0 0 0 0 0 0 0 0 0 0 0 0 0 0 0 0 0 0 0 0 0 0 0 0 0 0 0 0 0 0 0 0 0 0 0 0 0 
2.2577953338623046875 2.2541315555572509766 2.2494003772735595703 2.25806427001953125 2.2601101398468017578 2.2594766616821289062 2.2546000480651855469 2.2467656135559082031 2.2394342422485351562 2.2355606555938720703 2.2288215160369873047 2.2239158153533935547 2.2175374031066894531 2.2129724025726318359 2.2099132537841796875 2.2101027965545654297 2.2102642059326171875 2.2069945335388183594 2.2048246860504150391 2.2009813785552978516 2.1958551406860351562 2.1812331676483154297 2.1703824996948242188 2.1909670829772949219 2.18695831298828125 2.1580255031585693359 2.2140874862670898438 2.2650284767150878906 2.2989516258239746094 2.3491258621215820312 2.2957665920257568359 2.2649745941162109375 2.2365665435791015625 2.2147836685180664062 2.2505085468292236328 2.5677816867828369141 3.0874979496002197266 3.6627736091613769531 4.1683669090270996094 4.5327749252319335938 4.7118506431579589844 4.8262991905212402344 4.9419541358947753906 5.0633454322814941406 5.2621068954467773438 5.4963068962097167969 5.6145815849304199219 5.7345991134643554688 6.0500640869140625 6.2006654739379882812 6.435577392578125 6.9011740684509277344 8.0879983901977539062 8.35031890869140625 7.2005715370178222656 6.32476043701171875 5.9930872917175292969 5.835174560546875 5.8724875450134277344 6.0398015975952148438 6.2633466720581054688 6.3606863021850585938 6.0748109817504882812 5.8396091461181640625 5.7139325141906738281 5.7562794685363769531 5.8818783760070800781 5.6976118087768554688 5.4962220191955566406 5.3533358573913574219 5.2776670455932617188 5.160549163818359375 5.0387234687805175781 4.9897980690002441406 4.9364461898803710938 4.8914089202880859375 4.8503437042236328125 4.8174319267272949219 4.8259553909301757812 4.9518561363220214844 5.0876231193542480469 5.1463761329650878906 4.9946618080139160156 4.5099887847900390625 4.2587132453918457031 4.1596221923828125 4.1155085563659667969 4.0970296859741210938 4.0891547203063964844 4.0881667137145996094 4.0937800407409667969 4.1157860755920410156 4.1738839149475097656 4.2324237823486328125 4.2902741432189941406 4.3423109054565429688 4.3919854164123535156 4.4388241767883300781 4.4865918159484863281 4.531276702880859375 4.5772657394409179688 4.6204376220703125 4.6647896766662597656 4.7063875198364257812 4.749233245849609375 4.7893519401550292969 4.8312234878540039062 4.8716502189636230469 4.9155321121215820312 4.9593777656555175781 5.0083146095275878906 5.057910919189453125 5.1134705543518066406 5.1694440841674804688 5.2318162918090820312 5.2941956520080566406 5.3633451461791992188 5.4318823814392089844 5.5072164535522460938 5.5812025070190429688 5.6624431610107421875 5.7422051429748535156 5.8303928375244140625 5.9186878204345703125 6.0192670822143554688 6.1224255561828613281 6.2422590255737304688 6.3652424812316894531 6.5022587776184082031 6.631603240966796875 6.7630896568298339844 6.8752183914184570312 6.9763903617858886719 7.0519404411315917969 7.1129746437072753906 7.1536974906921386719 7.1815633773803710938 7.1948151588439941406 7.1972937583923339844 7.1905474662780761719 7.1758980751037597656 7.1571774482727050781 7.1339669227600097656 7.1110177040100097656 7.08567047119140625 7.060840606689453125 7.0321874618530273438 7.002613067626953125 6.9667711257934570312 6.9297275543212890625 6.8873262405395507812 6.8458909988403320312 6.7991271018981933594 6.7535181045532226562 6.7020883560180664062 6.652660369873046875 6.5987801551818847656 6.5493416786193847656 6.4976358413696289062 6.45209503173828125 6.4054179191589355469 6.3627667427062988281 6.3146090507507324219 6.2657909393310546875 6.2055525779724121094 6.1413507461547851562 6.0639891624450683594 5.9888224601745605469 5.9077301025390625 5.8368196487426757812 5.7687320709228515625 5.7154693603515625 5.6669487953186035156 5.6285624504089355469 5.5917878150939941406 5.5595693588256835938 5.5245013236999511719 5.4907970428466796875 5.4532732963562011719 5.4173192977905273438 5.3775615692138671875 5.3396325111389160156 5.2981648445129394531 5.2594504356384277344 5.2187380790710449219 5.1835308074951171875 5.1556105613708496094 5.1440072059631347656 5.1462359428405761719 5.1650576591491699219 5.205951690673828125 5.2601189613342285156 5.3271098136901855469 5.3982305526733398438 5.4770264625549316406 5.5486807823181152344 5.6202473640441894531 5.6815629005432128906 5.7385654449462890625 5.7813291549682617188 5.8115053176879882812 5.8221645355224609375 5.8108153343200683594 5.7760186195373535156 5.714519500732421875 5.6393957138061523438 5.5487604141235351562 5.4596743583679199219 5.3686728477478027344 5.2897086143493652344 5.2089643478393554688 5.1275491714477539062 5.02729034423828125 4.9111304283142089844 4.7580738067626953125 4.5846009254455566406 4.379535675048828125 4.1730375289916992188 3.9521853923797607422 3.74811553955078125 3.5456306934356689453 3.3640055656433105469 3.1806311607360839844 3.0097599029541015625 2.8301007747650146484 2.6555323600769042969 2.4669260978698730469 2.2820551395416259766 2.0831747055053710938 1.8887922763824462891 1.6806026697158813477 1.4787139892578125 1.2684636116027832031 1.0728555917739868164 0.87922620773315429688 0.7086550593376159668 0.55028605461120605469 0.41645219922065734863 0.29100972414016723633 0.17593950033187866211 0.22949372231960296631 0.85416102409362792969 0.18995694816112518311 0 0 0 0 0 0 0 0 0 0 0 0 0 0 0 0 0 0 0 0 0 0 0 0 0 0 0 0 0 0 0 0 0 0 0 0 0 0 0 0 0 0 0 0 0 0 0 0 0 0 0 0 0 0 0 0 0 0 0 
2.2534415721893310547 2.2555937767028808594 2.2512607574462890625 2.2514784336090087891 2.2518780231475830078 2.250148773193359375 2.245159149169921875 2.2396640777587890625 2.2332150936126708984 2.2261326313018798828 2.2183408737182617188 2.2118625640869140625 2.2067770957946777344 2.2009494304656982422 2.1969969272613525391 2.1956920623779296875 2.1919023990631103516 2.1871869564056396484 2.1826143264770507812 2.1786525249481201172 2.1758725643157958984 2.1730811595916748047 2.1713039875030517578 2.184902191162109375 2.1849606037139892578 2.1349813938140869141 2.1416456699371337891 2.2095339298248291016 2.2685515880584716797 2.3001739978790283203 2.2809228897094726562 2.2957901954650878906 2.2167444229125976562 2.2076420783996582031 2.3279993534088134766 2.6428856849670410156 3.1462686061859130859 3.6967270374298095703 4.2129740715026855469 4.4882359504699707031 4.6045589447021484375 4.7251501083374023438 4.8635120391845703125 5.0153627395629882812 5.187175750732421875 5.4633884429931640625 5.5584840774536132812 5.7508912086486816406 5.9212088584899902344 6.0680694580078125 6.4063296318054199219 7.1062817573547363281 8.1628103256225585938 8.1739673614501953125 6.942783355712890625 6.2144823074340820312 5.8307781219482421875 5.7984476089477539062 5.8634123802185058594 6.0350389480590820312 6.2393736839294433594 6.1748905181884765625 5.8605132102966308594 5.6913771629333496094 5.6456136703491210938 5.7579374313354492188 5.7443675994873046875 5.5190548896789550781 5.3591108322143554688 5.220867156982421875 5.1586699485778808594 5.0131502151489257812 4.9200801849365234375 4.856685638427734375 4.7881360054016113281 4.7270684242248535156 4.6677789688110351562 4.5999755859375 4.4366993904113769531 4.7740740776062011719 5.0187668800354003906 5.0809464454650878906 4.4957337379455566406 3.8587391376495361328 3.7287461757659912109 3.7249381542205810547 3.7550339698791503906 3.7953772544860839844 3.8416376113891601562 3.8881545066833496094 3.93901824951171875 3.9936859607696533203 4.058429718017578125 4.1222624778747558594 4.1871314048767089844 4.2462491989135742188 4.2973885536193847656 4.3447313308715820312 4.3953852653503417969 4.4428920745849609375 4.4917020797729492188 4.5374050140380859375 4.5841937065124511719 4.6277475357055664062 4.6723732948303222656 4.7140622138977050781 4.7574820518493652344 4.7993526458740234375 4.8447613716125488281 4.8900022506713867188 4.9404954910278320312 4.9918694496154785156 5.0497937202453613281 5.1086688041687011719 5.1750130653381347656 5.2422308921813964844 5.3177447319030761719 5.393421173095703125 5.4772295951843261719 5.5598001480102539062 5.6501049995422363281 5.7382802963256835938 5.8351664543151855469 5.9311614036560058594 6.0389599800109863281 6.1476659774780273438 6.2716689109802246094 6.3966617584228515625 6.5336236953735351562 6.6607751846313476562 6.7875967025756835938 6.8930807113647460938 6.9847517013549804688 7.0494985580444335938 7.0982232093811035156 7.1277117729187011719 7.1451048851013183594 7.1510014533996582031 7.1489729881286621094 7.1409049034118652344 7.1272091865539550781 7.11093902587890625 7.0912771224975585938 7.0719270706176757812 7.0504841804504394531 7.0292673110961914062 7.0047063827514648438 6.9797883033752441406 6.9502592086791992188 6.9194355010986328125 6.8823194503784179688 6.8448419570922851562 6.8022685050964355469 6.7603092193603515625 6.7121944427490234375 6.6651563644409179688 6.6130008697509765625 6.5644288063049316406 6.51326751708984375 6.46810150146484375 6.4217624664306640625 6.3792614936828613281 6.3309226036071777344 6.2815260887145996094 6.2200818061828613281 6.1540203094482421875 6.074024200439453125 5.9962472915649414062 5.9125428199768066406 5.8397946357727050781 5.7707047462463378906 5.7175569534301757812 5.6698932647705078125 5.632083892822265625 5.5956583023071289062 5.5633950233459472656 5.5275273323059082031 5.4924035072326660156 5.4528822898864746094 5.4148836135864257812 5.3729968070983886719 5.3333740234375 5.2904882431030273438 5.2506723403930664062 5.2086539268493652344 5.1709198951721191406 5.1353526115417480469 5.115863800048828125 5.1149702072143554688 5.1333155632019042969 5.1768660545349121094 5.2337822914123535156 5.3084759712219238281 5.3838896751403808594 5.4635829925537109375 5.5353789329528808594 5.6077370643615722656 5.6707000732421875 5.7305245399475097656 5.7768979072570800781 5.8116397857666015625 5.8269567489624023438 5.820583343505859375 5.7901721000671386719 5.732818603515625 5.6611304283142089844 5.5736813545227050781 5.487194061279296875 5.3985619544982910156 5.3214521408081054688 5.2419996261596679688 5.1608214378356933594 5.0593085289001464844 4.940189361572265625 4.7818751335144042969 4.601596832275390625 4.3880677223205566406 4.1730175018310546875 3.94333648681640625 3.7317111492156982422 3.5226855278015136719 3.3363044261932373047 3.1494801044464111328 2.9767854213714599609 2.7967340946197509766 2.6231064796447753906 2.43610382080078125 2.2520885467529296875 2.0519452095031738281 1.8530185222625732422 1.6351789236068725586 1.41901397705078125 1.1901330947875976562 0.97540229558944702148 0.76282131671905517578 0.57729834318161010742 0.40879410505294799805 0.27076864242553710938 0.14500588178634643555 0.47321060299873352051 0.86624538898468017578 0.51030212640762329102 0.0084413224831223487854 0 0 0 0 0 0 0 0 0 0 0 0 0 0 0 0 0 0 0 0 0 0 0 0 0 0 0 0 0 0 0 0 0 0 0 0 0 0 0 0 0 0 0 0 0 0 0 0 0 0 0 0 0 0 0 0 0 0 0 
2.2349288463592529297 2.2332141399383544922 2.2430095672607421875 2.2450156211853027344 2.2425806522369384766 2.2432730197906494141 2.2381975650787353516 2.2299983501434326172 2.2231199741363525391 2.2168354988098144531 2.2131950855255126953 2.2037432193756103516 2.1923410892486572266 2.1868484020233154297 2.1838049888610839844 2.1810579299926757812 2.1757128238677978516 2.1710076332092285156 2.1645519733428955078 2.1577832698822021484 2.1533517837524414062 2.1507711410522460938 2.1488206386566162109 2.1451854705810546875 2.1429243087768554688 2.1597929000854492188 2.1932458877563476562 2.2183623313903808594 2.2401900291442871094 2.215862274169921875 2.214862823486328125 2.2241816520690917969 2.1883730888366699219 2.2032651901245117188 2.3442287445068359375 2.7502369880676269531 3.3479979038238525391 3.7747931480407714844 4.1034569740295410156 4.3543748855590820312 4.4681134223937988281 4.608203887939453125 4.8350210189819335938 5.0572681427001953125 5.0398807525634765625 5.1474552154541015625 5.3215451240539550781 5.5528597831726074219 5.7188215255737304688 6.0568461418151855469 6.6064476966857910156 7.5844440460205078125 8.2963504791259765625 7.680957794189453125 6.5717668533325195312 5.9869384765625 5.744037628173828125 5.77825927734375 5.8652296066284179688 6.0457301139831542969 6.1615939140319824219 5.929782867431640625 5.6808562278747558594 5.5526900291442871094 5.6322045326232910156 5.7687010765075683594 5.5715069770812988281 5.353534698486328125 5.2160902023315429688 5.1000323295593261719 5.0098743438720703125 4.8610210418701171875 4.785892486572265625 4.7017364501953125 4.6147503852844238281 4.5338153839111328125 4.4590129852294921875 4.4048981666564941406 4.3575525283813476562 4.6903414726257324219 4.9543185234069824219 4.9593796730041503906 3.3447067737579345703 3.2414288520812988281 3.3307061195373535156 3.4147379398345947266 3.4999876022338867188 3.5801098346710205078 3.6614274978637695312 3.7376432418823242188 3.8147230148315429688 3.8866257667541503906 3.9595620632171630859 4.0278544425964355469 4.0975599288940429688 4.1631121635437011719 4.209499359130859375 4.2480874061584472656 4.3018693923950195312 4.35225677490234375 4.4037375450134277344 4.4516892433166503906 4.5006127357482910156 4.5460367202758789062 4.5923509597778320312 4.6355433464050292969 4.6806039810180664062 4.724063873291015625 4.7710599899291992188 4.8178453445434570312 4.870121002197265625 4.9234471321105957031 4.9839348793029785156 5.0459728240966796875 5.1166739463806152344 5.1892652511596679688 5.2719259262084960938 5.3556351661682128906 5.4489164352416992188 5.5410747528076171875 5.6417608261108398438 5.7393536567687988281 5.8453602790832519531 5.9490342140197753906 6.0636157989501953125 6.1770367622375488281 6.30382537841796875 6.4290471076965332031 6.563724517822265625 6.6864485740661621094 6.8062944412231445312 6.9031782150268554688 6.9836411476135253906 7.0365405082702636719 7.0722861289978027344 7.0902228355407714844 7.0970239639282226562 7.0955562591552734375 7.089061737060546875 7.0797147750854492188 7.0669980049133300781 7.0531611442565917969 7.036960601806640625 7.0210428237915039062 7.0033211708068847656 6.9859018325805664062 6.9659185409545898438 6.9457678794860839844 6.9224381446838378906 6.8988056182861328125 6.8703527450561523438 6.8399300575256347656 6.8026285171508789062 6.7645044326782226562 6.7198576927185058594 6.675388336181640625 6.6254277229309082031 6.5783743858337402344 6.5282044410705566406 6.4836287498474121094 6.4378323554992675781 6.395679473876953125 6.3474035263061523438 6.2976465225219726562 6.2352480888366699219 6.1677603721618652344 6.08570098876953125 6.0058360099792480469 5.9200887680053710938 5.8459420204162597656 5.7762608528137207031 5.7234635353088378906 5.6767840385437011719 5.6400389671325683594 5.6039247512817382812 5.5711369514465332031 5.5338115692138671875 5.4965696334838867188 5.4542908668518066406 5.4136166572570800781 5.3690981864929199219 5.3275623321533203125 5.2833304405212402344 5.2427425384521484375 5.200069427490234375 5.1613593101501464844 5.1218495368957519531 5.0913176536560058594 5.0811457633972167969 5.0982117652893066406 5.1463994979858398438 5.2134418487548828125 5.2946653366088867188 5.3705415725708007812 5.4490704536437988281 5.5198130607604980469 5.5917186737060546875 5.6550998687744140625 5.7166910171508789062 5.7659497261047363281 5.8048076629638671875 5.82470703125 5.8236594200134277344 5.7984113693237304688 5.7464685440063476562 5.6796855926513671875 5.5970950126647949219 5.514736175537109375 5.4298982620239257812 5.3556628227233886719 5.2781252861022949219 5.1973099708557128906 5.0943512916564941406 4.9718751907348632812 4.8076138496398925781 4.619670867919921875 4.3966774940490722656 4.1721301078796386719 3.9327247142791748047 3.7129194736480712891 3.4970564842224121094 3.3059258460998535156 3.1158039569854736328 2.9414060115814208984 2.7609021663665771484 2.5878655910491943359 2.4017877578735351562 2.2177948951721191406 2.0154399871826171875 1.8110842704772949219 1.5828317403793334961 1.3519184589385986328 1.104221343994140625 0.87051063776016235352 0.63948065042495727539 0.43985119462013244629 0.26186850666999816895 0.19007614254951477051 0.48698130249977111816 0.93999999761581420898 0.76722222566604614258 0.088303975760936737061 0 0 0 0 0 0 0 0 0 0 0 0 0 0 0 0 0 0 0 0 0 0 0 0 0 0 0 0 0 0 0 0 0 0 0 0 0 0 0 0 0 0 0 0 0 0 0 0 0 0 0 0 0 0 0 0 0 0 0 0 
2.2552075386047363281 2.2442395687103271484 2.2286808490753173828 2.2162685394287109375 2.2232484817504882812 2.2400679588317871094 2.2331759929656982422 2.2209451198577880859 2.2116477489471435547 2.2050943374633789062 2.2008047103881835938 2.1933887004852294922 2.1855733394622802734 2.1827037334442138672 2.1737699508666992188 2.1671662330627441406 2.1598546504974365234 2.1554026603698730469 2.1509730815887451172 2.1402001380920410156 2.1321227550506591797 2.1300816535949707031 2.1281926631927490234 2.1256601810455322266 2.1258978843688964844 2.1416368484497070312 2.1795721054077148438 2.182140350341796875 2.1921734809875488281 2.1896777153015136719 2.2107243537902832031 2.1993761062622070312 2.1784517765045166016 2.1953909397125244141 2.3587255477905273438 2.8632516860961914062 3.4269404411315917969 3.8774683475494384766 4.1042022705078125 4.2978153228759765625 4.4652738571166992188 4.6083059310913085938 4.8565759658813476562 4.9704203605651855469 4.9684600830078125 5.0710806846618652344 5.2689595222473144531 5.4563040733337402344 5.6866745948791503906 6.1394095420837402344 6.6897797584533691406 7.6898546218872070312 8.4096250534057617188 7.5323987007141113281 6.4972348213195800781 5.8905158042907714844 5.7149868011474609375 5.7633810043334960938 5.8705000877380371094 6.0416665077209472656 5.9897432327270507812 5.7185063362121582031 5.5264887809753417969 5.4439673423767089844 5.6208577156066894531 5.6873917579650878906 5.387969970703125 5.2030634880065917969 5.07921600341796875 4.9729776382446289062 4.8676066398620605469 4.733013153076171875 4.6479725837707519531 4.5470304489135742188 4.4383959770202636719 4.3313360214233398438 4.2287011146545410156 4.1768789291381835938 4.3860468864440917969 4.7984261512756347656 4.8371338844299316406 4.4142651557922363281 3.2139503955841064453 3.1916310787200927734 3.2803924083709716797 3.3639416694641113281 3.4486916065216064453 3.5283215045928955078 3.6090006828308105469 3.6842508316040039062 3.7601633071899414062 3.8309690952301025391 3.9027986526489257812 3.9700663089752197266 4.0387411117553710938 4.10334014892578125 4.1338753700256347656 4.1609020233154296875 4.2175316810607910156 4.2703843116760253906 4.3240108489990234375 4.373668670654296875 4.4241557121276855469 4.4709792137145996094 4.5187687873840332031 4.5633215904235839844 4.6098389625549316406 4.6546916961669921875 4.7031950950622558594 4.75151824951171875 4.8055224418640136719 4.8606929779052734375 4.9236049652099609375 4.9886946678161621094 5.0636949539184570312 5.14167022705078125 5.2315783500671386719 5.3234510421752929688 5.4262833595275878906 5.5279521942138671875 5.6387429237365722656 5.7455034255981445312 5.8601255416870117188 5.9704122543334960938 6.0902523994445800781 6.2066659927368164062 6.3341622352600097656 6.4574670791625976562 6.5875387191772460938 6.7038331031799316406 6.8149991035461425781 6.9022393226623535156 6.9712781906127929688 7.0129289627075195312 7.0369124412536621094 7.0447363853454589844 7.0425119400024414062 7.0349316596984863281 7.0248956680297851562 7.0147442817687988281 7.0031843185424804688 6.9917211532592773438 6.9787716865539550781 6.9660191535949707031 6.9516577720642089844 6.9375743865966796875 6.9216976165771484375 6.9060912132263183594 6.8883700370788574219 6.8707289695739746094 6.8496794700622558594 6.8268713951110839844 6.7973294258117675781 6.7640924453735351562 6.7225961685180664062 6.6803789138793945312 6.6324353218078613281 6.5869760513305664062 6.5382905006408691406 6.494739532470703125 6.4497122764587402344 6.4081215858459472656 6.3602585792541503906 6.3106331825256347656 6.248027801513671875 6.1799955368041992188 6.0971345901489257812 6.0164737701416015625 5.9299874305725097656 5.8554883003234863281 5.7859783172607421875 5.7339124679565429688 5.6883172988891601562 5.6524777412414550781 5.6168909072875976562 5.5833888053894042969 5.5441288948059082031 5.5043568611145019531 5.4589257240295410156 5.4152731895446777344 5.3678927421569824219 5.3243427276611328125 5.2787899971008300781 5.2375721931457519531 5.1945524215698242188 5.1554646492004394531 5.1145796775817871094 5.0781579017639160156 5.0512881278991699219 5.0642685890197753906 5.1255235671997070312 5.2020540237426757812 5.2839860916137695312 5.3582477569580078125 5.4345912933349609375 5.5035300254821777344 5.5739817619323730469 5.6368131637573242188 5.6990728378295898438 5.7501697540283203125 5.7921462059020996094 5.8159260749816894531 5.8198595046997070312 5.7999510765075683594 5.7541418075561523438 5.69329071044921875 5.6168107986450195312 5.5397748947143554688 5.4597544670104980469 5.3889107704162597656 5.3134632110595703125 5.2330713272094726562 5.1286554336547851562 5.0027818679809570312 4.8326015472412109375 4.6370944976806640625 4.4047694206237792969 4.1708607673645019531 3.9219248294830322266 3.6941771507263183594 3.4717154502868652344 3.2759466171264648438 3.0824072360992431641 2.9058780670166015625 2.7240414619445800781 2.5502912998199462891 2.3634405136108398438 2.1778666973114013672 1.9720442295074462891 1.7618180513381958008 1.5238517522811889648 1.2801403999328613281 1.0167582035064697266 0.76769429445266723633 0.5222517848014831543 0.31135013699531555176 0.19256332516670227051 0.75352317094802856445 0.93999999761581420898 0.93120962381362915039 0.26109921932220458984 0 0 0 0 0 0 0 0 0 0 0 0 0 0 0 0 0 0 0 0 0 0 0 0 0 0 0 0 0 0 0 0 0 0 0 0 0 0 0 0 0 0 0 0 0 0 0 0 0 0 0 0 0 0 0 0 0 0 0 0 0 
2.2372021675109863281 2.2359254360198974609 2.2364554405212402344 2.23744964599609375 2.2114429473876953125 2.196140289306640625 2.1974163055419921875 2.2031285762786865234 2.2042570114135742188 2.193790435791015625 2.1852512359619140625 2.1769771575927734375 2.1710133552551269531 2.1718988418579101562 2.1670107841491699219 2.1575064659118652344 2.1465580463409423828 2.1381933689117431641 2.1310966014862060547 2.1226971149444580078 2.1149463653564453125 2.1079387664794921875 2.1025896072387695312 2.1017210483551025391 2.1101086139678955078 2.1156394481658935547 2.1355087757110595703 2.1703433990478515625 2.1908776760101318359 2.1923100948333740234 2.2057132720947265625 2.1768181324005126953 2.1591870784759521484 2.1943614482879638672 2.3621006011962890625 2.7881762981414794922 3.4359424114227294922 3.8861765861511230469 4.0600233078002929688 4.2452702522277832031 4.5103583335876464844 4.6228413581848144531 4.6837763786315917969 4.7591547966003417969 4.8975262641906738281 5.0533690452575683594 5.2432546615600585938 5.4368634223937988281 5.7253856658935546875 6.333003997802734375 7.1278471946716308594 7.957271575927734375 8.1886701583862304688 7.2101221084594726562 6.3825092315673828125 5.8832445144653320312 5.7042632102966308594 5.7389197349548339844 5.8661208152770996094 5.956867218017578125 5.7664117813110351562 5.5317864418029785156 5.4043331146240234375 5.415218353271484375 5.5876469612121582031 5.4923734664916992188 5.1935944557189941406 5.0529847145080566406 4.9412975311279296875 4.8604884147644042969 4.7188715934753417969 4.6074018478393554688 4.5002856254577636719 4.3789019584655761719 4.242816925048828125 4.0988974571228027344 3.9385473728179931641 3.7710177898406982422 3.5090112686157226562 3.5501728057861328125 3.3963353633880615234 2.9891765117645263672 3.0514020919799804688 3.1384656429290771484 3.2267613410949707031 3.3098733425140380859 3.3941597938537597656 3.4732010364532470703 3.5529227256774902344 3.6271419525146484375 3.7020037174224853516 3.7718226909637451172 3.8426496982574462891 3.9089806079864501953 3.9766998291015625 4.0404105186462402344 4.0563063621520996094 4.0727601051330566406 4.1320953369140625 4.187225341796875 4.2427420616149902344 4.2938323020935058594 4.345592498779296875 4.3935718536376953125 4.44268035888671875 4.4886646270751953125 4.5366101264953613281 4.5828571319580078125 4.6330027580261230469 4.6830000877380371094 4.7388439178466796875 4.7959656715393066406 4.8614740371704101562 4.9298958778381347656 5.0096917152404785156 5.0937833786010742188 5.1919851303100585938 5.2931933403015136719 5.4068441390991210938 5.5190992355346679688 5.6408314704895019531 5.7571401596069335938 5.8804974555969238281 5.9971518516540527344 6.1212019920349121094 6.2390427589416503906 6.3650655746459960938 6.4839687347412109375 6.6065430641174316406 6.7136635780334472656 6.8134646415710449219 6.8890166282653808594 6.9452815055847167969 6.9751834869384765625 6.98749542236328125 6.9856977462768554688 6.9751992225646972656 6.9622673988342285156 6.9493985176086425781 6.9389820098876953125 6.9290513992309570312 6.9203314781188964844 6.9109759330749511719 6.9016823768615722656 6.8909430503845214844 6.8803353309631347656 6.8685374259948730469 6.85729217529296875 6.845081329345703125 6.8332762718200683594 6.818927764892578125 6.8028306961059570312 6.7810168266296386719 6.7549977302551269531 6.7193045616149902344 6.6798968315124511719 6.6340417861938476562 6.5903201103210449219 6.5433874130249023438 6.5013828277587890625 6.4577808380126953125 6.4171457290649414062 6.370136260986328125 6.321208953857421875 6.2592568397521972656 6.1917333602905273438 6.1093792915344238281 6.029266357421875 5.9435009956359863281 5.8697986602783203125 5.8013701438903808594 5.7504901885986328125 5.7061734199523925781 5.6712117195129394531 5.6358804702758789062 5.6017398834228515625 5.5601587295532226562 5.5172882080078125 5.4681210517883300781 5.4209947586059570312 5.3703074455261230469 5.3244419097900390625 5.277378082275390625 5.2354583740234375 5.1921167373657226562 5.152812957763671875 5.1113276481628417969 5.0726490020751953125 5.032451629638671875 5.0378475189208984375 5.1166958808898925781 5.1942257881164550781 5.2738485336303710938 5.3452081680297851562 5.4184536933898925781 5.4846968650817871094 5.5527544021606445312 5.6141676902770996094 5.6761474609375 5.7282423973083496094 5.7726454734802246094 5.7999820709228515625 5.8090620040893554688 5.7952561378479003906 5.7570095062255859375 5.7038130760192871094 5.6354403495788574219 5.5654625892639160156 5.4916129112243652344 5.425022125244140625 5.352199554443359375 5.2723793983459472656 5.1663928031921386719 5.03684234619140625 4.8603115081787109375 4.6567316055297851562 4.4144878387451171875 4.1706461906433105469 3.9115207195281982422 3.6750988960266113281 3.4451200962066650391 3.2436668872833251953 3.0453870296478271484 2.8652176856994628906 2.6801538467407226562 2.5035812854766845703 2.3135583400726318359 2.1242213249206542969 1.913056492805480957 1.695853114128112793 1.4480199813842773438 1.1924725770950317383 0.91540789604187011719 0.65357285737991333008 0.39499586820602416992 0.16785894334316253662 0.61940103769302368164 0.93999999761581420898 0.93999999761581420898 0.5244782567024230957 0 0 0 0 0 0 0 0 0 0 0 0 0 0 0 0 0 0 0 0 0 0 0 0 0 0 0 0 0 0 0 0 0 0 0 0 0 0 0 0 0 0 0 0 0 0 0 0 0 0 0 0 0 0 0 0 0 0 0 0 0 0 
2.2250034809112548828 2.2189269065856933594 2.2176289558410644531 2.2222399711608886719 2.2267372608184814453 2.2222878932952880859 2.2020037174224853516 2.1791520118713378906 2.1791515350341796875 2.1805529594421386719 2.1742231845855712891 2.1637086868286132812 2.154872894287109375 2.1528580188751220703 2.151386260986328125 2.1448521614074707031 2.1357827186584472656 2.1273581981658935547 2.1190769672393798828 2.1110298633575439453 2.1007490158081054688 2.0917708873748779297 2.0843791961669921875 2.0878057479858398438 2.1039958000183105469 2.1129176616668701172 2.1485700607299804688 2.1793668270111083984 2.1797993183135986328 2.2003691196441650391 2.1940789222717285156 2.1563804149627685547 2.1457407474517822266 2.2299408912658691406 2.5412299633026123047 2.7915623188018798828 3.3484778404235839844 3.7298865318298339844 3.8949496746063232422 4.1844134330749511719 4.4805459976196289062 4.5707859992980957031 4.5825905799865722656 4.6986856460571289062 4.8570942878723144531 5.0346813201904296875 5.2395639419555664062 5.446666717529296875 5.7914552688598632812 6.5254759788513183594 7.7234063148498535156 8.1403875350952148438 7.7618131637573242188 6.7054972648620605469 6.0490565299987792969 5.833160400390625 5.6977863311767578125 5.7226080894470214844 5.8265299797058105469 5.7914557456970214844 5.5752062797546386719 5.3851790428161621094 5.3680024147033691406 5.4352860450744628906 5.4905543327331542969 5.285160064697265625 5.0410037040710449219 4.9333868026733398438 4.8189358711242675781 4.7427606582641601562 4.5985722541809082031 4.4942088127136230469 4.3631734848022460938 4.22161102294921875 4.0595507621765136719 3.8812112808227539062 3.6674518585205078125 3.4080753326416015625 2.9958570003509521484 2.7352032661437988281 2.8188526630401611328 2.9094457626342773438 3.0013186931610107422 3.087985992431640625 3.1758909225463867188 3.2586309909820556641 3.3423943519592285156 3.4206478595733642578 3.4994878768920898438 3.5728766918182373047 3.6468884944915771484 3.7159068584442138672 3.7859134674072265625 3.8514664173126220703 3.9183905124664306641 3.9813597202301025391 3.9854273796081542969 3.993427276611328125 4.0549478530883789062 4.1118974685668945312 4.168910980224609375 4.2211098670959472656 4.2738518714904785156 4.3227419853210449219 4.3729205131530761719 4.4200649261474609375 4.4693727493286132812 4.5169672966003417969 4.5686540603637695312 4.6202497482299804688 4.6778650283813476562 4.7368726730346679688 4.8049216270446777344 4.8766360282897949219 4.9612021446228027344 5.0514087677001953125 5.1579232215881347656 5.26842498779296875 5.3927135467529296875 5.5151791572570800781 5.6471581459045410156 5.7720036506652832031 5.9026622772216796875 6.0242486000061035156 6.1509828567504882812 6.2685093879699707031 6.3911180496215820312 6.5038557052612304688 6.6172618865966796875 6.7139582633972167969 6.8014841079711914062 6.8651070594787597656 6.9090857505798339844 6.9283375740051269531 6.9306087493896484375 6.9209036827087402344 6.9039096832275390625 6.8870344161987304688 6.872379302978515625 6.8622689247131347656 6.8542423248291015625 6.8483023643493652344 6.8424530029296875 6.83649444580078125 6.8292126655578613281 6.8218326568603515625 6.8136601448059082031 6.8061041831970214844 6.7983555793762207031 6.7912898063659667969 6.7825427055358886719 6.771823883056640625 6.7560372352600097656 6.7359905242919921875 6.7070660591125488281 6.673183441162109375 6.6306643486022949219 6.5887637138366699219 6.5436534881591796875 6.5032758712768554688 6.4613780975341796875 6.4221944808959960938 6.3764524459838867188 6.3286223411560058594 6.2679643630981445312 6.2017827033996582031 6.1210312843322753906 6.0424942970275878906 5.9585180282592773438 5.8864655494689941406 5.8196787834167480469 5.7701234817504882812 5.7269191741943359375 5.6925778388977050781 5.6572394371032714844 5.6222662925720214844 5.5787906646728515625 5.5330090522766113281 5.4803118705749511719 5.4299693107604980469 5.3762545585632324219 5.3282876014709472656 5.2798705101013183594 5.2373447418212890625 5.1937747001647949219 5.1544122695922851562 5.1127953529357910156 5.0738101005554199219 5.0334568023681640625 5.0407052040100097656 5.1162514686584472656 5.190357208251953125 5.2661738395690917969 5.3339190483093261719 5.4034109115600585938 5.4662837982177734375 5.5312104225158691406 5.5904078483581542969 5.651096343994140625 5.7031559944152832031 5.7489290237426757812 5.7790036201477050781 5.792694091796875 5.7849097251892089844 5.7545957565307617188 5.7096982002258300781 5.6501545906066894531 5.5878200531005859375 5.5207538604736328125 5.4588160514831542969 5.3888721466064453125 5.3098521232604980469 5.2026362419128417969 5.0699305534362792969 4.8879861831665039062 4.6776180267333984375 4.4270005226135253906 4.174594879150390625 3.9063425064086914062 3.6616697311401367188 3.4238409996032714844 3.2157194614410400391 3.011112213134765625 2.8254222869873046875 2.6349263191223144531 2.4533696174621582031 2.2580711841583251953 2.0633852481842041016 1.8459571599960327148 1.6218669414520263672 1.3655740022659301758 1.1008504629135131836 0.81387621164321899414 0.54113876819610595703 0.26609334349632263184 0.48567014932632446289 0.93263876438140869141 0.93999999761581420898 0.8679218292236328125 0.13360847532749176025 0 0 0 0 0 0 0 0 0 0 0 0 0 0 0 0 0 0 0 0 0 0 0 0 0 0 0 0 0 0 0 0 0 0 0 0 0 0 0 0 0 0 0 0 0 0 0 0 0 0 0 0 0 0 0 0 0 0 0 0 0 0 
2.2180962562561035156 2.2129364013671875 2.2163257598876953125 2.2162871360778808594 2.2128665447235107422 2.2089588642120361328 2.2074003219604492188 2.2088150978088378906 2.1983525753021240234 2.1736950874328613281 2.1433832645416259766 2.1417658329010009766 2.1401875019073486328 2.1396274566650390625 2.13906097412109375 2.1333169937133789062 2.1223237514495849609 2.1146585941314697266 2.1027345657348632812 2.0935609340667724609 2.0855052471160888672 2.0765168666839599609 2.0697216987609863281 2.0774531364440917969 2.087306976318359375 2.1008431911468505859 2.147510528564453125 2.1675992012023925781 2.1766290664672851562 2.2080605030059814453 2.1732966899871826172 2.1427717208862304688 2.1434812545776367188 2.2649674415588378906 2.5275478363037109375 2.9351184368133544922 3.3545010089874267578 3.6037034988403320312 3.8192965984344482422 4.1498632431030273438 4.3712706565856933594 4.3979458808898925781 4.492046356201171875 4.6569857597351074219 4.8221011161804199219 5.0709705352783203125 5.2661485671997070312 5.4878373146057128906 5.826473236083984375 6.4247202873229980469 7.3869700431823730469 8.0381212234497070312 7.2710499763488769531 6.2656779289245605469 5.8893585205078125 5.7749738693237304688 5.6801943778991699219 5.6973567008972167969 5.7138986587524414062 5.5974879264831542969 5.3990602493286132812 5.2941341400146484375 5.3842749595642089844 5.4493842124938964844 5.3722443580627441406 5.1039099693298339844 4.9171128273010253906 4.8257045745849609375 4.7022271156311035156 4.6145792007446289062 4.4950137138366699219 4.3752045631408691406 4.2218260765075683594 4.0618872642517089844 3.8780038356781005859 3.6746163368225097656 3.4327239990234375 3.1598286628723144531 2.8271617889404296875 2.6786403656005859375 2.7663424015045166016 2.85648345947265625 2.9479272365570068359 3.0342082977294921875 3.1217215061187744141 3.2039666175842285156 3.28694915771484375 3.3644053936004638672 3.4424402713775634766 3.5150666236877441406 3.5882928371429443359 3.6565654277801513672 3.7257993221282958984 3.790618896484375 3.8567926883697509766 3.9190592765808105469 3.91246795654296875 3.9129154682159423828 3.9764168262481689453 4.0349664688110351562 4.0933623313903808594 4.1466298103332519531 4.2003545761108398438 4.2501707077026367188 4.301361083984375 4.3495945930480957031 4.4003081321716308594 4.4494185447692871094 4.5027322769165039062 4.5560131072998046875 4.6155710220336914062 4.6766972541809082031 4.747615814208984375 4.8230381011962890625 4.9129366874694824219 5.0099215507507324219 5.1255803108215332031 5.2462096214294433594 5.3819003105163574219 5.5150666236877441406 5.6574306488037109375 5.79045867919921875 5.9274954795837402344 6.0526952743530273438 6.1805105209350585938 6.2961049079895019531 6.4132027626037597656 6.5176625251770019531 6.6197099685668945312 6.7040944099426269531 6.7776947021484375 6.8283367156982421875 6.8595304489135742188 6.8682603836059570312 6.8610982894897460938 6.8443369865417480469 6.82187652587890625 6.8019609451293945312 6.7862977981567382812 6.7770395278930664062 6.7713460922241210938 6.7684798240661621094 6.7663741111755371094 6.7639369964599609375 6.7602691650390625 6.7561883926391601562 6.7515978813171386719 6.7475352287292480469 6.7438292503356933594 6.7409043312072753906 6.7370729446411132812 6.7313523292541503906 6.7211575508117675781 6.706539154052734375 6.6839747428894042969 6.6565217971801757812 6.6208205223083496094 6.5830979347229003906 6.5404458045959472656 6.5019803047180175781 6.4620308876037597656 6.42462158203125 6.3807935714721679688 6.3346052169799804688 6.2758193016052246094 6.2116847038269042969 6.1334524154663085938 6.0573754310607910156 5.9760298728942871094 5.9062438011169433594 5.8415141105651855469 5.7933216094970703125 5.7509980201721191406 5.7169232368469238281 5.6812753677368164062 5.6453299522399902344 5.6000356674194335938 5.5519080162048339844 5.4959897994995117188 5.442745208740234375 5.3863630294799804688 5.3365941047668457031 5.2870717048645019531 5.2441205978393554688 5.2005000114440917969 5.1612920761108398438 5.119983673095703125 5.0815005302429199219 5.04772186279296875 5.0590968132019042969 5.1217322349548339844 5.1908164024353027344 5.2614908218383789062 5.3245296478271484375 5.3890027999877929688 5.4473185539245605469 5.5078382492065429688 5.5636067390441894531 5.6217126846313476562 5.6726083755493164062 5.7187757492065429688 5.7510046958923339844 5.7691659927368164062 5.7678289413452148438 5.7464432716369628906 5.7109866142272949219 5.6616306304931640625 5.6083436012268066406 5.5493168830871582031 5.4928870201110839844 5.426441192626953125 5.3486547470092773438 5.2406888008117675781 5.1055574417114257812 4.9194631576538085938 4.7038555145263671875 4.4465250968933105469 4.1868281364440917969 3.9101195335388183594 3.6568846702575683594 3.4096844196319580078 3.1924986839294433594 2.9783742427825927734 2.7838120460510253906 2.5843713283538818359 2.3947923183441162109 2.191593170166015625 1.989706873893737793 1.7648978233337402344 1.5337557792663574219 1.2699010372161865234 0.99775344133377075195 0.69999933242797851562 0.41173860430717468262 0.2208054661750793457 0.85737740993499755859 0.93999999761581420898 0.93999999761581420898 0.33471524715423583984 0 0 0 0 0 0 0 0 0 0 0 0 0 0 0 0 0 0 0 0 0 0 0 0 0 0 0 0 0 0 0 0 0 0 0 0 0 0 0 0 0 0 0 0 0 0 0 0 0 0 0 0 0 0 0 0 0 0 0 0 0 0 0 
2.2098436355590820312 2.2093348503112792969 2.2114531993865966797 2.2090246677398681641 2.2031126022338867188 2.1992113590240478516 2.1951448917388916016 2.1889789104461669922 2.1888349056243896484 2.1918241977691650391 2.17304229736328125 2.1263837814331054688 2.0954184532165527344 2.1148214340209960938 2.1243410110473632812 2.1196994781494140625 2.1080751419067382812 2.0961160659790039062 2.0856416225433349609 2.0770039558410644531 2.0692386627197265625 2.0605950355529785156 2.0620751380920410156 2.0623805522918701172 2.0609827041625976562 2.0952253341674804688 2.1484239101409912109 2.1409878730773925781 2.1870729923248291016 2.2010660171508789062 2.1524870395660400391 2.1428606510162353516 2.1603167057037353516 2.3071341514587402344 2.7628540992736816406 3.1787576675415039062 3.4513943195343017578 3.5718164443969726562 3.8263742923736572266 4.1806130409240722656 4.36646270751953125 4.3742351531982421875 4.3983635902404785156 4.5318188667297363281 4.7831468582153320312 5.0717926025390625 5.2326073646545410156 5.4603781700134277344 5.8105068206787109375 6.3341388702392578125 7.2348575592041015625 8.1003475189208984375 7.300083160400390625 6.2683734893798828125 5.9938182830810546875 5.7299017906188964844 5.6561632156372070312 5.6378493309020996094 5.576019287109375 5.4331355094909667969 5.2699460983276367188 5.2913823127746582031 5.4064946174621582031 5.4191842079162597656 5.2419891357421875 4.9708247184753417969 4.8240065574645996094 4.7347283363342285156 4.6042599678039550781 4.5098671913146972656 4.4000868797302246094 4.2571258544921875 4.0927033424377441406 3.9205358028411865234 3.723911285400390625 3.5099275112152099609 3.2643206119537353516 3.0080056190490722656 2.7318265438079833984 2.6274912357330322266 2.7162725925445556641 2.8060040473937988281 2.89705657958984375 2.9829809665679931641 3.0700280666351318359 3.1516051292419433594 3.2338707447052001953 3.3106653690338134766 3.3880298137664794922 3.4600200653076171875 3.5325870513916015625 3.6002242565155029297 3.6688010692596435547 3.7329993247985839844 3.7985351085662841797 3.8601973056793212891 3.8451282978057861328 3.8395693302154541016 3.9046170711517333984 3.9644379615783691406 4.0240302085876464844 4.0783486366271972656 4.1331090927124023438 4.1838693618774414062 4.2360162734985351562 4.285282135009765625 4.3372621536254882812 4.3877663612365722656 4.4426665306091308594 4.4975385665893554688 4.5590081214904785156 4.6223206520080566406 4.6962075233459472656 4.7754116058349609375 4.8706440925598144531 4.9742822647094726562 5.0987701416015625 5.2290244102478027344 5.3753504753112792969 5.518218994140625 5.6696043014526367188 5.8092179298400878906 5.9506716728210449219 6.0775046348571777344 6.2043352127075195312 6.3163776397705078125 6.4267492294311523438 6.5220761299133300781 6.6123099327087402344 6.6843781471252441406 6.7445454597473144531 6.7831015586853027344 6.8028550148010253906 6.8026142120361328125 6.7878313064575195312 6.7657103538513183594 6.7394313812255859375 6.7177014350891113281 6.7018761634826660156 6.6938681602478027344 6.6906099319458007812 6.6906962394714355469 6.69207000732421875 6.6928567886352539062 6.6924610137939453125 6.691310882568359375 6.6898126602172851562 6.6886630058288574219 6.688205718994140625 6.688503265380859375 6.6884489059448242188 6.6866321563720703125 6.6811437606811523438 6.6712694168090820312 6.654201507568359375 6.6324110031127929688 6.6034083366394042969 6.5721807479858398438 6.5347800254821777344 6.4987840652465820312 6.4608211517333984375 6.4251599311828613281 6.3832921981811523438 6.339076995849609375 6.2825155258178710938 6.2206730842590332031 6.1452727317810058594 6.071933746337890625 5.9934301376342773438 5.9259305000305175781 5.8630666732788085938 5.8158917427062988281 5.7739276885986328125 5.7396607398986816406 5.7033567428588867188 5.6665158271789550781 5.6199011802673339844 5.5703549385070800781 5.5126175880432128906 5.4575176239013671875 5.3995351791381835938 5.348773956298828125 5.2987599372863769531 5.2557649612426757812 5.2123975753784179688 5.1736040115356445312 5.1326780319213867188 5.0942234992980957031 5.0703377723693847656 5.0827126502990722656 5.1323900222778320312 5.1963567733764648438 5.2617411613464355469 5.3195161819458007812 5.3781580924987792969 5.4310703277587890625 5.4861927032470703125 5.5375161170959472656 5.5918788909912109375 5.640499114990234375 5.6859350204467773438 5.7193751335144042969 5.7412266731262207031 5.7458333969116210938 5.7329382896423339844 5.7067828178405761719 5.6677641868591308594 5.6237282752990722656 5.5729665756225585938 5.5221996307373046875 5.4594297409057617188 5.3832812309265136719 5.2755498886108398438 5.1396198272705078125 4.951934814453125 4.7341480255126953125 4.4735260009765625 4.2094817161560058594 3.9265651702880859375 3.6656222343444824219 3.4083008766174316406 3.1800432205200195312 2.9534215927124023438 2.7468047142028808594 2.5352237224578857422 2.3351588249206542969 2.1223423480987548828 1.9125046730041503906 1.6804970502853393555 1.4434190988540649414 1.1739628314971923828 0.89322227239608764648 0.5821062922477722168 0.2859452366828918457 0.50676667690277099609 0.93999999761581420898 0.93999999761581420898 0.65282094478607177734 0.0076342616230249404907 0 0 0 0 0 0 0 0 0 0 0 0 0 0 0 0 0 0 0 0 0 0 0 0 0 0 0 0 0 0 0 0 0 0 0 0 0 0 0 0 0 0 0 0 0 0 0 0 0 0 0 0 0 0 0 0 0 0 0 0 0 0 0 
2.2013914585113525391 2.20159149169921875 2.2025029659271240234 2.1964476108551025391 2.1877722740173339844 2.1836438179016113281 2.1846704483032226562 2.1763756275177001953 2.1680436134338378906 2.1631348133087158203 2.1565048694610595703 2.1448695659637451172 2.1251127719879150391 2.1003437042236328125 2.0791063308715820312 2.0833683013916015625 2.0825948715209960938 2.0822095870971679688 2.0725426673889160156 2.0627739429473876953 2.0509061813354492188 2.0437810420989990234 2.0414650440216064453 2.0370459556579589844 2.0424773693084716797 2.0849747657775878906 2.1225419044494628906 2.1213052272796630859 2.1908857822418212891 2.1794531345367431641 2.1366853713989257812 2.1518785953521728516 2.1777710914611816406 2.4177389144897460938 2.9313564300537109375 3.2320990562438964844 3.4408915042877197266 3.6481606960296630859 3.8999681472778320312 4.1050167083740234375 4.2696223258972167969 4.3209452629089355469 4.3279194831848144531 4.4195146560668945312 4.73079681396484375 5.008846282958984375 5.1955819129943847656 5.4306120872497558594 5.8198118209838867188 6.4612183570861816406 7.4942140579223632812 8.0186777114868164062 7.1619234085083007812 6.1425876617431640625 5.8297185897827148438 5.6813521385192871094 5.6249437332153320312 5.5523128509521484375 5.4428677558898925781 5.2883729934692382812 5.1989960670471191406 5.3190884590148925781 5.4066023826599121094 5.34911346435546875 5.0964093208312988281 4.85688018798828125 4.7254462242126464844 4.6335859298706054688 4.4941797256469726562 4.4156785011291503906 4.2925047874450683594 4.1350073814392089844 3.9624829292297363281 3.7826592922210693359 3.5799970626831054688 3.3645954132080078125 3.1262645721435546875 2.8908581733703613281 2.653255462646484375 2.5738275051116943359 2.6629569530487060547 2.7522552013397216797 2.8428883552551269531 2.9283447265625 3.0146937370300292969 3.0955731868743896484 3.1771562099456787109 3.2533197402954101562 3.3300454616546630859 3.4014279842376708984 3.4733595848083496094 3.5403854846954345703 3.6083304882049560547 3.6719315052032470703 3.7368505001068115234 3.7979292869567871094 3.7754001617431640625 3.7644734382629394531 3.8307826519012451172 3.8917710781097412109 3.9526262283325195312 4.0082373619079589844 4.0643525123596191406 4.1163072586059570312 4.1696691513061523438 4.2200984954833984375 4.2733569145202636719 4.3252124786376953125 4.3817510604858398438 4.4383587837219238281 4.5019555091857910156 4.5678186416625976562 4.6452012062072753906 4.7287530899047851562 4.8299422264099121094 4.9408092498779296875 5.0746541023254394531 5.2148804664611816406 5.3719534873962402344 5.5242924690246582031 5.6839804649353027344 5.8289747238159179688 5.9730472564697265625 6.0994701385498046875 6.2229838371276855469 6.3292965888977050781 6.4309973716735839844 6.5158033370971679688 6.5930051803588867188 6.6519775390625 6.6983437538146972656 6.7248783111572265625 6.733699798583984375 6.7253050804138183594 6.7039957046508789062 6.6776566505432128906 6.6487469673156738281 6.6261653900146484375 6.6109442710876464844 6.6046514511108398438 6.6041169166564941406 6.6072754859924316406 6.6121473312377929688 6.616115570068359375 6.6188988685607910156 6.6205439567565917969 6.6219301223754882812 6.6234312057495117188 6.6258554458618164062 6.6289587020874023438 6.6321883201599121094 6.633819580078125 6.6326251029968261719 6.6274275779724121094 6.6160955429077148438 6.6001262664794921875 6.5779905319213867188 6.553623199462890625 6.523895263671875 6.4936823844909667969 6.4588618278503417969 6.42510223388671875 6.3852825164794921875 6.3431549072265625 6.2892332077026367188 6.2300977706909179688 6.1578221321105957031 6.0874400138854980469 6.0118951797485351562 5.946613311767578125 5.8852629661560058594 5.8385629653930664062 5.7962856292724609375 5.7612142562866210938 5.7238664627075195312 5.68613433837890625 5.6388883590698242188 5.5889101028442382812 5.530933380126953125 5.4754719734191894531 5.4171957969665527344 5.3664660453796386719 5.3167605400085449219 5.2742247581481933594 5.2313928604125976562 5.1929264068603515625 5.1519370079040527344 5.1156802177429199219 5.1010947227478027344 5.1127686500549316406 5.1516938209533691406 5.2085666656494140625 5.2680606842041015625 5.31955718994140625 5.3709444999694824219 5.4169025421142578125 5.4648556709289550781 5.5100488662719726562 5.5589394569396972656 5.6038088798522949219 5.6472015380859375 5.680973052978515625 5.7059574127197265625 5.7162470817565917969 5.7121877670288085938 5.6961145401000976562 5.6684651374816894531 5.6347107887268066406 5.5931329727172851562 5.5486235618591308594 5.4901261329650878906 5.4164705276489257812 5.3104181289672851562 5.1757764816284179688 4.9896898269653320312 4.7734823226928710938 4.5136613845825195312 4.248607635498046875 3.9616940021514892578 3.6932590007781982422 3.4236714839935302734 3.1804814338684082031 2.9361424446105957031 2.7121357917785644531 2.4832048416137695312 2.2687344551086425781 2.0436043739318847656 1.8245235681533813477 1.5852164030075073242 1.3427461385726928711 1.0642237663269042969 0.77213627099990844727 0.45503216981887817383 0.23564763367176055908 0.90968167781829833984 0.93999999761581420898 0.84917128086090087891 0.085484378039836883545 0 0 0 0 0 0 0 0 0 0 0 0 0 0 0 0 0 0 0 0 0 0 0 0 0 0 0 0 0 0 0 0 0 0 0 0 0 0 0 0 0 0 0 0 0 0 0 0 0 0 0 0 0 0 0 0 0 0 0 0 0 0 0 0 
2.1979105472564697266 2.1973412036895751953 2.1948351860046386719 2.1876034736633300781 2.1805636882781982422 2.1707432270050048828 2.1690170764923095703 2.1606163978576660156 2.1541702747344970703 2.1506509780883789062 2.1433360576629638672 2.1319570541381835938 2.1188671588897705078 2.1091294288635253906 2.0934052467346191406 2.0800569057464599609 2.0548300743103027344 2.0492625236511230469 2.0496387481689453125 2.0492274761199951172 2.0351302623748779297 2.0321934223175048828 2.0198938846588134766 2.0157136917114257812 2.0253691673278808594 2.0592441558837890625 2.0798270702362060547 2.11486053466796875 2.1844475269317626953 2.1618702411651611328 2.1427102088928222656 2.1590781211853027344 2.1886608600616455078 2.5400698184967041016 2.9852433204650878906 3.2034707069396972656 3.4066531658172607422 3.6954660415649414062 3.9495999813079833984 4.108821868896484375 4.2419610023498535156 4.2806782722473144531 4.2530145645141601562 4.419178009033203125 4.7714810371398925781 4.9910259246826171875 5.2240924835205078125 5.5196380615234375 6.0195937156677246094 6.8034253120422363281 7.8702807426452636719 7.9390244483947753906 6.8575119972229003906 6.0864453315734863281 5.722400665283203125 5.6269497871398925781 5.5729756355285644531 5.4585561752319335938 5.3199176788330078125 5.1769919395446777344 5.183624267578125 5.3360166549682617188 5.3818902969360351562 5.2556371688842773438 4.9636816978454589844 4.7630858421325683594 4.64178466796875 4.5413117408752441406 4.3845181465148925781 4.32207489013671875 4.187816619873046875 4.0230631828308105469 3.8458209037780761719 3.6626226902008056641 3.4591157436370849609 3.2473516464233398438 3.0193109512329101562 2.8012640476226806641 2.588134765625 2.5228807926177978516 2.6119999885559082031 2.7008702754974365234 2.7910282611846923828 2.8758518695831298828 2.9615213871002197266 3.0417876243591308594 3.1227693557739257812 3.1983788013458251953 3.2745444774627685547 3.3453915119171142578 3.4167642593383789062 3.4832575321197509766 3.5506529808044433594 3.6137306690216064453 3.6781105995178222656 3.7386832237243652344 3.7103714942932128906 3.6951439380645751953 3.7622902393341064453 3.8242707252502441406 3.8864407539367675781 3.9435441493988037109 4.0012793540954589844 4.0547266006469726562 4.1095495223999023438 4.1612048149108886719 4.21564483642578125 4.268672943115234375 4.3266577720642089844 4.3849768638610839844 4.4507689476013183594 4.5193376541137695312 4.6004323959350585938 4.6884894371032714844 4.7956261634826660156 4.9134492874145507812 5.0560083389282226562 5.2052450180053710938 5.3717093467712402344 5.5319471359252929688 5.6979985237121582031 5.8462977409362792969 5.9906463623046875 6.1144843101501464844 6.2326169013977050781 6.3316683769226074219 6.4237222671508789062 6.4979729652404785156 6.5628714561462402344 6.6098775863647460938 6.6440629959106445312 6.6603536605834960938 6.6602525711059570312 6.6455969810485839844 6.6196680068969726562 6.590717315673828125 6.56060791015625 6.5381627082824707031 6.5241718292236328125 6.5198149681091308594 6.5219197273254394531 6.5278582572937011719 6.535778045654296875 6.5424489974975585938 6.5478773117065429688 6.5518021583557128906 6.5554966926574707031 6.5590882301330566406 6.5637631416320800781 6.569057464599609375 6.5748949050903320312 6.5793461799621582031 6.5817856788635253906 6.5806908607482910156 6.5747075080871582031 6.5644254684448242188 6.5488290786743164062 6.5308790206909179688 6.5083365440368652344 6.4848542213439941406 6.456150054931640625 6.4252371788024902344 6.3872928619384765625 6.3469805717468261719 6.2953848838806152344 6.238861083984375 6.1695656776428222656 6.1017718315124511719 6.02867889404296875 5.9650363922119140625 5.9044437408447265625 5.8574242591857910156 5.8140459060668945312 5.7776126861572265625 5.7388925552368164062 5.7004494667053222656 5.6533751487731933594 5.6043825149536132812 5.5478506088256835938 5.4939727783203125 5.4370870590209960938 5.3875575065612792969 5.3389601707458496094 5.2972316741943359375 5.2549905776977539062 5.2168116569519042969 5.1759362220764160156 5.1445908546447753906 5.1354951858520507812 5.1462697982788085938 5.1780614852905273438 5.2270665168762207031 5.2806081771850585938 5.3254499435424804688 5.3689265251159667969 5.4071269035339355469 5.4469046592712402344 5.4849390983581542969 5.5272312164306640625 5.5672998428344726562 5.6075816154479980469 5.6406455039978027344 5.6674809455871582031 5.6825046539306640625 5.6864976882934570312 5.6798954010009765625 5.6631011962890625 5.6391959190368652344 5.60638427734375 5.5679225921630859375 5.5138754844665527344 5.443386077880859375 5.3404583930969238281 5.2093710899353027344 5.0283999443054199219 4.8179531097412109375 4.5636029243469238281 4.3015565872192382812 4.0137257575988769531 3.7389953136444091797 3.4561893939971923828 3.1954646110534667969 2.9296112060546875 2.6842901706695556641 2.4343130588531494141 2.2029421329498291016 1.9642471075057983398 1.7359201908111572266 1.4896727800369262695 1.2380486726760864258 0.94964998960494995117 0.65433454513549804688 0.33835884928703308105 0.41244414448738098145 0.93999999761581420898 0.93999999761581420898 0.46967667341232299805 0 0 0 0 0 0 0 0 0 0 0 0 0 0 0 0 0 0 0 0 0 0 0 0 0 0 0 0 0 0 0 0 0 0 0 0 0 0 0 0 0 0 0 0 0 0 0 0 0 0 0 0 0 0 0 0 0 0 0 0 0 0 0 0 0 
2.1970593929290771484 2.1931550502777099609 2.1869380474090576172 2.1785080432891845703 2.1697256565093994141 2.1609828472137451172 2.1529049873352050781 2.1441071033477783203 2.1393060684204101562 2.1334080696105957031 2.1314566135406494141 2.1271519660949707031 2.1083879470825195312 2.0918061733245849609 2.0848038196563720703 2.0791563987731933594 2.0667736530303955078 2.05030059814453125 2.0263469219207763672 2.0074517726898193359 2.0158617496490478516 2.0177590847015380859 1.9963129758834838867 1.9952455759048461914 2.0250499248504638672 2.0311977863311767578 2.0607974529266357422 2.1375305652618408203 2.1816568374633789062 2.15352630615234375 2.1571106910705566406 2.1713700294494628906 2.234996795654296875 2.662700653076171875 3.0895659923553466797 3.2643742561340332031 3.4669368267059326172 3.7454364299774169922 3.9915947914123535156 4.1486306190490722656 4.2170810699462890625 4.2726116180419921875 4.278106689453125 4.5237240791320800781 4.8455829620361328125 5.0392274856567382812 5.2769637107849121094 5.6500420570373535156 6.3279876708984375 7.4662194252014160156 8.1706085205078125 7.69930267333984375 6.6703195571899414062 6.1235642433166503906 5.6965856552124023438 5.6109466552734375 5.4955544471740722656 5.3513302803039550781 5.1988530158996582031 5.0870957374572753906 5.1791024208068847656 5.3326654434204101562 5.325466156005859375 5.1351995468139648438 4.8402347564697265625 4.65973663330078125 4.5518736839294433594 4.4452939033508300781 4.3077149391174316406 4.2255282402038574219 4.0765662193298339844 3.9098947048187255859 3.730106353759765625 3.5461063385009765625 3.3445870876312255859 3.1387312412261962891 2.9216532707214355469 2.7186336517333984375 2.5240640640258789062 2.4689009189605712891 2.5578174591064453125 2.6461679935455322266 2.7356286048889160156 2.8197405338287353516 2.9047234058380126953 2.9843695163726806641 3.0647442340850830078 3.1397969722747802734 3.2153980731964111328 3.2857067584991455078 3.3565261363983154297 3.4224944114685058594 3.489349365234375 3.5519123077392578125 3.6157653331756591797 3.6758468151092529297 3.6427657604217529297 3.6238598823547363281 3.6916031837463378906 3.7545690536499023438 3.8182916641235351562 3.8772141933441162109 3.9370441436767578125 3.9924914836883544922 4.0492110252380371094 4.102344512939453125 4.1580858230590820312 4.2123365402221679688 4.2718367576599121094 4.3320493698120117188 4.4004831314086914062 4.4722843170166015625 4.5577321052551269531 4.65090179443359375 4.7645053863525390625 4.8895587921142578125 5.0408039093017578125 5.1986870765686035156 5.3737912178039550781 5.5408582687377929688 5.7117633819580078125 5.861568450927734375 6.0039725303649902344 6.122997283935546875 6.2334508895874023438 6.3233170509338378906 6.4041390419006347656 6.4669165611267089844 6.5192580223083496094 6.5545430183410644531 6.5771126747131347656 6.5839791297912597656 6.5760464668273925781 6.5562753677368164062 6.5269989967346191406 6.4965815544128417969 6.4663543701171875 6.4448571205139160156 6.4326829910278320312 6.4305677413940429688 6.4354248046875 6.4440846443176269531 6.4548740386962890625 6.4640154838562011719 6.4718065261840820312 6.4777264595031738281 6.4834189414978027344 6.4888157844543457031 6.4954533576965332031 6.5027003288269042969 6.5109372138977050781 6.5180726051330566406 6.5240807533264160156 6.5271134376525878906 6.526611328125 6.5223302841186523438 6.5138249397277832031 6.5026221275329589844 6.4874296188354492188 6.4706768989562988281 6.4490633010864257812 6.4239268302917480469 6.389240264892578125 6.3506073951721191406 6.3011007308959960938 6.2469940185546875 6.1806807518005371094 6.1154394149780273438 6.0444827079772949219 5.9820537567138671875 5.921588897705078125 5.8735399246215820312 5.8282871246337890625 5.7899537086486816406 5.7495555877685546875 5.7104854583740234375 5.664279937744140625 5.6174211502075195312 5.5640439987182617188 5.5133066177368164062 5.4595589637756347656 5.4122557640075683594 5.3654694557189941406 5.3249077796936035156 5.2834482192993164062 5.245639801025390625 5.2056679725646972656 5.1804571151733398438 5.1746845245361328125 5.1846609115600585938 5.2112245559692382812 5.2521328926086425781 5.2991380691528320312 5.3367266654968261719 5.3714022636413574219 5.4008350372314453125 5.4312396049499511719 5.4609389305114746094 5.4953846931457519531 5.5295419692993164062 5.5655226707458496094 5.5965991020202636719 5.6242828369140625 5.6433854103088378906 5.6549835205078125 5.6576104164123535156 5.6514711380004882812 5.637241363525390625 5.6131162643432617188 5.5807275772094726562 5.5313587188720703125 5.4646515846252441406 5.3661828041076660156 5.2407803535461425781 5.0682950019836425781 4.8676381111145019531 4.6232013702392578125 4.3678569793701171875 4.0816826820373535156 3.8011672496795654297 3.5032317638397216797 3.2212805747985839844 2.9288613796234130859 2.6570863723754882812 2.3811423778533935547 2.1293492317199707031 1.8749194145202636719 1.6355853080749511719 1.3761396408081054688 1.1141972541809082031 0.82295709848403930664 0.53011435270309448242 0.22012205421924591064 0.72477048635482788086 0.93999999761581420898 0.72887480258941650391 0.016017807647585868835 0 0 0 0 0 0 0 0 0 0 0 0 0 0 0 0 0 0 0 0 0 0 0 0 0 0 0 0 0 0 0 0 0 0 0 0 0 0 0 0 0 0 0 0 0 0 0 0 0 0 0 0 0 0 0 0 0 0 0 0 0 0 0 0 0 
2.1866500377655029297 2.1784145832061767578 2.1742506027221679688 2.1720097064971923828 2.1619296073913574219 2.1521711349487304688 2.1432695388793945312 2.1342248916625976562 2.1275091171264648438 2.1194329261779785156 2.1123068332672119141 2.1109354496002197266 2.0985074043273925781 2.0856549739837646484 2.0728375911712646484 2.0591456890106201172 2.0492148399353027344 2.0444669723510742188 2.0438067913055419922 2.0232245922088623047 2.0144701004028320312 1.9815655946731567383 1.9599854946136474609 1.972400665283203125 2.0151417255401611328 2.0272657871246337891 2.0707507133483886719 2.1565074920654296875 2.1676518917083740234 2.1645703315734863281 2.1693198680877685547 2.1879906654357910156 2.2731740474700927734 2.7492218017578125 3.1747472286224365234 3.3968131542205810547 3.5776047706604003906 3.7540380954742431641 3.9997653961181640625 4.1295485496520996094 4.2155442237854003906 4.1324086189270019531 4.2615256309509277344 4.5953860282897949219 4.8360433578491210938 5.0414700508117675781 5.3026437759399414062 5.8068065643310546875 6.6613678932189941406 7.7218914031982421875 8.1724414825439453125 7.5559439659118652344 6.5211353302001953125 6.02719879150390625 5.6846418380737304688 5.5981049537658691406 5.4217486381530761719 5.2458558082580566406 5.0867733955383300781 5.03075408935546875 5.1735529899597167969 5.3169498443603515625 5.2491669654846191406 5.0058774948120117188 4.7255315780639648438 4.5586609840393066406 4.4698977470397949219 4.3529191017150878906 4.2263441085815429688 4.1417236328125 3.9764735698699951172 3.8074097633361816406 3.6269052028656005859 3.4437589645385742188 3.2454917430877685547 3.0457580089569091797 2.8381645679473876953 2.6467452049255371094 2.4654812812805175781 2.4172646999359130859 2.5058431625366210938 2.5935297012329101562 2.6822464466094970703 2.7656912803649902344 2.8500311374664306641 2.9290966987609863281 3.0089039802551269531 3.0834362506866455078 3.1585106849670410156 3.2283256053924560547 3.2986416816711425781 3.3641366958618164062 3.4305047988891601562 3.4926099777221679688 3.5559983253479003906 3.6156482696533203125 3.6357176303863525391 3.6559185981750488281 3.7196242809295654297 3.7797539234161376953 3.8418602943420410156 3.8977172374725341797 3.884990692138671875 3.9360442161560058594 3.9948987960815429688 4.0496668815612792969 4.1068105697631835938 4.162349700927734375 4.2234411239624023438 4.2856607437133789062 4.35698699951171875 4.4323334693908691406 4.522342681884765625 4.6206407546997070312 4.740413665771484375 4.8719763755798339844 5.0306077003479003906 5.1954603195190429688 5.3771195411682128906 5.5488905906677246094 5.7224049568176269531 5.8717474937438964844 6.0103912353515625 6.1232213973999023438 6.224964141845703125 6.3051505088806152344 6.3747954368591308594 6.4267287254333496094 6.4677290916442871094 6.4929485321044921875 6.5058183670043945312 6.5050563812255859375 6.4910993576049804688 6.4677257537841796875 6.436489105224609375 6.405673980712890625 6.3761734962463378906 6.3561215400695800781 6.3459849357604980469 6.3460574150085449219 6.3534026145935058594 6.3643941879272460938 6.3775410652160644531 6.3886504173278808594 6.3982725143432617188 6.4057126045227050781 6.4129261970520019531 6.4197235107421875 6.4279384613037109375 6.4368276596069335938 6.44716644287109375 6.4567241668701171875 6.4660105705261230469 6.472873687744140625 6.47747802734375 6.4787783622741699219 6.476924896240234375 6.4721469879150390625 6.4636969566345214844 6.4528951644897460938 6.4373650550842285156 6.417758941650390625 6.3885979652404785156 6.3526844978332519531 6.3048043251037597656 6.2525687217712402344 6.1886582374572753906 6.1256375312805175781 6.0564727783203125 5.9948124885559082031 5.9340252876281738281 5.8845849037170410156 5.8371667861938476562 5.7967920303344726562 5.7547917366027832031 5.715297698974609375 5.6703624725341796875 5.6262040138244628906 5.576808929443359375 5.5300207138061523438 5.4802365303039550781 5.4357199668884277344 5.3909435272216796875 5.3515796661376953125 5.3108367919921875 5.2733159065246582031 5.2352604866027832031 5.2149858474731445312 5.211170196533203125 5.2206435203552246094 5.2437686920166015625 5.2780904769897460938 5.3190827369689941406 5.350250244140625 5.3770227432250976562 5.3984880447387695312 5.420269012451171875 5.4421825408935546875 5.4691538810729980469 5.4974188804626464844 5.5284814834594726562 5.55683135986328125 5.5842776298522949219 5.6060557365417480469 5.6233859062194824219 5.6331830024719238281 5.6354146003723144531 5.6289000511169433594 5.6117253303527832031 5.5841531753540039062 5.5385985374450683594 5.4753293991088867188 5.3814902305603027344 5.262470245361328125 5.0997920036315917969 4.91062164306640625 4.6781129837036132812 4.4313397407531738281 4.1484694480895996094 3.8631832599639892578 3.5504424571990966797 3.2469904422760009766 2.9273419380187988281 2.6283559799194335938 2.3257668018341064453 2.0532166957855224609 1.7816770076751708984 1.5254503488540649414 1.2531850337982177734 0.98727256059646606445 0.6980412602424621582 0.4113006293773651123 0.25392812490463256836 0.90283125638961791992 0.87672340869903564453 0.19187812507152557373 0 0 0 0 0 0 0 0 0 0 0 0 0 0 0 0 0 0 0 0 0 0 0 0 0 0 0 0 0 0 0 0 0 0 0 0 0 0 0 0 0 0 0 0 0 0 0 0 0 0 0 0 0 0 0 0 0 0 0 0 0 0 0 0 0 0 
2.1810433864593505859 2.1736662387847900391 2.1657085418701171875 2.1614873409271240234 2.1552612781524658203 2.1436266899108886719 2.1351847648620605469 2.1255664825439453125 2.1167020797729492188 2.1059391498565673828 2.0958242416381835938 2.0907967090606689453 2.0833437442779541016 2.0726809501647949219 2.0579085350036621094 2.0444595813751220703 2.0347855091094970703 2.0228669643402099609 2.0082025527954101562 2.0047605037689208984 2.0054879188537597656 1.9961194992065429688 1.9827632904052734375 1.9940966367721557617 2.0292541980743408203 2.027736663818359375 2.0822813510894775391 2.1490828990936279297 2.1697063446044921875 2.1908197402954101562 2.1944892406463623047 2.2061085700988769531 2.3584482669830322266 2.8061833381652832031 3.2054648399353027344 3.5040986537933349609 3.7026350498199462891 3.8460118770599365234 4.0403237342834472656 4.0415925979614257812 4.11927032470703125 4.11309814453125 4.3127074241638183594 4.6062998771667480469 4.8257455825805664062 5.0487966537475585938 5.3448243141174316406 5.9350147247314453125 6.789089202880859375 7.7191162109375 7.9950881004333496094 7.2722430229187011719 6.2915329933166503906 5.8952603340148925781 5.6639389991760253906 5.5598874092102050781 5.3191952705383300781 5.1383199691772460938 4.9882183074951171875 4.9956603050231933594 5.1654195785522460938 5.2849678993225097656 5.1603226661682128906 4.85855865478515625 4.6031365394592285156 4.4431262016296386719 4.3876595497131347656 4.25238037109375 4.1240448951721191406 4.0421891212463378906 3.8740298748016357422 3.7048418521881103516 3.5246961116790771484 3.3433401584625244141 3.1490457057952880859 2.9555869102478027344 2.7567858695983886719 2.575397491455078125 2.4050829410552978516 2.3623507022857666016 2.4504017829895019531 2.5373065471649169922 2.6252582073211669922 2.7080130577087402344 2.7916815280914306641 2.8701386451721191406 2.9493472576141357422 3.023326873779296875 3.0978486537933349609 3.1671516895294189453 3.2369520664215087891 3.3019645214080810547 3.3678431510925292969 3.4294948577880859375 3.4924271106719970703 3.551654815673828125 3.6125946044921875 3.6703004837036132812 3.7301805019378662109 3.787261962890625 3.8469538688659667969 3.89966583251953125 3.8339865207672119141 3.8795566558837890625 3.9409947395324707031 3.9977800846099853516 4.0566930770874023438 4.1138734817504882812 4.1769709587097167969 4.2416758537292480469 4.3165254592895507812 4.396167755126953125 4.4914450645446777344 4.5953392982482910156 4.7214350700378417969 4.8591895103454589844 5.0242719650268554688 5.1946969032287597656 5.3810515403747558594 5.5555434226989746094 5.7294888496398925781 5.8763742446899414062 6.0093336105346679688 6.1143822669982910156 6.2060451507568359375 6.2756180763244628906 6.3335361480712890625 6.3745489120483398438 6.40454864501953125 6.4203724861145019531 6.4245839118957519531 6.4171957969665527344 6.398265838623046875 6.3722248077392578125 6.3399333953857421875 6.30945587158203125 6.2813129425048828125 6.2631072998046875 6.2552251815795898438 6.2575173377990722656 6.2672338485717773438 6.2803502082824707031 6.2955579757690429688 6.3083186149597167969 6.3194327354431152344 6.328098297119140625 6.3365626335144042969 6.3445720672607421875 6.3542585372924804688 6.3647856712341308594 6.3773126602172851562 6.3894338607788085938 6.4021897315979003906 6.4130773544311523438 6.4229855537414550781 6.4300122261047363281 6.4348902702331542969 6.4365878105163574219 6.4349665641784667969 6.429920196533203125 6.4200072288513183594 6.4053335189819335938 6.3816099166870117188 6.3506274223327636719 6.3057055473327636719 6.2550034523010253906 6.1930828094482421875 6.1319627761840820312 6.0644884109497070312 6.0034918785095214844 5.9421391487121582031 5.8910927772521972656 5.8413252830505371094 5.7988300323486328125 5.7552790641784667969 5.71559906005859375 5.6722826957702636719 5.6312747001647949219 5.5864377021789550781 5.5443377494812011719 5.499057769775390625 5.4578232765197753906 5.41512298583984375 5.3768491744995117188 5.3366270065307617188 5.2991962432861328125 5.2640008926391601562 5.2473330497741699219 5.2449507713317871094 5.2542004585266113281 5.27490234375 5.3040261268615722656 5.3394923210144042969 5.3651471138000488281 5.3850679397583007812 5.3995461463928222656 5.4136476516723632812 5.4284944534301757812 5.4484238624572753906 5.4705524444580078125 5.4962086677551269531 5.5211338996887207031 5.5472064018249511719 5.570178985595703125 5.5911870002746582031 5.6059556007385253906 5.6142582893371582031 5.6134185791015625 5.6012659072875976562 5.5770306587219238281 5.5341596603393554688 5.4737043380737304688 5.384349822998046875 5.2720918655395507812 5.1201930046081542969 4.9438571929931640625 4.7248806953430175781 4.4881014823913574219 4.2096338272094726562 3.9199750423431396484 3.5919985771179199219 3.2659690380096435547 2.9175205230712890625 2.5896699428558349609 2.2587704658508300781 1.9622873067855834961 1.6657828092575073242 1.3923628330230712891 1.1119457483291625977 0.84529477357864379883 0.56119883060455322266 0.28383147716522216797 0.5583197474479675293 0.93999999761581420898 0.46538424491882324219 0 0 0 0 0 0 0 0 0 0 0 0 0 0 0 0 0 0 0 0 0 0 0 0 0 0 0 0 0 0 0 0 0 0 0 0 0 0 0 0 0 0 0 0 0 0 0 0 0 0 0 0 0 0 0 0 0 0 0 0 0 0 0 0 0 0 0 
2.1785199642181396484 2.1718149185180664062 2.165012359619140625 2.1566016674041748047 2.1489584445953369141 2.1394722461700439453 2.1306781768798828125 2.1210145950317382812 2.1091735363006591797 2.0983121395111083984 2.0869474411010742188 2.0758230686187744141 2.0701930522918701172 2.0581603050231933594 2.0460233688354492188 2.0302181243896484375 2.0206997394561767578 2.0052208900451660156 1.9875348806381225586 1.985036015510559082 1.9675366878509521484 1.9662510156631469727 1.9755344390869140625 2.0066964626312255859 2.0395684242248535156 2.0427427291870117188 2.1071119308471679688 2.1334917545318603516 2.1775128841400146484 2.2032794952392578125 2.2104628086090087891 2.214542388916015625 2.4678289890289306641 2.8916659355163574219 3.3048305511474609375 3.6052093505859375 3.7488062381744384766 3.9599196910858154297 4.0529384613037109375 4.01507568359375 4.0445208549499511719 4.1208519935607910156 4.3493199348449707031 4.5960965156555175781 4.8224310874938964844 5.0709900856018066406 5.3819651603698730469 5.9437713623046875 6.8303627967834472656 7.7893033027648925781 7.6136617660522460938 6.6644577980041503906 6.0171642303466796875 5.8284134864807128906 5.685878753662109375 5.4502835273742675781 5.195850372314453125 5.0355696678161621094 4.9057245254516601562 4.9658093452453613281 5.1468787193298339844 5.231662750244140625 5.0512638092041015625 4.7295989990234375 4.5005383491516113281 4.3705816268920898438 4.3205771446228027344 4.1604547500610351562 4.0252351760864257812 3.94600677490234375 3.7803668975830078125 3.6118414402008056641 3.4326045513153076172 3.2533600330352783203 3.0629832744598388672 2.8751256465911865234 2.6836562156677246094 2.5102312564849853516 2.3483440876007080078 2.3096446990966796875 2.3969905376434326172 2.4831082820892333984 2.5702993869781494141 2.6523685455322265625 2.7353718280792236328 2.8132281303405761719 2.8918449878692626953 2.9652848243713378906 3.0392742156982421875 3.1080901622772216797 3.1774048805236816406 3.2419681549072265625 3.3073990345001220703 3.3686416149139404297 3.4311666488647460938 3.4900200366973876953 3.5505871772766113281 3.6079580783843994141 3.6675090789794921875 3.7242801189422607422 3.7836072444915771484 3.8362817764282226562 3.7794826030731201172 3.8286538124084472656 3.8928701877593994141 3.9519152641296386719 4.0129079818725585938 4.0720686912536621094 4.1375613212585449219 4.2051396369934082031 4.2839221954345703125 4.368221282958984375 4.468997955322265625 4.5783414840698242188 4.7101216316223144531 4.8528699874877929688 5.0224337577819824219 5.1960415840148925781 5.3843011856079101562 5.5588908195495605469 5.7308058738708496094 5.8734607696533203125 5.9995789527893066406 6.09639739990234375 6.1780996322631835938 6.2376751899719238281 6.2849750518798828125 6.3164601325988769531 6.337200164794921875 6.3453793525695800781 6.3428449630737304688 6.3305454254150390625 6.3080992698669433594 6.2804231643676757812 6.2478542327880859375 6.2181658744812011719 6.1916112899780273438 6.1752562522888183594 6.1694340705871582031 6.1736216545104980469 6.1852593421936035156 6.2000117301940917969 6.216739654541015625 6.2306528091430664062 6.2427616119384765625 6.2522449493408203125 6.2616009712219238281 6.2705755233764648438 6.2815752029418945312 6.2936968803405761719 6.3084268569946289062 6.3231334686279296875 6.3393344879150390625 6.3541216850280761719 6.3690361976623535156 6.3813447952270507812 6.3923015594482421875 6.39971923828125 6.4040503501892089844 6.4039807319641113281 6.3986124992370605469 6.3877248764038085938 6.3680782318115234375 6.3412127494812011719 6.3010015487670898438 6.252796173095703125 6.1922993659973144531 6.1325383186340332031 6.0663318634033203125 6.0059742927551269531 5.9441823959350585938 5.8917422294616699219 5.8399882316589355469 5.795745849609375 5.7510194778442382812 5.71140289306640625 5.6697759628295898438 5.6317071914672851562 5.5910654067993164062 5.5532560348510742188 5.5122160911560058594 5.4738764762878417969 5.4329099655151367188 5.3952565193176269531 5.3551130294799804688 5.3175725936889648438 5.2851147651672363281 5.2705364227294921875 5.26914215087890625 5.2784705162048339844 5.297893524169921875 5.3238615989685058594 5.3555903434753417969 5.37789154052734375 5.3936123847961425781 5.4037232398986816406 5.4128847122192382812 5.4229722023010253906 5.4375133514404296875 5.4545621871948242188 5.4754400253295898438 5.4967947006225585938 5.520420074462890625 5.5425324440002441406 5.5640897750854492188 5.5804233551025390625 5.5909733772277832031 5.5922665596008300781 5.5818090438842773438 5.558399200439453125 5.5161767005920410156 5.4570336341857910156 5.3708353042602539062 5.264156341552734375 5.1217036247253417969 4.9568877220153808594 4.750225067138671875 4.5226750373840332031 4.2484750747680664062 3.9551756381988525391 3.6137535572052001953 3.2675995826721191406 2.8933684825897216797 2.5395748615264892578 2.1806745529174804688 1.856108546257019043 1.5376914739608764648 1.2524158954620361328 0.96699756383895874023 0.70156913995742797852 0.42441654205322265625 0.1720380634069442749 0.84358823299407958984 0.79335796833038330078 0.023913770914077758789 0 0 0 0 0 0 0 0 0 0 0 0 0 0 0 0 0 0 0 0 0 0 0 0 0 0 0 0 0 0 0 0 0 0 0 0 0 0 0 0 0 0 0 0 0 0 0 0 0 0 0 0 0 0 0 0 0 0 0 0 0 0 0 0 0 0 0 
2.1790308952331542969 2.1696624755859375 2.1613092422485351562 2.1509351730346679688 2.1415686607360839844 2.1362450122833251953 2.1287889480590820312 2.1152966022491455078 2.1011989116668701172 2.09218597412109375 2.0791881084442138672 2.0612752437591552734 2.05083465576171875 2.0417516231536865234 2.0320329666137695312 2.0167517662048339844 2.0013570785522460938 1.9828246831893920898 1.9725539684295654297 1.9597234725952148438 1.9514316320419311523 1.9592458009719848633 1.9616333246231079102 1.9738386869430541992 1.9963947534561157227 2.0426030158996582031 2.1028909683227539062 2.1243879795074462891 2.1954443454742431641 2.2056124210357666016 2.2039024829864501953 2.2097704410552978516 2.4873354434967041016 2.9627814292907714844 3.4295775890350341797 3.7302801609039306641 3.780612945556640625 3.8999040126800537109 3.9505677223205566406 3.9690270423889160156 3.9661610126495361328 4.12451934814453125 4.3944730758666992188 4.6341614723205566406 4.8868885040283203125 5.1259665489196777344 5.4650797843933105469 6.1493406295776367188 7.2592129707336425781 7.998043060302734375 7.3171129226684570312 6.1847658157348632812 5.7768635749816894531 5.73709869384765625 5.6389894485473632812 5.3267645835876464844 5.0786633491516113281 4.9319767951965332031 4.8301634788513183594 4.9432196617126464844 5.1302399635314941406 5.1589207649230957031 4.9146971702575683594 4.6100182533264160156 4.4208364486694335938 4.3177423477172851562 4.2465062141418457031 4.0690155029296875 3.9453237056732177734 3.8530809879302978516 3.6874043941497802734 3.5185141563415527344 3.3401956558227539062 3.1633551120758056641 2.9770903587341308594 2.79471588134765625 2.6100656986236572266 2.4437777996063232422 2.2892405986785888672 2.2538411617279052734 2.3403592109680175781 2.4256160259246826172 2.5119733810424804688 2.5932919979095458984 2.6755683422088623047 2.7527675628662109375 2.8307399749755859375 2.9035983085632324219 2.977020263671875 3.0453217029571533203 3.11412811279296875 3.1782295703887939453 3.2432079315185546875 3.3040411472320556641 3.3661632537841796875 3.4246509075164794922 3.4848606586456298828 3.5419127941131591797 3.6011533737182617188 3.6576061248779296875 3.7165901660919189453 3.7693750858306884766 3.7248184680938720703 3.7783060073852539062 3.8457555770874023438 3.9075729846954345703 3.9712693691253662109 4.0330820083618164062 4.1017513275146484375 4.1730160713195800781 4.2566480636596679688 4.3464598655700683594 4.4535002708435058594 4.5686326026916503906 4.7058591842651367188 4.8526468276977539062 5.0248169898986816406 5.1991438865661621094 5.3863110542297363281 5.5580868721008300781 5.7251415252685546875 5.8614110946655273438 5.9791059494018554688 6.0668301582336425781 6.1382241249084472656 6.1879382133483886719 6.2251720428466796875 6.2479557991027832031 6.2605433464050292969 6.26222991943359375 6.2541856765747070312 6.2381329536437988281 6.2131857872009277344 6.1845464706420898438 6.1521844863891601562 6.1235461235046386719 6.0986776351928710938 6.0841274261474609375 6.0801873207092285156 6.0860004425048828125 6.0991983413696289062 6.1152091026306152344 6.1330280303955078125 6.147705078125 6.1604189872741699219 6.1704158782958984375 6.1804380416870117188 6.1902928352355957031 6.2026801109313964844 6.2166247367858886719 6.2339301109313964844 6.2516245841979980469 6.2716937065124511719 6.2907052040100097656 6.3108391761779785156 6.3284716606140136719 6.345378875732421875 6.3582358360290527344 6.3680400848388671875 6.3724155426025390625 6.3709821701049804688 6.3630895614624023438 6.3465371131896972656 6.32282257080078125 6.2867908477783203125 6.2429900169372558594 6.1850905418395996094 6.1263413429260253906 6.061122894287109375 6.001361846923828125 5.9394993782043457031 5.88608551025390625 5.8328299522399902344 5.7873010635375976562 5.7418141365051269531 5.7025089263916015625 5.6626324653625488281 5.6272912025451660156 5.5903682708740234375 5.556324005126953125 5.519062042236328125 5.4831323623657226562 5.443416595458984375 5.4057822227478027344 5.3650889396667480469 5.3272624015808105469 5.2968325614929199219 5.28340911865234375 5.2827444076538085938 5.2924351692199707031 5.3115620613098144531 5.3362016677856445312 5.3662114143371582031 5.3876252174377441406 5.4022216796875 5.4110293388366699219 5.4184503555297851562 5.4261903762817382812 5.4372167587280273438 5.45053863525390625 5.4672703742980957031 5.4847936630249023438 5.5045418739318847656 5.5233440399169921875 5.5419497489929199219 5.5559453964233398438 5.5642867088317871094 5.5635690689086914062 5.5508704185485839844 5.5252437591552734375 5.48113250732421875 5.4213738441467285156 5.3366055488586425781 5.2339901924133300781 5.0993418693542480469 4.944461822509765625 4.748600006103515625 4.5291943550109863281 4.2587113380432128906 3.9620003700256347656 3.6082646846771240234 3.243709564208984375 2.8457560539245605469 2.4651343822479248047 2.0736031532287597656 1.7238321304321289062 1.3879072666168212891 1.0929313898086547852 0.80398637056350708008 0.54115194082260131836 0.27283710241317749023 0.47390016913414001465 0.90476316213607788086 0.30984255671501159668 0 0 0 0 0 0 0 0 0 0 0 0 0 0 0 0 0 0 0 0 0 0 0 0 0 0 0 0 0 0 0 0 0 0 0 0 0 0 0 0 0 0 0 0 0 0 0 0 0 0 0 0 0 0 0 0 0 0 0 0 0 0 0 0 0 0 0 0 
2.1762495040893554688 2.1675496101379394531 2.1553044319152832031 2.142528533935546875 2.1327414512634277344 2.1253726482391357422 2.11641693115234375 2.1059825420379638672 2.0948698520660400391 2.0843267440795898438 2.0690765380859375 2.0509462356567382812 2.0362000465393066406 2.0263087749481201172 2.0148425102233886719 2.0018053054809570312 1.9841741323471069336 1.9667617082595825195 1.9588222503662109375 1.9419747591018676758 1.9427188634872436523 1.9403821229934692383 1.9448084831237792969 1.9543443918228149414 1.9824438095092773438 2.0619432926177978516 2.0909786224365234375 2.1119878292083740234 2.1777806282043457031 2.2000107765197753906 2.1903629302978515625 2.2008831501007080078 2.6163418292999267578 3.1461284160614013672 3.5163519382476806641 3.6870520114898681641 3.7452707290649414062 3.8510673046112060547 3.8514761924743652344 3.9248752593994140625 3.9876396656036376953 4.2308993339538574219 4.4751124382019042969 4.6512293815612792969 4.9567017555236816406 5.2600431442260742188 5.745784759521484375 6.6455225944519042969 7.8402628898620605469 8.0767364501953125 7.1455788612365722656 6.08901214599609375 5.7660770416259765625 5.7722706794738769531 5.5136990547180175781 5.1650562286376953125 4.9801964759826660156 4.8388714790344238281 4.7701044082641601562 4.9228987693786621094 5.1158313751220703125 5.0714693069458007812 4.7780275344848632812 4.5061998367309570312 4.3487954139709472656 4.2555994987487792969 4.1792821884155273438 3.9886999130249023438 3.9021871089935302734 3.7778847217559814453 3.6027679443359375 3.4322748184204101562 3.2548720836639404297 3.0805542469024658203 2.8982496261596679688 2.7208125591278076172 2.5420229434967041016 2.3816621303558349609 2.2330155372619628906 2.2001521587371826172 2.2858414649963378906 2.3702530860900878906 2.4557902812957763672 2.5363698005676269531 2.6179280281066894531 2.6944763660430908203 2.7718155384063720703 2.8441059589385986328 2.9169766902923583984 2.9847829341888427734 3.0531065464019775391 3.1167764663696289062 3.1813368797302246094 3.2417979240417480469 3.3035566806793212891 3.361721038818359375 3.4216196537017822266 3.4783983230590820312 3.5373642444610595703 3.5935289859771728516 3.6522326469421386719 3.7052652835845947266 3.67522430419921875 3.7332940101623535156 3.8040783405303955078 3.8689050674438476562 3.9356875419616699219 4.0006070137023925781 4.0729784965515136719 4.1484322547912597656 4.2373967170715332031 4.33306121826171875 4.4464869499206542969 4.5671906471252441406 4.7090687751770019531 4.8585066795349121094 5.0310988426208496094 5.203563690185546875 5.3867096900939941406 5.5530228614807128906 5.712890625 5.8413243293762207031 5.949977874755859375 6.0287928581237792969 6.0907278060913085938 6.1318445205688476562 6.1606874465942382812 6.1765279769897460938 6.1828951835632324219 6.1798501014709472656 6.1679906845092773438 6.1495208740234375 6.1231937408447265625 6.0941982269287109375 6.062305450439453125 6.0346889495849609375 6.0112605094909667969 5.9981536865234375 5.9956388473510742188 6.0026059150695800781 6.0168375968933105469 6.0336208343505859375 6.0520415306091308594 6.0670709609985351562 6.0800223350524902344 6.0902571678161621094 6.1007399559020996094 6.1113796234130859375 6.1251673698425292969 6.1410460472106933594 6.1610970497131347656 6.1819214820861816406 6.2059206962585449219 6.2290635108947753906 6.2540903091430664062 6.2765259742736816406 6.2986278533935546875 6.3160796165466308594 6.3303351402282714844 6.3381409645080566406 6.3395972251892089844 6.3337960243225097656 6.3192038536071777344 6.2975029945373535156 6.2643313407897949219 6.2241463661193847656 6.1706714630126953125 6.1138377189636230469 6.0493173599243164062 5.9900617599487304688 5.9284181594848632812 5.874759674072265625 5.8208136558532714844 5.774700164794921875 5.7290186882019042969 5.6902308464050292969 5.6518816947937011719 5.6186909675598144531 5.5844602584838867188 5.5530524253845214844 5.5183568000793457031 5.4840636253356933594 5.4447464942932128906 5.4065227508544921875 5.3646030426025390625 5.3262033462524414062 5.2966389656066894531 5.2835221290588378906 5.2832636833190917969 5.2935080528259277344 5.3132529258728027344 5.33829498291015625 5.3688855171203613281 5.3919539451599121094 5.4086256027221679688 5.41937255859375 5.4283170700073242188 5.436248779296875 5.4463682174682617188 5.4578528404235839844 5.4717068672180175781 5.48564910888671875 5.5006814002990722656 5.5144195556640625 5.5271868705749511719 5.5354132652282714844 5.5375461578369140625 5.5310730934143066406 5.5125894546508789062 5.4820389747619628906 5.4337363243103027344 5.3714504241943359375 5.2860751152038574219 5.1853084564208984375 5.0555729866027832031 4.9074769020080566406 4.7191619873046875 4.5053963661193847656 4.237178802490234375 3.937305450439453125 3.5735278129577636719 3.19414520263671875 2.7738237380981445312 2.3658185005187988281 1.9493186473846435547 1.5816227197647094727 1.2327377796173095703 0.93068593740463256836 0.639896392822265625 0.38069745898246765137 0.20739167928695678711 0.81599050760269165039 0.61138838529586791992 0 0 0 0 0 0 0 0 0 0 0 0 0 0 0 0 0 0 0 0 0 0 0 0 0 0 0 0 0 0 0 0 0 0 0 0 0 0 0 0 0 0 0 0 0 0 0 0 0 0 0 0 0 0 0 0 0 0 0 0 0 0 0 0 0 0 0 0 0 
2.1719725131988525391 2.1635046005249023438 2.1540496349334716797 2.1382453441619873047 2.1299300193786621094 2.1189074516296386719 2.1025178432464599609 2.0937569141387939453 2.0826675891876220703 2.0685069561004638672 2.0552909374237060547 2.0387353897094726562 2.0216989517211914062 2.0104925632476806641 1.9983661174774169922 1.9878454208374023438 1.9699294567108154297 1.9517874717712402344 1.9436105489730834961 1.9271576404571533203 1.9220201969146728516 1.9229230880737304688 1.9429883956909179688 1.9479943513870239258 2.0056221485137939453 2.0776469707489013672 2.0760881900787353516 2.0998966693878173828 2.1511604785919189453 2.1657848358154296875 2.1638891696929931641 2.3549792766571044922 2.9038691520690917969 3.3906335830688476562 3.5943038463592529297 3.6910252571105957031 3.7169253826141357422 3.785312652587890625 3.8637955188751220703 3.9079649448394775391 4.00101470947265625 4.2856030464172363281 4.4815192222595214844 4.7040190696716308594 5.0042219161987304688 5.3653254508972167969 6.0467648506164550781 7.2330355644226074219 8.1172962188720703125 7.9534454345703125 7.2146234512329101562 6.2776560783386230469 5.7972302436828613281 5.7670698165893554688 5.3415007591247558594 5.0246233940124511719 4.8916530609130859375 4.7565107345581054688 4.7148432731628417969 4.898418426513671875 5.0729627609252929688 4.9553666114807128906 4.6375780105590820312 4.4060049057006835938 4.2686877250671386719 4.1955766677856445312 4.1059136390686035156 3.8969357013702392578 3.8264434337615966797 3.6898932456970214844 3.5138576030731201172 3.342929840087890625 3.1671595573425292969 2.9959294795989990234 2.8179187774658203125 2.6454656124114990234 2.4723284244537353516 2.3174672126770019531 2.1741695404052734375 2.1435489654541015625 2.2283346652984619141 2.3118371963500976562 2.3964905738830566406 2.4762718677520751953 2.5570514202117919922 2.6328966617584228516 2.7095551490783691406 2.7812368869781494141 2.8535211086273193359 2.9208037853240966797 2.9886240959167480469 3.0518507957458496094 3.1159875392913818359 3.1760747432708740234 3.2374746799468994141 3.29532623291015625 3.3549280166625976562 3.4114484786987304688 3.4701378345489501953 3.5260350704193115234 3.5844919681549072266 3.6381218433380126953 3.6301026344299316406 3.6919965744018554688 3.7652184963226318359 3.8325796127319335938 3.9022495746612548828 3.9708037376403808594 4.0478243827819824219 4.1282420158386230469 4.22339630126953125 4.3256969451904296875 4.446147918701171875 4.5727286338806152344 4.7190299034118652344 4.8702235221862792969 5.0415015220642089844 5.2098560333251953125 5.3862547874450683594 5.5444774627685546875 5.6946377754211425781 5.8133630752563476562 5.9116635322570800781 5.98091888427734375 6.0332365036010742188 6.0660228729248046875 6.0870981216430664062 6.0968289375305175781 6.0980138778686523438 6.0912637710571289062 6.0766229629516601562 6.0565576553344726562 6.0295186042785644531 6.0005679130554199219 5.969272613525390625 5.9426140785217285156 5.9204254150390625 5.9084954261779785156 5.9070882797241210938 5.9149074554443359375 5.9298481941223144531 5.9471158981323242188 5.9658708572387695312 5.9810471534729003906 5.9940810203552246094 6.0044779777526855469 6.0154170989990234375 6.0269246101379394531 6.04230499267578125 6.0603880882263183594 6.0835299491882324219 6.1078052520751953125 6.1360211372375488281 6.1634564399719238281 6.1933870315551757812 6.2204756736755371094 6.2474689483642578125 6.269130706787109375 6.287342071533203125 6.2980742454528808594 6.301849365234375 6.2976703643798828125 6.2845568656921386719 6.2642970085144042969 6.2332978248596191406 6.1960339546203613281 6.1468319892883300781 6.0941548347473144531 6.0313887596130371094 5.97258758544921875 5.9113378524780273438 5.857913970947265625 5.8040585517883300781 5.7579483985900878906 5.7125658988952636719 5.6745243072509765625 5.6376323699951171875 5.6062669754028320312 5.5741453170776367188 5.54459381103515625 5.5116038322448730469 5.4782953262329101562 5.4387617111206054688 5.3993601799011230469 5.3554925918579101562 5.3160662651062011719 5.286319732666015625 5.2728815078735351562 5.2727560997009277344 5.2836756706237792969 5.3047118186950683594 5.3313212394714355469 5.3641462326049804688 5.3906092643737792969 5.4115738868713378906 5.426448822021484375 5.4387683868408203125 5.4487748146057128906 5.4597682952880859375 5.4707517623901367188 5.4825501441955566406 5.4930372238159179688 5.5029249191284179688 5.5105290412902832031 5.5155797004699707031 5.5157771110534667969 5.5090389251708984375 5.4942793846130371094 5.4675655364990234375 5.4301576614379882812 5.3759570121765136719 5.3096981048583984375 5.2221899032592773438 5.121673583984375 4.9948511123657226562 4.8513960838317871094 4.6683526039123535156 4.4583210945129394531 4.1909122467041015625 3.8872728347778320312 3.5135402679443359375 3.1165482997894287109 2.6701319217681884766 2.2394261360168457031 1.8032388687133789062 1.421036839485168457 1.0618903636932373047 0.75487840175628662109 0.46420562267303466797 0.21039536595344543457 0.63523077964782714844 0.85832875967025756836 0.031322151422500610352 0 0 0 0 0 0 0 0 0 0 0 0 0 0 0 0 0 0 0 0 0 0 0 0 0 0 0 0 0 0 0 0 0 0 0 0 0 0 0 0 0 0 0 0 0 0 0 0 0 0 0 0 0 0 0 0 0 0 0 0 0 0 0 0 0 0 0 0 0 
2.1709344387054443359 2.1606585979461669922 2.1492989063262939453 2.1330220699310302734 2.1239902973175048828 2.1132864952087402344 2.095584869384765625 2.0834522247314453125 2.0702414512634277344 2.0568101406097412109 2.0430285930633544922 2.0260648727416992188 2.0084941387176513672 1.9975330829620361328 1.9843735694885253906 1.9733572006225585938 1.9540904760360717773 1.9348628520965576172 1.9274343252182006836 1.9097136259078979492 1.8941938877105712891 1.9107912778854370117 1.9339597225189208984 1.9567934274673461914 2.0374510288238525391 2.0685658454895019531 2.0635430812835693359 2.0930147171020507812 2.1331417560577392578 2.1458835601806640625 2.1950449943542480469 2.5555748939514160156 3.0478117465972900391 3.4849302768707275391 3.6871058940887451172 3.7018740177154541016 3.7101557254791259766 3.7326388359069824219 3.8083770275115966797 3.8406665325164794922 3.9779636859893798828 4.2670807838439941406 4.5268764495849609375 4.7613606452941894531 5.0320286750793457031 5.4652905464172363281 6.3348336219787597656 7.4583044052124023438 8.1614866256713867188 7.7581243515014648438 6.8880038261413574219 6.1483654975891113281 5.7657256126403808594 5.5162758827209472656 5.1253142356872558594 4.9101772308349609375 4.7979292869567871094 4.6793565750122070312 4.6655488014221191406 4.8841719627380371094 5.0161538124084472656 4.8165488243103027344 4.4973731040954589844 4.3108997344970703125 4.1864962577819824219 4.1303567886352539062 4.0207118988037109375 3.8092768192291259766 3.7489392757415771484 3.6076445579528808594 3.4278123378753662109 3.2573421001434326172 3.0840594768524169922 2.9163408279418945312 2.7426450252532958984 2.5748534202575683594 2.4067635536193847656 2.2566294670104980469 2.1179146766662597656 2.0891487598419189453 2.1730399131774902344 2.2556517124176025391 2.3394372463226318359 2.4184324741363525391 2.4984443187713623047 2.5735991001129150391 2.6495904922485351562 2.7206783294677734375 2.7923922538757324219 2.8591711521148681641 2.9265146255493164062 2.9893252849578857422 3.0530693531036376953 3.1128141880035400391 3.1738915443420410156 3.2314670085906982422 3.2908115386962890625 3.3471064567565917969 3.4055459499359130859 3.4612262248992919922 3.5194885730743408203 3.5751528739929199219 3.627048492431640625 3.6845228672027587891 3.7468302249908447266 3.8068544864654541016 3.8708641529083251953 3.9397840499877929688 4.0279259681701660156 4.1134905815124511719 4.2150034904479980469 4.3240232467651367188 4.4514431953430175781 4.5836672782897949219 4.7339034080505371094 4.8860521316528320312 5.0548152923583984375 5.2176828384399414062 5.3857979774475097656 5.5345602035522460938 5.673828125 5.782131195068359375 5.8698182106018066406 5.9296860694885253906 5.9729313850402832031 5.9981737136840820312 6.0125136375427246094 6.0172257423400878906 6.0144238471984863281 6.0050415992736816406 5.9886150360107421875 5.9676733016967773438 5.9403786659240722656 5.9116678237915039062 5.8809056282043457031 5.8549447059631347656 5.8336076736450195312 5.8224587440490722656 5.8217635154724121094 5.8301138877868652344 5.8454833030700683594 5.8630352020263671875 5.8819870948791503906 5.8972687721252441406 5.9104142189025878906 5.9210562705993652344 5.9325656890869140625 5.94504547119140625 5.9621090888977050781 5.9824361801147460938 6.0086374282836914062 6.0362424850463867188 6.0684218406677246094 6.0997753143310546875 6.134037017822265625 6.1651158332824707031 6.1962060928344726562 6.2213292121887207031 6.2427439689636230469 6.2558135986328125 6.2614102363586425781 6.2584815025329589844 6.2465658187866210938 6.2274556159973144531 6.1980943679809570312 6.1630558967590332031 6.1171736717224121094 6.0684061050415039062 6.0097050666809082031 5.9520764350891113281 5.89128875732421875 5.8383741378784179688 5.785186767578125 5.7396841049194335938 5.695011138916015625 5.6578698158264160156 5.6222643852233886719 5.5923109054565429688 5.5616903305053710938 5.5332546234130859375 5.5010838508605957031 5.468017578125 5.4278955459594726562 5.3868646621704101562 5.34063720703125 5.2996706962585449219 5.2688364982604980469 5.2545871734619140625 5.25431060791015625 5.2658581733703613281 5.2884287834167480469 5.3170990943908691406 5.3528156280517578125 5.3830943107604980469 5.4089140892028808594 5.4281373023986816406 5.4442729949951171875 5.4570875167846679688 5.4698820114135742188 5.4812245368957519531 5.4917669296264648438 5.4996199607849121094 5.5052032470703125 5.5072865486145019531 5.5050683021545410156 5.4974985122680664062 5.4820394515991210938 5.4590544700622558594 5.4241309165954589844 5.379852294921875 5.3196263313293457031 5.2490582466125488281 5.1587071418762207031 5.0573244094848632812 4.9316654205322265625 4.7907490730285644531 4.6105947494506835938 4.402194976806640625 4.1338891983032226562 3.8254001140594482422 3.4375646114349365234 3.0197346210479736328 2.5527663230895996094 2.1048450469970703125 1.6534677743911743164 1.2605196237564086914 0.89468228816986083984 0.58570981025695800781 0.29773440957069396973 0.36760261654853820801 0.92737466096878051758 0.27702283859252929688 0 0 0 0 0 0 0 0 0 0 0 0 0 0 0 0 0 0 0 0 0 0 0 0 0 0 0 0 0 0 0 0 0 0 0 0 0 0 0 0 0 0 0 0 0 0 0 0 0 0 0 0 0 0 0 0 0 0 0 0 0 0 0 0 0 0 0 0 0 0 
2.1726319789886474609 2.1568236351013183594 2.1431334018707275391 2.1271767616271972656 2.1144857406616210938 2.1027479171752929688 2.0900175571441650391 2.0744798183441162109 2.0613579750061035156 2.0499620437622070312 2.0321130752563476562 2.0131988525390625 1.9980796575546264648 1.9862433671951293945 1.9726235866546630859 1.9587080478668212891 1.9373661279678344727 1.9200469255447387695 1.9137454032897949219 1.885448455810546875 1.8787490129470825195 1.9085656404495239258 1.9204086065292358398 1.9760035276412963867 2.0562520027160644531 2.0592832565307617188 2.0725312232971191406 2.1109883785247802734 2.1329309940338134766 2.1575374603271484375 2.3783423900604248047 2.77039337158203125 3.1795268058776855469 3.460178375244140625 3.5833108425140380859 3.6559534072875976562 3.6928665637969970703 3.7598958015441894531 3.7939181327819824219 3.8566391468048095703 4.0119571685791015625 4.2844443321228027344 4.5647668838500976562 4.7947440147399902344 5.063060760498046875 5.5082254409790039062 6.4149169921875 7.3487386703491210938 7.9777817726135253906 7.7576880455017089844 6.7033567428588867188 5.8491077423095703125 5.523406982421875 5.2745995521545410156 4.96387481689453125 4.8203096389770507812 4.7063555717468261719 4.602130889892578125 4.6451058387756347656 4.8905453681945800781 4.9319200515747070312 4.6565365791320800781 4.3704042434692382812 4.2146944999694824219 4.1070790290832519531 4.0640859603881835938 3.9274175167083740234 3.7236561775207519531 3.6787052154541015625 3.5198199748992919922 3.3355510234832763672 3.1670668125152587891 2.9975824356079101562 2.8341314792633056641 2.6651551723480224609 2.5021560192108154297 2.3390204906463623047 2.1934516429901123047 2.0591311454772949219 2.0320837497711181641 2.1150140762329101562 2.196674346923828125 2.2795314788818359375 2.3576824665069580078 2.4368717670440673828 2.5112881660461425781 2.5865685939788818359 2.6570248603820800781 2.7281343936920166016 2.7943861484527587891 2.8612346649169921875 2.9236192703247070312 2.986965179443359375 3.0463678836822509766 3.1071293354034423828 3.1644387245178222656 3.2235400676727294922 3.2796130180358886719 3.3378202915191650391 3.3933115005493164062 3.4514100551605224609 3.5071799755096435547 3.5660839080810546875 3.6229975223541259766 3.6836068630218505859 3.7424576282501220703 3.8055315017700195312 3.8887655735015869141 4.0107126235961914062 4.1019001007080078125 4.2103610038757324219 4.3266625404357910156 4.4615468978881835938 4.5996918678283691406 4.7538676261901855469 4.9065480232238769531 5.0718541145324707031 5.2279491424560546875 5.3861742019653320312 5.5238652229309082031 5.6506171226501464844 5.7471852302551269531 5.82318878173828125 5.87296295166015625 5.9066867828369140625 5.9242305755615234375 5.9319314956665039062 5.9319286346435546875 5.9256143569946289062 5.9141054153442382812 5.8963956832885742188 5.8749299049377441406 5.8475446701049804688 5.8190336227416992188 5.7886381149291992188 5.7630686759948730469 5.7422018051147460938 5.7314887046813964844 5.731204986572265625 5.7398853302001953125 5.7555623054504394531 5.7733678817749023438 5.79257965087890625 5.8081173896789550781 5.8216228485107421875 5.8327922821044921875 5.8452043533325195312 5.8589549064636230469 5.8779807090759277344 5.9007525444030761719 5.9301462173461914062 5.961116790771484375 5.9971876144409179688 6.0322771072387695312 6.0705442428588867188 6.1052145957946777344 6.139934539794921875 6.1681079864501953125 6.1923756599426269531 6.2076005935668945312 6.2149982452392578125 6.2134079933166503906 6.2028269767761230469 6.1850452423095703125 6.1573519706726074219 6.1243262290954589844 6.0813345909118652344 6.0359635353088378906 5.9817757606506347656 5.9278054237365722656 5.8681635856628417969 5.815959930419921875 5.7638158798217773438 5.7194614410400390625 5.6759724617004394531 5.6399545669555664062 5.6056447029113769531 5.5769109725952148438 5.5474610328674316406 5.5197467803955078125 5.4877800941467285156 5.4543747901916503906 5.4131979942321777344 5.3701581954956054688 5.32106781005859375 5.2778506278991699219 5.245052337646484375 5.2295117378234863281 5.2287955284118652344 5.2408709526062011719 5.2650060653686523438 5.2958703041076660156 5.3344721794128417969 5.36824798583984375 5.3983163833618164062 5.4210247993469238281 5.4405951499938964844 5.4561128616333007812 5.4708528518676757812 5.4828114509582519531 5.4927358627319335938 5.4988985061645507812 5.5013966560363769531 5.4992847442626953125 5.4913430213928222656 5.4775056838989257812 5.4548673629760742188 5.4249739646911621094 5.3829884529113769531 5.3326201438903808594 5.2668375968933105469 5.1920590400695800781 5.0985913276672363281 4.9957203865051269531 4.8701758384704589844 4.7304701805114746094 4.5515356063842773438 4.3430147171020507812 4.0714411735534667969 3.7515826225280761719 3.3435230255126953125 2.9065530300140380859 2.4206662178039550781 1.9564954042434692383 1.4913202524185180664 1.0897288322448730469 0.72021323442459106445 0.41258609294891357422 0.23010155558586120605 0.8638782501220703125 0.69988787174224853516 0 0 0 0 0 0 0 0 0 0 0 0 0 0 0 0 0 0 0 0 0 0 0 0 0 0 0 0 0 0 0 0 0 0 0 0 0 0 0 0 0 0 0 0 0 0 0 0 0 0 0 0 0 0 0 0 0 0 0 0 0 0 0 0 0 0 0 0 0 0 0 
2.1688520908355712891 2.1518127918243408203 2.1385033130645751953 2.1240084171295166016 2.1100294589996337891 2.0946199893951416016 2.0790910720825195312 2.0631320476531982422 2.0484421253204345703 2.0405049324035644531 2.0258831977844238281 2.0090363025665283203 1.9890725612640380859 1.9730473756790161133 1.9569392204284667969 1.9447348117828369141 1.9255623817443847656 1.9140083789825439453 1.8991656303405761719 1.8736665248870849609 1.8884885311126708984 1.9088865518569946289 1.9320291280746459961 2.0238866806030273438 2.0596005916595458984 2.0695338249206542969 2.1167321205139160156 2.1431834697723388672 2.1626245975494384766 2.3904078006744384766 2.6980233192443847656 2.9928541183471679688 3.2974314689636230469 3.5192096233367919922 3.5994563102722167969 3.7040469646453857422 3.7056756019592285156 3.7586469650268554688 3.7828478813171386719 3.8702750205993652344 4.0170030593872070312 4.3019938468933105469 4.5963654518127441406 4.8460993766784667969 5.1567010879516601562 5.7009992599487304688 6.6133999824523925781 7.50711822509765625 7.8447418212890625 7.3788595199584960938 6.324192047119140625 5.5583105087280273438 5.2975039482116699219 5.0887136459350585938 4.8326573371887207031 4.7358264923095703125 4.622707366943359375 4.5398755073547363281 4.6649274826049804688 4.8855409622192382812 4.8193621635437011719 4.5092644691467285156 4.2617049217224121094 4.1186676025390625 4.0436663627624511719 3.9925069808959960938 3.8357307910919189453 3.6847293376922607422 3.6070263385772705078 3.4199597835540771484 3.2424852848052978516 3.0794885158538818359 2.9150593280792236328 2.7561969757080078125 2.5918705463409423828 2.4333505630493164062 2.2746996879577636719 2.1332404613494873047 2.0028338432312011719 1.9772680997848510742 2.0592565536499023438 2.1399881839752197266 2.2219359874725341797 2.2992601394653320312 2.3776454925537109375 2.4513411521911621094 2.525928497314453125 2.5957701206207275391 2.6662962436676025391 2.7320425510406494141 2.7984218597412109375 2.8604066371917724609 2.9233822822570800781 2.9824728965759277344 3.0429515838623046875 3.1000270843505859375 3.1589174270629882812 3.2147901058197021484 3.2728085517883300781 3.3281528949737548828 3.3861298561096191406 3.4418082237243652344 3.5006403923034667969 3.5575060844421386719 3.6180880069732666016 3.6769404411315917969 3.7400333881378173828 3.8392426967620849609 3.9970059394836425781 4.0936937332153320312 4.2089543342590332031 4.3323645591735839844 4.4745006561279296875 4.6183414459228515625 4.7762312889099121094 4.92923736572265625 5.0908651351928710938 5.2399954795837402344 5.3881626129150390625 5.5146632194519042969 5.6288228034973144531 5.7136425971984863281 5.7780213356018066406 5.8178262710571289062 5.8422360420227050781 5.8523511886596679688 5.8537817001342773438 5.8494782447814941406 5.8401126861572265625 5.8268728256225585938 5.8081998825073242188 5.7863545417785644531 5.7588129043579101562 5.7302341461181640625 5.6998162269592285156 5.67420196533203125 5.6533064842224121094 5.6426210403442382812 5.6424317359924316406 5.6512727737426757812 5.6672110557556152344 5.6853513717651367188 5.7050309181213378906 5.7211289405822753906 5.735408782958984375 5.747516632080078125 5.76123809814453125 5.7765522003173828125 5.7976899147033691406 5.8228597640991210938 5.8552026748657226562 5.8891482353210449219 5.92853546142578125 5.9667005538940429688 6.0081524848937988281 6.045604705810546875 6.0831146240234375 6.1136746406555175781 6.1402878761291503906 6.1574702262878417969 6.1667695045471191406 6.1668109893798828125 6.1579537391662597656 6.1418204307556152344 6.116039276123046875 6.0849065780639648438 6.0443210601806640625 6.0016617774963378906 5.9511170387268066406 5.9012966156005859375 5.8451561927795410156 5.7940001487731933594 5.7430558204650878906 5.7000718116760253906 5.6581392288208007812 5.6233925819396972656 5.59033966064453125 5.562625885009765625 5.5340399742126464844 5.5067453384399414062 5.4745702743530273438 5.4403710365295410156 5.3977427482604980469 5.3526668548583984375 5.3004784584045410156 5.2545161247253417969 5.2191395759582519531 5.2019824981689453125 5.2005724906921386719 5.2129297256469726562 5.2382216453552246094 5.2707071304321289062 5.3111009597778320312 5.3466787338256835938 5.3783483505249023438 5.4024128913879394531 5.4234871864318847656 5.4403362274169921875 5.4560370445251464844 5.4683971405029296875 5.4783782958984375 5.4842028617858886719 5.48583221435546875 5.48236083984375 5.4723901748657226562 5.456157684326171875 5.4305486679077148438 5.3975353240966796875 5.3519983291625976562 5.298168182373046875 5.2288403511047363281 5.1510744094848632812 5.055118560791015625 4.9507756233215332031 4.8248071670532226562 4.6853494644165039062 4.5062327384948730469 4.29558563232421875 4.0138988494873046875 3.677684783935546875 3.2514195442199707031 2.7964961528778076172 2.2920897006988525391 1.8122475147247314453 1.3346836566925048828 0.92688250541687011719 0.55722665786743164062 0.25469851493835449219 0.51380407810211181641 0.92378711700439453125 0.095747634768486022949 0 0 0 0 0 0 0 0 0 0 0 0 0 0 0 0 0 0 0 0 0 0 0 0 0 0 0 0 0 0 0 0 0 0 0 0 0 0 0 0 0 0 0 0 0 0 0 0 0 0 0 0 0 0 0 0 0 0 0 0 0 0 0 0 0 0 0 0 0 0 0 
2.1639111042022705078 2.1473469734191894531 2.1326770782470703125 2.1200845241546630859 2.1038110256195068359 2.0849239826202392578 2.065692901611328125 2.0496046543121337891 2.0369486808776855469 2.0352625846862792969 2.0306921005249023438 2.0165235996246337891 1.9808945655822753906 1.9645872116088867188 1.9476209878921508789 1.9297935962677001953 1.9159703254699707031 1.9038811922073364258 1.8711808919906616211 1.8860557079315185547 1.910004734992980957 1.9142624139785766602 1.9635102748870849609 2.0511388778686523438 2.0561776161193847656 2.1063926219940185547 2.1580326557159423828 2.1593031883239746094 2.3460748195648193359 2.8092555999755859375 2.9577081203460693359 3.1229004859924316406 3.3500809669494628906 3.5305650234222412109 3.6749541759490966797 3.7864525318145751953 3.7531816959381103516 3.6906578540802001953 3.745769500732421875 3.8937742710113525391 4.0672183036804199219 4.32068634033203125 4.6047081947326660156 4.9105615615844726562 5.2787218093872070312 5.9845714569091796875 6.971080780029296875 7.6458315849304199219 7.5983166694641113281 6.7313075065612792969 5.8018145561218261719 5.2969584465026855469 5.1476230621337890625 4.9058852195739746094 4.7304797172546386719 4.6523375511169433594 4.5388054847717285156 4.5029578208923339844 4.6922821998596191406 4.8461718559265136719 4.6768507957458496094 4.3490915298461914062 4.1526217460632324219 4.0351505279541015625 3.9781806468963623047 3.9067888259887695312 3.7314226627349853516 3.5574669837951660156 3.4621877670288085938 3.3037946224212646484 3.1423051357269287109 2.9879560470581054688 2.8297355175018310547 2.6758880615234375 2.5163886547088623047 2.3623533248901367188 2.2081623077392578125 2.0707585811614990234 1.9441862106323242188 1.9200329780578613281 2.0010213851928710938 2.0807697772979736328 2.1617529392242431641 2.2382001876831054688 2.3157343864440917969 2.3886673450469970703 2.4625232219696044922 2.5317173004150390625 2.6016323566436767578 2.6668546199798583984 2.7327506542205810547 2.7943274974822998047 2.8569295406341552734 2.9157116413116455078 2.9759142398834228516 3.0327672958374023438 3.0914549827575683594 3.1471393108367919922 3.2049951553344726562 3.2602186203002929688 3.3181011676788330078 3.3737154006958007812 3.4325044155120849609 3.4893476963043212891 3.5499255657196044922 3.6087987422943115234 3.6719288825988769531 3.7885100841522216797 3.9850702285766601562 4.0874676704406738281 4.2097878456115722656 4.3405566215515136719 4.4901747703552246094 4.6398711204528808594 4.8015522956848144531 4.9548525810241699219 5.1126003265380859375 5.2544341087341308594 5.3920702934265136719 5.5068378448486328125 5.6077508926391601562 5.6801548004150390625 5.732181549072265625 5.7613530158996582031 5.7758159637451171875 5.7780156135559082031 5.7728247642517089844 5.7640652656555175781 5.7516183853149414062 5.7366738319396972656 5.7170391082763671875 5.6947183609008789062 5.6667408943176269531 5.6376576423645019531 5.6066451072692871094 5.5804491043090820312 5.5589513778686523438 5.5478482246398925781 5.5474424362182617188 5.5563192367553710938 5.5725536346435546875 5.5912203788757324219 5.611724853515625 5.6288499832153320312 5.6445064544677734375 5.6581559181213378906 5.6737990379333496094 5.6911578178405761719 5.7147498130798339844 5.7424311637878417969 5.7776360511779785156 5.8143072128295898438 5.8565893173217773438 5.8973212242126464844 5.9413170814514160156 5.9809274673461914062 6.0206165313720703125 6.0531339645385742188 6.081874847412109375 6.1011171340942382812 6.1127820014953613281 6.1151142120361328125 6.1087894439697265625 6.0950055122375488281 6.0717325210571289062 6.0428142547607421875 6.0045900344848632812 5.9643692970275878906 5.917026519775390625 5.8709425926208496094 5.8197689056396484375 5.771778106689453125 5.7223334312438964844 5.6809010505676269531 5.64080810546875 5.6076312065124511719 5.5759258270263671875 5.5491976737976074219 5.5213265419006347656 5.4942822456359863281 5.4616832733154296875 5.4263014793395996094 5.3817868232727050781 5.334476470947265625 5.2788748741149902344 5.229522705078125 5.1908292770385742188 5.1716198921203613281 5.1691937446594238281 5.1815242767333984375 5.20743560791015625 5.2406888008117675781 5.2813282012939453125 5.3160848617553710938 5.3460931777954101562 5.368732452392578125 5.3886585235595703125 5.4047236442565917969 5.4198489189147949219 5.4321751594543457031 5.442722320556640625 5.4496083259582519531 5.4529080390930175781 5.4514927864074707031 5.4440598487854003906 5.4302701950073242188 5.4069705009460449219 5.3755698204040527344 5.3308110237121582031 5.2766814231872558594 5.2061715126037597656 5.1268558502197265625 5.02922821044921875 4.9236631393432617188 4.7971091270446777344 4.6573801040649414062 4.4764428138732910156 4.2569918632507324219 3.9598851203918457031 3.6079301834106445312 3.1623165607452392578 2.6870894432067871094 2.1616101264953613281 1.6643800735473632812 1.1741067171096801758 0.76168626546859741211 0.39542120695114135742 0.32596227526664733887 0.92713302373886108398 0.3598282933235168457 0 0 0 0 0 0 0 0 0 0 0 0 0 0 0 0 0 0 0 0 0 0 0 0 0 0 0 0 0 0 0 0 0 0 0 0 0 0 0 0 0 0 0 0 0 0 0 0 0 0 0 0 0 0 0 0 0 0 0 0 0 0 0 0 0 0 0 0 0 0 0 0 
2.1571867465972900391 2.1410074234008789062 2.1279435157775878906 2.1133646965026855469 2.098468780517578125 2.0792162418365478516 2.0581126213073730469 2.0389723777770996094 2.0337269306182861328 2.0482232570648193359 2.0132691860198974609 1.9426553249359130859 1.9336873292922973633 1.9388246536254882812 1.9376118183135986328 1.9309895038604736328 1.9080197811126708984 1.8752080202102661133 1.8633688688278198242 1.8907150030136108398 1.9051979780197143555 1.9428045749664306641 2.0213942527770996094 2.0578296184539794922 2.0660951137542724609 2.1306929588317871094 2.1560463905334472656 2.1859486103057861328 2.7500112056732177734 2.9715745449066162109 3.0682489871978759766 3.2025613784790039062 3.4084041118621826172 3.5748665332794189453 3.7536063194274902344 3.8892235755920410156 3.8621938228607177734 3.7328655719757080078 3.7449619770050048828 3.8853440284729003906 4.1239748001098632812 4.3517842292785644531 4.6712927818298339844 5.005970001220703125 5.4339032173156738281 6.2443094253540039062 7.2521891593933105469 7.5452446937561035156 7.3826971054077148438 6.6209783554077148438 5.5731902122497558594 5.1556272506713867188 4.9783477783203125 4.7308635711669921875 4.6425418853759765625 4.5660524368286132812 4.4644489288330078125 4.4907827377319335938 4.6969904899597167969 4.7792658805847167969 4.5225229263305664062 4.2173776626586914062 4.054706573486328125 3.9563589096069335938 3.9134652614593505859 3.8124012947082519531 3.6208095550537109375 3.4402074813842773438 3.3255412578582763672 3.1952626705169677734 3.0480561256408691406 2.9016180038452148438 2.74910736083984375 2.5998890399932861328 2.4448163509368896484 2.2948732376098632812 2.1447665691375732422 2.0110578536987304688 1.8879680633544921875 1.865065455436706543 1.9450803995132446289 2.0238733291625976562 2.1039185523986816406 2.1795141696929931641 2.2562220096588134766 2.3284158706665039062 2.4015624523162841797 2.4701313972473144531 2.5394608974456787109 2.6041829586029052734 2.6696226596832275391 2.7308168411254882812 2.7930748462677001953 2.8515758514404296875 2.9115328788757324219 2.9681911468505859375 3.0266983509063720703 3.0822272300720214844 3.1399579048156738281 3.1950945854187011719 3.2529163360595703125 3.3084964752197265625 3.36727142333984375 3.4241187572479248047 3.4847157001495361328 3.5436253547668457031 3.6068055629730224609 3.7407512664794921875 3.9759404659271240234 4.0837264060974121094 4.2125616073608398438 4.3499894142150878906 4.5062708854675292969 4.6610808372497558594 4.8259372711181640625 4.9792423248291015625 5.1331725120544433594 5.2680921554565429688 5.3958411216735839844 5.4996209144592285156 5.5881104469299316406 5.6488156318664550781 5.68914031982421875 5.7081980705261230469 5.7131900787353515625 5.7078728675842285156 5.6964554786682128906 5.6835999488830566406 5.6684050559997558594 5.6519846916198730469 5.6314978599548339844 5.6086373329162597656 5.5799379348754882812 5.5498905181884765625 5.5176587104797363281 5.4902734756469726562 5.4675526618957519531 5.4555196762084960938 5.4545049667358398438 5.4632024765014648438 5.4796619415283203125 5.4989252090454101562 5.5204739570617675781 5.5389451980590820312 5.55640411376953125 5.5720124244689941406 5.5899720191955566406 5.60962677001953125 5.6357564926147460938 5.6658034324645996094 5.7034974098205566406 5.7423834800720214844 5.7868800163269042969 5.8294634819030761719 5.8751888275146484375 5.9162125587463378906 5.9573588371276855469 5.9913005828857421875 6.0218129158020019531 6.0430464744567871094 6.0573039054870605469 6.06233978271484375 6.0591001510620117188 6.0481719970703125 6.0278334617614746094 6.0013799667358398438 5.9655756950378417969 5.927600860595703125 5.8830623626708984375 5.8401980400085449219 5.7935152053833007812 5.7504315376281738281 5.7039647102355957031 5.6640191078186035156 5.6256465911865234375 5.5940175056457519531 5.5635733604431152344 5.5376343727111816406 5.5102238655090332031 5.4832048416137695312 5.4500246047973632812 5.4133195877075195312 5.366729736328125 5.3171558380126953125 5.2584223747253417969 5.2054185867309570312 5.1630191802978515625 5.1414594650268554688 5.1377191543579101562 5.1496562957763671875 5.1755652427673339844 5.2086625099182128906 5.2478914260864257812 5.2792201042175292969 5.3050179481506347656 5.3239178657531738281 5.3403697013854980469 5.3537135124206542969 5.3669943809509277344 5.3788156509399414062 5.3901705741882324219 5.3991060256958007812 5.4060163497924804688 5.4093599319458007812 5.4081563949584960938 5.4007625579833984375 5.3841080665588378906 5.35821533203125 5.3177947998046875 5.2659535408020019531 5.1961731910705566406 5.1164464950561523438 5.01776885986328125 4.9111332893371582031 4.7838129997253417969 4.6428170204162597656 4.4540739059448242188 4.2229824066162109375 3.9135980606079101562 3.54750823974609375 3.0830569267272949219 2.5876810550689697266 2.0414113998413085938 1.5274708271026611328 1.0258784294128417969 0.61096441745758056641 0.25090527534484863281 0.68150913715362548828 0.64427584409713745117 0.034183803945779800415 0 0 0 0 0 0 0 0 0 0 0 0 0 0 0 0 0 0 0 0 0 0 0 0 0 0 0 0 0 0 0 0 0 0 0 0 0 0 0 0 0 0 0 0 0 0 0 0 0 0 0 0 0 0 0 0 0 0 0 0 0 0 0 0 0 0 0 0 0 0 0 0 
2.1583344936370849609 2.1381549835205078125 2.1211698055267333984 2.1064009666442871094 2.0902225971221923828 2.0715737342834472656 2.0511014461517333984 2.0429439544677734375 2.0513670444488525391 2.0225441455841064453 1.925534367561340332 1.8925365209579467773 1.9314668178558349609 1.9600367546081542969 1.9411840438842773438 1.9274529218673706055 1.8861395120620727539 1.8653414249420166016 1.8701605796813964844 1.878512263298034668 1.9184942245483398438 1.9927169084548950195 2.0583734512329101562 2.0601437091827392578 2.0712752342224121094 2.0989890098571777344 2.107852935791015625 2.3644661903381347656 2.9876506328582763672 3.0599808692932128906 3.1507220268249511719 3.3205089569091796875 3.4992609024047851562 3.6499342918395996094 3.7435524463653564453 3.8700935840606689453 3.8161945343017578125 3.7425570487976074219 3.8026332855224609375 3.9649074077606201172 4.1914362907409667969 4.4325232505798339844 4.7990231513977050781 5.218112945556640625 5.8268413543701171875 6.6534781455993652344 7.2659673690795898438 7.2526941299438476562 6.8898572921752929688 6.1972455978393554688 5.3431234359741210938 5.0373139381408691406 4.7948346138000488281 4.614337921142578125 4.5540781021118164062 4.4711556434631347656 4.3919262886047363281 4.4822058677673339844 4.6874589920043945312 4.6792979240417480469 4.3507814407348632812 4.0934643745422363281 3.9537262916564941406 3.8868246078491210938 3.8380973339080810547 3.6977691650390625 3.4972741603851318359 3.3449914455413818359 3.224948883056640625 3.0965809822082519531 2.9557354450225830078 2.8147039413452148438 2.6669831275939941406 2.5220696926116943359 2.3712573051452636719 2.2253479957580566406 2.0792925357818603516 1.9492483139038085938 1.8296124935150146484 1.8079222440719604492 1.8869153261184692383 1.9647065401077270508 2.0437686443328857422 2.1184728145599365234 2.1943154335021972656 2.2657370567321777344 2.3381426334381103516 2.4060618877410888672 2.47478485107421875 2.5389926433563232422 2.6039662361145019531 2.6647739410400390625 2.726688385009765625 2.7849135398864746094 2.8446335792541503906 2.9011080265045166016 2.9594430923461914062 3.0148377418518066406 3.0724682807922363281 3.1275429725646972656 3.1853284835815429688 3.2408993244171142578 3.2996859550476074219 3.3565609455108642578 3.4171993732452392578 3.4761631488800048828 3.5394098758697509766 3.6922125816345214844 3.9691941738128662109 4.0823945999145507812 4.2174539566040039062 4.3609385490417480469 4.5230154991149902344 4.6820197105407714844 4.8491191864013671875 5.00171661376953125 5.1513514518737792969 5.2791504859924316406 5.3969964981079101562 5.4899053573608398438 5.5661616325378417969 5.6153559684753417969 5.6441545486450195312 5.6532602310180664062 5.6489672660827636719 5.6363482475280761719 5.6189975738525390625 5.6023912429809570312 5.58483123779296875 5.567241668701171875 5.546092987060546875 5.5226697921752929688 5.4929437637329101562 5.4613866806030273438 5.4271631240844726562 5.3977828025817871094 5.3730168342590332031 5.35935211181640625 5.3571467399597167969 5.3652982711791992188 5.3817706108093261719 5.4015955924987792969 5.4243173599243164062 5.44439697265625 5.4640488624572753906 5.482025146484375 5.5027222633361816406 5.5249829292297363281 5.5538287162780761719 5.5862240791320800781 5.6262049674987792969 5.6669826507568359375 5.7132425308227539062 5.7571930885314941406 5.8041005134582519531 5.8460431098937988281 5.8881788253784179688 5.9232192039489746094 5.9553170204162597656 5.97856903076171875 5.9956774711608886719 6.0038328170776367188 6.0042505264282226562 5.9967632293701171875 5.9799847602844238281 5.9565138816833496094 5.9236655235290527344 5.8883080482482910156 5.8468179702758789062 5.8072662353515625 5.7650084495544433594 5.7269887924194335938 5.6859979629516601562 5.6482787132263183594 5.6114168167114257812 5.5811095237731933594 5.55178070068359375 5.5263686180114746094 5.4990916252136230469 5.4717898368835449219 5.4377970695495605469 5.3996448516845703125 5.3507776260375976562 5.2988257408142089844 5.2371783256530761719 5.1802134513854980469 5.1335077285766601562 5.1090750694274902344 5.1035408973693847656 5.114650726318359375 5.1400113105773925781 5.1722455024719238281 5.2082548141479492188 5.2342534065246582031 5.2540435791015625 5.2675757408142089844 5.2787761688232421875 5.2880797386169433594 5.2986307144165039062 5.3095221519470214844 5.3217296600341796875 5.3332867622375488281 5.345050811767578125 5.3549656867980957031 5.3625092506408691406 5.3642024993896484375 5.3570952415466308594 5.3392276763916015625 5.3052859306335449219 5.2570738792419433594 5.1887545585632324219 5.1087999343872070312 5.0088753700256347656 4.900760650634765625 4.7713222503662109375 4.6230607032775878906 4.4237895011901855469 4.18402862548828125 3.864185333251953125 3.4848606586456298828 3.0022728443145751953 2.4874591827392578125 1.9213813543319702148 1.3920028209686279297 0.88090145587921142578 0.46572157740592956543 0.21821035444736480713 0.86120814085006713867 0.17006525397300720215 0 0 0 0 0 0 0 0 0 0 0 0 0 0 0 0 0 0 0 0 0 0 0 0 0 0 0 0 0 0 0 0 0 0 0 0 0 0 0 0 0 0 0 0 0 0 0 0 0 0 0 0 0 0 0 0 0 0 0 0 0 0 0 0 0 0 0 0 0 0 0 0 0 
2.1591296195983886719 2.1362628936767578125 2.1167473793029785156 2.1027193069458007812 2.0851244926452636719 2.0645303726196289062 2.0412392616271972656 2.0395181179046630859 2.0620610713958740234 2.0208208560943603516 1.9060896635055541992 1.9326558113098144531 1.9756544828414916992 1.9604970216751098633 1.9280655384063720703 1.8915790319442749023 1.8680454492568969727 1.866597294807434082 1.8700300455093383789 1.8968360424041748047 1.9804338216781616211 2.0524334907531738281 2.072479248046875 2.0571718215942382812 2.0596621036529541016 2.0845205783843994141 2.1673772335052490234 2.6781048774719238281 3.0737941265106201172 3.1966948509216308594 3.3326089382171630859 3.4713678359985351562 3.6073839664459228516 3.7140390872955322266 3.7194621562957763672 3.7362530231475830078 3.6768851280212402344 3.7004959583282470703 3.8349187374114990234 4.0311760902404785156 4.2698998451232910156 4.5132274627685546875 4.8640017509460449219 5.4113249778747558594 6.0675759315490722656 6.864215850830078125 7.2632336616516113281 6.9653797149658203125 6.3756136894226074219 5.6470937728881835938 5.1597886085510253906 4.9336099624633789062 4.6541924476623535156 4.5383772850036621094 4.4677443504333496094 4.3818140029907226562 4.3354349136352539062 4.4759721755981445312 4.6636729240417480469 4.5481371879577636719 4.1928458213806152344 3.9839954376220703125 3.8669874668121337891 3.8291049003601074219 3.7415175437927246094 3.5756447315216064453 3.3884117603302001953 3.2692973613739013672 3.1438066959381103516 3.0120334625244140625 2.872127532958984375 2.7338743209838867188 2.5896515846252441406 2.4483485221862792969 2.3013088703155517578 2.1590802669525146484 2.0167491436004638672 1.8900834321975708008 1.773636937141418457 1.7530428171157836914 1.8310488462448120117 1.9078732728958129883 1.9859876632690429688 2.0598320960998535156 2.1348423957824707031 2.2055199146270751953 2.27721405029296875 2.3445117473602294922 2.4126570224761962891 2.4763779640197753906 2.5409133434295654297 2.6013612747192382812 2.6629610061645507812 2.7209372520446777344 2.7804477214813232422 2.8367612361907958984 2.8949496746063232422 2.9502413272857666016 3.0078020095825195312 3.0628416538238525391 3.1206181049346923828 3.1762039661407470703 3.2350246906280517578 3.2919466495513916016 3.3526444435119628906 3.4116742610931396484 3.4749965667724609375 3.6467902660369873047 3.9657235145568847656 4.0838751792907714844 4.2241125106811523438 4.3721365928649902344 4.5381021499633789062 4.6994600296020507812 4.8671183586120605469 5.0179257392883300781 5.1628818511962890625 5.28387451171875 5.3927049636840820312 5.4759573936462402344 5.5414915084838867188 5.5806632041931152344 5.5994739532470703125 5.6000132560729980469 5.5878190994262695312 5.569103240966796875 5.5469756126403808594 5.5275754928588867188 5.5084962844848632812 5.4903364181518554688 5.4689178466796875 5.4450402259826660156 5.4140963554382324219 5.3805813789367675781 5.343685150146484375 5.3115568161010742188 5.2839426994323730469 5.267948150634765625 5.2639155387878417969 5.271053314208984375 5.2871685028076171875 5.3073248863220214844 5.3310899734497070312 5.3527593612670898438 5.3746581077575683594 5.3950791358947753906 5.4185738563537597656 5.4434309005737304688 5.4748558998107910156 5.5093359947204589844 5.5511875152587890625 5.5933856964111328125 5.6408519744873046875 5.6856446266174316406 5.7331972122192382812 5.7756061553955078125 5.8183031082153320312 5.8541045188903808594 5.8874959945678710938 5.9125666618347167969 5.9323964118957519531 5.9436388015747070312 5.9477863311767578125 5.9439148902893066406 5.9310135841369628906 5.9109339714050292969 5.8815679550170898438 5.8493590354919433594 5.8113241195678710938 5.7752385139465332031 5.7372388839721679688 5.7037653923034667969 5.6683483123779296875 5.6347556114196777344 5.5992412567138671875 5.569683074951171875 5.5409383773803710938 5.5156655311584472656 5.4880719184875488281 5.4601435661315917969 5.4251246452331542969 5.3855752944946289062 5.3345999717712402344 5.2804875373840332031 5.2164044380187988281 5.1558127403259277344 5.1045947074890136719 5.0769314765930175781 5.0691828727722167969 5.0790629386901855469 5.1034426689147949219 5.1342525482177734375 5.1655306816101074219 5.185642242431640625 5.1990923881530761719 5.2068486213684082031 5.2123484611511230469 5.2173929214477539062 5.22495269775390625 5.2346377372741699219 5.2474331855773925781 5.2614369392395019531 5.2780003547668457031 5.2946009635925292969 5.3111715316772460938 5.322284698486328125 5.3250532150268554688 5.315402984619140625 5.2879185676574707031 5.2430467605590820312 5.1756310462951660156 5.094760894775390625 4.9927763938903808594 4.8816680908203125 4.7438344955444335938 4.5864610671997070312 4.38056182861328125 4.1349120140075683594 3.8072841167449951172 3.4177885055541992188 2.9211523532867431641 2.3913884162902832031 1.8104231357574462891 1.2700452804565429688 0.75335705280303955078 0.34027442336082458496 0.51027035713195800781 0.48194047808647155762 0.0057406043633818626404 0 0 0 0 0 0 0 0 0 0 0 0 0 0 0 0 0 0 0 0 0 0 0 0 0 0 0 0 0 0 0 0 0 0 0 0 0 0 0 0 0 0 0 0 0 0 0 0 0 0 0 0 0 0 0 0 0 0 0 0 0 0 0 0 0 0 0 0 0 0 0 0 0 
2.1903319358825683594 2.1480093002319335938 2.1147720813751220703 2.0946800708770751953 2.0799934864044189453 2.0571150779724121094 2.0311810970306396484 2.0168993473052978516 2.0389523506164550781 2.0345170497894287109 1.9438726902008056641 1.9717495441436767578 1.9785710573196411133 1.9400110244750976562 1.9040963649749755859 1.8764467239379882812 1.871600031852722168 1.872307896614074707 1.8960149288177490234 1.9622076749801635742 2.0421736240386962891 2.0844426155090332031 2.0734584331512451172 2.0532681941986083984 2.0418143272399902344 2.0750670433044433594 2.419071197509765625 2.9341149330139160156 3.2767622470855712891 3.3055493831634521484 3.5241212844848632812 3.6718695163726806641 3.7092533111572265625 3.7370328903198242188 3.6503951549530029297 3.5611085891723632812 3.4842793941497802734 3.60089874267578125 3.8011200428009033203 4.0392880439758300781 4.2986612319946289062 4.5491509437561035156 4.8079047203063964844 5.3088574409484863281 6.1132326126098632812 6.9060106277465820312 7.0826010704040527344 6.7265005111694335938 6.0718312263488769531 5.3972172737121582031 5.0411534309387207031 4.78265380859375 4.5155544281005859375 4.44757080078125 4.3726077079772949219 4.2922954559326171875 4.2949976921081542969 4.485088348388671875 4.6101489067077636719 4.3744778633117675781 4.0475420951843261719 3.8822872638702392578 3.7990293502807617188 3.7522573471069335938 3.6183168888092041016 3.4439120292663574219 3.3314511775970458984 3.2177054882049560547 3.0668404102325439453 2.9286248683929443359 2.7881467342376708984 2.6518285274505615234 2.5106747150421142578 2.3727753162384033203 2.2294337749481201172 2.0908687114715576172 1.9522632360458374023 1.8289889097213745117 1.7157419919967651367 1.6962321996688842773 1.7732139825820922852 1.8490374088287353516 1.9261708259582519531 1.9991263151168823242 2.0732758045196533203 2.143184661865234375 2.214145660400390625 2.2808058261871337891 2.3483607769012451172 2.4115872383117675781 2.4756796360015869141 2.5357685089111328125 2.5970575809478759766 2.6547925472259521484 2.7141044139862060547 2.7702662944793701172 2.8283255100250244141 2.8835344314575195312 2.9410481452941894531 2.9960751533508300781 3.0538661479949951172 3.1094884872436523438 3.1683669090270996094 3.2253561019897460938 3.2861330509185791016 3.3452451229095458984 3.4086568355560302734 3.6011128425598144531 3.9655675888061523438 4.0885181427001953125 4.2330183982849121094 4.3839755058288574219 4.5516424179077148438 4.7131099700927734375 4.8791184425354003906 5.0264997482299804688 5.1657972335815429688 5.2797403335571289062 5.3798823356628417969 5.4542050361633300781 5.5100679397583007812 5.54034423828125 5.5504045486450195312 5.5435619354248046875 5.5247182846069335938 5.501068115234375 5.4753551483154296875 5.4542217254638671875 5.4346265792846679688 5.4166479110717773438 5.3954834938049316406 5.3713121414184570312 5.3389077186584472656 5.3028311729431152344 5.2623305320739746094 5.2264165878295898438 5.1948094367980957031 5.1754961013793945312 5.16872406005859375 5.174163818359375 5.1893672943115234375 5.2094950675964355469 5.2340793609619140625 5.2572727203369140625 5.2814626693725585938 5.3044281005859375 5.3308324813842773438 5.3583455085754394531 5.3923044204711914062 5.4286980628967285156 5.4721198081970214844 5.5153832435607910156 5.5636391639709472656 5.6088933944702148438 5.6567258834838867188 5.6993188858032226562 5.7423243522644042969 5.7786951065063476562 5.8132081031799316406 5.8399643898010253906 5.8624124526977539062 5.8767228126525878906 5.8847198486328125 5.8847522735595703125 5.8762884140014648438 5.8603796958923339844 5.8355498313903808594 5.8075566291809082031 5.7740674018859863281 5.7421932220458984375 5.7088522911071777344 5.6798524856567382812 5.6495451927185058594 5.6209020614624023438 5.5880846977233886719 5.5586133003234863281 5.5296845436096191406 5.5040125846862792969 5.4755578041076660156 5.4465661048889160156 5.4102106094360351562 5.3692374229431152344 5.3163762092590332031 5.2603006362915039062 5.1941514015197753906 5.1302990913391113281 5.0741057395935058594 5.0425486564636230469 5.0319318771362304688 5.0400838851928710938 5.0630598068237304688 5.0914673805236816406 5.1168932914733886719 5.1309351921081542969 5.1381473541259765625 5.1401920318603515625 5.1402525901794433594 5.1412224769592285156 5.1457362174987792969 5.1539440155029296875 5.1668553352355957031 5.1827445030212402344 5.2034406661987304688 5.2260770797729492188 5.2509708404541015625 5.2707834243774414062 5.2825407981872558594 5.2801070213317871094 5.2577843666076660156 5.2147884368896484375 5.1465520858764648438 5.0630884170532226562 4.9563813209533691406 4.8352375030517578125 4.6862421035766601562 4.5224528312683105469 4.3119258880615234375 4.0622677803039550781 3.7295770645141601562 3.3335864543914794922 2.8280429840087890625 2.2890338897705078125 1.6994345188140869141 1.1536562442779541016 0.63617384433746337891 0.22693653404712677002 0.58269572257995605469 0.078306332230567932129 0 0 0 0 0 0 0 0 0 0 0 0 0 0 0 0 0 0 0 0 0 0 0 0 0 0 0 0 0 0 0 0 0 0 0 0 0 0 0 0 0 0 0 0 0 0 0 0 0 0 0 0 0 0 0 0 0 0 0 0 0 0 0 0 0 0 0 0 0 0 0 0 0 0 
2.2351055145263671875 2.1904993057250976562 2.1519250869750976562 2.1092753410339355469 2.0879271030426025391 2.0650949478149414062 2.0373148918151855469 2.0058877468109130859 2.0047829151153564453 2.0118939876556396484 1.9785765409469604492 1.9753171205520629883 1.9550138711929321289 1.9279923439025878906 1.9002375602722167969 1.8842576742172241211 1.8903020620346069336 1.9123779535293579102 1.9633274078369140625 2.0204784870147705078 2.0836760997772216797 2.0902352333068847656 2.0749180316925048828 2.0398809909820556641 2.0231509208679199219 2.1557295322418212891 2.6110978126525878906 3.0579662322998046875 3.4160075187683105469 3.5196087360382080078 3.6833088397979736328 3.8176939487457275391 3.7894663810729980469 3.745708465576171875 3.6371717453002929688 3.5117130279541015625 3.4831883907318115234 3.6473946571350097656 3.850444793701171875 4.0462188720703125 4.2848639488220214844 4.6092734336853027344 4.8832979202270507812 5.2971291542053222656 6.12093353271484375 7.2670803070068359375 7.3030800819396972656 6.5296392440795898438 5.7778196334838867188 5.2401366233825683594 4.9116344451904296875 4.5948209762573242188 4.3960981369018554688 4.352970123291015625 4.2788152694702148438 4.204097747802734375 4.2691845893859863281 4.4957709312438964844 4.5165781974792480469 4.1869626045227050781 3.9217259883880615234 3.7883462905883789062 3.7360079288482666016 3.6487100124359130859 3.4918673038482666016 3.3142347335815429688 3.2661230564117431641 3.14373779296875 2.9867985248565673828 2.8470325469970703125 2.7075142860412597656 2.57344818115234375 2.4352908134460449219 2.3005971908569335938 2.160736083984375 2.0256116390228271484 1.8905044794082641602 1.770416259765625 1.6601697206497192383 1.641666412353515625 1.7176669836044311523 1.7925331592559814453 1.8687288761138916016 1.9408349990844726562 2.0141630172729492188 2.0833392143249511719 2.1536028385162353516 2.2196581363677978516 2.2866556644439697266 2.3494176864624023438 2.4130978584289550781 2.4728558063507080078 2.5338628292083740234 2.5913822650909423828 2.6505212783813476562 2.7065517902374267578 2.7645092010498046875 2.8196618556976318359 2.8771529197692871094 2.9321892261505126953 2.9900155067443847656 3.0456926822662353516 3.104644775390625 3.1617155075073242188 3.2225842475891113281 3.2817864418029785156 3.3452928066253662109 3.5586364269256591797 3.9690058231353759766 4.0961623191833496094 4.2434263229370117188 4.3950762748718261719 4.5615839958190917969 4.72035980224609375 4.882106781005859375 5.024303436279296875 5.1571669578552246094 5.264324188232421875 5.3568878173828125 5.4239144325256347656 5.4722247123718261719 5.4957761764526367188 5.4994072914123535156 5.4873328208923339844 5.4640188217163085938 5.4373464584350585938 5.409870147705078125 5.3884787559509277344 5.36965179443359375 5.3527712821960449219 5.3324990272521972656 5.30829620361328125 5.2743315696716308594 5.2352719306945800781 5.190456390380859375 5.1499295234680175781 5.1133704185485839844 5.0898776054382324219 5.0795297622680664062 5.0825800895690917969 5.0962352752685546875 5.1158294677734375 5.1407856941223144531 5.1651663780212402344 5.1913595199584960938 5.2166337966918945312 5.2456998825073242188 5.2756123542785644531 5.3117747306823730469 5.3497037887573242188 5.3942456245422363281 5.4381413459777832031 5.4867467880249023438 5.5321116447448730469 5.5799398422241210938 5.6225295066833496094 5.665679931640625 5.7024559974670410156 5.7378516197204589844 5.765972137451171875 5.7905788421630859375 5.8075151443481445312 5.8189840316772460938 5.8227772712707519531 5.8189396858215332031 5.8077688217163085938 5.7884364128112792969 5.7656836509704589844 5.7378301620483398438 5.71089935302734375 5.6824841499328613281 5.6576333045959472656 5.6315360069274902344 5.6067647933959960938 5.5776948928833007812 5.5484747886657714844 5.5184268951416015625 5.4916319847106933594 5.4617972373962402344 5.4313530921936035156 5.3934626579284667969 5.3511767387390136719 5.2969226837158203125 5.2394175529479980469 5.1718287467956542969 5.1055240631103515625 5.0443716049194335938 5.0084772109985351562 4.9944934844970703125 5.0005650520324707031 5.0217919349670410156 5.0467171669006347656 5.0662741661071777344 5.0752191543579101562 5.0774359703063964844 5.0751681327819824219 5.0713710784912109375 5.06935882568359375 5.071376800537109375 5.0780229568481445312 5.0903477668762207031 5.1069183349609375 5.1299166679382324219 5.1563825607299804688 5.1868147850036621094 5.2124052047729492188 5.2298731803894042969 5.23151397705078125 5.2111101150512695312 5.1671128273010253906 5.0952739715576171875 5.0060453414916992188 4.8868851661682128906 4.7532024383544921875 4.5957155227661132812 4.4270510673522949219 4.2134776115417480469 3.9621295928955078125 3.6282949447631835938 3.2313292026519775391 2.7246727943420410156 2.1850001811981201172 1.5959416627883911133 1.0526146888732910156 0.53981822729110717773 0.27396032214164733887 0.22045196592807769775 0 0 0 0 0 0 0 0 0 0 0 0 0 0 0 0 0 0 0 0 0 0 0 0 0 0 0 0 0 0 0 0 0 0 0 0 0 0 0 0 0 0 0 0 0 0 0 0 0 0 0 0 0 0 0 0 0 0 0 0 0 0 0 0 0 0 0 0 0 0 0 0 0 0 0 
2.2221055030822753906 2.2138879299163818359 2.2130863666534423828 2.1484799385070800781 2.1288728713989257812 2.1010982990264892578 2.0552606582641601562 2.0073275566101074219 1.9837204217910766602 1.9809762239456176758 1.9638632535934448242 1.9534900188446044922 1.9460489749908447266 1.9396336078643798828 1.908931732177734375 1.9087276458740234375 1.9349628686904907227 1.9677771329879760742 2.0100605487823486328 2.0749139785766601562 2.1058433055877685547 2.0953679084777832031 2.0542123317718505859 2.0061180591583251953 2.1645040512084960938 2.3107440471649169922 2.7716627120971679688 3.2344455718994140625 3.5299324989318847656 3.7054581642150878906 3.9037654399871826172 4.0028433799743652344 3.9424595832824707031 3.81369781494140625 3.6712126731872558594 3.5315542221069335938 3.6136085987091064453 3.7854278087615966797 3.9744625091552734375 4.1398425102233886719 4.3193159103393554688 4.6164264678955078125 4.89119720458984375 5.3863968849182128906 6.4898853302001953125 7.5479764938354492188 7.4333105087280273438 6.4715051651000976562 5.7091617584228515625 5.0843024253845214844 4.7358651161193847656 4.4099965095520019531 4.294586181640625 4.2488560676574707031 4.1811127662658691406 4.1337018013000488281 4.2706189155578613281 4.4742169380187988281 4.349697113037109375 3.9980368614196777344 3.8027718067169189453 3.7039158344268798828 3.6464443206787109375 3.5198769569396972656 3.347370147705078125 3.1947798728942871094 3.1578004360198974609 3.0347764492034912109 2.8933520317077636719 2.7588536739349365234 2.6230056285858154297 2.4922802448272705078 2.3576028347015380859 2.2263422012329101562 2.0900964736938476562 1.9584966897964477539 1.8269569873809814453 1.7101056575775146484 1.6029021739959716797 1.5854139328002929688 1.660410761833190918 1.7342990636825561523 1.8095366954803466797 1.8807761669158935547 1.953266143798828125 2.0216965675354003906 2.0912523269653320312 2.1566956043243408203 2.2231316566467285156 2.2854278087615966797 2.3486979007720947266 2.4081308841705322266 2.4688637256622314453 2.5261783599853515625 2.5851559638977050781 2.6410682201385498047 2.6989436149597167969 2.7540590763092041016 2.8115491867065429688 2.8666143417358398438 2.9244971275329589844 2.9802482128143310547 3.0392940044403076172 3.0964639186859130859 3.1574411392211914062 3.2167465686798095703 3.2803587913513183594 3.5161070823669433594 3.9755866527557373047 4.1064586639404296875 4.2550272941589355469 4.4050936698913574219 4.5674729347229003906 4.720592498779296875 4.8752336502075195312 5.01021575927734375 5.13553619384765625 5.2358269691467285156 5.3215303421020507812 5.3825144767761230469 5.4249820709228515625 5.4436001777648925781 5.4427404403686523438 5.4272527694702148438 5.4013419151306152344 5.3733263015747070312 5.3457341194152832031 5.3254690170288085938 5.3086614608764648438 5.2937970161437988281 5.2750668525695800781 5.2510862350463867188 5.215412139892578125 5.1728515625 5.1228680610656738281 5.0767393112182617188 5.0340819358825683594 5.0053567886352539062 4.9904141426086425781 4.9902257919311523438 5.0015516281127929688 5.0200028419494628906 5.0448117256164550781 5.070018768310546875 5.0979409217834472656 5.125335693359375 5.1568913459777832031 5.1890339851379394531 5.2271680831909179688 5.2663469314575195312 5.3116512298583984375 5.3558349609375 5.4044408798217773438 5.4496488571166992188 5.4972791671752929688 5.5397624969482421875 5.5829854011535644531 5.6200923919677734375 5.656230926513671875 5.6854877471923828125 5.7119069099426269531 5.7311396598815917969 5.7458519935607910156 5.7534241676330566406 5.7546129226684570312 5.7489862442016601562 5.7364125251770019531 5.7202343940734863281 5.6994290351867675781 5.6785430908203125 5.6557192802429199219 5.6350750923156738281 5.6127266883850097656 5.5910282135009765625 5.5652246475219726562 5.5377597808837890625 5.5061593055725097656 5.47751617431640625 5.4457736015319824219 5.4135370254516601562 5.3739147186279296875 5.3303747177124023438 5.2751536369323730469 5.2167620658874511719 5.1482520103454589844 5.0801382064819335938 5.0138721466064453125 4.9728693962097167969 4.9548649787902832031 4.95848846435546875 4.9771847724914550781 4.9972262382507324219 5.01080322265625 5.0153102874755859375 5.0135316848754882812 5.008319854736328125 5.0020732879638671875 4.9980740547180175781 4.9980740547180175781 5.0030107498168945312 5.0139894485473632812 5.0299901962280273438 5.0534129142761230469 5.0814561843872070312 5.1145801544189453125 5.1429324150085449219 5.1626620292663574219 5.1649928092956542969 5.1428852081298828125 5.0945329666137695312 5.0146956443786621094 4.9111275672912597656 4.7755947113037109375 4.630558013916015625 4.4648008346557617188 4.2913813591003417969 4.0756297111511230469 3.8246080875396728516 3.4934542179107666016 3.1010863780975341797 2.6012725830078125 2.0697515010833740234 1.4907335042953491211 0.95787203311920166016 0.4548295140266418457 0.078680932521820068359 0 0 0 0 0 0 0 0 0 0 0 0 0 0 0 0 0 0 0 0 0 0 0 0 0 0 0 0 0 0 0 0 0 0 0 0 0 0 0 0 0 0 0 0 0 0 0 0 0 0 0 0 0 0 0 0 0 0 0 0 0 0 0 0 0 0 0 0 0 0 0 0 0 0 0 0 
2.1841676235198974609 2.1679258346557617188 2.1659386157989501953 2.1475343704223632812 2.1432518959045410156 2.1263144016265869141 2.0724358558654785156 2.0265901088714599609 1.9897773265838623047 1.9809374809265136719 1.9663536548614501953 1.9466073513031005859 1.9355385303497314453 1.9312076568603515625 1.9225274324417114258 1.9533418416976928711 1.977891087532043457 2.0103623867034912109 2.0707337856292724609 2.1140048503875732422 2.1057450771331787109 2.0789515972137451172 2.0175592899322509766 2.0616667270660400391 2.3635985851287841797 2.3914303779602050781 2.9545471668243408203 3.409084320068359375 3.6713774204254150391 3.7853074073791503906 3.9516444206237792969 4.0941343307495117188 4.0596151351928710938 3.8861091136932373047 3.7134571075439453125 3.5844454765319824219 3.6774160861968994141 3.8127996921539306641 4.0219874382019042969 4.1573481559753417969 4.2931599617004394531 4.5381255149841308594 4.860340118408203125 5.5214948654174804688 6.7217969894409179688 7.6632151603698730469 7.4186410903930664062 6.5570783615112304688 5.5212998390197753906 4.9299883842468261719 4.5436835289001464844 4.2886843681335449219 4.2091994285583496094 4.1525015830993652344 4.0879688262939453125 4.0973911285400390625 4.2904553413391113281 4.4091954231262207031 4.1452651023864746094 3.8427417278289794922 3.6958522796630859375 3.6254925727844238281 3.5403435230255126953 3.3885343074798583984 3.21001434326171875 3.1403226852416992188 3.0619015693664550781 2.9310777187347412109 2.7991023063659667969 2.6713163852691650391 2.5404806137084960938 2.4137601852416992188 2.2828121185302734375 2.1550233364105224609 2.0223164558410644531 1.8941136598587036133 1.7659864425659179688 1.6522150039672851562 1.5479018688201904297 1.5313773155212402344 1.6054224967956542969 1.6783840656280517578 1.7527141571044921875 1.8231341838836669922 1.8948327302932739258 1.9625592231750488281 2.0314500331878662109 2.0963196754455566406 2.1622316837310791016 2.2240958213806152344 2.2869887351989746094 2.3461258411407470703 2.4066135883331298828 2.4637479782104492188 2.5225880146026611328 2.5784044265747070312 2.6362214088439941406 2.6913213729858398438 2.7488300800323486328 2.8039412498474121094 2.8618960380554199219 2.9177341461181640625 2.9768846035003662109 3.0341625213623046875 3.0952553749084472656 3.1546690464019775391 3.2183890342712402344 3.4318897724151611328 3.8644537925720214844 3.9859194755554199219 4.1210551261901855469 4.2549409866333007812 4.4360742568969726562 4.7102379798889160156 4.8586359024047851562 4.9853844642639160156 5.1030168533325195312 5.1971387863159179688 5.2773852348327636719 5.3340907096862792969 5.3728222846984863281 5.3885374069213867188 5.3852367401123046875 5.3681311607360839844 5.3413457870483398438 5.3134064674377441406 5.2869572639465332031 5.2687463760375976562 5.2546925544738769531 5.2423281669616699219 5.2254638671875 5.2018618583679199219 5.1645212173461914062 5.1183958053588867188 5.0630803108215332031 5.0111098289489746094 4.9620118141174316406 4.927661895751953125 4.9076542854309082031 4.9037332534790039062 4.9121689796447753906 4.9289460182189941406 4.953052520751953125 4.9785976409912109375 5.0077676773071289062 5.0368680953979492188 5.0704913139343261719 5.1044869422912597656 5.1441969871520996094 5.1842665672302246094 5.2299666404724121094 5.2741332054138183594 5.3224630355834960938 5.367321014404296875 5.4146270751953125 5.4569463729858398438 5.5001974105834960938 5.537567138671875 5.5742964744567871094 5.6044363975524902344 5.6322617530822753906 5.6533570289611816406 5.6708693504333496094 5.681919097900390625 5.6880207061767578125 5.6880922317504882812 5.6826868057250976562 5.6735754013061523438 5.6603422164916992188 5.6458959579467773438 5.6288390159606933594 5.6122374534606933594 5.59316253662109375 5.5738697052001953125 5.5504517555236816406 5.5253157615661621094 5.4937124252319335938 5.4630146026611328125 5.4292135238647460938 5.3952484130859375 5.3540072441101074219 5.3094401359558105469 5.253696441650390625 5.1950068473815917969 5.1260781288146972656 5.0568871498107910156 4.9858541488647460938 4.9393367767333984375 4.9171342849731445312 4.9183316230773925781 4.9333529472351074219 4.9474706649780273438 4.9552240371704101562 4.9556941986083984375 4.9507837295532226562 4.9436717033386230469 4.9359774589538574219 4.9307065010070800781 4.9290919303894042969 4.9322962760925292969 4.941432952880859375 4.9559407234191894531 4.97829437255859375 5.0060138702392578125 5.0393338203430175781 5.0677700042724609375 5.0867242813110351562 5.0868277549743652344 5.0600171089172363281 5.0038247108459472656 4.9078464508056640625 4.7871870994567871094 4.6372256278991699219 4.4813299179077148438 4.3072004318237304688 4.1289997100830078125 3.9116334915161132812 3.6624009609222412109 3.3368113040924072266 2.9533364772796630859 2.4665749073028564453 1.9501039981842041016 1.3884769678115844727 0.87124991416931152344 0.36544814705848693848 0.022789917886257171631 0 0 0 0 0 0 0 0 0 0 0 0 0 0 0 0 0 0 0 0 0 0 0 0 0 0 0 0 0 0 0 0 0 0 0 0 0 0 0 0 0 0 0 0 0 0 0 0 0 0 0 0 0 0 0 0 0 0 0 0 0 0 0 0 0 0 0 0 0 0 0 0 0 0 0 0 
2.1601710319519042969 2.1376225948333740234 2.1220047473907470703 2.1050596237182617188 2.1216292381286621094 2.1247403621673583984 2.0820038318634033203 2.0186510086059570312 1.9773318767547607422 1.9763474464416503906 1.9611679315567016602 1.9379988908767700195 1.923363804817199707 1.9126198291778564453 1.9445223808288574219 1.9858243465423583984 2.0126326084136962891 2.0494716167449951172 2.124176025390625 2.1169369220733642578 2.1028220653533935547 2.0336630344390869141 2.0442552566528320312 2.425655364990234375 2.1836788654327392578 2.5690784454345703125 3.0570580959320068359 3.4621694087982177734 3.6780385971069335938 3.7854795455932617188 3.9774184226989746094 4.0694584846496582031 4.0300822257995605469 3.8008813858032226562 3.5880727767944335938 3.5298349857330322266 3.5970139503479003906 3.7335264682769775391 3.9769034385681152344 4.1615037918090820312 4.38860321044921875 4.5987448692321777344 4.8568615913391113281 5.6710681915283203125 7.0100369453430175781 7.6135439872741699219 7.2224645614624023438 6.3260035514831542969 5.287082672119140625 4.7374196052551269531 4.3474287986755371094 4.1812028884887695312 4.1180396080017089844 4.0527606010437011719 4.0101428031921386719 4.0924472808837890625 4.2875113487243652344 4.2642350196838378906 3.9222955703735351562 3.7060148715972900391 3.5923149585723876953 3.5334136486053466797 3.4092242717742919922 3.2398364543914794922 3.0807547569274902344 3.0442826747894287109 2.9462053775787353516 2.8263556957244873047 2.7019588947296142578 2.5805373191833496094 2.4550879001617431641 2.3327808380126953125 2.2058806419372558594 2.0817799568176269531 1.9527658224105834961 1.8280707597732543945 1.7034392356872558594 1.5928107500076293945 1.4914416074752807617 1.4759013652801513672 1.5489878654479980469 1.6210150718688964844 1.6944330930709838867 1.7640295028686523438 1.8349335193634033203 1.9019550085067749023 1.9701811075210571289 2.0344808101654052734 2.0998730659484863281 2.1613113880157470703 2.2238366603851318359 2.2826883792877197266 2.3429431915283203125 2.3999111652374267578 2.4586274623870849609 2.5143637657165527344 2.5721423625946044922 2.6272449493408203125 2.68479156494140625 2.7399666309356689453 2.79801177978515625 2.8539533615112304688 2.9132249355316162109 2.9706249237060546875 3.0318470001220703125 3.0913782119750976562 3.1552135944366455078 3.2174789905548095703 3.2846057415008544922 3.3502755165100097656 3.4212918281555175781 3.4904386997222900391 3.739978790283203125 4.6499509811401367188 4.8312945365905761719 4.948886871337890625 5.058696746826171875 5.1472673416137695312 5.2232809066772460938 5.2772183418273925781 5.3139710426330566406 5.3284091949462890625 5.3242297172546386719 5.3068103790283203125 5.280345916748046875 5.2534322738647460938 5.2289385795593261719 5.2133636474609375 5.2025084495544433594 5.1929273605346679688 5.1781072616577148438 5.1549611091613769531 5.1159610748291015625 5.0662164688110351562 5.0054349899291992188 4.9474177360534667969 4.8915624618530273438 4.8511857986450195312 4.8255915641784667969 4.8173689842224121094 4.8222594261169433594 4.8367457389831542969 4.8595271110534667969 4.8848962783813476562 4.9148449897766113281 4.9452795982360839844 4.9806218147277832031 5.0161762237548828125 5.0571641921997070312 5.0978541374206542969 5.1436719894409179688 5.1875896453857421875 5.2354364395141601562 5.2798004150390625 5.3266921043395996094 5.3688135147094726562 5.412078857421875 5.4496908187866210938 5.4869484901428222656 5.5178465843200683594 5.5468668937683105469 5.569599151611328125 5.5896992683410644531 5.6041154861450195312 5.615161895751953125 5.6211462020874023438 5.6233196258544921875 5.6217532157897949219 5.6166334152221679688 5.6090803146362304688 5.5981893539428710938 5.5858135223388671875 5.5700421333312988281 5.5530605316162109375 5.5318245887756347656 5.5088887214660644531 5.479461669921875 5.4476351737976074219 5.4118399620056152344 5.3763298988342285156 5.3337168693542480469 5.2883725166320800781 5.232452392578125 5.1739392280578613281 5.1049928665161132812 5.0352506637573242188 4.959697723388671875 4.906894683837890625 4.8803358078002929688 4.8790006637573242188 4.8885755538940429688 4.8953914642333984375 4.8967585563659667969 4.8927698135375976562 4.8847780227661132812 4.8759179115295410156 4.8669443130493164062 4.8605046272277832031 4.8572630882263183594 4.8585677146911621094 4.8654727935791015625 4.8778710365295410156 4.89818572998046875 4.9243364334106445312 4.956180572509765625 4.9828467369079589844 4.9988193511962890625 4.9944467544555664062 4.959438323974609375 4.8873858451843261719 4.7716860771179199219 4.6349406242370605469 4.4701290130615234375 4.3024082183837890625 4.1188845634460449219 3.9352731704711914062 3.7163176536560058594 3.4698195457458496094 3.1520481109619140625 2.7810266017913818359 2.3125982284545898438 1.8171504735946655273 1.278836369514465332 0.78177303075790405273 0.15322259068489074707 0 0 0 0 0 0 0 0 0 0 0 0 0 0 0 0 0 0 0 0 0 0 0 0 0 0 0 0 0 0 0 0 0 0 0 0 0 0 0 0 0 0 0 0 0 0 0 0 0 0 0 0 0 0 0 0 0 0 0 0 0 0 0 0 0 0 0 0 0 0 0 0 0 0 0 0 0 
2.1560294628143310547 2.1295709609985351562 2.11153411865234375 2.0920038223266601562 2.0869300365447998047 2.0712642669677734375 2.0654587745666503906 2.0230927467346191406 1.9981426000595092773 1.9692114591598510742 1.9428273439407348633 1.9387650489807128906 1.9187871217727661133 1.9241086244583129883 1.9723829030990600586 2.0066323280334472656 2.043239593505859375 2.1246287822723388672 2.1379766464233398438 2.1217672824859619141 2.0988686084747314453 2.0226759910583496094 2.1998486518859863281 2.2064497470855712891 2.3841416835784912109 2.7645571231842041016 3.1908779144287109375 3.5740442276000976562 3.7662513256072998047 3.9026544094085693359 4.0683012008666992188 4.0298056602478027344 3.9723174571990966797 3.7395586967468261719 3.5052077770233154297 3.4991374015808105469 3.5952215194702148438 3.7869026660919189453 4.0099768638610839844 4.2141351699829101562 4.5014176368713378906 4.7796697616577148438 5.0796513557434082031 6.0051522254943847656 7.2492513656616210938 7.449146270751953125 6.9046607017517089844 6.0148882865905761719 5.0484356880187988281 4.5422821044921875 4.2076020240783691406 4.095096588134765625 4.023105621337890625 3.9598402976989746094 3.9564647674560546875 4.1050443649291992188 4.2478094100952148438 4.0500354766845703125 3.7422399520874023438 3.5809814929962158203 3.5012679100036621094 3.4261569976806640625 3.2682681083679199219 3.0890040397644042969 2.9583237171173095703 2.9423189163208007812 2.8377442359924316406 2.7268958091735839844 2.6094098091125488281 2.4935235977172851562 2.3730025291442871094 2.2548980712890625 2.1319291591644287109 2.0114150047302246094 1.8859792947769165039 1.7646622657775878906 1.6433835029602050781 1.5357614755630493164 1.4372009038925170898 1.4226052761077880859 1.4947924613952636719 1.5659450292587280273 1.6385097503662109375 1.7073372602462768555 1.7774994373321533203 1.8438658714294433594 1.9114758968353271484 1.9752482175827026367 2.0401635169982910156 2.1012129783630371094 2.1634054183959960938 2.2220029830932617188 2.2820537090301513672 2.3388795852661132812 2.3974950313568115234 2.4531731605529785156 2.5109348297119140625 2.5660574436187744141 2.6236569881439208984 2.6789090633392333984 2.7370550632476806641 2.7931089401245117188 2.8525078296661376953 2.9100344181060791016 2.9713883399963378906 3.0310378074645996094 3.0949876308441162109 3.1573488712310791016 3.2245576381683349609 3.2902817726135253906 3.361328125 3.4304797649383544922 3.6864805221557617188 4.6222310066223144531 4.7947754859924316406 4.9034838676452636719 5.0063586235046386719 5.0906991958618164062 5.1642031669616699219 5.2171483039855957031 5.2537703514099121094 5.2684969902038574219 5.2648019790649414062 5.2480702400207519531 5.2226953506469726562 5.1972646713256835938 5.1749386787414550781 5.1619658470153808594 5.1541056632995605469 5.147064208984375 5.1340789794921875 5.11133575439453125 5.0708703994750976562 5.0179262161254882812 4.9522714614868164062 4.8888044357299804688 4.8267483711242675781 4.7806868553161621094 4.7496075630187988281 4.7369503974914550781 4.7379498481750488281 4.7496886253356933594 4.7705693244934082031 4.7951955795288085938 4.8253207206726074219 4.8565502166748046875 4.8930764198303222656 4.9297437667846679688 4.971607208251953125 5.0126242637634277344 5.0583262443542480469 5.1018438339233398438 5.1491084098815917969 5.1929326057434082031 5.2393970489501953125 5.281330108642578125 5.3246207237243652344 5.3624644279479980469 5.4001951217651367188 5.4317393302917480469 5.4617533683776855469 5.4858622550964355469 5.5081973075866699219 5.5255942344665527344 5.5411133766174316406 5.552532196044921875 5.5617489814758300781 5.5672516822814941406 5.5697946548461914062 5.5688109397888183594 5.5638976097106933594 5.5557332038879394531 5.54334259033203125 5.528804779052734375 5.5099020004272460938 5.4892630577087402344 5.4628729820251464844 5.4325838088989257812 5.39559173583984375 5.3590307235717773438 5.3156180381774902344 5.269893646240234375 5.214138031005859375 5.1561460494995117188 5.0875535011291503906 5.0177292823791503906 4.9383440017700195312 4.8789401054382324219 4.8485078811645507812 4.8444705009460449219 4.8469285964965820312 4.845699310302734375 4.8400440216064453125 4.831104278564453125 4.8195939064025878906 4.8085360527038574219 4.7978420257568359375 4.7899255752563476562 4.7848801612854003906 4.7842168807983398438 4.7888326644897460938 4.7989978790283203125 4.8169698715209960938 4.8410220146179199219 4.8705410957336425781 4.8944196701049804688 4.9061722755432128906 4.895282745361328125 4.8451581001281738281 4.7553801536560058594 4.6225538253784179688 4.4705371856689453125 4.2908177375793457031 4.1108708381652832031 3.9174077510833740234 3.7279210090637207031 3.5071513652801513672 3.2636034488677978516 2.9545207023620605469 2.5975437164306640625 2.1499712467193603516 1.6783212423324584961 1.165202021598815918 0.51344817876815795898 0.0031044469214975833893 0 0 0 0 0 0 0 0 0 0 0 0 0 0 0 0 0 0 0 0 0 0 0 0 0 0 0 0 0 0 0 0 0 0 0 0 0 0 0 0 0 0 0 0 0 0 0 0 0 0 0 0 0 0 0 0 0 0 0 0 0 0 0 0 0 0 0 0 0 0 0 0 0 0 0 0 0 
2.1644866466522216797 2.1314771175384521484 2.1059546470642089844 2.0878660678863525391 2.0731296539306640625 2.0512433052062988281 2.0409154891967773438 2.0279171466827392578 2.0084674358367919922 1.9657067060470581055 1.9453088045120239258 1.933039546012878418 1.9189252853393554688 1.9419131278991699219 1.9974790811538696289 2.0332887172698974609 2.1233112812042236328 2.1572945117950439453 2.1268687248229980469 2.1198668479919433594 2.0931742191314697266 2.1575160026550292969 2.2983744144439697266 2.3999845981597900391 2.5847685337066650391 2.9523303508758544922 3.3508927822113037109 3.7053406238555908203 3.9008107185363769531 4.0023083686828613281 4.0732111930847167969 3.9317383766174316406 3.8571293354034423828 3.6637597084045410156 3.4832589626312255859 3.5663480758666992188 3.6627805233001708984 3.8111274242401123047 4.0449914932250976562 4.2939386367797851562 4.6118021011352539062 4.8775687217712402344 5.1972546577453613281 5.948413848876953125 7.1240663528442382812 7.3858370780944824219 6.602367401123046875 5.6056237220764160156 4.8398942947387695312 4.3655118942260742188 4.1133923530578613281 4.0084481239318847656 3.9325239658355712891 3.8799214363098144531 3.9384908676147460938 4.1167292594909667969 4.1291952133178710938 3.8220965862274169922 3.5942814350128173828 3.4696457386016845703 3.4111816883087158203 3.2951748371124267578 3.1215922832489013672 2.9473810195922851562 2.9025270938873291016 2.8357613086700439453 2.7324724197387695312 2.6275391578674316406 2.5159597396850585938 2.4051826000213623047 2.2893700599670410156 2.1753990650177001953 2.0563874244689941406 1.9395263195037841797 1.8177453279495239258 1.6998777389526367188 1.5820224285125732422 1.4774664640426635742 1.3817545175552368164 1.3681192398071289062 1.4394153356552124023 1.5097023248672485352 1.5814235210418701172 1.6494915485382080078 1.7189230918884277344 1.7846459150314331055 1.8516536951065063477 1.9149124622344970703 1.9793646335601806641 2.0400404930114746094 2.1019163131713867188 2.1602747440338134766 2.2201383113861083984 2.2768380641937255859 2.335369110107421875 2.3910074234008789062 2.4487700462341308594 2.5039300918579101562 2.5616004467010498047 2.6169445514678955078 2.6752073764801025391 2.7313864231109619141 2.7909257411956787109 2.8485889434814453125 2.9100840091705322266 2.9698574542999267578 3.0339262485504150391 3.0963854789733886719 3.1636757850646972656 3.2294518947601318359 3.3005230426788330078 3.3696715831756591797 3.6303331851959228516 4.5837001800537109375 4.7469029426574707031 4.8470621109008789062 4.9439563751220703125 5.0254387855529785156 5.0981726646423339844 5.1518664360046386719 5.1901006698608398438 5.2064952850341796875 5.2043681144714355469 5.1890015602111816406 5.1651096343994140625 5.1412572860717773438 5.1209506988525390625 5.1102490425109863281 5.1049151420593261719 5.0999760627746582031 5.0884723663330078125 5.0660047531127929688 5.0242533683776855469 4.9685654640197753906 4.8987016677856445312 4.8304467201232910156 4.7627964019775390625 4.7113933563232421875 4.6748623847961425781 4.6575236320495605469 4.65413665771484375 4.6625208854675292969 4.6807856559753417969 4.7040042877197265625 4.7336430549621582031 4.7651076316833496094 4.8022918701171875 4.8396563529968261719 4.8820371627807617188 4.9231333732604980469 4.9685382843017578125 5.0115509033203125 5.0581774711608886719 5.1014504432678222656 5.1475033760070800781 5.1892771720886230469 5.232631683349609375 5.2707400321960449219 5.3089628219604492188 5.3411474227905273438 5.3721098899841308594 5.397502899169921875 5.4219012260437011719 5.4420371055603027344 5.4616589546203613281 5.4780635833740234375 5.4937696456909179688 5.5058412551879882812 5.5156016349792480469 5.5209445953369140625 5.52201080322265625 5.5183649063110351562 5.5099134445190429688 5.4984836578369140625 5.4827160835266113281 5.4651193618774414062 5.4425454139709472656 5.4161982536315917969 5.3802614212036132812 5.3433222770690917969 5.2997884750366210938 5.2541756629943847656 5.1989221572875976562 5.141696929931640625 5.0737700462341308594 5.0041656494140625 4.9216809272766113281 4.8549733161926269531 4.8214006423950195312 4.8138766288757324219 4.8068203926086425781 4.7965388298034667969 4.7824563980102539062 4.7673673629760742188 4.750942230224609375 4.7363743782043457031 4.7227144241333007812 4.7124238014221191406 4.7050089836120605469 4.7021703720092773438 4.7045030593872070312 4.7125430107116699219 4.7282724380493164062 4.7501997947692871094 4.7771692276000976562 4.7978496551513671875 4.8038477897644042969 4.7801227569580078125 4.7126631736755371094 4.6072421073913574219 4.4575991630554199219 4.2896714210510253906 4.0939631462097167969 3.9006395339965820312 3.6960484981536865234 3.4997277259826660156 3.2764756679534912109 3.0357153415679931641 2.7358078956604003906 2.3940899372100830078 1.9694583415985107422 1.5232251882553100586 0.95509737730026245117 0.067115858197212219238 0 0 0 0 0 0 0 0 0 0 0 0 0 0 0 0 0 0 0 0 0 0 0 0 0 0 0 0 0 0 0 0 0 0 0 0 0 0 0 0 0 0 0 0 0 0 0 0 0 0 0 0 0 0 0 0 0 0 0 0 0 0 0 0 0 0 0 0 0 0 0 0 0 0 0 0 0 0 
2.1594448089599609375 2.1345393657684326172 2.111660003662109375 2.0828526020050048828 2.0678923130035400391 2.0574426651000976562 2.0430147647857666016 2.0237698554992675781 2.0057458877563476562 1.9695227146148681641 1.9469256401062011719 1.931293487548828125 1.9481036663055419922 1.996356964111328125 2.0535683631896972656 2.1200847625732421875 2.1744153499603271484 2.1468539237976074219 2.1164634227752685547 2.1045293807983398438 2.2222602367401123047 2.4108502864837646484 2.4674196243286132812 2.5749366283416748047 2.8038403987884521484 3.1475803852081298828 3.4824151992797851562 3.7798187732696533203 3.9840919971466064453 4.0482764244079589844 4.0223751068115234375 3.8087480068206787109 3.6400403976440429688 3.4639804363250732422 3.4630024433135986328 3.6325919628143310547 3.7783143520355224609 3.9251265525817871094 4.1471772193908691406 4.4285283088684082031 4.6866831779479980469 4.8993444442749023438 5.2261204719543457031 5.9586210250854492188 7.1894254684448242188 7.4332418441772460938 6.4618401527404785156 5.3118681907653808594 4.6386671066284179688 4.2200245857238769531 4.0270752906799316406 3.9257104396820068359 3.8503460884094238281 3.8110527992248535156 3.9434418678283691406 4.0985846519470214844 3.9347527027130126953 3.6327412128448486328 3.4617455005645751953 3.3798012733459472656 3.3125870227813720703 3.1569092273712158203 2.9767115116119384766 2.8353531360626220703 2.8184800148010253906 2.7341747283935546875 2.6344916820526123047 2.5340261459350585938 2.4273214340209960938 2.3210058212280273438 2.2094190120697021484 2.0992412567138671875 1.9839357137680053711 1.8705359697341918945 1.7522385120391845703 1.6376757621765136719 1.523112177848815918 1.4215127229690551758 1.3285162448883056641 1.3157722949981689453 1.3862453699111938477 1.4557336568832397461 1.5266779661178588867 1.59404754638671875 1.6628094911575317383 1.7279455661773681641 1.7944048643112182617 1.8571982383728027344 1.921234130859375 1.9815764427185058594 2.0431730747222900391 2.1013252735137939453 2.1610307693481445312 2.2176294326782226562 2.2760989665985107422 2.3317177295684814453 2.3894991874694824219 2.4447109699249267578 2.5024638175964355469 2.5579087734222412109 2.6162950992584228516 2.6726033687591552734 2.7322850227355957031 2.7900857925415039062 2.8517200946807861328 2.9116148948669433594 2.9757978916168212891 3.0383496284484863281 3.1057147979736328125 3.1715357303619384766 3.2426238059997558594 3.3117604255676269531 3.5750381946563720703 4.5368113517761230469 4.6911110877990722656 4.7840600013732910156 4.8766417503356933594 4.9569730758666992188 5.0307531356811523438 5.0868124961853027344 5.128139495849609375 5.14727783203125 5.1474590301513671875 5.1337952613830566406 5.1113953590393066406 5.0888276100158691406 5.0699434280395507812 5.0607333183288574219 5.0569977760314941406 5.0533528327941894531 5.0427165031433105469 5.0203304290771484375 4.9776430130004882812 4.9200534820556640625 4.8472280502319335938 4.7754840850830078125 4.7035474777221679688 4.6477532386779785156 4.6063408851623535156 4.5844602584838867188 4.5764927864074707031 4.5810971260070800781 4.5961213111877441406 4.6172661781311035156 4.64568328857421875 4.6767125129699707031 4.7138948440551757812 4.7514286041259765625 4.7938933372497558594 4.8348093032836914062 4.8797740936279296875 4.9222445487976074219 4.9682641029357910156 5.0110492706298828125 5.0567646026611328125 5.0984401702880859375 5.1419110298156738281 5.1803202629089355469 5.2190618515014648438 5.251895904541015625 5.2837810516357421875 5.3103580474853515625 5.3365645408630371094 5.3590149879455566406 5.3820147514343261719 5.4024577140808105469 5.4234027862548828125 5.4408292770385742188 5.4566092491149902344 5.46743011474609375 5.4740085601806640625 5.474941253662109375 5.4709453582763671875 5.4633636474609375 5.4516849517822265625 5.4380331039428710938 5.42012786865234375 5.3987097740173339844 5.36716461181640625 5.3310546875 5.2881560325622558594 5.2432222366333007812 5.1887836456298828125 5.1324448585510253906 5.0653605461120605469 4.9960846900939941406 4.9118971824645996094 4.837642669677734375 4.8022775650024414062 4.7896542549133300781 4.7717652320861816406 4.7518901824951171875 4.7284855842590332031 4.706127166748046875 4.6832456588745117188 4.6636266708374023438 4.6454925537109375 4.6317415237426757812 4.6213145256042480469 4.6161489486694335938 4.6163959503173828125 4.6227087974548339844 4.6367106437683105469 4.6569666862487792969 4.6817598342895507812 4.6988377571105957031 4.6937985420227050781 4.6564660072326660156 4.5755295753479003906 4.4563078880310058594 4.2907075881958007812 4.1071767807006835938 3.8954837322235107422 3.6885612010955810547 3.4724094867706298828 3.2686960697174072266 3.0422785282135009766 2.8036222457885742188 2.5121886730194091797 2.1851334571838378906 1.7824877500534057617 1.3602312803268432617 0.48169037699699401855 0 0 0 0 0 0 0 0 0 0 0 0 0 0 0 0 0 0 0 0 0 0 0 0 0 0 0 0 0 0 0 0 0 0 0 0 0 0 0 0 0 0 0 0 0 0 0 0 0 0 0 0 0 0 0 0 0 0 0 0 0 0 0 0 0 0 0 0 0 0 0 0 0 0 0 0 0 0 0 
2.1583952903747558594 2.1282765865325927734 2.1066215038299560547 2.0825209617614746094 2.0685267448425292969 2.0554392337799072266 2.0449056625366210938 2.0261971950531005859 2.0033705234527587891 1.9671765565872192383 1.9391957521438598633 1.9553846120834350586 2.0008511543273925781 2.0506377220153808594 2.1367006301879882812 2.2063741683959960938 2.1701066493988037109 2.1332356929779052734 2.1099755764007568359 2.1685271263122558594 2.4674696922302246094 2.5614099502563476562 2.6443929672241210938 2.7726514339447021484 3.0157411098480224609 3.3316206932067871094 3.5951039791107177734 3.7984206676483154297 3.9193537235260009766 3.977325439453125 3.9764084815979003906 3.8046557903289794922 3.5576090812683105469 3.4127943515777587891 3.5658400058746337891 3.7662601470947265625 3.9264354705810546875 4.185390472412109375 4.2935967445373535156 4.5384526252746582031 4.7539486885070800781 4.9405698776245117188 5.3241848945617675781 6.3663430213928222656 7.3561468124389648438 7.1928510665893554688 6.1743216514587402344 5.0599346160888671875 4.425792694091796875 4.0990772247314453125 3.94469451904296875 3.8423573970794677734 3.7637958526611328125 3.7800300121307373047 3.9582335948944091797 3.9950225353240966797 3.7019028663635253906 3.4792845249176025391 3.3584771156311035156 3.3139870166778564453 3.1884226799011230469 3.0026280879974365234 2.8296670913696289062 2.7652308940887451172 2.7181203365325927734 2.6309497356414794922 2.5365636348724365234 2.440471649169921875 2.3382058143615722656 2.2360327243804931641 2.1284625530242919922 2.0219748020172119141 1.9103312492370605469 1.8003889322280883789 1.6856018304824829102 1.5743892192840576172 1.4631835222244262695 1.3646401166915893555 1.274571537971496582 1.2628207206726074219 1.3324007987976074219 1.4010407924652099609 1.471175074577331543 1.5378289222717285156 1.6059179306030273438 1.6704733371734619141 1.7363994121551513672 1.7987478971481323242 1.8623901605606079102 1.9224220514297485352 1.9837633371353149414 2.0417296886444091797 2.1012983322143554688 2.1578145027160644531 2.2162418365478515625 2.2718594074249267578 2.3296785354614257812 2.3849577903747558594 2.4428081512451171875 2.4983670711517333984 2.556888580322265625 2.6133365631103515625 2.6731691360473632812 2.7311139106750488281 2.7928919792175292969 2.8529102802276611328 2.9172079563140869141 2.9798510074615478516 3.0472877025604248047 3.1131484508514404297 3.1842453479766845703 3.253360748291015625 3.5177121162414550781 4.4809589385986328125 4.6267724037170410156 4.7135863304138183594 4.8031458854675292969 4.8836212158203125 4.9598116874694824219 5.0194516181945800781 5.0649991035461425781 5.08773040771484375 5.0908489227294921875 5.0792212486267089844 5.0583953857421875 5.0369386672973632812 5.0190320014953613281 5.0106801986694335938 5.0077686309814453125 5.004734039306640625 4.9944696426391601562 4.9720611572265625 4.9288535118103027344 4.8702335357666015625 4.7956843376159667969 4.7216916084289550781 4.6466517448425292969 4.5872406959533691406 4.5412602424621582031 4.5146861076354980469 4.5016107559204101562 4.5016989707946777344 4.5125532150268554688 4.53072357177734375 4.556987762451171875 4.5867743492126464844 4.6231794357299804688 4.6602735519409179688 4.7023110389709472656 4.7427158355712890625 4.7870240211486816406 4.828853607177734375 4.8742351531982421875 4.9165525436401367188 4.961971282958984375 5.0035943984985351562 5.0472388267517089844 5.0860118865966796875 5.1253495216369628906 5.1589140892028808594 5.1918072700500488281 5.2196040153503417969 5.2475600242614746094 5.2721333503723144531 5.298099517822265625 5.32198333740234375 5.3473515510559082031 5.3693490028381347656 5.3904132843017578125 5.4062666893005371094 5.41827392578125 5.4241299629211425781 5.42536163330078125 5.4225707054138183594 5.4161252975463867188 5.4074892997741699219 5.3953013420104980469 5.3796319961547851562 5.3546652793884277344 5.321811676025390625 5.2802519798278808594 5.2365298271179199219 5.1832594871520996094 5.1279549598693847656 5.0618915557861328125 4.993083953857421875 4.9085001945495605469 4.8266391754150390625 4.7908587455749511719 4.7696866989135742188 4.7400069236755371094 4.7095460891723632812 4.6757879257202148438 4.6448884010314941406 4.6139612197875976562 4.5877490043640136719 4.5636057853698730469 4.5452027320861816406 4.5308775901794433594 4.5228953361511230469 4.5208139419555664062 4.525348663330078125 4.5376648902893066406 4.5562996864318847656 4.5782132148742675781 4.5863199234008789062 4.5686349868774414062 4.5207796096801757812 4.427703857421875 4.2949094772338867188 4.1130657196044921875 3.9133906364440917969 3.6849815845489501953 3.4636991024017333984 3.2351748943328857422 3.0233509540557861328 2.7931270599365234375 2.5561368465423583984 2.2729561328887939453 1.9605326652526855469 1.5790592432022094727 0.93937885761260986328 0.013781310990452766418 0 0 0 0 0 0 0 0 0 0 0 0 0 0 0 0 0 0 0 0 0 0 0 0 0 0 0 0 0 0 0 0 0 0 0 0 0 0 0 0 0 0 0 0 0 0 0 0 0 0 0 0 0 0 0 0 0 0 0 0 0 0 0 0 0 0 0 0 0 0 0 0 0 0 0 0 0 0 0 
2.1760239601135253906 2.1429657936096191406 2.1069822311401367188 2.0823705196380615234 2.067806243896484375 2.0540385246276855469 2.0405619144439697266 2.0258274078369140625 2.0054104328155517578 1.9830150604248046875 1.9632384777069091797 1.9857329130172729492 2.0390608310699462891 2.1091368198394775391 2.2074859142303466797 2.2021486759185791016 2.1572649478912353516 2.1309077739715576172 2.1748046875 2.4694192409515380859 2.6648199558258056641 2.7633790969848632812 2.8287906646728515625 2.9836940765380859375 3.2021858692169189453 3.4625370502471923828 3.6876461505889892578 3.8827164173126220703 3.9343929290771484375 3.9192404747009277344 3.8604102134704589844 3.7475311756134033203 3.5316247940063476562 3.4848775863647460938 3.6375367641448974609 3.8783192634582519531 4.0807356834411621094 4.2467889785766601562 4.3868656158447265625 4.6334290504455566406 4.8204903602600097656 5.0003294944763183594 5.5199646949768066406 6.7069735527038574219 7.3371610641479492188 6.7421832084655761719 5.67179107666015625 4.7922763824462890625 4.2447052001953125 3.9925894737243652344 3.8598055839538574219 3.76149749755859375 3.6947629451751708984 3.7924134731292724609 3.9373161792755126953 3.8035883903503417969 3.5158405303955078125 3.3547713756561279297 3.2779293060302734375 3.2070677280426025391 3.0434949398040771484 2.8608262538909912109 2.7239696979522705078 2.6985635757446289062 2.6208577156066894531 2.5358853340148925781 2.4446465969085693359 2.352130889892578125 2.2536242008209228516 2.1550610065460205078 2.0510883331298828125 1.9479846954345703125 1.8397500514984130859 1.7330642938613891602 1.6216094493865966797 1.5135955810546875 1.4056119918823242188 1.3100243806838989258 1.2228935956954956055 1.2122977972030639648 1.2809748649597167969 1.3487613201141357422 1.4180954694747924805 1.4840575456619262695 1.5515092611312866211 1.6155250072479248047 1.6809655427932739258 1.7429162263870239258 1.8062134981155395508 1.8659777641296386719 1.9271025657653808594 1.9849169254302978516 2.0443787574768066406 2.1008372306823730469 2.1592442989349365234 2.2148790359497070312 2.2727510929107666016 2.3281090259552001953 2.3860654830932617188 2.4417443275451660156 2.5004041194915771484 2.5569918155670166016 2.6169743537902832031 2.6750597953796386719 2.7369759082794189453 2.7971105575561523438 2.8615159988403320312 2.9242422580718994141 2.9917416572570800781 3.0576331615447998047 3.1287293434143066406 3.1978137493133544922 3.4620633125305175781 4.4219231605529785156 4.5605664253234863281 4.6427254676818847656 4.7304835319519042969 4.8119182586669921875 4.8911061286926269531 4.9546985626220703125 5.0047540664672851562 5.0313234329223632812 5.0376353263854980469 5.0282368659973144531 5.0090818405151367188 4.9886698722839355469 4.9714460372924804688 4.9634499549865722656 4.9607057571411132812 4.9577016830444335938 4.9474282264709472656 4.9250245094299316406 4.8818874359130859375 4.823307037353515625 4.7485098838806152344 4.6737508773803710938 4.5970463752746582031 4.5350279808044433594 4.4850263595581054688 4.4537982940673828125 4.4352598190307617188 4.4302144050598144531 4.4360446929931640625 4.4503521919250488281 4.4734921455383300781 4.5011534690856933594 4.5359082221984863281 4.5718531608581542969 4.6128606796264648438 4.6523623466491699219 4.6957521438598632812 4.7368154525756835938 4.7815146446228027344 4.8233723640441894531 4.8685240745544433594 4.910125732421875 4.9539837837219238281 4.9931645393371582031 5.0331573486328125 5.0675206184387207031 5.1014943122863769531 5.1305408477783203125 5.1601834297180175781 5.1866869926452636719 5.2152132987976074219 5.2419481277465820312 5.2709240913391113281 5.2966861724853515625 5.322235107421875 5.34256744384765625 5.3597259521484375 5.3705945014953613281 5.3774595260620117188 5.3800301551818847656 5.3794994354248046875 5.3764815330505371094 5.37052154541015625 5.3608980178833007812 5.3429231643676757812 5.3158450126647949219 5.2765994071960449219 5.2344279289245605469 5.1826195716857910156 5.1284565925598144531 5.0634918212890625 4.9952907562255859375 4.9114623069763183594 4.8239989280700683594 4.7875514030456542969 4.7546448707580566406 4.7133803367614746094 4.6722950935363769531 4.6281456947326660156 4.5883746147155761719 4.5488343238830566406 4.5153751373291015625 4.4844670295715332031 4.4607086181640625 4.4417901039123535156 4.4304037094116210938 4.4254307746887207031 4.427707672119140625 4.4378719329833984375 4.4539961814880371094 4.4674239158630371094 4.4649500846862792969 4.4382653236389160156 4.3816771507263183594 4.2774362564086914062 4.1317005157470703125 3.9341731071472167969 3.7188282012939453125 3.4741458892822265625 3.2388448715209960938 2.9981908798217773438 2.7783477306365966797 2.5442457199096679688 2.3086719512939453125 2.0332515239715576172 1.7340550422668457031 1.2872484922409057617 0.2152980417013168335 0 0 0 0 0 0 0 0 0 0 0 0 0 0 0 0 0 0 0 0 0 0 0 0 0 0 0 0 0 0 0 0 0 0 0 0 0 0 0 0 0 0 0 0 0 0 0 0 0 0 0 0 0 0 0 0 0 0 0 0 0 0 0 0 0 0 0 0 0 0 0 0 0 0 0 0 0 0 0 0 
2.1696047782897949219 2.1552524566650390625 2.1334731578826904297 2.1001045703887939453 2.0676038265228271484 2.0460660457611083984 2.0406937599182128906 2.0230569839477539062 1.9956495761871337891 1.9801443815231323242 1.9711374044418334961 1.9910311698913574219 2.0816950798034667969 2.1918182373046875 2.2189567089080810547 2.1850600242614746094 2.1481046676635742188 2.1438889503479003906 2.4563395977020263672 2.6222274303436279297 2.7968773841857910156 2.8745806217193603516 2.9650530815124511719 3.1314527988433837891 3.3553404808044433594 3.6089100837707519531 3.8824062347412109375 4.0918550491333007812 4.0905423164367675781 3.9074587821960449219 3.7669332027435302734 3.6327967643737792969 3.5167577266693115234 3.5790102481842041016 3.7201321125030517578 3.9304063320159912109 4.1371049880981445312 4.2309651374816894531 4.3771033287048339844 4.6307644844055175781 4.8455610275268554688 5.0396022796630859375 5.746318817138671875 7.0082993507385253906 7.3395147323608398438 6.4662442207336425781 5.2508463859558105469 4.541515350341796875 4.0832662582397460938 3.8966875076293945312 3.7768762111663818359 3.6859319210052490234 3.6473090648651123047 3.8058171272277832031 3.8363797664642333984 3.5801944732666015625 3.3678410053253173828 3.2566993236541748047 3.1986136436462402344 3.0630044937133789062 2.8886954784393310547 2.7126290798187255859 2.6410503387451171875 2.6055278778076171875 2.5247442722320556641 2.4417576789855957031 2.3532707691192626953 2.2638761997222900391 2.1687645912170410156 2.0735530853271484375 1.973003387451171875 1.8731875419616699219 1.7683110237121582031 1.6648639440536499023 1.556744694709777832 1.4519453048706054688 1.3472038507461547852 1.2545733451843261719 1.1702256202697753906 1.1605887413024902344 1.2285119295120239258 1.2955784797668457031 1.3642275333404541016 1.42958831787109375 1.4964773654937744141 1.560011744499206543 1.6250145435333251953 1.6866039037704467773 1.7495880126953125 1.8091121912002563477 1.870047450065612793 1.9277331829071044922 1.9871106147766113281 2.0435311794281005859 2.1019380092620849609 2.1576085090637207031 2.2155504226684570312 2.2710015773773193359 2.3290770053863525391 2.3848857879638671875 2.4436929225921630859 2.5004277229309082031 2.5605649948120117188 2.6187939643859863281 2.6808476448059082031 2.7410981655120849609 2.8056080341339111328 2.8684127330780029297 2.9359674453735351562 3.0018808841705322266 3.0729646682739257812 3.1420052051544189453 3.4054701328277587891 4.3593916893005371094 4.4922122955322265625 4.5709600448608398438 4.6577405929565429688 4.740478515625 4.8227152824401855469 4.8901553153991699219 4.9446043968200683594 4.9750342369079589844 4.9847412109375 4.9778585433959960938 4.96067047119140625 4.9414768218994140625 4.9249072074890136719 4.9169902801513671875 4.9139637947082519531 4.9105854034423828125 4.9000754356384277344 4.8778400421142578125 4.8355007171630859375 4.7781429290771484375 4.7046589851379394531 4.6306443214416503906 4.5536661148071289062 4.4899034500122070312 4.4361667633056640625 4.3999943733215332031 4.3752303123474121094 4.3640375137329101562 4.3635778427124023438 4.3727941513061523438 4.39153289794921875 4.4159483909606933594 4.4479641914367675781 4.481884002685546875 4.5211005210876464844 4.559173583984375 4.60125732421875 4.6413278579711914062 4.6852083206176757812 4.7265491485595703125 4.7714161872863769531 4.8130054473876953125 4.8571171760559082031 4.8967738151550292969 4.9375314712524414062 4.9728288650512695312 5.0080585479736328125 5.03851318359375 5.0699715614318847656 5.09844970703125 5.1294627189636230469 5.158843994140625 5.1910986900329589844 5.22029876708984375 5.2500500679016113281 5.2747478485107421875 5.2971849441528320312 5.3134441375732421875 5.3265676498413085938 5.3352160453796386719 5.3413958549499511719 5.3446745872497558594 5.3455309867858886719 5.3423452377319335938 5.3316354751586914062 5.3117079734802246094 5.2769198417663574219 5.2366008758544921875 5.1865973472595214844 5.1337628364562988281 5.0699872970581054688 5.0025238990783691406 4.9200611114501953125 4.8324389457702636719 4.7891154289245605469 4.7435097694396972656 4.6903133392333984375 4.6384301185607910156 4.5836672782897949219 4.5347242355346679688 4.4861683845520019531 4.4449925422668457031 4.406696319580078125 4.37685394287109375 4.3523974418640136719 4.3365855216979980469 4.3275432586669921875 4.326416015625 4.3327145576477050781 4.3403124809265136719 4.3422298431396484375 4.3317189216613769531 4.2970333099365234375 4.2318067550659179688 4.1162028312683105469 3.9572556018829345703 3.7437632083892822266 3.5125212669372558594 3.2513880729675292969 3.0019669532775878906 2.7491500377655029297 2.5213258266448974609 2.2834448814392089844 2.0494310855865478516 1.7816498279571533203 1.494813084602355957 0.5849590301513671875 0 0 0 0 0 0 0 0 0 0 0 0 0 0 0 0 0 0 0 0 0 0 0 0 0 0 0 0 0 0 0 0 0 0 0 0 0 0 0 0 0 0 0 0 0 0 0 0 0 0 0 0 0 0 0 0 0 0 0 0 0 0 0 0 0 0 0 0 0 0 0 0 0 0 0 0 0 0 0 0 0 
2.173954010009765625 2.1513907909393310547 2.1349370479583740234 2.1155884265899658203 2.0897972583770751953 2.0549032688140869141 2.0388982295989990234 2.0128333568572998047 1.9904919862747192383 1.9792361259460449219 1.9802995920181274414 2.0359482765197753906 2.1924929618835449219 2.2440841197967529297 2.2065093517303466797 2.1828603744506835938 2.1650147438049316406 2.3227994441986083984 2.5618855953216552734 2.7332227230072021484 2.9011442661285400391 2.9693262577056884766 3.1055674552917480469 3.26239013671875 3.4984364509582519531 3.7028400897979736328 3.915679931640625 4.1613073348999023438 4.0817284584045410156 3.8212947845458984375 3.667469024658203125 3.5890111923217773438 3.5665638446807861328 3.6783001422882080078 3.837017059326171875 3.9210042953491210938 4.066253662109375 4.2252144813537597656 4.3792514801025390625 4.5934228897094726562 4.7848148345947265625 5.0818166732788085938 5.884510040283203125 7.0208992958068847656 7.1661429405212402344 6.0896430015563964844 4.9504666328430175781 4.2982311248779296875 3.9503841400146484375 3.8017036914825439453 3.6952376365661621094 3.6107361316680908203 3.6394286155700683594 3.7784345149993896484 3.6596040725708007812 3.3977141380310058594 3.2509360313415527344 3.1838140487670898438 3.0916459560394287109 2.9138712882995605469 2.7359066009521484375 2.6110970973968505859 2.588962554931640625 2.5141718387603759766 2.4333872795104980469 2.352519989013671875 2.2666110992431640625 2.1799800395965576172 2.0878727436065673828 1.9956663846969604492 1.8982393741607666016 1.8014696836471557617 1.6997373104095458984 1.5993459224700927734 1.4943883419036865234 1.3926445245742797852 1.2909885644912719727 1.2011675834655761719 1.1194813251495361328 1.1108219623565673828 1.1780576705932617188 1.2444671392440795898 1.3124947547912597656 1.3773131370544433594 1.4436985254287719727 1.5068048238754272461 1.5714210271835327148 1.6326956748962402344 1.695410609245300293 1.7547323703765869141 1.8155122995376586914 1.8730983734130859375 1.9324172735214233398 1.9888212680816650391 2.0472469329833984375 2.1029682159423828125 2.160991668701171875 2.2165443897247314453 2.2747449874877929688 2.3306863307952880859 2.3896415233612060547 2.4465215206146240234 2.5068097114562988281 2.5651760101318359375 2.6273584365844726562 2.6877157688140869141 2.7523202896118164062 2.8151924610137939453 2.8827898502349853516 2.9487125873565673828 3.0197701454162597656 3.08875274658203125 3.3512554168701171875 4.2993502616882324219 4.428455352783203125 4.5052733421325683594 4.5916972160339355469 4.6755204200744628906 4.7600283622741699219 4.8303418159484863281 4.8882126808166503906 4.921905517578125 4.9348192214965820312 4.9305844306945800781 4.9156675338745117188 4.8979859352111816406 4.8822245597839355469 4.8742933273315429688 4.8707256317138671875 4.86673736572265625 4.8559217453002929688 4.8341417312622070312 4.7934370040893554688 4.7385649681091308594 4.6680326461791992188 4.5963473320007324219 4.520587921142578125 4.4560632705688476562 4.399044036865234375 4.357818603515625 4.3262696266174316406 4.3080935478210449219 4.3002400398254394531 4.3032422065734863281 4.3163628578186035156 4.3364324569702148438 4.3646130561828613281 4.3956084251403808594 4.4322457313537597656 4.4683442115783691406 4.508716583251953125 4.5475549697875976562 4.5904688835144042969 4.6312232017517089844 4.6757707595825195312 4.7173395156860351562 4.7617230415344238281 4.8019003868103027344 4.8435053825378417969 4.8798513412475585938 4.9164915084838867188 4.9485030174255371094 4.9819102287292480469 5.0124287605285644531 5.0459036827087402344 5.0777988433837890625 5.1130924224853515625 5.1454730033874511719 5.1791710853576660156 5.2080736160278320312 5.2357568740844726562 5.2575230598449707031 5.2771401405334472656 5.2921319007873535156 5.3052873611450195312 5.315006256103515625 5.3226685523986816406 5.3257527351379394531 5.3219766616821289062 5.3089365959167480469 5.2808051109313964844 5.242900848388671875 5.1948833465576171875 5.143524169921875 5.0809330940246582031 5.0141396522521972656 4.9328966140747070312 4.8491606712341308594 4.7936854362487792969 4.7367682456970214844 4.6721367835998535156 4.6101622581481933594 4.5454845428466796875 4.4880418777465820312 4.4311404228210449219 4.3827300071716308594 4.3372740745544433594 4.3011770248413085938 4.27050018310546875 4.24920654296875 4.2346568107604980469 4.2282862663269042969 4.2242913246154785156 4.2198805809020996094 4.2128090858459472656 4.1951308250427246094 4.1525073051452636719 4.0785717964172363281 3.9516835212707519531 3.7798557281494140625 3.5510144233703613281 3.3046560287475585938 3.0280315876007080078 2.7654521465301513672 2.5014629364013671875 2.2664887905120849609 2.0255069732666015625 1.7933722734451293945 1.5322605371475219727 1.0722050666809082031 0.023277997970581054688 0 0 0 0 0 0 0 0 0 0 0 0 0 0 0 0 0 0 0 0 0 0 0 0 0 0 0 0 0 0 0 0 0 0 0 0 0 0 0 0 0 0 0 0 0 0 0 0 0 0 0 0 0 0 0 0 0 0 0 0 0 0 0 0 0 0 0 0 0 0 0 0 0 0 0 0 0 0 0 0 0 
2.1861314773559570312 2.1536860466003417969 2.1240608692169189453 2.1056001186370849609 2.1025986671447753906 2.0738844871520996094 2.0358266830444335938 2.0078270435333251953 1.9893654584884643555 1.9859827756881713867 2.0119938850402832031 2.1346700191497802734 2.2430927753448486328 2.2463638782501220703 2.1999385356903076172 2.1819477081298828125 2.3699796199798583984 2.4943366050720214844 2.6298122406005859375 2.8074312210083007812 2.9349949359893798828 3.0554769039154052734 3.2214784622192382812 3.4287228584289550781 3.6139383316040039062 3.7030701637268066406 3.8620393276214599609 4.0615453720092773438 3.9332990646362304688 3.6358439922332763672 3.5637090206146240234 3.5337951183319091797 3.6148476600646972656 3.687175750732421875 3.8303263187408447266 3.9395265579223632812 4.121501922607421875 4.2974023818969726562 4.4661717414855957031 4.630863189697265625 4.8032846450805664062 5.1847987174987792969 6.1032543182373046875 7.0884542465209960938 6.919193267822265625 5.6824979782104492188 4.6591572761535644531 4.095458984375 3.8497807979583740234 3.7097995281219482422 3.6157238483428955078 3.5539405345916748047 3.6411032676696777344 3.6652486324310302734 3.4369482994079589844 3.2473726272583007812 3.1467573642730712891 3.0878229141235351562 2.944324493408203125 2.7614970207214355469 2.5803227424621582031 2.5372960567474365234 2.5019888877868652344 2.4221022129058837891 2.3420960903167724609 2.2632932662963867188 2.1798951625823974609 2.0959076881408691406 2.0066699981689453125 1.9173498153686523438 1.8229544162750244141 1.7291684150695800781 1.6305392980575561523 1.533179163932800293 1.4313707351684570312 1.3326787948608398438 1.2341085672378540039 1.1471037864685058594 1.0681008100509643555 1.0604479312896728516 1.127020716667175293 1.1927987337112426758 1.2602316141128540039 1.3245345354080200195 1.3904443979263305664 1.4531499147415161133 1.5174077749252319336 1.5783934593200683594 1.6408656835556030273 1.7000088691711425781 1.7606577873229980469 1.8181654214859008789 1.8774468898773193359 1.9338524341583251953 1.9923146963119506836 2.0481023788452148438 2.1062228679656982422 2.1618893146514892578 2.2202255725860595703 2.2763087749481201172 2.335418701171875 2.39244842529296875 2.4528889656066894531 2.5113925933837890625 2.5736997127532958984 2.6341602802276611328 2.6988515853881835938 2.7617821693420410156 2.8294100761413574219 2.8953275680541992188 2.9663414955139160156 3.0352470874786376953 3.2970025539398193359 4.24131011962890625 4.3689427375793457031 4.44518280029296875 4.5315618515014648438 4.6158356666564941406 4.7013382911682128906 4.7730960845947265625 4.8330311775207519531 4.869182586669921875 4.885082244873046875 4.8837375640869140625 4.8716073036193847656 4.8559703826904296875 4.8414187431335449219 4.8335723876953125 4.8293609619140625 4.8246502876281738281 4.8135919570922851562 4.7926807403564453125 4.7546167373657226562 4.7036795616149902344 4.6379241943359375 4.5702900886535644531 4.4973025321960449219 4.4329500198364257812 4.3728971481323242188 4.3262124061584472656 4.2869200706481933594 4.2605142593383789062 4.2437238693237304688 4.2390112876892089844 4.2449464797973632812 4.2592868804931640625 4.2822785377502441406 4.3092427253723144531 4.3423237800598144531 4.375751495361328125 4.4138712882995605469 4.4511313438415527344 4.4928388595581054688 4.5328707695007324219 4.5770115852355957031 4.6185197830200195312 4.6631793975830078125 4.7039327621459960938 4.7465062141418457031 4.7840714454650878906 4.8223695755004882812 4.8562064170837402344 4.8918676376342773438 4.924701690673828125 4.9609022140502929688 4.9955043792724609375 5.0340013504028320312 5.0697040557861328125 5.1075253486633300781 5.1408491134643554688 5.1741042137145996094 5.2017674446105957031 5.2283482551574707031 5.2501111030578613281 5.2706475257873535156 5.287052154541015625 5.301601409912109375 5.3108744621276855469 5.3138332366943359375 5.307437896728515625 5.2870039939880371094 5.2532944679260253906 5.2074828147888183594 5.1578073501586914062 5.0963792800903320312 5.0299272537231445312 4.9496335983276367188 4.8713054656982421875 4.8005175590515136719 4.7335796356201171875 4.6578574180603027344 4.5862040519714355469 4.5121593475341796875 4.4469199180603027344 4.3824815750122070312 4.3274626731872558594 4.2751564979553222656 4.2325625419616699219 4.1946845054626464844 4.1663794517517089844 4.1439089775085449219 4.1257395744323730469 4.1062402725219726562 4.0911316871643066406 4.0749297142028808594 4.049160003662109375 3.9975011348724365234 3.9139497280120849609 3.7750833034515380859 3.5900256633758544922 3.34578704833984375 3.0845322608947753906 2.792888641357421875 2.5177814960479736328 2.2434308528900146484 2.0021519660949707031 1.7589516639709472656 1.5289237499237060547 1.2282874584197998047 0.34983417391777038574 0 0 0 0 0 0 0 0 0 0 0 0 0 0 0 0 0 0 0 0 0 0 0 0 0 0 0 0 0 0 0 0 0 0 0 0 0 0 0 0 0 0 0 0 0 0 0 0 0 0 0 0 0 0 0 0 0 0 0 0 0 0 0 0 0 0 0 0 0 0 0 0 0 0 0 0 0 0 0 0 0 0 
2.1855416297912597656 2.1572883129119873047 2.1255655288696289062 2.1028063297271728516 2.1024563312530517578 2.0793950557708740234 2.03516387939453125 2.0125548839569091797 1.9918617010116577148 1.9981291294097900391 2.07041168212890625 2.1924009323120117188 2.2501852512359619141 2.221996307373046875 2.1940836906433105469 2.26627349853515625 2.4938817024230957031 2.5550582408905029297 2.7351214885711669922 2.9017903804779052734 3.0482232570648193359 3.2023828029632568359 3.3484618663787841797 3.5204012393951416016 3.6608934402465820312 3.7231340408325195312 3.9043231010437011719 4.0028543472290039062 3.7892894744873046875 3.5428338050842285156 3.4904270172119140625 3.4975388050079345703 3.5788092613220214844 3.6532955169677734375 3.874324798583984375 3.9712450504302978516 4.1599555015563964844 4.3325057029724121094 4.5277690887451171875 4.6809229850769042969 4.8848652839660644531 5.4508848190307617188 6.4712429046630859375 7.0666050910949707031 6.4909958839416503906 5.3178477287292480469 4.3885145187377929688 3.9649400711059570312 3.7719480991363525391 3.6375076770782470703 3.5376796722412109375 3.5089042186737060547 3.5811192989349365234 3.4848153591156005859 3.2487783432006835938 3.1257951259613037109 3.0715119838714599609 2.9688045978546142578 2.7997186183929443359 2.6119239330291748047 2.4722547531127929688 2.4721443653106689453 2.4066503047943115234 2.332134246826171875 2.2548339366912841797 2.1782007217407226562 2.0971229076385498047 2.0155537128448486328 1.9289532899856567383 1.8422986268997192383 1.7507232427597045898 1.6597297191619873047 1.5640187263488769531 1.4695231914520263672 1.3707005977630615234 1.2749093770980834961 1.1792789697647094727 1.094962000846862793 1.0185281038284301758 1.0118515491485595703 1.0778139829635620117 1.1430121660232543945 1.2099028825759887695 1.2737385034561157227 1.3392205238342285156 1.4015678167343139648 1.4655097723007202148 1.5262446403503417969 1.5885093212127685547 1.6475051641464233398 1.7080509662628173828 1.7655037641525268555 1.8247685432434082031 1.8811926841735839844 1.9397068023681640625 1.9955726861953735352 2.0537991523742675781 2.1095852851867675781 2.1680607795715332031 2.2242863178253173828 2.2835493087768554688 2.340724945068359375 2.4013125896453857422 2.4599435329437255859 2.522365570068359375 2.5829179286956787109 2.6476836204528808594 2.7106583118438720703 2.7783005237579345703 2.8441965579986572266 2.9151477813720703125 2.9839570522308349609 3.2454059123992919922 4.1890120506286621094 4.31729888916015625 4.3940677642822265625 4.4804162979125976562 4.5642080307006835938 4.6491174697875976562 4.7205953598022460938 4.7809543609619140625 4.8185334205627441406 4.8370113372802734375 4.8386797904968261719 4.8297882080078125 4.8167347908020019531 4.8038716316223144531 4.7963399887084960938 4.7915492057800292969 4.7861394882202148438 4.7749738693237304688 4.7552919387817382812 4.7206411361694335938 4.6747283935546875 4.6151251792907714844 4.5528588294982910156 4.4838862419128417969 4.420543670654296875 4.3578701019287109375 4.3056850433349609375 4.2582492828369140625 4.2229866981506347656 4.1964039802551269531 4.1830883026123046875 4.1808571815490722656 4.188568115234375 4.2054629325866699219 4.227642059326171875 4.2564988136291503906 4.2867846488952636719 4.3222899436950683594 4.3577375411987304688 4.3980593681335449219 4.437236785888671875 4.4808349609375 4.5221590995788574219 4.566974639892578125 4.6082201004028320312 4.6517176628112792969 4.6905202865600585938 4.7305622100830078125 4.766353607177734375 4.8044404983520507812 4.8397583961486816406 4.8788552284240722656 4.9162936210632324219 4.9580998420715332031 4.9971966743469238281 5.0391998291015625 5.07698822021484375 5.1158556938171386719 5.149444580078125 5.1829833984375 5.2114539146423339844 5.2392191886901855469 5.2620553970336914062 5.2830634117126464844 5.2980031967163085938 5.3070397377014160156 5.3066244125366210938 5.2934441566467285156 5.2658538818359375 5.2226343154907226562 5.1746392250061035156 5.114101409912109375 5.0476737022399902344 4.9689421653747558594 4.8964447975158691406 4.8085980415344238281 4.7328042984008789062 4.6473293304443359375 4.5670599937438964844 4.4848570823669433594 4.4131083488464355469 4.3425278663635253906 4.282039642333984375 4.2236962318420410156 4.1747908592224121094 4.1291370391845703125 4.0924601554870605469 4.05620574951171875 4.0213551521301269531 3.9880592823028564453 3.9623126983642578125 3.9359908103942871094 3.9010243415832519531 3.8393280506134033203 3.7455511093139648438 3.5945532321929931641 3.3966472148895263672 3.1379163265228271484 2.8629822731018066406 2.5578699111938476562 2.2718334197998046875 1.9888231754302978516 1.7427427768707275391 1.4984836578369140625 1.2705427408218383789 0.67542940378189086914 0 0 0 0 0 0 0 0 0 0 0 0 0 0 0 0 0 0 0 0 0 0 0 0 0 0 0 0 0 0 0 0 0 0 0 0 0 0 0 0 0 0 0 0 0 0 0 0 0 0 0 0 0 0 0 0 0 0 0 0 0 0 0 0 0 0 0 0 0 0 0 0 0 0 0 0 0 0 0 0 0 0 0 
2.1985149383544921875 2.1656489372253417969 2.1419765949249267578 2.1162464618682861328 2.1033701896667480469 2.0755589008331298828 2.0431342124938964844 2.0269246101379394531 2.0128965377807617188 2.0469691753387451172 2.1631433963775634766 2.2382626533508300781 2.2448818683624267578 2.2151057720184326172 2.2919476032257080078 2.4698803424835205078 2.5375242233276367188 2.6903848648071289062 2.8347029685974121094 2.95958709716796875 3.1286063194274902344 3.3118512630462646484 3.5205271244049072266 3.6375243663787841797 3.7186512947082519531 3.7855498790740966797 3.9140708446502685547 3.9755184650421142578 3.7139856815338134766 3.5300290584564208984 3.4371738433837890625 3.4673416614532470703 3.5658729076385498047 3.6965322494506835938 3.9231379032135009766 4.0745329856872558594 4.1898984909057617188 4.3602700233459472656 4.5467867851257324219 4.7402944564819335938 5.0194768905639648438 5.7929315567016601562 6.8469252586364746094 7.1042771339416503906 6.0909323692321777344 4.879001617431640625 4.1576051712036132812 3.8680279254913330078 3.6973280906677246094 3.5696103572845458984 3.4658343791961669922 3.4500334262847900391 3.4650263786315917969 3.2818765640258789062 3.1065123081207275391 3.048320770263671875 2.9710404872894287109 2.8144900798797607422 2.6410725116729736328 2.4671120643615722656 2.4129378795623779297 2.3855335712432861328 2.3138096332550048828 2.2422919273376464844 2.1676037311553955078 2.0931475162506103516 2.014316558837890625 1.9350849390029907227 1.8510411977767944336 1.7669796943664550781 1.6781598329544067383 1.5899059772491455078 1.4970716238021850586 1.4054104089736938477 1.3095510005950927734 1.2166454792022705078 1.1239440441131591797 1.0423105955123901367 0.96844619512557983398 0.96275579929351806641 1.0281277894973754883 1.0927666425704956055 1.1591367721557617188 1.2225270271301269531 1.2876046895980834961 1.3496172428131103516 1.413266301155090332 1.4737719297409057617 1.5358518362045288086 1.5947211980819702148 1.6551842689514160156 1.7126010656356811523 1.7718672752380371094 1.8283262252807617188 1.8869074583053588867 1.9428656101226806641 2.0012099742889404297 2.0571265220642089844 2.1157500743865966797 2.1721241474151611328 2.2315447330474853516 2.2888677120208740234 2.34960174560546875 2.4083549976348876953 2.47088623046875 2.5315234661102294922 2.59635162353515625 2.6593573093414306641 2.7269964218139648438 2.7928509712219238281 2.8637151718139648438 2.9324018955230712891 3.1129918098449707031 3.7226190567016601562 3.8367731571197509766 3.9117219448089599609 3.9934599399566650391 4.0715856552124023438 4.3983931541442871094 4.6683301925659179688 4.7277250289916992188 4.7659430503845214844 4.7868213653564453125 4.7918119430541992188 4.7867822647094726562 4.7769894599914550781 4.7664198875427246094 4.7595353126525878906 4.7543082237243652344 4.7482552528381347656 4.737094879150390625 4.7189188003540039062 4.6882700920104980469 4.6482305526733398438 4.5958604812622070312 4.5400032997131347656 4.4760284423828125 4.4143610000610351562 4.3493976593017578125 4.2916812896728515625 4.2357878684997558594 4.1911821365356445312 4.1541538238525390625 4.131561279296875 4.1204304695129394531 4.1208443641662597656 4.1309747695922851562 4.1478199958801269531 4.1719708442687988281 4.1987786293029785156 4.231403350830078125 4.2648458480834960938 4.3035960197448730469 4.3417329788208007812 4.3845400810241699219 4.42540740966796875 4.4700727462768554688 4.5115466117858886719 4.5557422637939453125 4.5956578254699707031 4.6374211311340332031 4.6752347946166992188 4.7158937454223632812 4.753875732421875 4.7960863113403320312 4.8365654945373535156 4.8818926811218261719 4.9245696067810058594 4.9709448814392089844 5.013362884521484375 5.0580067634582519531 5.0976538658142089844 5.1382555961608886719 5.1734738349914550781 5.2084341049194335938 5.2375860214233398438 5.2648005485534667969 5.2850780487060546875 5.2997713088989257812 5.3049144744873046875 5.2985363006591796875 5.2781796455383300781 5.2389078140258789062 5.1924180984497070312 5.13249969482421875 5.0667614936828613281 4.9896106719970703125 4.9181365966796875 4.8173398971557617188 4.7325029373168945312 4.6382541656494140625 4.5501847267150878906 4.4607090950012207031 4.3833837509155273438 4.3076500892639160156 4.2424554824829101562 4.178524017333984375 4.1232166290283203125 4.0688524246215820312 4.0189328193664550781 3.9633083343505859375 3.9132277965545654297 3.865947723388671875 3.8281950950622558594 3.7899847030639648438 3.744190216064453125 3.6709682941436767578 3.5659263134002685547 3.4022121429443359375 3.1914567947387695312 2.9187726974487304688 2.6310825347900390625 2.3138103485107421875 2.0182976722717285156 1.7282799482345581055 1.4789652824401855469 1.2344468832015991211 0.92721074819564819336 0.024501439183950424194 0 0 0 0 0 0 0 0 0 0 0 0 0 0 0 0 0 0 0 0 0 0 0 0 0 0 0 0 0 0 0 0 0 0 0 0 0 0 0 0 0 0 0 0 0 0 0 0 0 0 0 0 0 0 0 0 0 0 0 0 0 0 0 0 0 0 0 0 0 0 0 0 0 0 0 0 0 0 0 0 0 0 0 
2.2299640178680419922 2.1974267959594726562 2.1683378219604492188 2.1384971141815185547 2.1120779514312744141 2.0883724689483642578 2.0721170902252197266 2.0497701168060302734 2.041706085205078125 2.1427080631256103516 2.2787861824035644531 2.2701191902160644531 2.2346127033233642578 2.2322795391082763672 2.4192323684692382812 2.4891183376312255859 2.6279582977294921875 2.7920134067535400391 2.8996489048004150391 3.0615370273590087891 3.2599344253540039062 3.4355573654174804688 3.6318564414978027344 3.7265627384185791016 3.7885940074920654297 3.8355410099029541016 3.8709006309509277344 3.8112020492553710938 3.6537148952484130859 3.5450413227081298828 3.4544162750244140625 3.4929361343383789062 3.6136167049407958984 3.7214155197143554688 3.9259033203125 4.1024160385131835938 4.2494945526123046875 4.4542036056518554688 4.5993509292602539062 4.7751269340515136719 5.2153339385986328125 6.1630806922912597656 7.0736474990844726562 6.8438429832458496094 5.6299881935119628906 4.5417408943176269531 3.9929094314575195312 3.7836666107177734375 3.6222517490386962891 3.5030066967010498047 3.4137220382690429688 3.3925881385803222656 3.2998964786529541016 3.1174027919769287109 3.0203316211700439453 2.9809346199035644531 2.8445456027984619141 2.6573965549468994141 2.4833164215087890625 2.3528542518615722656 2.351032257080078125 2.2938292026519775391 2.2250587940216064453 2.1563463211059570312 2.0840561389923095703 2.0116703510284423828 1.9349724054336547852 1.8579373359680175781 1.7762825489044189453 1.6946417093276977539 1.6084012985229492188 1.5227210521697998047 1.4325988292694091797 1.343619227409362793 1.2505719661712646484 1.1604110002517700195 1.0705001354217529297 0.99142730236053466797 0.92001843452453613281 0.91527831554412841797 0.98010158538818359375 1.0442219972610473633 1.1101126670837402344 1.1730960607528686523 1.2378063201904296875 1.2995181083679199219 1.36290740966796875 1.4232133626937866211 1.4851367473602294922 1.5439034700393676758 1.6043064594268798828 1.6617059707641601562 1.7209901809692382812 1.7774972915649414062 1.8361572027206420898 1.8922159671783447266 1.9506852626800537109 2.0067353248596191406 2.0655081272125244141 2.1220295429229736328 2.1816043853759765625 2.2390692234039306641 2.2999398708343505859 2.3588047027587890625 2.4214339256286621094 2.4821426868438720703 2.5470178127288818359 2.6100373268127441406 2.6776537895202636719 2.74344635009765625 2.8142001628875732422 2.8827397823333740234 2.9559588432312011719 3.0262038707733154297 3.1007058620452880859 3.1715273857116699219 3.2461240291595458984 3.3164150714874267578 3.9920213222503662109 4.6164178848266601562 4.673725128173828125 4.7119460105895996094 4.7350592613220214844 4.7435965538024902344 4.7429189682006835938 4.7369523048400878906 4.7292394638061523438 4.7233929634094238281 4.7179932594299316406 4.7114405632019042969 4.7003741264343261719 4.6837697029113769531 4.6572098731994628906 4.6231670379638671875 4.5782318115234375 4.5290346145629882812 4.4703960418701171875 4.4107909202575683594 4.3440213203430175781 4.2812652587890625 4.2174420356750488281 4.1639704704284667969 4.116954803466796875 4.0854330062866210938 4.06568145751953125 4.0589895248413085938 4.0625071525573730469 4.0741286277770996094 4.0936799049377441406 4.1171050071716308594 4.1469268798828125 4.178386688232421875 4.2155046463012695312 4.2524385452270507812 4.2941431999206542969 4.3341512680053710938 4.3781595230102539062 4.4193720817565917969 4.4637708663940429688 4.5044169425964355469 4.547603607177734375 4.5872626304626464844 4.6303849220275878906 4.6709866523742675781 4.7163019180297851562 4.75982666015625 4.8086762428283691406 4.8549084663391113281 4.905582427978515625 4.9524989128112792969 5.0026884078979492188 5.0480885505676269531 5.0953345298767089844 5.1368422508239746094 5.1784396171569824219 5.2133512496948242188 5.2461304664611816406 5.2711110115051269531 5.290740966796875 5.3007311820983886719 5.3003282546997070312 5.2867307662963867188 5.2533106803894042969 5.2081065177917480469 5.1491780281066894531 5.0844502449035644531 5.008090972900390625 4.9313607215881347656 4.82479095458984375 4.7313437461853027344 4.6292715072631835938 4.5346889495849609375 4.439212799072265625 4.3574366569519042969 4.2776389122009277344 4.2085747718811035156 4.1396493911743164062 4.0780749320983886719 4.0114908218383789062 3.9438159465789794922 3.8715622425079345703 3.8072924613952636719 3.7455115318298339844 3.6946935653686523438 3.6432743072509765625 3.5854680538177490234 3.4997425079345703125 3.3829429149627685547 3.2066228389739990234 2.9838089942932128906 2.6986551284790039062 2.4000635147094726562 2.0728962421417236328 1.7701772451400756836 1.475508570671081543 1.2246860265731811523 0.97218072414398193359 0.23555383086204528809 0 0 0 0 0 0 0 0 0 0 0 0 0 0 0 0 0 0 0 0 0 0 0 0 0 0 0 0 0 0 0 0 0 0 0 0 0 0 0 0 0 0 0 0 0 0 0 0 0 0 0 0 0 0 0 0 0 0 0 0 0 0 0 0 0 0 0 0 0 0 0 0 0 0 0 0 0 0 0 0 0 0 0 0 
2.2421152591705322266 2.2230982780456542969 2.1999733448028564453 2.1669988632202148438 2.1458985805511474609 2.1238002777099609375 2.0975868701934814453 2.0715012550354003906 2.1023755073547363281 2.2333693504333496094 2.2950985431671142578 2.2622292041778564453 2.2576539516448974609 2.4113407135009765625 2.4886286258697509766 2.568553924560546875 2.6906592845916748047 2.8226463794708251953 3.0045034885406494141 3.2258791923522949219 3.3986411094665527344 3.5568859577178955078 3.7603824138641357422 3.9436902999877929688 3.9794795513153076172 3.9048011302947998047 3.837566375732421875 3.7429177761077880859 3.5954244136810302734 3.5181186199188232422 3.4726064205169677734 3.5503785610198974609 3.6178500652313232422 3.7308204174041748047 3.943531036376953125 4.0710840225219726562 4.2884054183959960938 4.4956979751586914062 4.6473374366760253906 4.8527898788452148438 5.4218235015869140625 6.491291046142578125 7.1181359291076660156 6.46060943603515625 5.2171883583068847656 4.2918000221252441406 3.8927228450775146484 3.7099535465240478516 3.5537555217742919922 3.4488971233367919922 3.3774771690368652344 3.3205728530883789062 3.1528208255767822266 3.0124344825744628906 2.9487910270690917969 2.8717405796051025391 2.7092447280883789062 2.5089156627655029297 2.3280916213989257812 2.2818698883056640625 2.2604167461395263672 2.2001597881317138672 2.1357271671295166016 2.0701241493225097656 2.0003690719604492188 1.9301497936248779297 1.85562896728515625 1.7807787656784057617 1.7014669179916381836 1.6221919059753417969 1.5384737253189086914 1.4553160667419433594 1.3678607940673828125 1.2815266847610473633 1.1912608146667480469 1.1038204431533813477 1.0166813135147094727 0.94015580415725708008 0.8711922764778137207 0.86740338802337646484 0.93169176578521728516 0.99530887603759765625 1.0607368946075439453 1.1233296394348144531 1.1876906156539916992 1.249118804931640625 1.3122668266296386719 1.3723909854888916016 1.4341756105422973633 1.4928568601608276367 1.5532168149948120117 1.6106145381927490234 1.6699326038360595703 1.7265015840530395508 1.7852529287338256836 1.8414235115051269531 1.9000279903411865234 1.9562195539474487305 2.0151479244232177734 2.0718207359313964844 2.1315515041351318359 2.1891577243804931641 2.2501599788665771484 2.3091299533843994141 2.3718483448028564453 2.4326167106628417969 2.4975240230560302734 2.5605390071868896484 2.6281099319458007812 2.6938154697418212891 2.7644281387329101562 2.8327877521514892578 2.9057736396789550781 2.975757598876953125 3.0499477386474609375 3.1204407215118408203 3.1946606636047363281 3.2645742893218994141 3.9392843246459960938 4.5604586601257324219 4.6147694587707519531 4.65256500244140625 4.6779675483703613281 4.6904759407043457031 4.6948375701904296875 4.6934323310852050781 4.6892952919006347656 4.6849999427795410156 4.6797804832458496094 4.6729078292846679688 4.661998748779296875 4.6469378471374511719 4.6243796348571777344 4.5962243080139160156 4.5586309432983398438 4.5160813331604003906 4.4628815650939941406 4.4055843353271484375 4.3374533653259277344 4.2702145576477050781 4.1991486549377441406 4.1374878883361816406 4.0811963081359863281 4.0413537025451660156 4.0135478973388671875 4.0002026557922363281 3.9975249767303466797 4.0042572021484375 4.0195188522338867188 4.0398054122924804688 4.0670113563537597656 4.0965609550476074219 4.13198089599609375 4.1674876213073730469 4.2076411247253417969 4.2462086677551269531 4.288829803466796875 4.3290724754333496094 4.3729557991027832031 4.413776397705078125 4.4579515457153320312 4.4991970062255859375 4.5446300506591796875 4.5878047943115234375 4.6362457275390625 4.6828784942626953125 4.735332489013671875 4.7851858139038085938 4.8401856422424316406 4.8915586471557617188 4.9471487998962402344 4.9980630874633789062 5.0515971183776855469 5.0989942550659179688 5.1467423439025878906 5.1869397163391113281 5.2247629165649414062 5.2539496421813964844 5.27796173095703125 5.2922549247741699219 5.2971949577331542969 5.2896962165832519531 5.2634787559509277344 5.220703125 5.1629815101623535156 5.0989923477172851562 5.0221228599548339844 4.9388232231140136719 4.8291492462158203125 4.7278828620910644531 4.6185445785522460938 4.5182466506958007812 4.4178099632263183594 4.3324351310729980469 4.2493271827697753906 4.1769056320190429688 4.1031966209411621094 4.0326542854309082031 3.9487788677215576172 3.8658220767974853516 3.778141021728515625 3.6991608142852783203 3.6216168403625488281 3.5561957359313964844 3.4897856712341308594 3.418354034423828125 3.3187017440795898438 3.1892580986022949219 3.0000786781311035156 2.7657232284545898438 2.4693748950958251953 2.1616187095642089844 1.8267853260040283203 1.5191800594329833984 1.2222756147384643555 0.97140192985534667969 0.56206589937210083008 0 0 0 0 0 0 0 0 0 0 0 0 0 0 0 0 0 0 0 0 0 0 0 0 0 0 0 0 0 0 0 0 0 0 0 0 0 0 0 0 0 0 0 0 0 0 0 0 0 0 0 0 0 0 0 0 0 0 0 0 0 0 0 0 0 0 0 0 0 0 0 0 0 0 0 0 0 0 0 0 0 0 0 0 0 
2.2575275897979736328 2.2373902797698974609 2.2259850502014160156 2.2103877067565917969 2.2000806331634521484 2.1762273311614990234 2.1392602920532226562 2.1103467941284179688 2.1991975307464599609 2.3069930076599121094 2.2859015464782714844 2.2523844242095947266 2.3736207485198974609 2.4842171669006347656 2.5055255889892578125 2.5855994224548339844 2.7685413360595703125 2.9565186500549316406 3.1634695529937744141 3.3425338268280029297 3.5068933963775634766 3.6731286048889160156 3.8783650398254394531 4.0508589744567871094 4.0291738510131835938 3.9086968898773193359 3.7696831226348876953 3.6939759254455566406 3.6104073524475097656 3.5210206508636474609 3.5188136100769042969 3.5834748744964599609 3.6564342975616455078 3.8107435703277587891 4.0413527488708496094 4.1680226325988769531 4.3260755538940429688 4.4987497329711914062 4.7419028282165527344 5.0577597618103027344 5.7475485801696777344 6.6596813201904296875 6.8055334091186523438 5.8625836372375488281 4.7811245918273925781 4.056240081787109375 3.8235311508178710938 3.6405007839202880859 3.4964611530303955078 3.4028410911560058594 3.3274991512298583984 3.2077665328979492188 3.0228366851806640625 2.9211885929107666016 2.8511083126068115234 2.7291851043701171875 2.5426161289215087891 2.3315858840942382812 2.1991872787475585938 2.1988875865936279297 2.1614410877227783203 2.1091980934143066406 2.0494058132171630859 1.9869594573974609375 1.9197705984115600586 1.8517303466796875 1.7793455123901367188 1.7065870761871337891 1.6294869184494018555 1.5524355173110961914 1.4710887670516967773 1.3903088569641113281 1.3053739070892333984 1.2215478420257568359 1.1339260339736938477 1.0490778684616088867 0.96458375453948974609 0.89049291610717773438 0.8238684535026550293 0.82099330425262451172 0.88477814197540283203 0.9479230046272277832 1.0129189491271972656 1.0751498937606811523 1.1391923427581787109 1.2003676891326904297 1.263306736946105957 1.3232800960540771484 1.3849607706069946289 1.4435970783233642578 1.5039632320404052734 1.5614124536514282227 1.6208238601684570312 1.677514195442199707 1.7364201545715332031 1.7927657365798950195 1.8515737056732177734 1.9079726934432983398 1.9671239852905273438 2.0240092277526855469 2.0839548110961914062 2.1417517662048339844 2.2029285430908203125 2.2620391845703125 2.3248736858367919922 2.3857173919677734375 2.4506611824035644531 2.5136644840240478516 2.5811696052551269531 2.6467559337615966797 2.717182159423828125 2.7853076457977294922 2.8579909801483154297 2.9276387691497802734 3.00142669677734375 3.0714981555938720703 3.1452372074127197266 3.2146692276000976562 3.8858292102813720703 4.5009102821350097656 4.5515909194946289062 4.5886707305908203125 4.6163845062255859375 4.6331319808959960938 4.6430001258850097656 4.6466970443725585938 4.6467347145080566406 4.6445112228393554688 4.6399121284484863281 4.6329674720764160156 4.6222491264343261719 4.6084933280944824219 4.58935546875 4.566287994384765625 4.5350852012634277344 4.4983839988708496094 4.4500756263732910156 4.3950300216674804688 4.3260817527770996094 4.2553691864013671875 4.1785154342651367188 4.1102352142333984375 4.0464043617248535156 3.9997937679290771484 3.9654479026794433594 3.9467108249664306641 3.9390270709991455078 3.9418253898620605469 3.9536623954772949219 3.9714570045471191406 3.9965538978576660156 4.0244669914245605469 4.0582470893859863281 4.0921349525451660156 4.1302561759948730469 4.166713714599609375 4.2070684432983398438 4.2454614639282226562 4.2878956794738769531 4.3281221389770507812 4.3726139068603515625 4.414966583251953125 4.4623246192932128906 4.5078134536743164062 4.559185028076171875 4.6087965965270996094 4.6647343635559082031 4.7180724143981933594 4.7771763801574707031 4.8326897621154785156 4.8931722640991210938 4.9489622116088867188 5.0079550743103027344 5.0603947639465332031 5.1133508682250976562 5.1579790115356445312 5.1999998092651367188 5.2326540946960449219 5.2602639198303222656 5.2780966758728027344 5.2874612808227539062 5.2851510047912597656 5.2662477493286132812 5.227848052978515625 5.171024322509765625 5.1073222160339355469 5.0272917747497558594 4.9382376670837402344 4.8281226158142089844 4.7206244468688964844 4.6051788330078125 4.5000700950622558594 4.3958067893981933594 4.307765960693359375 4.2220959663391113281 4.1468043327331542969 4.0664014816284179688 3.9824292659759521484 3.8846347332000732422 3.7888104915618896484 3.6863856315612792969 3.5926165580749511719 3.4987664222717285156 3.4178998470306396484 3.3353931903839111328 3.2493114471435546875 3.1349136829376220703 2.9925248622894287109 2.7909073829650878906 2.5462353229522705078 2.2407653331756591797 1.9263339042663574219 1.5868082046508789062 1.2772357463836669922 0.98055338859558105469 0.71735626459121704102 0.054484203457832336426 0 0 0 0 0 0 0 0 0 0 0 0 0 0 0 0 0 0 0 0 0 0 0 0 0 0 0 0 0 0 0 0 0 0 0 0 0 0 0 0 0 0 0 0 0 0 0 0 0 0 0 0 0 0 0 0 0 0 0 0 0 0 0 0 0 0 0 0 0 0 0 0 0 0 0 0 0 0 0 0 0 0 0 0 0 
2.2766778469085693359 2.2638158798217773438 2.252475738525390625 2.2435474395751953125 2.2383482456207275391 2.2136635780334472656 2.1769781112670898438 2.178844451904296875 2.2694520950317382812 2.302730560302734375 2.2724802494049072266 2.29247283935546875 2.3739895820617675781 2.5447416305541992188 2.6383676528930664062 2.7686898708343505859 2.9410750865936279297 3.081439971923828125 3.2782633304595947266 3.4720251560211181641 3.5822615623474121094 3.7321958541870117188 3.9266400337219238281 4.0393209457397460938 3.9878189563751220703 3.8804354667663574219 3.7957465648651123047 3.6984903812408447266 3.5548105239868164062 3.4886007308959960938 3.5785086154937744141 3.6196501255035400391 3.7662000656127929688 3.9683792591094970703 4.1673688888549804688 4.2501511573791503906 4.3256764411926269531 4.4796366691589355469 4.7830948829650878906 5.2834687232971191406 6.0648522377014160156 6.7331452369689941406 6.5921387672424316406 5.4611983299255371094 4.3814883232116699219 3.9053449630737304688 3.7696814537048339844 3.585292816162109375 3.4552061557769775391 3.3528945446014404297 3.2574841976165771484 3.0889201164245605469 2.9160501956939697266 2.8330130577087402344 2.7404515743255615234 2.5821886062622070312 2.3713996410369873047 2.1637923717498779297 2.1072247028350830078 2.1010024547576904297 2.0664663314819335938 2.019596099853515625 1.9636251926422119141 1.9040600061416625977 1.8393553495407104492 1.7734758853912353516 1.7032077312469482422 1.6325041055679321289 1.5575647354125976562 1.4826831817626953125 1.4036526679992675781 1.3252005577087402344 1.2427415847778320312 1.1613869667053222656 1.0763770341873168945 0.99409496784210205078 0.91223239898681640625 0.84058153629302978516 0.77631986141204833984 0.77440851926803588867 0.83778095245361328125 0.90057104825973510742 0.96528238058090209961 1.0273172855377197266 1.0912374258041381836 1.152370452880859375 1.2153378725051879883 1.2754038572311401367 1.3372405767440795898 1.3960752487182617188 1.4566898345947265625 1.5144120454788208008 1.5741366147994995117 1.631148219108581543 1.6904048919677734375 1.7470966577529907227 1.8062669038772583008 1.863007664680480957 1.9225045442581176758 1.9797046184539794922 2.0399568080902099609 2.0980172157287597656 2.1594321727752685547 2.2187337875366210938 2.2817254066467285156 2.3426723480224609375 2.4076700210571289062 2.4706678390502929688 2.5381011962890625 2.6035518646240234375 2.6737611293792724609 2.7416105270385742188 2.8139340877532958984 2.8831777572631835938 2.9564785957336425781 3.0260317325592041016 3.0991711616516113281 3.1679925918579101562 3.8321621417999267578 4.4375543594360351562 4.48403167724609375 4.5201416015625 4.5501866340637207031 4.5714106559753417969 4.5871939659118652344 4.5964593887329101562 4.6011776924133300781 4.6014447212219238281 4.5977840423583984375 4.5908970832824707031 4.5802564620971679688 4.5673985481262207031 4.550876617431640625 4.5318512916564941406 4.5058126449584960938 4.4739007949829101562 4.4296903610229492188 4.3766613006591796875 4.3073019981384277344 4.2340512275695800781 4.1528429985046386719 4.0795311927795410156 4.0099534988403320312 3.9581937789916992188 3.9189035892486572266 3.8961236476898193359 3.8847126960754394531 3.8846037387847900391 3.893924713134765625 3.909885406494140625 3.933361053466796875 3.9598727226257324219 3.9920125007629394531 4.0240321159362792969 4.0595760345458984375 4.0931963920593261719 4.1303510665893554688 4.1659674644470214844 4.2059817314147949219 4.2448172569274902344 4.2889351844787597656 4.3319115638732910156 4.3808159828186035156 4.4283819198608398438 4.482524871826171875 4.5350356101989746094 4.5943994522094726562 4.65114593505859375 4.7141900062561035156 4.7735657691955566406 4.8384485244750976562 4.8984699249267578125 4.9620757102966308594 5.0186967849731445312 5.0759229660034179688 5.1241669654846191406 5.1696252822875976562 5.2051377296447753906 5.2357349395751953125 5.2565360069274902344 5.2697567939758300781 5.2721986770629882812 5.2601537704467773438 5.2280015945434570312 5.1722059249877929688 5.1083154678344726562 5.0226612091064453125 4.9295806884765625 4.8206033706665039062 4.7083344459533691406 4.5878510475158691406 4.4788069725036621094 4.3714151382446289062 4.28136444091796875 4.1936044692993164062 4.1140489578247070312 4.021800994873046875 3.9269661903381347656 3.8177373409271240234 3.7095525264739990234 3.5921983718872070312 3.483062744140625 3.3719475269317626953 3.2744374275207519531 3.1743695735931396484 3.0722990036010742188 2.9420444965362548828 2.7861886024475097656 2.5723981857299804688 2.3185718059539794922 2.0060660839080810547 1.6875115633010864258 1.3463597297668457031 1.0376753807067871094 0.74348616600036621094 0.2183605581521987915 0 0 0 0 0 0 0 0 0 0 0 0 0 0 0 0 0 0 0 0 0 0 0 0 0 0 0 0 0 0 0 0 0 0 0 0 0 0 0 0 0 0 0 0 0 0 0 0 0 0 0 0 0 0 0 0 0 0 0 0 0 0 0 0 0 0 0 0 0 0 0 0 0 0 0 0 0 0 0 0 0 0 0 0 0 0 
2.3000006675720214844 2.2913613319396972656 2.2765457630157470703 2.2690341472625732422 2.2597093582153320312 2.2317337989807128906 2.2176253795623779297 2.2749924659729003906 2.3118126392364501953 2.2906510829925537109 2.3067772388458251953 2.3174405097961425781 2.5390279293060302734 2.7240161895751953125 2.8037366867065429688 2.9560706615447998047 3.0893933773040771484 3.2163691520690917969 3.4131121635437011719 3.5804283618927001953 3.6378092765808105469 3.7618432044982910156 3.9274384975433349609 3.9668035507202148438 3.9315841197967529297 3.881610870361328125 3.8237950801849365234 3.6829214096069335938 3.5076289176940917969 3.5216872692108154297 3.6515836715698242188 3.6969625949859619141 3.8294382095336914062 3.9879567623138427734 4.1802587509155273438 4.2590484619140625 4.3870024681091308594 4.5671277046203613281 4.8870992660522460938 5.4257864952087402344 6.1701440811157226562 6.860443115234375 6.4226064682006835938 4.98584747314453125 4.0416803359985351562 3.8264298439025878906 3.7218828201293945312 3.5399682521820068359 3.4168221950531005859 3.2954280376434326172 3.1675007343292236328 2.9725465774536132812 2.8144135475158691406 2.734546661376953125 2.6149337291717529297 2.4283773899078369141 2.2129731178283691406 2.0837888717651367188 2.0441601276397705078 2.0180380344390869141 1.9814332723617553711 1.9358965158462524414 1.8820813894271850586 1.8246973752975463867 1.7621108293533325195 1.69818115234375 1.6298698186874389648 1.5610860586166381836 1.4881792068481445312 1.4153538942337036133 1.3385486602783203125 1.262373805046081543 1.1823773384094238281 1.1035314798355102539 1.0212296247482299805 0.94165807962417602539 0.86261206865310668945 0.79360532760620117188 0.73194050788879394531 0.73127985000610351562 0.79457455873489379883 0.85730624198913574219 0.92201387882232666016 0.98409616947174072266 1.0481070280075073242 1.1093637943267822266 1.1724961996078491211 1.2327544689178466797 1.2948251962661743164 1.3539155721664428711 1.414825439453125 1.4728536605834960938 1.5329149961471557617 1.5902620553970336914 1.6498770713806152344 1.7069187164306640625 1.7664530277252197266 1.8235362768173217773 1.8833793401718139648 1.9408930540084838867 2.0014498233795166016 2.0597693920135498047 2.1214210987091064453 2.1809122562408447266 2.2440588474273681641 2.3051066398620605469 2.37015533447265625 2.4331438541412353516 2.5005021095275878906 2.5658130645751953125 2.6358008384704589844 2.7033703327178955078 2.7753303050994873047 2.8441665172576904297 2.9169764518737792969 2.9860093593597412109 3.0585503578186035156 3.1267614364624023438 3.7654464244842529297 4.3498673439025878906 4.3929014205932617188 4.4287409782409667969 4.4617934226989746094 4.488521575927734375 4.5314660072326660156 4.5465846061706542969 4.5564680099487304688 4.5598731040954589844 4.5579214096069335938 4.5517306327819824219 4.5415797233581542969 4.5295929908752441406 4.5150675773620605469 4.4989824295043945312 4.4766230583190917969 4.4480485916137695312 4.4065761566162109375 4.3547391891479492188 4.2847723960876464844 4.2093825340270996094 4.1247134208679199219 4.0475263595581054688 3.9736375808715820312 3.918121337890625 3.8753099441528320312 3.8497145175933837891 3.8357689380645751953 3.8336920738220214844 3.8412764072418212891 3.8559041023254394531 3.8780670166015625 3.9032804965972900391 3.9337289333343505859 3.9637124538421630859 3.9964029788970947266 4.0268640518188476562 4.0604205131530761719 4.0928621292114257812 4.1300139427185058594 4.1670556068420410156 4.2103862762451171875 4.2536301612854003906 4.3037266731262207031 4.3530735969543457031 4.4097018241882324219 4.4648776054382324219 4.527408599853515625 4.587268829345703125 4.6538081169128417969 4.7164664268493652344 4.7848782539367675781 4.848094940185546875 4.9150295257568359375 4.9745898246765136719 5.0347957611083984375 5.0856037139892578125 5.133609771728515625 5.1713595390319824219 5.204433441162109375 5.2278757095336914062 5.2446341514587402344 5.2513399124145507812 5.2453432083129882812 5.2202281951904296875 5.1667356491088867188 5.1022357940673828125 5.0113854408264160156 4.9167075157165527344 4.8073821067810058594 4.6917662620544433594 4.5674943923950195312 4.4553985595703125 4.3456397056579589844 4.2540216445922851562 4.163211822509765625 4.0745158195495605469 3.9729721546173095703 3.8702285289764404297 3.7506170272827148438 3.6304452419281005859 3.4982683658599853516 3.3736851215362548828 3.2450499534606933594 3.1305072307586669922 3.0123953819274902344 2.8939986228942871094 2.7478704452514648438 2.5790467262268066406 2.3543748855590820312 2.0934269428253173828 1.7767305374145507812 1.457120060920715332 1.1176379919052124023 0.8121490478515625 0.38568365573883056641 0.014418836683034896851 0 0 0 0 0 0 0 0 0 0 0 0 0 0 0 0 0 0 0 0 0 0 0 0 0 0 0 0 0 0 0 0 0 0 0 0 0 0 0 0 0 0 0 0 0 0 0 0 0 0 0 0 0 0 0 0 0 0 0 0 0 0 0 0 0 0 0 0 0 0 0 0 0 0 0 0 0 0 0 0 0 0 0 0 0 0 
2.3181083202362060547 2.3201656341552734375 2.3090372085571289062 2.2878699302673339844 2.2723982334136962891 2.2600889205932617188 2.2731504440307617188 2.3179519176483154297 2.3111112117767333984 2.2994449138641357422 2.3084838390350341797 2.4190328121185302734 2.6971247196197509766 2.8330719470977783203 2.9306921958923339844 3.0720179080963134766 3.2068929672241210938 3.3627803325653076172 3.5763108730316162109 3.6441962718963623047 3.6878223419189453125 3.8097996711730957031 3.8970401287078857422 3.8884859085083007812 3.8897428512573242188 3.8063478469848632812 3.7263369560241699219 3.6007916927337646484 3.4900295734405517578 3.6011788845062255859 3.7228848934173583984 3.7371189594268798828 3.8434624671936035156 4.0148553848266601562 4.1928663253784179688 4.2748203277587890625 4.4750161170959472656 4.6733150482177734375 5.0050840377807617188 5.4692130088806152344 6.3029026985168457031 6.7700023651123046875 5.7398443222045898438 4.441677093505859375 3.82851409912109375 3.7805800437927246094 3.6804671287536621094 3.5008256435394287109 3.3766887187957763672 3.2350332736968994141 3.0685515403747558594 2.8723752498626708984 2.7235515117645263672 2.6307585239410400391 2.4749279022216796875 2.2735157012939453125 2.0900151729583740234 2.0263986587524414062 1.9813129901885986328 1.9425237178802490234 1.9010580778121948242 1.8549060821533203125 1.8021347522735595703 1.7463657855987548828 1.6856087446212768555 1.6235415935516357422 1.5572322607040405273 1.4905102252960205078 1.4198682308197021484 1.3493955135345458984 1.2751504182815551758 1.2015788555145263672 1.1243762969970703125 1.0483231544494628906 0.96896612644195556641 0.89228278398513793945 0.81619000434875488281 0.74991786479949951172 0.69090449810028076172 0.69152033329010009766 0.7547550201416015625 0.81743311882019042969 0.88213050365447998047 0.94424474239349365234 1.0083311796188354492 1.0697004795074462891 1.1329886913299560547 1.1934335231781005859 1.2557340860366821289 1.3150792121887207031 1.3762851953506469727 1.4346228837966918945 1.4950259923934936523 1.5527147054672241211 1.6126941442489624023 1.6700919866561889648 1.729998469352722168 1.7874314785003662109 1.8476271629333496094 1.9054605960845947266 1.9663250446319580078 2.0249063968658447266 2.0867981910705566406 2.1464793682098388672 2.2097799777984619141 2.2709243297576904297 2.3360173702239990234 2.3989872932434082031 2.4662573337554931641 2.5314126014709472656 2.6011586189270019531 2.6684255599975585938 2.7399952411651611328 2.8083963394165039062 2.8806853294372558594 2.9491682052612304688 3.0210809707641601562 3.0886516571044921875 3.2805662155151367188 3.4771323204040527344 3.5387990474700927734 3.5950210094451904297 3.6522302627563476562 3.7184705734252929688 4.4053654670715332031 4.4948887825012207031 4.5104613304138183594 4.5178570747375488281 4.5187788009643554688 4.51444244384765625 4.5058684349060058594 4.4954533576965332031 4.4831461906433105469 4.4697022438049316406 4.4503507614135742188 4.4243488311767578125 4.38488006591796875 4.3337998390197753906 4.2631683349609375 4.18593597412109375 4.0983753204345703125 4.0179715156555175781 3.9404833316802978516 3.8817806243896484375 3.8359310626983642578 3.8078274726867675781 3.7914836406707763672 3.787425994873046875 3.7931194305419921875 3.8061313629150390625 3.8265838623046875 3.8501203060150146484 3.8785121440887451172 3.9062077999114990234 3.9359252452850341797 3.9632279872894287109 3.9932627677917480469 4.0226292610168457031 4.057010650634765625 4.0922904014587402344 4.1347851753234863281 4.1781849861145019531 4.2293004989624023438 4.2802410125732421875 4.3391442298889160156 4.3967952728271484375 4.462261199951171875 4.5249395370483398438 4.5945010185241699219 4.6598010063171386719 4.7307691574096679688 4.7960190773010253906 4.8648591041564941406 4.9260067939758300781 4.9878430366516113281 5.0401859283447265625 5.0899906158447265625 5.1296453475952148438 5.1651430130004882812 5.1912841796875 5.2116079330444335938 5.2224512100219726562 5.2221269607543945312 5.2040386199951171875 5.1554684638977050781 5.0900473594665527344 4.9953684806823730469 4.9008097648620605469 4.7892928123474121094 4.6713433265686035156 4.544208526611328125 4.4296860694885253906 4.3180713653564453125 4.2243089675903320312 4.1251845359802246094 4.0289163589477539062 3.9210772514343261719 3.8110692501068115234 3.6810164451599121094 3.5484895706176757812 3.4009184837341308594 3.2602536678314208984 3.113376617431640625 2.9811234474182128906 2.8443574905395507812 2.7093188762664794922 2.5474498271942138672 2.3663918972015380859 2.1324453353881835938 1.8667396306991577148 1.5490267276763916016 1.2316544055938720703 0.89694732427597045898 0.59688657522201538086 0.075022295117378234863 0 0 0 0 0 0 0 0 0 0 0 0 0 0 0 0 0 0 0 0 0 0 0 0 0 0 0 0 0 0 0 0 0 0 0 0 0 0 0 0 0 0 0 0 0 0 0 0 0 0 0 0 0 0 0 0 0 0 0 0 0 0 0 0 0 0 0 0 0 0 0 0 0 0 0 0 0 0 0 0 0 0 0 0 0 0 0 
2.326824188232421875 2.3290209770202636719 2.3407745361328125 2.3101263046264648438 2.2921824455261230469 2.2939755916595458984 2.31107330322265625 2.3214366436004638672 2.3334145545959472656 2.3299229145050048828 2.3870265483856201172 2.5611031055450439453 2.7471077442169189453 2.9112915992736816406 3.0697286128997802734 3.24465179443359375 3.2916529178619384766 3.4141843318939208984 3.5967512130737304688 3.6666364669799804688 3.7432804107666015625 3.8611495494842529297 3.9240453243255615234 3.8967978954315185547 3.8381845951080322266 3.6986358165740966797 3.5857362747192382812 3.5294942855834960938 3.536258697509765625 3.7139134407043457031 3.8774242401123046875 3.887477874755859375 3.9329037666320800781 4.0893130302429199219 4.2012324333190917969 4.3091669082641601562 4.5327906608581542969 4.7222604751586914062 5.0788092613220214844 5.6911873817443847656 6.5621724128723144531 6.4731655120849609375 5.0174474716186523438 4.0110383033752441406 3.7337565422058105469 3.7325038909912109375 3.6095254421234130859 3.4581253528594970703 3.3197302818298339844 3.1651101112365722656 2.96303558349609375 2.7686135768890380859 2.634296417236328125 2.5283782482147216797 2.3404901027679443359 2.1321809291839599609 2.0087068080902099609 1.9437286853790283203 1.9073380231857299805 1.8682765960693359375 1.825091242790222168 1.7787013053894042969 1.7268655300140380859 1.672625422477722168 1.6137419939041137695 1.55365753173828125 1.4895017147064208984 1.424973607063293457 1.356673121452331543 1.2885625362396240234 1.2168369293212890625 1.1457929611206054688 1.0712721347808837891 0.99788796901702880859 0.92134314775466918945 0.84741610288619995117 0.77414244413375854492 0.71048408746719360352 0.65400707721710205078 0.65583503246307373047 0.71899271011352539062 0.78160315752029418945 0.84627628326416015625 0.90841144323348999023 0.97256237268447875977 1.0340346097946166992 1.0974692106246948242 1.1580930948257446289 1.2206169366836547852 1.2802118062973022461 1.3417093753814697266 1.4003523588180541992 1.4610946178436279297 1.5191222429275512695 1.5794643163681030273 1.6372152566909790039 1.6974912881851196289 1.7552713155746459961 1.8158161640167236328 1.8739644289016723633 1.9351290464401245117 1.9939674139022827148 2.0560925006866455078 2.1159567832946777344 2.179401397705078125 2.2406322956085205078 2.3057568073272705078 2.368694305419921875 2.4358589649200439453 2.5008406639099121094 2.570323944091796875 2.6372663974761962891 2.7084212303161621094 2.7763636112213134766 2.8481056690216064453 2.9160144329071044922 2.9872751235961914062 3.0541825294494628906 3.1239476203918457031 3.1888539791107177734 3.2560367584228515625 3.3179183006286621094 3.3814365863800048828 3.4574882984161376953 4.3169741630554199219 4.4423918724060058594 4.4638071060180664062 4.4759531021118164062 4.4810585975646972656 4.4800295829772949219 4.4745192527770996094 4.4667544364929199219 4.45721435546875 4.4463219642639160156 4.4294309616088867188 4.4052758216857910156 4.3670411109924316406 4.3162074089050292969 4.2447495460510253906 4.1658840179443359375 4.075962066650390625 3.9930448532104492188 3.9128441810607910156 3.8518309593200683594 3.8038241863250732422 3.7739038467407226562 3.7556807994842529297 3.7498097419738769531 3.7533519268035888672 3.7640902996063232422 3.7818238735198974609 3.802585601806640625 3.8277859687805175781 3.8523736000061035156 3.8786470890045166016 3.9028086662292480469 3.9297349452972412109 3.95661163330078125 3.9889264106750488281 4.0229854583740234375 4.0649952888488769531 4.1086611747741699219 4.1607270240783691406 4.2130694389343261719 4.273952484130859375 4.3337621688842773438 4.4017558097839355469 4.4667582511901855469 4.5386147499084472656 4.6056475639343261719 4.6778697967529296875 4.743663787841796875 4.8126325607299804688 4.873722076416015625 4.9355931282043457031 4.98833465576171875 5.0392408370971679688 5.0805878639221191406 5.1185598373413085938 5.1475977897644042969 5.171665191650390625 5.1866331100463867188 5.1917028427124023438 5.1801242828369140625 5.1388731002807617188 5.0730533599853515625 4.976833343505859375 4.8820862770080566406 4.7679400444030761719 4.6485095024108886719 4.5193114280700683594 4.4029664993286132812 4.2891836166381835938 4.188549041748046875 4.0821380615234375 3.9816296100616455078 3.8684697151184082031 3.75136566162109375 3.6107594966888427734 3.4656591415405273438 3.3024458885192871094 3.1455252170562744141 2.9803500175476074219 2.8305125236511230469 2.6755037307739257812 2.5245695114135742188 2.3482503890991210938 2.1567447185516357422 1.9161361455917358398 1.6488256454467773438 1.3338717222213745117 1.0222795009613037109 0.69505441188812255859 0.2384945303201675415 0.0015602268977090716362 0 0 0 0 0 0 0 0 0 0 0 0 0 0 0 0 0 0 0 0 0 0 0 0 0 0 0 0 0 0 0 0 0 0 0 0 0 0 0 0 0 0 0 0 0 0 0 0 0 0 0 0 0 0 0 0 0 0 0 0 0 0 0 0 0 0 0 0 0 0 0 0 0 0 0 0 0 0 0 0 0 0 0 0 0 0 0 
2.3387815952301025391 2.3228673934936523438 2.3275709152221679688 2.3191323280334472656 2.3151843547821044922 2.3325533866882324219 2.3421094417572021484 2.3221280574798583984 2.4135560989379882812 2.3414974212646484375 2.4986472129821777344 2.7088789939880371094 2.8817315101623535156 3.0447890758514404297 3.1862905025482177734 3.3341374397277832031 3.4239203929901123047 3.5371274948120117188 3.6322407722473144531 3.6797702312469482422 3.7680008411407470703 3.9120039939880371094 4.0019469261169433594 3.9686021804809570312 3.8123934268951416016 3.6125309467315673828 3.4572305679321289062 3.4872441291809082031 3.6179268360137939453 3.8777933120727539062 4.0082716941833496094 3.9282822608947753906 4.0053892135620117188 4.1693964004516601562 4.2416377067565917969 4.3660569190979003906 4.5856046676635742188 4.869091033935546875 5.4229340553283691406 6.1836290359497070312 6.6503772735595703125 5.8843998908996582031 4.4428281784057617188 3.7523379325866699219 3.6786723136901855469 3.6443879604339599609 3.5100889205932617188 3.4093222618103027344 3.2510738372802734375 3.0780692100524902344 2.8494701385498046875 2.6743161678314208984 2.5519094467163085938 2.4045953750610351562 2.2041707038879394531 2.0466873645782470703 1.9179565906524658203 1.8638384342193603516 1.831988215446472168 1.7945629358291625977 1.7518295049667358398 1.706023097038269043 1.6552760601043701172 1.6024694442749023438 1.5453016757965087891 1.4870575666427612305 1.4249262809753417969 1.3624819517135620117 1.2964321374893188477 1.2306097745895385742 1.1613385677337646484 1.0927659273147583008 1.0208755731582641602 0.95011544227600097656 0.87634068727493286133 0.8051331639289855957 0.73464441299438476562 0.6735706329345703125 0.61960417032241821289 0.62262517213821411133 0.68569171428680419922 0.74822264909744262695 0.81286162137985229492 0.87500947713851928711 0.93921881914138793945 1.0007892847061157227 1.0643678903579711914 1.1251699924468994141 1.187918543815612793 1.2477658987045288086 1.309559941291809082 1.3685152530670166016 1.4296034574508666992 1.4879784584045410156 1.5486916303634643555 1.6068029403686523438 1.6674563884735107422 1.7255904674530029297 1.7864906787872314453 1.8449549674987792969 1.9064215421676635742 1.965517878532409668 2.0278747081756591797 2.0879175662994384766 2.1514983177185058594 2.2128045558929443359 2.2779450416564941406 2.3408308029174804688 2.4078657627105712891 2.4726455211639404297 2.5418305397033691406 2.6084110736846923828 2.679107666015625 2.7465462684631347656 2.8176913261413574219 2.8849775791168212891 2.9555346965789794922 3.0217258930206298828 3.0906872749328613281 3.15479278564453125 3.22109222412109375 3.2821090221405029297 3.3446860313415527344 3.4193716049194335938 4.2592682838439941406 4.3872303962707519531 4.4146108627319335938 4.4324088096618652344 4.4433259963989257812 4.4474649429321289062 4.4470038414001464844 4.4434490203857421875 4.4376964569091796875 4.4296360015869140625 4.4149527549743652344 4.3920722007751464844 4.3543171882629394531 4.3030743598937988281 4.2302980422973632812 4.1495509147644042969 4.0572061538696289062 3.9718852043151855469 3.8892357349395751953 3.8262631893157958984 3.7765295505523681641 3.7451734542846679688 3.7253808975219726562 3.7178184986114501953 3.7190864086151123047 3.7271733283996582031 3.7415950298309326172 3.7590126991271972656 3.7805233001708984375 3.8017613887786865234 3.8246886730194091797 3.8460676670074462891 3.8703610897064208984 3.8952047824859619141 3.9258081912994384766 3.9588227272033691406 4.0003576278686523438 4.0441622734069824219 4.0969767570495605469 4.1504840850830078125 4.2130670547485351562 4.2747397422790527344 4.3448486328125 4.4116511344909667969 4.4850029945373535156 4.5527482032775878906 4.6247510910034179688 4.68939971923828125 4.7564983367919921875 4.8157153129577636719 4.8759307861328125 4.927921295166015625 4.9792771339416503906 5.0222430229187011719 5.0630307197570800781 5.0954647064208984375 5.1238312721252441406 5.143314361572265625 5.15393829345703125 5.1487517356872558594 5.1162691116333007812 5.0520191192626953125 4.9565296173095703125 4.8603739738464355469 4.7438969612121582031 4.6235318183898925781 4.4927577972412109375 4.3746352195739746094 4.25400543212890625 4.1463899612426757812 4.0363321304321289062 3.9323799610137939453 3.8138737678527832031 3.6892914772033691406 3.5374701023101806641 3.3790454864501953125 3.1993880271911621094 3.0255630016326904297 2.8416364192962646484 2.6741137504577636719 2.5012085437774658203 2.3352186679840087891 2.1459796428680419922 1.9461553096771240234 1.7019635438919067383 1.4366970062255859375 1.1287971735000610352 0.82656246423721313477 0.42650067806243896484 0.030801331624388694763 0 0 0 0 0 0 0 0 0 0 0 0 0 0 0 0 0 0 0 0 0 0 0 0 0 0 0 0 0 0 0 0 0 0 0 0 0 0 0 0 0 0 0 0 0 0 0 0 0 0 0 0 0 0 0 0 0 0 0 0 0 0 0 0 0 0 0 0 0 0 0 0 0 0 0 0 0 0 0 0 0 0 0 0 0 0 0 0 
2.3499333858489990234 2.3328754901885986328 2.3172829151153564453 2.3133392333984375 2.3317363262176513672 2.3464047908782958984 2.3381147384643554688 2.3253688812255859375 2.3432393074035644531 2.4111974239349365234 2.60113525390625 2.8787300586700439453 3.0646991729736328125 3.1644818782806396484 3.2951328754425048828 3.4013142585754394531 3.5343058109283447266 3.6644387245178222656 3.7045350074768066406 3.7295327186584472656 3.8943498134613037109 4.0176997184753417969 4.03594207763671875 3.9717586040496826172 3.7964119911193847656 3.5567135810852050781 3.3712811470031738281 3.4569201469421386719 3.7298030853271484375 4.0539331436157226562 4.1379261016845703125 3.9931752681732177734 4.0985417366027832031 4.2156929969787597656 4.3388829231262207031 4.5183258056640625 4.6901865005493164062 4.9861459732055664062 5.67337799072265625 6.5000033378601074219 6.30161285400390625 5.1809978485107421875 4.0258908271789550781 3.6304538249969482422 3.6074378490447998047 3.5249965190887451172 3.4253535270690917969 3.3554058074951171875 3.1795814037322998047 2.9711170196533203125 2.7351794242858886719 2.5866212844848632812 2.46471405029296875 2.2918348312377929688 2.0980515480041503906 1.9751610755920410156 1.830692291259765625 1.7925961017608642578 1.7618812322616577148 1.7256659269332885742 1.6836298704147338867 1.6385504007339477539 1.5887993574142456055 1.5372270345687866211 1.4815578460693359375 1.4249635934829711914 1.3646875619888305664 1.3041844367980957031 1.2402540445327758789 1.1766037940979003906 1.1096730232238769531 1.0434658527374267578 0.97409951686859130859 0.90586245059967041016 0.83475595712661743164 0.76617079973220825195 0.69837129116058349609 0.63979560136795043945 0.58825784921646118164 0.59242677688598632812 0.65539175271987915039 0.71783483028411865234 0.7824306488037109375 0.84458273649215698242 0.90884184837341308594 0.97050333023071289062 1.0342197418212890625 1.0951943397521972656 1.158162236213684082 1.2182586193084716797 1.2803461551666259766 1.3396111726760864258 1.4010444879531860352 1.4597650766372680664 1.5208476781845092773 1.5793173313140869141 1.640345454216003418 1.6988300085067749023 1.7600793838500976562 1.8188531398773193359 1.8806149959564208984 1.9399617910385131836 2.0025403499603271484 2.0627503395080566406 2.126453399658203125 2.1878180503845214844 2.2529544830322265625 2.3157665729522705078 2.3826456069946289062 2.4471945762634277344 2.5160486698150634766 2.5822317600250244141 2.6524307727813720703 2.7193264961242675781 2.7898311614990234375 2.8564558029174804688 2.9262652397155761719 2.9916982650756835938 3.0598125457763671875 3.1230771541595458984 3.1884524822235107422 3.2485709190368652344 3.31017303466796875 3.3834154605865478516 4.2012691497802734375 4.3307738304138183594 4.3639435768127441406 4.3881506919860839844 4.4065151214599609375 4.4178066253662109375 4.4245805740356445312 4.4270110130310058594 4.4262819290161132812 4.4214920997619628906 4.408870697021484375 4.3867306709289550781 4.3486614227294921875 4.2962312698364257812 4.2214245796203613281 4.1382775306701660156 4.043102264404296875 3.9551279544830322266 3.8699026107788085938 3.8049755096435546875 3.7535991668701171875 3.7208840847015380859 3.6995120048522949219 3.6900854110717773438 3.6886324882507324219 3.6934010982513427734 3.7036921977996826172 3.7171101570129394531 3.7345743179321289062 3.7526638507843017578 3.7732214927673339844 3.7933745384216308594 3.8171496391296386719 3.8420085906982421875 3.8728783130645751953 3.9061214923858642578 3.9476990699768066406 3.9914109706878662109 4.0440936088562011719 4.0976047515869140625 4.1604938507080078125 4.2228417396545410156 4.293987274169921875 4.3616604804992675781 4.4354557991027832031 4.5027241706848144531 4.5728878974914550781 4.6345839500427246094 4.6977081298828125 4.7531499862670898438 4.8099198341369628906 4.8599500656127929688 4.9111337661743164062 4.9557142257690429688 4.9997258186340332031 5.0361533164978027344 5.0695061683654785156 5.093997955322265625 5.1104054450988769531 5.1114788055419921875 5.0879664421081542969 5.0285058021545410156 4.93572235107421875 4.8367738723754882812 4.71887969970703125 4.5978627204895019531 4.4655680656433105469 4.3416562080383300781 4.2132587432861328125 4.10265350341796875 3.9900584220886230469 3.8827903270721435547 3.7587270736694335938 3.6262726783752441406 3.4626865386962890625 3.2903995513916015625 3.0938332080841064453 2.9028925895690917969 2.7003650665283203125 2.5157637596130371094 2.3261866569519042969 2.1468646526336669922 1.9471583366394042969 1.7419378757476806641 1.4979120492935180664 1.2387754917144775391 0.94229471683502197266 0.63837474584579467773 0.11326340585947036743 0 0 0 0 0 0 0 0 0 0 0 0 0 0 0 0 0 0 0 0 0 0 0 0 0 0 0 0 0 0 0 0 0 0 0 0 0 0 0 0 0 0 0 0 0 0 0 0 0 0 0 0 0 0 0 0 0 0 0 0 0 0 0 0 0 0 0 0 0 0 0 0 0 0 0 0 0 0 0 0 0 0 0 0 0 0 0 0 0 
2.3705337047576904297 2.3491666316986083984 2.3311142921447753906 2.3197143077850341797 2.3174004554748535156 2.3194558620452880859 2.3288700580596923828 2.3450555801391601562 2.3884680271148681641 2.5592987537384033203 2.7184693813323974609 2.9859070777893066406 3.1891591548919677734 3.2871673107147216797 3.3856508731842041016 3.4745185375213623047 3.6170423030853271484 3.7236204147338867188 3.7513945102691650391 3.8086633682250976562 3.9363965988159179688 4.0925235748291015625 4.0416212081909179688 3.8662908077239990234 3.7138895988464355469 3.5303876399993896484 3.3609538078308105469 3.5192139148712158203 3.8931131362915039062 4.1342563629150390625 4.1523671150207519531 4.048969268798828125 4.1665091514587402344 4.2462458610534667969 4.3808078765869140625 4.6124925613403320312 4.7546596527099609375 5.0216798782348632812 5.7703428268432617188 6.5340251922607421875 5.8902745246887207031 4.5991473197937011719 3.7315752506256103516 3.5515718460083007812 3.4993340969085693359 3.3980007171630859375 3.3604557514190673828 3.2970337867736816406 3.1006047725677490234 2.8540422916412353516 2.6325321197509765625 2.5129969120025634766 2.3701059818267822266 2.1758027076721191406 2.0351877212524414062 1.875918269157409668 1.7584681510925292969 1.7282037734985351562 1.6966482400894165039 1.6603244543075561523 1.6185536384582519531 1.5740274190902709961 1.5251289606094360352 1.4746537208557128906 1.4203536510467529297 1.3653012514114379883 1.3067901134490966797 1.2481570243835449219 1.1862875223159790039 1.1247621774673461914 1.0601308345794677734 0.99625492095947265625 0.92938172817230224609 0.86364102363586425781 0.79517793655395507812 0.72919416427612304688 0.66406452655792236328 0.60797190666198730469 0.55885016918182373047 0.5641549229621887207 0.6270046234130859375 0.68934744596481323242 0.75388926267623901367 0.816036224365234375 0.88033705949783325195 0.94208353757858276367 1.0059325695037841797 1.0670766830444335938 1.1302629709243774414 1.190608978271484375 1.2529935836791992188 1.3125723600387573242 1.3743556737899780273 1.4334284067153930664 1.4948878288269042969 1.5537207126617431641 1.6151281595230102539 1.6739673614501953125 1.7355661392211914062 1.7946500778198242188 1.8567073345184326172 1.9163010120391845703 1.9790956974029541016 2.0394625663757324219 2.1032736301422119141 2.1646800041198730469 2.2297890186309814453 2.2925004959106445312 2.3591892719268798828 2.4234697818756103516 2.4919459819793701172 2.5576829910278320312 2.6273272037506103516 2.6936216354370117188 2.7634222507476806641 2.8293244838714599609 2.8983168601989746094 2.9629244804382324219 3.0301201343536376953 3.0924770832061767578 3.1568601131439208984 3.2160151004791259766 3.2765781879425048828 3.3482959270477294922 4.1427044868469238281 4.2729191780090332031 4.3117699623107910156 4.3431158065795898438 4.3704214096069335938 4.3906497955322265625 4.4066128730773925781 4.4166064262390136719 4.4219899177551269531 4.4208469390869140625 4.4101347923278808594 4.3882265090942382812 4.3490862846374511719 4.2947149276733398438 4.2171597480773925781 4.1310548782348632812 4.0325751304626464844 3.9416115283966064453 3.8535602092742919922 3.7865386009216308594 3.7334356307983398438 3.6992757320404052734 3.6761407852172851562 3.6645195484161376953 3.6597452163696289062 3.6603996753692626953 3.6656093597412109375 3.6742463111877441406 3.6871540546417236328 3.7021231651306152344 3.7210612297058105469 3.7413201332092285156 3.7664709091186523438 3.7933080196380615234 3.8265368938446044922 3.8617110252380371094 3.9047615528106689453 3.9492921829223632812 4.0024065971374511719 4.0560154914855957031 4.1188158988952636719 4.1809945106506347656 4.2516946792602539062 4.3184895515441894531 4.3905401229858398438 4.4552969932556152344 4.521450042724609375 4.5782556533813476562 4.63543701171875 4.6854906082153320312 4.7373600006103515625 4.7844805717468261719 4.8350210189819335938 4.8812632560729980469 4.928928375244140625 4.9699482917785644531 5.0089693069458007812 5.0389795303344726562 5.0614480972290039062 5.0687236785888671875 5.0538182258605957031 5.0028448104858398438 4.9149050712585449219 4.8121142387390136719 4.6932425498962402344 4.5715003013610839844 4.4340405464172363281 4.3022165298461914062 4.1702542304992675781 4.05770111083984375 3.9426758289337158203 3.8318846225738525391 3.701824188232421875 3.5608875751495361328 3.384693145751953125 3.1976745128631591797 2.9833507537841796875 2.7747046947479248047 2.5533270835876464844 2.3519012928009033203 2.1465320587158203125 1.9552977085113525391 1.7472701072692871094 1.539272308349609375 1.2988429069519042969 1.0495848655700683594 0.7681674957275390625 0.29625266790390014648 0 0 0 0 0 0 0 0 0 0 0 0 0 0 0 0 0 0 0 0 0 0 0 0 0 0 0 0 0 0 0 0 0 0 0 0 0 0 0 0 0 0 0 0 0 0 0 0 0 0 0 0 0 0 0 0 0 0 0 0 0 0 0 0 0 0 0 0 0 0 0 0 0 0 0 0 0 0 0 0 0 0 0 0 0 0 0 0 0 0 
2.3961896896362304688 2.3790895938873291016 2.3626008033752441406 2.3407311439514160156 2.3273074626922607422 2.3405284881591796875 2.3605198860168457031 2.3784267902374267578 2.4671044349670410156 2.6211390495300292969 2.8542621135711669922 3.1061940193176269531 3.2791321277618408203 3.4091227054595947266 3.4940850734710693359 3.5864338874816894531 3.7103304862976074219 3.7744176387786865234 3.7911486625671386719 3.8037736415863037109 3.8674733638763427734 4.0454959869384765625 3.9999012947082519531 3.7797935009002685547 3.5857479572296142578 3.4725430011749267578 3.4138936996459960938 3.6524112224578857422 4.0266671180725097656 4.0796051025390625 4.0018897056579589844 4.0907235145568847656 4.2049951553344726562 4.2575039863586425781 4.408802032470703125 4.6427297592163085938 4.8161101341247558594 5.2124948501586914062 6.125782012939453125 6.42321014404296875 5.2591166496276855469 4.0991559028625488281 3.5401158332824707031 3.4652013778686523438 3.366687774658203125 3.281642913818359375 3.3075516223907470703 3.2335770130157470703 3.0085556507110595703 2.7390987873077392578 2.5530855655670166016 2.4417269229888916016 2.2603821754455566406 2.0867397785186767578 1.9593459367752075195 1.7786688804626464844 1.6998894214630126953 1.6707849502563476562 1.6369116306304931641 1.5996531248092651367 1.557690739631652832 1.5134656429290771484 1.4652408361434936523 1.415720820426940918 1.3626611232757568359 1.3090369701385498047 1.2521841526031494141 1.1953271627426147461 1.1354289054870605469 1.0759471654891967773 1.0135349035263061523 0.95191460847854614258 0.88745838403701782227 0.82414132356643676758 0.75824737548828125 0.69479459524154663086 0.63226491212844848633 0.57859283685684204102 0.53182852268218994141 0.53823447227478027344 0.60095602273941040039 0.66318631172180175781 0.72766125202178955078 0.78979122638702392578 0.85412186384201049805 0.91594266891479492188 0.97991359233856201172 1.0412185192108154297 1.104615330696105957 1.1652046442031860352 1.2278802394866943359 1.2877690792083740234 1.3498992919921875 1.409320831298828125 1.4711537361145019531 1.5303472280502319336 1.5921286344528198242 1.6513142585754394531 1.7132556438446044922 1.7726439237594604492 1.8349875211715698242 1.8948175907135009766 1.9578146934509277344 2.0183236598968505859 2.0822234153747558594 2.143650054931640625 2.2087056636810302734 2.2712879180908203125 2.3377521038055419922 2.4017276763916015625 2.4697825908660888672 2.5350272655487060547 2.6040661334991455078 2.6697080135345458984 2.7387492656707763672 2.8038768768310546875 2.8719923496246337891 2.9357182979583740234 3.0019364356994628906 3.0633313655853271484 3.1266667842864990234 3.1848089694976806641 3.2442827224731445312 3.3144612312316894531 4.0864419937133789062 4.2170662879943847656 4.2614421844482421875 4.3002233505249023438 4.3371682167053222656 4.3671751022338867188 4.3932142257690429688 4.4114155769348144531 4.4232134819030761719 4.4255976676940917969 4.4163498878479003906 4.3940806388854980469 4.3531880378723144531 4.2963118553161621094 4.2155847549438476562 4.126293182373046875 4.0244030952453613281 3.9304459095001220703 3.8396215438842773438 3.7705729007720947266 3.7157883644104003906 3.6801700592041015625 3.6551623344421386719 3.6411206722259521484 3.6326107978820800781 3.6286108493804931641 3.6280953884124755859 3.6314244270324707031 3.6394286155700683594 3.6512875556945800781 3.6690931320190429688 3.6903314590454101562 3.7181024551391601562 3.7482080459594726562 3.7851693630218505859 3.8233897686004638672 3.8688485622406005859 3.9148366451263427734 3.9688930511474609375 4.0229668617248535156 4.0860309600830078125 4.1483502388000488281 4.2189040184020996094 4.2849092483520507812 4.3549318313598632812 4.416309356689453125 4.4768233299255371094 4.5266866683959960938 4.5754895210266113281 4.6180148124694824219 4.6632390022277832031 4.7064485549926757812 4.7558946609497070312 4.8037419319152832031 4.8552045822143554688 4.9010138511657714844 4.9458823204040527344 4.9814596176147460938 5.0098123550415039062 5.0228252410888671875 5.0155649185180664062 4.9756369590759277344 4.8938689231872558594 4.7882065773010253906 4.6683225631713867188 4.5428595542907714844 4.3970198631286621094 4.2615251541137695312 4.127346038818359375 4.0130109786987304688 3.8954780101776123047 3.7809689044952392578 3.6446149349212646484 3.4948301315307617188 3.3055529594421386719 3.1033456325531005859 2.8708844184875488281 2.6443817615509033203 2.404327392578125 2.1866469383239746094 1.9665673971176147461 1.7648459672927856445 1.5504006147384643555 1.3417435884475708008 1.1074291467666625977 0.87037569284439086914 0.55358469486236572266 0.060322225093841552734 0 0 0 0 0 0 0 0 0 0 0 0 0 0 0 0 0 0 0 0 0 0 0 0 0 0 0 0 0 0 0 0 0 0 0 0 0 0 0 0 0 0 0 0 0 0 0 0 0 0 0 0 0 0 0 0 0 0 0 0 0 0 0 0 0 0 0 0 0 0 0 0 0 0 0 0 0 0 0 0 0 0 0 0 0 0 0 0 0 0 
2.42301177978515625 2.409160614013671875 2.3976843357086181641 2.3733859062194824219 2.3486540317535400391 2.3789143562316894531 2.4534859657287597656 2.4753088951110839844 2.590435028076171875 2.6986641883850097656 3.0006058216094970703 3.2399609088897705078 3.3755390644073486328 3.4960894584655761719 3.5864992141723632812 3.7000508308410644531 3.7476694583892822266 3.7718718051910400391 3.8155481815338134766 3.8474106788635253906 3.8471021652221679688 3.9501688480377197266 3.9671242237091064453 3.7777652740478515625 3.5736382007598876953 3.4578187465667724609 3.4994015693664550781 3.82009124755859375 3.9980356693267822266 3.9272017478942871094 4.0416860580444335938 4.15985870361328125 4.1916794776916503906 4.2564721107482910156 4.4478487968444824219 4.6605219841003417969 5.0039920806884765625 5.5938582420349121094 6.3150930404663085938 5.9645094871520996094 4.6452989578247070312 3.7063291072845458984 3.4276590347290039062 3.3570046424865722656 3.2277228832244873047 3.1910412311553955078 3.2630791664123535156 3.1599168777465820312 2.891414642333984375 2.6334252357482910156 2.4841287136077880859 2.3449161052703857422 2.15471649169921875 2.0248956680297851562 1.8519006967544555664 1.7016711235046386719 1.6499582529067993164 1.6162947416305541992 1.5799831151962280273 1.5415511131286621094 1.4991829395294189453 1.4551057815551757812 1.4074405431747436523 1.3587921857833862305 1.3069036006927490234 1.2546520233154296875 1.19940948486328125 1.1442892551422119141 1.0863294601440429688 1.0288641452789306641 0.96864801645278930664 0.90926414728164672852 0.84720712900161743164 0.78629910945892333984 0.72296106815338134766 0.66202843189239501953 0.60208964347839355469 0.55083256959915161133 0.50642341375350952148 0.51392143964767456055 0.57649582624435424805 0.63859641551971435547 0.70298725366592407227 0.76508510112762451172 0.82943159341812133789 0.89131414890289306641 0.95539647340774536133 1.0168539285659790039 1.0804545879364013672 1.1412833929061889648 1.2042487859725952148 1.2644475698471069336 1.3269259929656982422 1.3866990804672241211 1.4489083290100097656 1.5084646940231323242 1.5706183910369873047 1.63014984130859375 1.6924338340759277344 1.7521241903305053711 1.8147500753402709961 1.8748093843460083008 1.9379978179931640625 1.9986346960067749023 2.0626041889190673828 2.1240274906158447266 2.1889998912811279297 2.2514193058013916016 2.3176171779632568359 2.3812406063079833984 2.4488189220428466797 2.5135128498077392578 2.5818779468536376953 2.6467988491058349609 2.7150080204010009766 2.7792863845825195312 2.84644317626953125 2.9092087745666503906 2.9743661880493164062 3.0347208976745605469 3.096927642822265625 3.1539824008941650391 3.212291717529296875 3.2809231281280517578 4.0330462455749511719 4.1643581390380859375 4.2143039703369140625 4.2606616020202636719 4.3074650764465332031 4.3474507331848144531 4.3836894035339355469 4.4100527763366699219 4.4279756546020507812 4.4333891868591308594 4.42493438720703125 4.4016399383544921875 4.3583598136901855469 4.2985520362854003906 4.2144460678100585938 4.1219820976257324219 4.0168523788452148438 3.9201414585113525391 3.8268175125122070312 3.7559511661529541016 3.6996243000030517578 3.6625821590423583984 3.6356246471405029297 3.6189763545989990234 3.6064009666442871094 3.5973315238952636719 3.5905976295471191406 3.5881898403167724609 3.59095001220703125 3.5995745658874511719 3.6163930892944335938 3.6389966011047363281 3.6699919700622558594 3.7040205001831054688 3.7454323768615722656 3.7872960567474365234 3.8356790542602539062 3.8834917545318603516 3.9387996196746826172 3.9935715198516845703 4.0571298599243164062 4.1198143959045410156 4.190509796142578125 4.2560563087463378906 4.3245177268981933594 4.3830876350402832031 4.4386816024780273438 4.4822473526000976562 4.5230822563171386719 4.5579609870910644531 4.5956091880798339844 4.6333832740783691406 4.67969512939453125 4.72743988037109375 4.7813601493835449219 4.8312425613403320312 4.8815655708312988281 4.92247772216796875 4.9563088417053222656 4.9744267463684082031 4.9737482070922851562 4.9456009864807128906 4.8692250251770019531 4.7654972076416015625 4.6422734260559082031 4.5089039802551269531 4.3586215972900390625 4.2205901145935058594 4.0842051506042480469 3.9679400920867919922 3.8476827144622802734 3.7291936874389648438 3.5861754417419433594 3.427089691162109375 3.2241194248199462891 3.0060918331146240234 2.7548670768737792969 2.5100641250610351562 2.2511322498321533203 2.0173580646514892578 1.7831473350524902344 1.5718244314193725586 1.3521940708160400391 1.1442648172378540039 0.91766124963760375977 0.69391596317291259766 0.17272453010082244873 0 0 0 0 0 0 0 0 0 0 0 0 0 0 0 0 0 0 0 0 0 0 0 0 0 0 0 0 0 0 0 0 0 0 0 0 0 0 0 0 0 0 0 0 0 0 0 0 0 0 0 0 0 0 0 0 0 0 0 0 0 0 0 0 0 0 0 0 0 0 0 0 0 0 0 0 0 0 0 0 0 0 0 0 0 0 0 0 0 0 0 
